/* XPM */
static char *_ef57fc83f1d43cc88d0db4374183cf78cSUHYXYgUUhWfyg[] = {
/* columns rows colors chars-per-pixel */
"512 62 3 1 ",
"  c None",
". c gray85",
"X c white",
/* pixels */
"                                                                                                                                                                                                                                                                                                                                                                                                                                                                                                                                ",
"                                                                                                                                                                                                                                                                                                                                                                                                                                                                                                                                ",
"                                                                                                                                                                                                                                                                                                                                                                                                                                                                                                                                ",
"                                                                                                                                                                                                                                                                                                                                                                                                                                                                                                                                ",
"                                                                                                                                                                                                                                                                                                                                                                                                                                                                                                                                ",
"                                                                                                                                                                                                                                              .                                                                                                                                                                                                                                                                                 ",
"                                                                                                                                                                                                                                            ...                                                               .                                                               .                                                                                                                                                 ",
"                                                                                                                                                                                                                                          ..XX.                                                             ...                                                                                                                                                                                                                 ",
"                                                                                                                                                                         ...                                                             .XXX.                                                              .                                                                                                                                                                                                                   ",
"                                                                                                                                                                       .. ..                                                            .XXX.                                                              ..                                                                                                                                                                                                                   ",
"                                                                                                                                                                      .XX..                                                           ...XXX.                                                             .                                                                                                                                                                                                                     ",
"                                                                                                                                                                    ..XXXX.                                                         ..   .X.                                                               .                                                               .                                                                                                                                                    ",
"                                                                                                                                                                   .XXXXXX.                                                        .     .XX.                                                              .                                                               .                                                                                                                                                    ",
"                                                                                                                                                                  .XXXXXX.                                                        ..     .X.                                                              ..                                                               .                                                                                                                                                    ",
"                                ..                                                                   .                                                           .XXXXXXX.                                                        .     .XXX.                                                             .                                                                                                                                                                                                                     ",
"                                 .                                                                 ..                                                            .XXXXXX.                                                         .     .XXX.                                                             .                                                                                                                                                                                                                     ",
"                                 .                                                                 .                                                            .XXXXXX. .                            ...                         ..   .XXX.                           ..                                 .                            .                                                                                                                                                                                        ",
"                               ...                                                                                                                             .XXXXXXXX.X.                            .X.                        .X.   .XX.                            .                                                                                                                                                                                                                                                       ",
"                               .XX.                                                                                                                             .XXXXXXXXXX.                           .XX.. . ..        ..        .........                            ...               .                                                               .                                                                                                                                                                     ",
"                              ..XX.                                                          ......                                      ..        ....        .XXXXXXXXXXX.                            .XXX.X.XX.... .  .X.         ..    .                              . ...           .                                                 ...           .                                                                                                                                                                     ",
"                              . .XX.                                                              .                                      .....    .XXXX..... ..XXXXXXXXXXXX.                            .XXXXXXXXXX.   ..XX.         .                                     .  ....        .                                                                                                                                                                                                                                     ",
"                             . .XX..                                                                .  .                                 . .XX.. .XXXXXXXXXX.XXXXXXXXXXXXXX.                             .XX...XXXX.     .XX.       ..     .                                              . .                                                                                                                                                                                                                                   ",
"                            .X.XX. .                                                        ..         .                                  .XXXXX. .XXXXXXXXXXXXXXXXXXXXXXX.                               ..   ..X..     .XX.       .     .                                               .                                                                                                                                                                                                                                     ",
"                            .XXXXX. .                                                 ...   .      .. ..                                  .XXXXXX.XXXXXXXXXXXXXXXXXXXXXXXX.                                .     . .    .XXX.     .    .  .                                              .                                                                                                                                                                                                                                      ",
"                           .XX..XXX.X.                                                  ..  ..     .  .                                    .XXXXXXXXXXXXXXXXXXXXXXXXXXXXXX.                                .       ..    .X.X...   ....X..X..                                                          .                                                                                                                                                                                                                        ",
"                         ..XX.  .XXXX.                                         .            ..   ..                                         .XXXXXXXXXXXXXXXXXXXXXXXXXXXXX.                                 .      ....  .. ..       .XXXXXX.                                                           .....                                                              ..                                                                                                                                                   ",
"                        .XXX.....XX.XX.                                         .     . .    ......                                         .XXXXXXXXXXXXXXXXXXXXXXXXXXXXX.                                 .     ..  .. .  ..        .XXX..                                                                                                                                                                                                                                                                                    ",
"                     ... .X.     .. .XX..                                       ..      ..    ..     ....                                    .XXXXXXXXXXXXXXXXXXXXXXXXXXX.                                   ..  .X.     .  ..    ....X...                                                               .                                                                                                                                                                                                                      ",
"                   ..X. .XXX.       ..XXX.                                          ..    ..        ... .  .                                  .XXXXXXXXXXXXXXXXXXXXXXXXXXX.                                   .....     .   ...   .....                                                                                                                                                                                                                                                                                         ",
"               ....XXXX.XXXX.       . .X. ..                                        .     ..       ..      .                                   ..XXXXXXXXXXXXXX..XXXXXXXXX.                                                   . ...   .                                                                                                                                                                                                                                                                                         ",
"               .  .XX.XXXX..        . .XX. ...                                      .      .       ..      .                                     .X.XXXXXXXXXX.  .XXXXXXXXX. .                                                .       .                                                                                                                                                                                                                                                                                         ",
"                  ... .XX. .        ..XXXX.XX.  .                                   .      ..       .      .                                      . .XXXXXXXXX.  .XXXXXXXXXX.X.                                          .       .                                                                                                                                                                                                                                                                                              ",
"                    .. .X. .       .XXXX.XXXX....                                   .      ..       ..     .                                         .XXXXXXXXX..XXXXXXXXXXXXXX..                                        .   ... .                                                                                                                                                                                                                                                                                              ",
"                      .XXX..       .XXX. .X..                                       .  . ...        ..    ..                                         .XXXXXXXXXXXXXXXXXXXXXXXXXXX.                                       .....   ...   .     .....                                                                                                                                                                                                                                                                              ",
"                       ..XX. ..     .X. ...                                            ....     ..    ..      ..                                      .XXXXXXXXXXXXXXXXXXXXXXXXXXX.                                   ...X....    ..  .     .X.  ..                                   .                                                                                                                                                                                                                                         ",
"                         .XX.XX.....XXX.                                                     ......    . .     .                                     .XXXXXXXXXXXXXXXXXXXXXXXXXXXXX.                                ..XXX.        ..  . ..  ..     .                                                                                                                                                                                                                                                                            ",
"                          .XXXX.  .XX..                                                      ..   ..            .                                    .XXXXXXXXXXXXXXXXXXXXXXXXXXXXX.                               .XXXXXX.       .. ..  ....      .                               .....                                                           ..                                                                                                                                                                           ",
"                          .X.XXX..XX.                                                    .  .     ..  ..                                             .XXXXXXXXXXXXXXXXXXXXXXXXXXXXXX.                              ..X..X....   ...X.X.    ..       .                                   .                                                                                                                                                                                                                                       ",
"                           . .XXXXX.                                                    .. ..      .   ...                                           .XXXXXXXXXXXXXXXXXXXXXXXX.XXXXXX.                               .  .    .     .XXX.    . .     .                                                 .                                                                                                                                                                                                                         ",
"                            . .XX.X.                                                    .         ..                                                 .XXXXXXXXXXXXXXXXXXXXXXX. .XXXXX.                               .     .       .XX.     ..X..   ..                                               .                                                                                                                                                                                                                          ",
"                            ..XX. .                                                     .  .                                                        .XXXXXXXXXXXXXX.XXXXXXXXXX. ..XX. .                             .     ..       .XX.     .XXXX...XX.                                            . .                                                                                                                                                                                                                          ",
"                            .XX. .                                                           .                                                      .XXXXXXXXXXXX.. .....XXXX.    .....                                   .         .XX..   .XXXXXXXXXX.                                             .        ....  .                                                                                                                                                                                                           ",
"                             .XX..                                                           ......                                                 .XXXXXXXXXXX.        ....        ..                             .    ..         .X.  . ....XX.X.XXX.                                             .           ... .                                               .           ...                                                                                                                                            ",
"                             .XX.                                                                                                                   .XXXXXXXXXX.                                                    .........        ..        .. . ..XX.                                            .               ...                                             .                                                                                                                                                          ",
"                              ...                                                                                                                    .X.XXXXXXXX.                                                   .XX.   .X.                        .X.                                                              .                                                                                                                                                                                                        ",
"                              .                                                             .                                                         . .XXXXXX.                                                    .XXX.   ..                         ...                           .                                 ..                                                               .                                                                                                                                       ",
"                              .                                                            ..                                                          .XXXXXX.                                                    .XXX.     .                                                       .                                                                                                                                                                                                                                          ",
"                              ..                                                          .                                                           .XXXXXXX.                                                    .XXX.     .                                                       .                                                                                                                                                                                                                                          ",
"                                                                                                                                                      .XXXXXX.                                                      .X.     ..                                                      ..                                                              .                                                                                                                                                                           ",
"                                                                                                                                                     .XXXXXX.                                                      .XX.     .                                                       .                                                               .                                                                                                                                                                           ",
"                                                                                                                                                     .XXXX..                                                        .X.   ..                                                        .                                                               .                                                                                                                                                                           ",
"                                                                                                                                                     ..XX.                                                         .XXX...                                                           .                                                                                                                                                                                                                                          ",
"                                                                                                                                                    .. ..                                                          .XXX.                                                           ..                                                                                                                                                                                                                                           ",
"                                                                                                                                                    ...                                                           .XXX.                                                            .                                                                                                                                                                                                                                            ",
"                                                                                                                                                                                                                 .XX..                                                           ...                                                                                                                                                                                                                                            ",
"                                                                                                                                                                                                                 ...                                                             .                                                               .                                                                                                                                                                              ",
"                                                                                                                                                                                                                 .                                                                                                                                                                                                                                                                                                              ",
"                                                                                                                                                                                                                                                                                                                                                                                                                                                                                                                                ",
"                                                                                                                                                                                                                                                                                                                                                                                                                                                                                                                                ",
"                                                                                                                                                                                                                                                                                                                                                                                                                                                                                                                                ",
"                                                                                                                                                                                                                                                                                                                                                                                                                                                                                                                                ",
"                                                                                                                                                                                                                                                                                                                                                                                                                                                                                                                                "
};
