/* XPM */
static char *_5834e1293a84a05fd419e48c26081448ThzdoXCyLrnwUWb[] = {
/* columns rows colors chars-per-pixel */
"640 345 256 2 ",
"   c #040403",
".  c #0A0402",
"X  c #050806",
"o  c #0B0A05",
"O  c #040609",
"+  c #09070A",
"@  c #050A0B",
"#  c #0B0C0B",
"$  c #130101",
"%  c #1B0301",
"&  c #110E04",
"*  c #110E0A",
"=  c #1C0C06",
"-  c #0F1106",
";  c #0E100D",
":  c #05100E",
">  c #141205",
",  c #1A1504",
"<  c #1B1905",
"1  c #13130C",
"2  c #19160C",
"3  c #16190E",
"4  c #1C1A0C",
"5  c #161A06",
"6  c #050D12",
"7  c #0A0E12",
"8  c #030E1A",
"9  c #0A0E19",
"0  c #050611",
"q  c #120E13",
"w  c #061115",
"e  c #0C1214",
"r  c #0E1916",
"t  c #06131B",
"y  c #0C151B",
"u  c #0D191E",
"i  c #06191D",
"p  c #131513",
"a  c #181611",
"s  c #151915",
"d  c #1C1B13",
"f  c #12151A",
"g  c #131A1C",
"h  c #1B1D1A",
"j  c #1A151B",
"k  c #220502",
"l  c #240B02",
"z  c #2A0C02",
"x  c #250D07",
"c  c #251403",
"v  c #2A1403",
"b  c #241B04",
"n  c #291904",
"m  c #211D0C",
"M  c #2B1B0A",
"N  c #27140A",
"B  c #211E12",
"V  c #211E1B",
"C  c #2C1A15",
"Z  c #341913",
"A  c #1E2114",
"S  c #14211D",
"D  c #1D211C",
"F  c #1E281B",
"G  c #1D210E",
"H  c #242205",
"J  c #24220D",
"K  c #2A250C",
"L  c #2D2A0D",
"P  c #292807",
"I  c #312D0D",
"U  c #34320E",
"Y  c #242314",
"T  c #292614",
"R  c #2C2A14",
"E  c #24241B",
"W  c #29261A",
"Q  c #25291C",
"!  c #2C2B1B",
"~  c #262814",
"^  c #322D14",
"/  c #322E1B",
"(  c #342418",
")  c #2E311D",
"_  c #2E3015",
"`  c #343214",
"'  c #393515",
"]  c #3C3A15",
"[  c #34321B",
"{  c #3A351B",
"}  c #3D3A1C",
"|  c #353A17",
" . c #2E320B",
".. c #0B1621",
"X. c #061A23",
"o. c #0D1B23",
"O. c #0C1E2A",
"+. c #061622",
"@. c #131622",
"#. c #121D24",
"$. c #1B1C24",
"%. c #121E29",
"&. c #1F1F2B",
"*. c #1F1F2C",
"=. c #191526",
"-. c #1D1D32",
";. c #141E30",
":. c #0D182D",
">. c #221E25",
",. c #221F2E",
"<. c #2A1C26",
"1. c #221F31",
"2. c #231F39",
"3. c #361F22",
"4. c #0D2125",
"5. c #0E222A",
"6. c #0E292D",
"7. c #132125",
"8. c #1B2224",
"9. c #13232B",
"0. c #1D222C",
"q. c #15292E",
"w. c #1A292E",
"e. c #1A2926",
"r. c #0E2431",
"t. c #0E2A34",
"y. c #142532",
"u. c #1C2433",
"i. c #152933",
"p. c #1A2B34",
"a. c #1D253A",
"s. c #152C3A",
"d. c #1B2D3A",
"f. c #152739",
"g. c #1C313C",
"h. c #183138",
"j. c #0E313A",
"k. c #232324",
"l. c #292523",
"z. c #242A21",
"x. c #2C2C22",
"c. c #20212C",
"v. c #21202D",
"b. c #20212C",
"n. c #29252C",
"m. c #2C2A2C",
"M. c #23292C",
"N. c #322E23",
"B. c #342828",
"V. c #2E3122",
"C. c #293328",
"Z. c #343322",
"A. c #393623",
"S. c #3C3B23",
"D. c #34342A",
"F. c #3C3C2B",
"G. c #373828",
"H. c #222233",
"J. c #282536",
"K. c #222B35",
"L. c #2B2935",
"P. c #25243B",
"I. c #28263B",
"U. c #242A3C",
"Y. c #29283E",
"T. c #322C3C",
"R. c #21333D",
"E. c #273538",
"W. c #373636",
"Q. c #423D1C",
"!. c #423E16",
"~. c #4C2719",
"^. c #423E23",
"/. c #413E2B",
"(. c #45362E",
"). c #5D3226",
"_. c #3E4129",
"`. c #3A4133",
"'. c #3F401C",
"]. c #44421D",
"[. c #49451E",
"{. c #49481C",
"}. c #514E1F",
"|. c #444223",
" X c #4A4523",
".X c #4C4A24",
"XX c #44432B",
"oX c #4A452A",
"OX c #4D4B2B",
"+X c #454929",
"@X c #514D25",
"#X c #514D2B",
"$X c #54522C",
"%X c #59552C",
"&X c #5D5B2C",
"*X c #545326",
"=X c #4C4B33",
"-X c #474635",
";X c #514E32",
":X c #524D38",
">X c #4C5336",
",X c #545333",
"<X c #5A5633",
"1X c #5C5A33",
"2X c #59583A",
"3X c #4E5028",
"4X c #615D2D",
"5X c #615E37",
"6X c #77493B",
"7X c #5D6536",
"8X c #65652E",
"9X c #646333",
"0X c #64633B",
"qX c #696937",
"wX c #6E7138",
"eX c #1A2E41",
"rX c #172E41",
"tX c #1C3343",
"yX c #1C3647",
"uX c #252541",
"iX c #282540",
"pX c #2C2A41",
"aX c #322D44",
"sX c #223442",
"dX c #263A47",
"fX c #343343",
"gX c #39384A",
"hX c #3B3953",
"jX c #423C4D",
"kX c #2C474E",
"lX c #595944",
"zX c #4A4858",
"xX c #4D4E4E",
"cX c #5B6346",
"vX c #696845",
"bX c #757546",
"nX c #717152",
"mX c #595766",
"MX c #59556B",
"NX c #635D6F",
"BX c #696778",
"VX c #756E77",
"CX c #655A51",
"ZX c #A27465",
"AX c #91835E",
"SX c #787787",
"DX c #736E85",
"FX c #837B8C",
"GX c #8A8796",
"HX c #9997A8",
"JX c #ACA7B7",
"KX c #A09EAE",
"LX c #B9B5C6",
"PX c #D7D1E0",
"IX c #C4B5C8",
"UX c #7E8271",
/* pixels */
"c.c.c.c.c.c.c.c.c.c.c.c.c.c.c.c.c.c.c.c.c.c.c.c.c.c.c.c.c.c.c.c.c.c.c.c.c.c.c.c.c.c.c.c.c.c.c.c.c.c.c.c.c.c.c.c.c.c.c.c.c.c.c.c.c.c.c.c.c.c.c.c.c.c.c.c.c.c.c.c.c.c.c.c.c.c.c.c.c.c.c.c.c.c.c.c.c.c.c.c.c.c.c.c.c.c.c.c.c.c.c.c.c.c.c.c.c.c.c.c.c.c.c.c.c.c.c.c.c.c.c.c.c.c.c.c.c.c.c.c.c.c.c.c.c.c.c.c.c.c.c.c.c.c.c.c.c.c.c.c.c.c.c.c.c.c.c.c.c.c.c.c.c.c.c.c.c.c.c.c.c.c.c.c.c.c.c.c.c.c.c.c.c.c.c.c.c.c.c.c.c.c.c.c.c.c.c.c.c.c.c.c.c.c.c.c.c.c.c.c.c.c.c.c.&.&.&.&.&.&.&.&.&.&.&.&.&.&.&.&.&.&.&.&.&.&.&.&.&.&.&.&.&.&.&.&.&.&.&.&.&.&.&.&.&.&.&.&.&.&.&.&.&.&.&.&.&.&.&.&.&.&.&.&.&.&.&.&.&.&.&.&.&.&.&.&.&.&.&.&.&.&.&.&.&.&.&.&.,.,.,.&.&.0.8.>.>.>.,.,.,.,.,.,.,.,.>.>.h >.k.l.V W N.A.[ ! ! R R ! ! ! ! ! ! ! ! T Y 4 4 4 2 2 & > > > 2 2 2 2 m Y T ! ! T T T ! ! ! ! ! ! ! ! Y Y d 4 2 5 5 5 2 2 2 2 Y Y Y Y B d 4 5 2 2 2 2 4 4 B B E E E E Y Y Y E h h f a * + + O       X         X X + + + + + + 7 q j $.c.c.,.,.,.&.&.$.,.,.,.,.&.&.&.&.&.&.&.&.&.&.&.&.&.&.&.&.&.&.&.&.&.&.&.&.*.*.c.c.c.c.c.c.c.c.c.c.c.c.c.c.c.c.c.c.c.c.c.c.c.c.c.c.c.c.c.c.c.c.c.c.c.c.c.c.c.c.c.c.c.c.c.c.c.c.c.c.c.c.c.c.c.c.c.c.c.c.c.c.c.c.c.c.c.c.c.c.c.c.c.c.c.c.c.c.c.c.c.c.c.c.c.c.c.c.c.c.c.c.c.c.c.c.c.c.c.c.c.c.c.c.c.c.c.c.c.c.c.c.c.c.c.c.c.c.c.c.c.c.c.c.c.c.c.c.c.c.c.c.c.c.c.c.c.c.c.c.c.c.c.c.c.c.c.c.c.c.c.c.c.c.c.c.c.c.",
"c.c.c.c.c.c.c.c.c.c.c.c.c.c.c.c.c.c.c.c.c.c.c.c.c.c.c.c.c.c.c.c.c.c.c.c.c.c.c.c.c.c.c.c.c.c.c.c.c.c.c.c.c.c.c.c.c.c.c.c.c.c.c.c.c.c.c.c.c.c.c.c.c.c.c.c.c.c.c.c.c.c.c.c.c.c.c.c.c.c.c.c.c.c.c.c.c.c.c.c.c.c.c.c.c.c.c.c.c.c.c.c.c.c.c.c.c.c.c.c.c.c.c.c.c.c.c.c.c.c.c.c.c.c.c.c.c.c.c.c.,.,.c.c.c.c.c.c.c.c.c.c.c.c.c.c.c.c.c.c.c.c.c.c.c.c.c.c.c.c.c.c.c.c.c.c.c.c.c.c.c.c.c.c.c.c.c.c.c.c.c.c.c.c.c.c.c.c.c.c.c.c.c.c.c.c.c.c.c.c.c.c.c.c.c.c.c.c.c.c.c.c.c.c.&.&.&.&.&.&.&.&.&.&.&.&.&.&.&.&.&.&.&.&.&.&.&.&.&.&.&.&.&.&.&.&.&.&.&.&.&.&.&.&.&.&.&.&.&.&.&.&.&.&.&.&.&.&.&.&.&.&.&.&.&.&.&.&.&.&.&.&.&.&.&.&.&.&.&.&.&.&.&.&.&.&.&.&.,.,.,.,.0.0.8.8.>.>.,.,.,.,.,.,.,.>.>.V h h k.E D.D.Z.Z.Z.[ / / / [ [ [ [ [ [ [ / ! Y Y 4 4 2 > & & > 2 4 4 m B T ! [ Z.) _ _ _ ! ! ) ) ! ~ Y Y A d 2 2 2 2 2 2 2 2 2 2 d 4 4 4 4 d 2 2 2 2 2 2 2 2 d B B V B V E E E E h j f a * + + .     X                         O O @ 7 q f j $.&.&.,.c.,.c.,.,.,.,.,.,.,.,.,.,.,.&.&.&.&.&.&.&.&.&.&.&.&.&.&.&.&.c.c.c.c.c.c.c.c.c.c.c.c.c.c.c.c.c.c.c.c.c.c.c.c.c.c.c.c.c.c.c.c.c.c.c.c.c.c.c.c.c.c.c.c.c.c.c.c.c.c.c.c.c.c.c.c.c.c.c.c.c.c.c.c.c.c.c.c.c.c.c.c.c.c.c.c.c.c.c.c.c.c.c.c.c.c.c.c.c.c.c.c.c.c.c.c.c.c.c.c.c.c.c.c.c.c.c.c.c.c.c.c.c.c.c.c.c.c.c.c.c.c.c.c.c.c.c.c.c.c.c.c.c.c.c.c.c.c.c.c.c.c.c.c.c.c.c.c.c.c.c.c.c.c.c.c.c.c.c.c.",
"c.c.c.c.c.c.c.c.c.c.c.c.c.c.c.c.c.c.c.c.c.c.c.c.c.c.c.c.c.c.c.c.c.c.c.c.c.c.c.c.c.c.c.c.c.c.c.c.c.c.c.c.c.c.c.c.c.c.c.c.c.c.c.c.c.c.c.c.c.c.c.c.c.c.c.c.c.c.c.c.c.c.c.c.c.c.c.c.c.c.c.c.c.c.c.c.c.c.c.c.c.c.c.c.c.c.c.c.c.c.c.c.c.c.c.c.c.c.c.c.c.c.c.c.c.c.c.c.c.c.c.c.c.c.c.c.c.c.c.c.c.,.c.c.c.c.c.c.c.c.c.c.c.c.c.c.c.c.c.c.c.c.c.c.c.c.c.c.c.c.c.c.c.c.c.c.c.c.c.c.c.c.c.c.c.c.c.c.c.c.c.c.c.c.c.c.c.c.c.c.c.c.c.c.c.c.c.c.c.c.c.c.c.c.c.c.c.c.c.c.c.c.c.c.&.&.&.&.&.&.&.&.&.&.&.&.&.&.&.&.&.&.&.&.&.&.&.&.&.&.&.&.&.&.&.&.&.&.&.&.&.&.&.&.&.&.&.&.&.&.&.&.&.&.&.&.&.&.&.&.&.&.&.&.&.&.&.&.&.&.&.&.&.&.&.&.&.&.&.,.&.&.&.&.&.&.&.&.&.&.0.0.0.0.8.8.8.8.>.k.,.,.>.>.>.>.k.E E l.l.x.F.G.Z.! Z.[ [ [ [ [ Z.Z.Z.Z.Z.Z./ ! Y Y 4 , > > > > 2 5 B Y ~ ! [ Z.Z.Z.[ ) ! ! T ! ! ! Y d d 4 d a 2 2 1 1 1 1 1 3 2 2 a 2 2 2 2 2 3 2 * 1 * 1 2 1 a d V V d V E E E E h h s a * + + +     O O O   O O                   O O O O + 7 j j h $.k.c.c.c.c.c.c.c.c.c.c.c.c.c.c.c.c.c.c.c.c.c.c.c.c.c.c.c.c.c.c.c.c.c.c.c.c.c.c.c.c.c.c.c.c.c.c.c.c.c.c.c.c.c.c.c.c.c.c.c.c.c.c.c.c.c.c.c.c.c.c.c.c.c.c.c.c.c.c.c.c.c.c.c.c.c.c.c.c.c.c.c.c.c.c.c.c.c.c.c.c.c.c.c.c.c.c.c.c.c.c.c.c.c.c.c.c.c.c.c.c.c.c.c.c.c.c.c.c.c.c.c.c.c.c.c.c.c.c.c.c.c.c.c.c.c.c.c.c.c.c.c.c.c.c.c.c.c.c.c.c.c.c.c.c.c.c.c.c.c.c.c.c.c.c.c.c.c.c.c.c.c.c.c.c.c.c.c.c.",
"c.c.c.c.c.c.c.c.c.c.c.c.c.c.c.c.c.c.c.c.c.c.c.c.c.c.c.c.c.c.c.c.c.c.c.c.c.c.c.c.c.c.c.c.c.c.c.c.c.c.c.c.c.c.c.c.c.c.c.c.c.c.c.c.c.c.c.c.c.c.c.c.c.c.c.c.c.c.c.c.c.c.c.c.c.c.c.c.c.c.c.c.c.c.c.c.c.c.c.c.c.c.c.c.c.c.c.c.c.c.c.c.c.c.c.c.c.c.c.c.c.&.&.&.c.c.c.c.c.c.c.c.c.c.c.c.c.c.c.c.c.c.c.c.c.c.c.c.c.c.c.c.c.c.c.c.c.c.c.c.c.c.c.c.c.c.c.c.c.c.c.c.c.c.c.c.c.c.c.c.c.c.c.c.c.c.c.c.c.c.c.c.c.c.c.c.c.c.c.c.c.c.c.c.c.c.c.c.c.c.c.c.c.c.c.c.c.c.c.c.c.c.c.c.&.&.&.&.&.&.&.&.&.&.&.&.&.&.&.&.&.&.&.&.&.&.&.&.&.&.&.&.&.&.&.&.&.&.&.&.&.&.&.&.&.&.&.&.&.&.&.&.&.&.&.&.&.&.&.&.&.&.&.&.&.&.&.&.&.&.&.&.&.&.&.&.&.&.&.,.&.&.&.&.&.&.&.&.&.&.0.0.0.0.8.8.8.8.8.k.k.k.k.k.E E E E N.Z.G.F.x.! ! ! ! ! / / / / [ [ [ [ [ [ ! Y B 4 2 5 > > > 2 5 4 Y E ! Z.D.D.D.D.! ! ! ! Y Y Y Y 4 a a 2 a a a a 1 * * 1 1 1 a a a 2 2 2 2 3 1 1 * * * * * 1 p a d d d d E E E E h d a p * + +       O O O O                     X O       O O O O 7 a j k.k.k.c.k.k.k.k.k.c.c.c.c.c.c.c.c.c.c.c.c.c.c.c.c.c.c.c.c.c.c.c.c.c.c.c.c.c.c.c.c.c.c.c.c.c.c.c.c.c.c.c.c.c.c.c.c.c.c.c.c.c.c.c.c.c.c.c.c.c.c.c.c.c.c.c.c.c.c.c.c.c.c.c.c.c.c.c.c.c.c.c.c.c.c.c.c.c.c.c.c.c.c.c.c.c.c.c.c.c.c.c.c.c.c.c.c.c.c.c.c.c.c.c.c.c.c.c.c.c.c.c.c.c.c.c.c.c.c.c.c.c.c.c.c.c.c.c.c.c.c.c.c.c.c.c.c.c.c.c.c.c.c.c.c.c.c.c.c.c.c.c.c.c.c.c.c.c.c.c.c.c.c.c.c.c.c.c.",
"c.c.c.c.c.c.c.c.c.c.c.c.c.c.c.c.c.c.c.c.c.c.c.c.c.c.c.c.c.c.c.c.c.c.c.c.c.c.c.c.c.c.c.c.c.c.c.c.c.c.c.c.c.c.c.c.c.c.c.c.c.c.c.c.c.c.c.c.c.c.c.c.c.c.c.c.c.c.c.c.c.c.c.c.c.c.c.c.c.c.c.c.c.c.c.c.c.c.c.c.c.c.c.c.c.c.c.c.c.c.c.c.c.c.c.c.c.c.c.&.&.&.&.&.,.,.,.,.c.c.c.c.c.c.c.c.c.c.c.c.c.c.c.c.c.c.c.c.c.c.c.c.c.c.c.c.c.c.c.c.c.c.c.c.c.c.c.c.c.c.c.c.c.c.c.c.c.c.c.c.c.c.c.c.c.c.c.c.c.c.c.c.c.c.c.c.c.c.c.c.c.c.c.c.c.c.c.c.c.c.c.c.c.c.c.c.c.c.c.c.c.c.c.c.&.&.&.&.&.&.&.&.&.&.&.&.&.&.&.&.c.&.0.0.&.v.@.gXc.$.&.&.&.&.&.&.&.&.&.&.&.&.&.&.&.&.&.&.&.&.&.&.&.&.&.&.&.&.&.&.&.&.&.&.&.&.&.&.&.&.&.&.&.&.&.&.,.,.,.,.&.&.&.&.&.&.&.&.&.&.0.0.0.0.8.$.>.>.k.k.h k.l.h a E x.Z.A.D.Z.! / / ! ! Y Y J J T T T T T T T T Y J 4 4 , 5 > & > 2 4 4 ! ! ! ! ! ! ! ! ! E Y Y Y E d d E Y d a 3 p 1 1 1 1 1 * 1 3 3 3 1 1 * * * * * * * # # # # ; 1 p h h h h s s s d h s f p * # + +     X         O                         + + + + + + @ @ e j $.$.k.k.k.c.k.c.c.k.k.k.c.c.c.c.c.c.c.c.c.c.c.c.c.c.c.c.c.c.c.c.c.c.c.c.c.c.c.c.c.c.c.c.c.c.c.c.c.c.c.c.c.c.c.c.c.c.c.c.c.c.c.c.c.c.c.c.c.c.c.c.c.c.c.c.c.c.c.c.c.c.c.c.c.c.c.c.c.c.c.c.c.c.c.c.c.c.c.c.c.c.c.c.c.c.c.c.c.c.c.c.c.c.c.c.c.c.c.c.c.c.c.c.c.c.c.c.c.c.c.c.c.c.c.c.c.c.c.c.c.c.c.c.c.c.c.c.c.c.c.c.c.c.c.c.c.c.c.c.c.c.c.c.c.c.c.c.c.c.c.c.c.c.c.c.c.c.c.c.c.c.c.c.c.c.",
"c.c.c.c.c.c.c.c.c.c.c.c.c.c.c.c.c.c.c.c.c.c.c.c.c.c.c.c.c.c.c.c.c.c.c.c.c.c.c.c.c.c.c.c.c.c.c.c.c.c.c.c.c.c.c.c.c.c.c.c.c.c.c.c.c.c.c.c.c.c.c.c.c.c.c.c.c.c.c.c.c.c.c.c.c.c.c.c.c.c.c.c.c.c.c.c.c.c.c.c.c.c.c.c.c.c.c.c.c.c.c.c.c.c.c.c.c.c.c.&.&.&.&.&.,.,.,.,.c.c.c.c.c.c.c.c.c.c.c.c.c.c.c.c.c.c.c.c.c.c.c.c.c.c.c.c.c.c.c.c.c.c.c.c.c.c.c.c.c.c.c.c.c.c.c.c.c.c.c.c.c.c.c.c.c.c.c.c.c.c.c.c.c.c.c.c.c.c.c.c.c.c.c.c.c.c.c.c.c.c.c.c.c.c.c.c.c.c.c.c.c.c.c.c.&.&.&.&.&.&.&.&.&.&.&.&.&.&.&.&.,.c.0.c.$.&.T.JXBX@.c.&.&.&.&.&.&.&.&.&.&.&.&.&.&.&.&.&.&.&.&.&.&.&.&.&.&.&.&.&.&.&.&.&.&.&.&.&.&.,.&.&.&.&.&.&.,.&.,.,.&.&.&.&.&.&.&.&.&.&.0.0.0.0.8.>.>.>.k.k.m.E h E E ! / [ [ ! T T ! ! ! ! Y Y ~ ~ J J J J J J J J J J 4 4 4 5 2 > 5 4 B B ! ! ! ! ! ! W W ! E Y V d d a 3 1 1 o o # # # # * * * * s s s s p 1 * # # # # # # # # # 1 1 1 p p p p p p p p p f p * # # # + +     X                                   + + + + + + + + + # 7 f h h $.k.k.k.k.k.k.c.c.c.c.c.c.c.c.c.c.c.c.c.c.c.c.c.c.c.c.c.c.c.c.c.c.c.c.c.c.c.c.c.c.c.c.c.c.c.c.c.c.c.c.c.c.c.c.c.c.c.c.c.c.c.c.c.c.c.c.c.c.c.c.c.c.c.c.c.c.c.c.c.c.c.c.c.c.c.c.c.c.c.c.c.c.c.c.c.c.c.c.c.c.c.c.c.c.c.c.c.c.c.c.c.c.c.c.c.c.c.c.c.c.c.c.c.c.c.c.c.c.c.c.c.c.c.c.c.c.c.c.c.c.c.c.c.c.c.c.c.c.c.c.c.c.c.c.c.c.c.c.c.c.c.c.c.c.c.c.c.c.c.c.c.c.c.c.c.c.c.c.c.c.c.",
"c.c.c.c.c.c.c.c.c.c.c.c.c.c.c.c.c.c.c.c.c.c.c.c.c.c.c.c.c.c.c.c.c.c.c.c.c.c.c.c.c.c.c.c.c.c.c.c.c.c.c.c.c.c.c.c.c.c.c.c.c.c.c.c.c.c.c.c.c.c.c.c.c.c.c.c.c.c.c.c.c.c.c.c.c.c.c.c.c.c.c.c.c.c.c.c.c.c.c.c.c.c.c.c.c.c.c.c.c.c.c.c.c.c.c.c.c.c.c.&.&.&.&.&.,.,.,.,.c.c.c.c.c.c.c.c.c.c.c.c.c.c.c.c.c.c.c.c.c.c.c.c.c.c.c.c.c.c.c.c.c.c.c.c.c.c.c.c.c.c.c.c.c.c.c.c.c.c.c.c.c.c.c.c.c.c.c.c.c.c.c.c.c.c.c.c.c.c.c.c.c.c.c.c.c.c.c.c.c.c.c.c.c.c.c.c.c.c.c.c.c.c.c.c.&.&.&.&.&.&.&.&.&.&.&.&.&.&.&.&.,.,.c.c.v.c.Y.JXBX@.c.&.&.&.&.&.&.&.&.&.&.&.&.&.&.&.&.&.&.&.&.&.&.&.&.&.&.&.&.&.&.&.&.&.&.&.&.&.&.&.&.&.&.&.0.0.0.0.0.0.0.0.&.&.0.0.0.0.&.0.0.0.0.,.>.>.,.,.,.>.p 3 Y x.! ! ! R R L K ~ ~ Y E E ~ T T R J J J J m m m J J J 4 4 4 4 4 5 d B Y Y W W E W E E E E E E Y d a 3 1 o o o X X     . . # # # # p p p p p # # o o + + + . + # # ; # # ; ; ; e e e e 7 7 # # # # # # + +       X                                 o o o o + + + + + + + # # p f h h $.k.k.c.c.c.c.c.c.c.c.c.c.c.c.c.c.c.c.c.c.c.c.c.c.c.c.c.c.c.c.c.c.c.c.c.c.c.c.c.c.c.c.c.c.c.c.c.c.c.c.c.c.c.c.c.c.c.c.c.c.c.c.c.c.c.c.c.c.c.c.c.c.c.c.c.c.c.c.c.c.c.c.c.c.c.c.c.c.c.c.c.c.c.c.c.c.c.c.c.c.c.c.c.c.c.c.c.c.c.c.c.c.c.c.c.c.c.c.c.c.c.c.c.c.c.c.c.c.c.c.c.c.c.c.c.c.c.c.c.c.c.c.c.c.c.c.c.c.c.c.c.c.c.c.c.c.c.c.c.c.c.c.c.c.c.c.c.c.c.c.c.c.c.c.c.c.c.c.",
"c.c.c.c.c.c.c.c.c.c.c.c.c.c.c.c.c.c.c.c.c.c.c.c.c.c.c.c.c.c.c.c.c.c.c.c.c.c.c.c.c.c.c.c.c.c.c.c.c.c.c.c.c.c.c.c.c.c.c.c.c.c.c.c.c.c.c.c.c.c.c.c.c.c.c.c.c.c.c.c.c.c.c.c.c.c.c.c.c.c.c.c.c.c.c.c.c.c.c.c.c.c.c.c.c.c.c.c.c.c.c.c.c.c.c.c.c.c.c.&.&.&.&.&.,.,.,.,.c.c.c.c.c.c.c.c.c.c.c.c.c.,.c.c.c.c.c.c.c.c.c.c.c.c.c.c.c.c.c.c.c.c.c.c.c.c.c.c.c.c.c.c.c.c.c.c.c.c.c.c.c.c.c.c.c.c.c.c.c.c.c.c.c.c.c.c.c.c.c.c.c.c.c.c.c.c.c.c.c.c.c.c.c.c.c.c.c.c.c.c.c.c.c.c.&.&.&.&.&.&.&.&.&.&.&.&.&.&.&.&.&.,.0.0.$.c.@.gXc.$.&.&.&.&.&.&.&.&.&.&.&.&.&.&.&.&.&.&.&.&.&.&.&.&.&.&.&.&.&.&.&.&.&.&.&.&.&.&.&.&.&.&.&.&.0.0.0.0.0.0.0.0.&.&.0.0.0.&.&.&.0.0.,.,.>.>.>.>.>.E Y ) Z.{ [ R K K P K K J J ~ Y Y T R R R T T T T J J Y Y Y J 4 4 4 m B d Y Y W ! Y E E E E E E E E E Y d 1 ; o o + # # # + + + + + + + + + + # # # + o     X         X + X X X X O X O O @ @ @ @ # # # # # # + +       X                                 o o o o + + + + + + + +   . + # f h h $.c.c.c.c.c.c.c.c.c.c.c.c.c.c.c.c.c.c.c.c.c.c.c.c.c.c.c.c.c.c.c.c.c.c.c.c.c.c.c.c.c.c.c.c.c.c.c.c.c.c.c.c.c.c.c.c.c.c.c.c.c.c.c.c.c.c.c.c.c.c.c.c.c.c.c.c.c.c.c.c.c.c.c.c.c.c.c.c.c.c.c.c.c.c.c.c.c.c.c.c.c.c.c.c.c.c.c.c.c.c.c.c.c.c.c.c.c.c.c.c.c.c.c.c.c.c.c.c.c.c.c.c.c.c.c.c.c.c.c.c.c.c.c.c.c.c.c.c.c.c.c.c.c.c.c.c.c.c.c.c.c.c.c.c.c.c.c.c.c.c.c.c.c.c.c.c.",
"c.c.c.c.c.c.c.c.c.c.c.c.c.c.c.c.c.c.c.c.c.c.c.c.c.c.c.c.c.c.c.c.c.c.c.c.c.c.c.c.c.c.c.c.c.c.c.c.c.c.c.c.c.c.c.c.c.c.c.c.c.c.c.c.c.c.c.c.c.c.c.c.c.c.c.c.c.c.c.c.c.c.c.c.c.c.c.c.c.c.c.c.c.c.c.c.c.c.c.c.c.c.c.c.c.c.c.c.c.c.c.c.c.c.c.c.&.,.$.L.T.L.T.L.c.c.c.c.c.c.c.c.c.c.c.c.c.c.c.c.c.c.c.c.c.c.c.c.c.c.c.c.c.c.c.c.c.c.c.c.c.c.c.c.c.c.c.c.c.c.c.c.c.c.c.c.c.c.c.c.c.c.c.c.c.c.c.c.c.c.c.c.c.c.c.c.c.c.c.c.c.c.c.c.c.c.c.c.,.&.&.&.,.c.c.c.c.c.c.c.c.c.c.c.c.c.c.c.c.c.c.c.c.c.c.c.c.c.c.c.c.c.c.c.c.&.&.&.&.&.&.&.&.&.&.&.&.&.&.&.&.&.&.&.&.&.&.&.&.&.&.&.&.&.&.&.&.&.&.&.&.&.&.&.&.&.&.&.&.&.&.&.&.&.0.0.0.0.0.0.0.0.&.&.0.0.0.0.$.&.&.c.,.,.>.l.V Y W / S.{ L P L L R R R R R ` R ~ J J m J ! ! [ [ [ { [ ! ~ ~ Y Y Y Y Y Y Y Y Y Y W W Y Y E E E E E E E E d d 1 ; # + o + + + + X                                     X X X     O O O X X X X O O @ @ + + + + + + + + + + + +   O                             o o o # + + + + # # # # +   O       # 7 8.c.n.c.c.c.c.c.c.*.*.*.c.c.c.c.c.c.c.c.c.c.c.c.c.c.c.c.c.c.c.c.c.c.c.c.c.c.c.c.c.c.c.c.c.c.c.c.c.c.c.c.c.c.c.c.c.c.c.c.c.c.c.c.c.c.c.c.c.c.c.c.c.c.c.c.c.c.c.c.c.c.c.c.c.c.c.c.c.c.c.c.c.c.c.c.c.c.c.c.c.c.c.c.c.c.c.c.c.c.c.c.c.c.c.c.c.c.c.c.c.c.c.c.c.c.c.c.c.c.c.c.c.c.c.c.c.c.c.c.c.c.c.c.c.c.c.c.c.c.c.c.c.c.c.c.c.c.c.c.c.c.c.c.c.c.c.c.c.c.c.c.c.c.c.c.",
"c.c.c.c.c.c.c.c.c.c.c.c.c.c.c.c.c.c.c.c.c.c.c.c.c.c.c.c.c.c.c.c.c.c.c.c.c.c.c.c.c.c.c.c.c.c.c.c.c.c.c.c.c.c.c.c.c.c.c.c.c.c.c.c.c.c.c.c.c.c.c.c.c.c.c.c.c.c.c.c.c.c.c.c.c.c.c.c.c.c.c.c.c.c.c.c.c.c.c.c.c.c.c.c.c.c.c.c.c.c.c.c.c.c.c.c.v.c.$.mXKXHXHXmXc.c.c.c.c.c.c.c.c.c.c.c.c.c.c.c.c.c.c.c.c.c.c.c.c.c.c.c.c.c.c.c.,.,.c.c.c.c.c.c.c.c.c.c.c.c.c.c.c.c.c.c.c.c.c.c.c.c.c.c.c.c.c.c.c.c.c.c.c.c.c.c.c.c.c.c.c.c.c.c.c.c.c.c.J.v.&.$.,.c.c.c.c.c.c.c.c.c.c.c.c.c.c.c.c.c.c.c.c.c.c.c.c.c.c.c.c.c.c.c.c.c.c.&.&.&.&.&.&.&.&.&.&.&.&.&.&.&.&.&.&.&.&.&.&.&.&.&.&.&.&.&.&.&.&.&.&.&.&.&.&.&.&.&.&.&.&.&.&.&.&.&.&.&.&.&.&.&.&.&.0.0.c.c.c.c.$.$.$.>.l.l.N.N./ ^ L L L U ` ' ` ` } } } } _ ! R J H J J R [ [ { Z.S.{ [ ! / ! ! ! Y B B B B Y Y E E E E E E E E E D d d p 1 ; # # + + + + +                                       X X X     O O O X X X X O O O O O O O O + + + + O + + +                                 # # o # + + + + # # # # + + + O   O @ 7 7 f h c.c.c.c.0.&.&.&.&.c.c.c.c.c.c.c.c.c.c.c.c.c.c.c.c.c.c.c.c.c.c.c.c.c.c.c.c.c.c.c.c.c.c.c.c.c.c.c.c.c.c.c.c.c.c.c.c.c.c.c.c.c.c.c.c.c.c.c.c.c.c.c.c.c.c.c.c.c.c.c.c.c.c.c.c.c.c.c.c.c.c.c.c.c.c.c.c.c.c.c.c.c.c.c.c.c.c.c.c.c.c.c.c.c.c.c.c.c.c.c.c.c.c.c.c.c.c.c.c.c.c.c.c.c.c.c.c.c.c.c.c.c.c.c.c.c.c.c.c.c.c.c.c.c.c.c.c.c.c.c.c.c.c.c.c.c.c.c.c.c.c.c.c.",
"c.c.c.c.c.c.c.c.c.c.c.c.c.c.c.c.c.c.c.c.c.c.c.c.c.c.c.c.c.c.c.c.c.c.c.c.c.c.c.c.c.c.c.c.c.c.c.c.c.c.c.c.c.c.c.c.c.c.c.c.c.c.c.c.c.c.c.c.c.c.c.c.c.c.c.c.c.c.c.c.c.c.c.c.c.c.c.c.c.c.c.c.c.c.c.c.c.c.c.c.c.c.c.c.c.c.c.c.c.c.c.c.c.c.c.c.v.c.$.mXKXHXHXmX,.,.c.c.c.c.c.c.c.c.c.c.c.c.c.c.c.c.c.c.c.c.c.c.c.c.c.c.c.c.c.c.c.,.c.c.c.c.c.c.c.c.c.c.c.c.c.c.c.c.c.c.c.c.c.c.c.c.c.c.c.c.c.c.c.c.c.c.c.c.c.c.c.c.c.c.c.c.c.c.c.c.c.,.,.$.$.$.c.c.c.c.c.c.c.c.c.c.c.c.c.c.c.c.c.c.c.c.c.c.c.c.c.c.c.c.c.c.c.c.c.c.c.c.&.&.&.&.&.&.&.&.&.&.&.&.&.&.&.&.&.&.&.&.&.&.&.&.&.&.&.&.&.&.&.&.&.&.&.&.&.&.&.&.&.&.&.&.&.&.&.*.*.*.*.*.*.&.&.&.0.>.>.$.$.>.k.n.n.m.D.N./ / ^ ^ } Q.|. X.X.X+X+X|.|.S.} [ ! R J R R R ! [ [ A.S.G.S.A.Z.Z./ ! ! Q Y d d 2 4 d V E D E E E E E E D d a p ; ; # # + + + O O X     X X O   O O O O X X X X     O O X X         O O X X X X O O O O X X X X X X o X O X + +                             + + + + + + + + + + # # # + + + + + + + + @   O O 7 f h $.$.0.c.0.0.c.c.c.c.c.c.c.c.c.c.c.c.c.c.c.c.c.c.c.c.c.c.c.c.c.c.c.c.c.c.c.c.c.c.c.c.c.c.c.c.c.c.c.c.c.c.c.c.c.c.c.c.c.c.c.c.c.c.c.c.c.c.c.c.c.c.c.c.c.c.c.c.c.c.c.c.c.c.c.c.c.c.c.c.c.c.c.c.c.c.c.c.c.c.c.c.c.c.c.c.c.c.c.c.c.c.c.c.c.c.c.c.c.c.c.c.c.c.c.c.c.c.c.c.c.c.c.c.c.c.c.c.c.c.c.c.c.c.c.c.c.c.c.c.c.c.c.c.c.c.c.c.c.c.c.c.c.c.c.c.c.c.c.c.",
"c.c.c.c.c.c.c.c.c.c.c.c.c.c.c.c.c.c.c.c.c.c.c.c.c.c.c.c.c.c.c.c.c.c.c.c.c.c.c.c.c.c.c.c.c.c.c.c.c.c.c.c.c.c.c.c.c.c.c.c.c.c.c.c.c.c.c.c.c.c.c.c.c.c.c.c.c.c.c.c.c.c.c.c.c.c.c.c.c.c.c.c.c.c.c.c.c.c.c.c.c.c.c.c.c.c.c.c.c.c.c.c.c.c.c.c.&.,.$.L.T.L.T.J.,.,.,.c.c.c.c.c.c.c.c.c.c.c.c.c.c.c.c.c.c.c.c.c.c.c.c.c.c.c.c.c.c.c.c.c.c.c.c.c.c.c.c.c.c.c.c.c.c.c.c.c.c.c.c.c.c.c.c.c.c.c.c.c.c.c.c.c.c.c.c.c.c.c.c.c.c.c.c.c.c.c.c.c.,.J.T.fXc.c.c.,.c.c.c.c.c.c.c.c.c.c.c.c.c.c.c.c.c.c.c.c.c.c.c.c.c.c.c.c.c.c.c.c.&.&.&.&.&.&.&.&.&.&.&.&.&.&.&.&.&.&.&.&.&.&.&.&.&.&.&.&.&.&.&.&.&.&.&.&.&.&.&.&.&.&.&.&.&.&.*.*.*.*.*.*.&.c.&.>.k.>.k.>.a h l.D.W.F.F.G.A.S.XX.X X X.X.X$X$X,X,XoX|.} { ! R ~ J R ! [ [ { { { S.G.G.G.G.Z./ ! ! Y Y V a 2 2 d d h h D E E E E E d a p 1 1 ; # # O O O O X X         O O O O O O     X X       O O O O O     O O X X X X O O O O     X X         X X + +                             + + + + + + + + + + # # # + + + + + + O O   # # # # O 7 f j k.k.8.8.c.c.c.c.c.c.c.c.c.c.c.c.c.c.c.c.c.c.c.c.c.c.c.c.c.c.c.c.c.c.c.c.c.c.c.c.c.c.c.c.c.c.c.c.c.c.c.c.c.c.c.c.c.c.c.c.c.c.c.c.c.c.c.c.c.c.c.c.c.c.c.c.c.c.c.c.c.c.c.c.c.c.c.c.c.c.c.c.c.c.c.c.c.c.c.c.c.c.c.c.c.c.c.c.c.c.c.c.c.c.c.c.c.c.c.c.c.c.c.c.c.c.c.c.c.c.c.c.c.c.c.c.c.c.c.c.c.c.c.c.c.c.c.c.c.c.c.c.c.c.c.c.c.c.c.c.c.c.c.c.c.c.c.c.",
"c.c.c.c.c.c.c.c.c.c.c.c.c.c.c.c.c.c.c.c.c.c.c.c.c.c.c.c.c.c.c.c.c.c.c.c.c.c.c.c.c.c.c.c.c.c.c.c.c.c.c.c.c.c.c.c.c.c.c.c.c.c.c.c.c.c.c.c.c.c.c.c.c.c.c.c.c.c.c.c.c.c.c.c.c.c.c.c.c.c.c.c.c.c.c.c.c.c.c.c.c.c.c.c.c.c.c.c.c.c.c.c.c.c.c.c.c.c.c.c.,.,.,.,.,.,.,.,.c.c.c.c.c.c.c.c.c.c.c.c.c.c.c.c.c.c.c.c.c.c.c.c.c.c.c.c.c.c.c.c.c.c.c.c.c.c.c.c.c.c.c.c.c.c.c.c.c.c.c.c.c.c.c.c.c.c.c.c.c.c.c.c.c.c.c.c.c.c.c.c.c.c.c.c.c.c.c.c.9 VXPXJXT.$.,.,.c.c.c.c.c.c.c.c.c.c.c.c.c.c.c.c.c.c.c.c.c.c.c.c.c.c.c.c.c.c.c.c.c.c.c.c.c.c.c.c.&.&.&.&.&.&.&.&.&.&.&.&.&.&.&.&.&.&.&.&.&.&.&.&.&.&.&.&.&.&.&.&.&.&.&.&.,.,.,.,.,.,.,.,.$.n.n.k.E V d V W./.-X-X-XF.A.A.^.^.^.|.} ]..X$X,X,XOXOX|.S.{ [ J J J J J R ` { { S.S.Z.[ _ Z.G.A.G.G.G.Q E Y d d d A d h h D D E h h h s p p p ; # # o O O O X X   O O O O         O O     O O O O O O O O O O O O O O         O O O O X X X                   . . . . O O             + + + + + + + + + + + + # # # + + + + + + + + + + + + + @ @ @ @ 7 p j h b.n.c.8.8.c.k.c.c.c.c.c.c.c.c.c.c.c.c.c.c.c.c.c.c.c.c.c.c.c.c.c.c.c.c.c.c.c.0.c.gXfXfXH.c.c.c.c.c.c.c.c.c.c.c.c.c.c.c.c.c.c.c.c.c.c.c.c.c.c.c.c.c.c.c.c.c.c.c.c.c.c.c.c.c.c.c.c.c.c.c.c.c.c.c.c.c.c.c.c.c.c.c.c.c.c.c.c.c.c.c.c.c.c.c.c.c.c.c.c.c.c.c.c.c.c.c.c.c.c.c.c.c.c.c.c.c.c.c.c.c.c.c.c.c.c.c.c.c.c.c.c.c.c.c.c.c.c.c.c.c.c.c.c.",
"c.c.c.c.c.c.c.c.c.c.c.c.c.c.c.c.c.c.c.c.c.c.c.c.c.c.c.c.c.c.c.c.c.c.c.c.c.c.c.c.c.c.c.c.c.c.c.c.c.c.c.c.c.c.c.c.c.c.c.c.c.c.c.c.c.c.c.c.c.c.c.c.c.c.c.c.c.c.c.c.c.c.c.c.c.c.c.c.c.c.c.c.c.c.c.c.c.c.c.c.c.c.c.c.c.c.c.c.c.c.c.c.c.c.c.c.c.c.c.c.,.,.,.,.,.,.,.,.c.c.c.c.c.c.c.c.c.c.c.c.c.c.c.c.c.c.c.c.c.c.c.c.c.c.c.c.c.c.c.c.c.c.c.c.c.c.c.c.c.c.c.c.c.c.c.c.c.c.c.c.c.c.c.c.c.c.c.c.c.c.c.c.c.c.c.c.c.c.c.c.c.c.c.c.c.c.c.c.@.SXPXJXL.&.c.,.c.c.c.c.c.c.c.c.c.c.c.c.c.c.c.c.c.c.c.c.c.c.c.c.c.c.c.c.c.c.c.c.c.c.c.c.c.c.c.c.&.&.&.&.&.&.&.&.&.&.&.&.&.&.&.&.&.&.&.&.&.&.&.&.&.&.&.&.&.&.&.&.&.&.&.&.,.,.,.,.,.,.,.,.k.k.k.V E ! A./.-X-X-X=X[ ! R R ^ ^ ` ` ` ' Q.|.OX.X X|.S.{ [ _ ~ J ~ ~ R R ` { A.S.A.[ R J T ! Z.G.G.G.Q E E A d d d d h h h D E h h h s p p p # # o X O X X X   O     O O             O O O O     O O         O O O O         O O O O     X X                 . + . . + +             + + + + o o + + + + + + + + + + + + + + + + + + + + + + # @ @ @ O O @ # j $.$.8.c.c.k.c.c.c.c.c.c.c.c.c.c.c.c.c.c.c.c.c.c.c.c.c.c.c.c.c.c.c.c.c.c.0.0.c.JXPXKXfXc.c.c.c.c.c.c.c.c.c.c.c.c.c.c.c.c.c.c.c.c.c.c.c.c.c.c.c.c.c.c.c.c.c.c.c.c.c.c.c.c.c.c.c.c.c.c.c.c.c.c.c.c.c.c.c.c.c.c.c.c.c.c.c.c.c.c.c.c.c.c.c.c.c.c.c.c.c.c.c.c.c.c.c.c.c.c.c.c.c.c.c.c.c.c.c.c.c.c.c.c.c.c.c.c.c.c.c.c.c.c.c.c.c.c.c.c.c.c.c.",
"c.c.c.c.c.c.c.c.c.c.c.c.c.c.c.c.c.c.c.c.c.c.c.c.c.c.c.c.c.c.c.c.c.c.c.c.c.c.c.c.c.c.c.c.c.c.c.c.c.c.c.c.c.c.c.c.c.c.c.c.c.c.c.c.c.c.c.c.c.c.c.c.c.c.c.c.c.c.c.c.c.c.c.c.c.c.c.c.c.c.c.c.c.c.c.c.c.c.c.c.c.c.c.c.c.c.c.c.c.c.c.c.c.c.c.c.c.c.c.c.,.,.,.,.,.,.,.,.c.c.c.c.c.c.c.c.c.c.c.c.c.c.c.c.c.c.c.c.c.c.c.c.c.c.c.c.c.c.c.c.c.c.c.c.c.c.c.c.c.c.c.c.c.c.c.c.c.c.c.c.c.c.c.c.c.c.c.c.c.c.c.c.c.c.c.c.c.c.c.c.c.c.c.c.c.c.c.c.v.H.L.T.c.v.c.c.c.c.c.c.c.c.c.c.c.c.c.c.c.c.c.c.c.c.c.c.c.c.c.c.c.c.c.c.c.c.c.c.c.c.c.c.c.c.c.c.&.&.&.&.&.&.&.&.&.&.&.&.&.&.&.&.&.&.&.&.&.&.&.&.&.&.&.&.&.&.&.&.*.*.&.&.,.,.,.,.,.,.,.k.k.E E W Z.S.XXoXXX/.A.{ K K K L L L P P K L ` } |.].} } { ` _ ! R T T T [ [ [ { [ [ ! J < < G T Z.G.G.V.V.Q E A A A A D h $.h D k.$.h h f p p ; # o o X X X O O   O                     O   O O O O O O         O O O O         O O O O O O                         + + + + + +   X X + + + + + + + + + + + + + X X o o + + + + + + + + + + # # # # + + O X   O @ 7 j $.c.c.k.c.c.0.0.c.c.c.c.c.c.c.c.c.c.c.c.c.c.c.c.c.c.c.c.c.c.c.c.c.0.0.c.c.JXPXKXY.c.c.c.c.c.c.c.c.c.c.c.c.c.c.c.c.c.c.c.c.c.c.c.c.c.c.c.c.c.c.c.c.c.c.c.c.c.c.c.c.c.c.c.c.c.c.c.c.c.c.c.c.c.c.c.c.c.c.c.c.c.c.c.c.c.c.c.c.c.c.c.c.c.c.c.c.c.c.c.c.c.c.c.c.c.c.c.c.c.c.c.c.c.c.c.c.c.c.c.c.c.c.c.c.c.c.c.c.c.c.c.c.c.c.c.c.c.c.c.c.",
"c.c.c.c.c.c.c.c.c.c.c.c.c.c.c.c.c.c.c.c.c.c.c.c.c.c.c.c.c.c.c.c.c.c.c.c.c.c.c.c.c.c.c.c.c.c.c.c.c.c.c.c.c.c.c.c.c.c.c.c.c.c.c.c.c.c.c.c.c.c.c.c.c.c.c.c.c.c.c.c.c.c.c.c.c.c.c.c.c.c.c.c.c.c.c.c.c.c.c.c.c.c.c.c.c.c.c.c.c.c.c.c.c.c.c.c.c.c.c.c.,.,.,.,.,.,.,.,.c.c.c.c.c.c.c.c.c.c.c.c.c.c.c.c.c.c.c.c.c.c.c.c.c.c.c.c.c.,.c.c.c.c.c.c.c.c.c.c.c.c.c.c.c.c.c.c.c.c.c.c.c.c.c.c.c.c.c.c.c.c.c.c.c.c.c.c.c.c.c.c.c.c.c.c.c.c.c.c.$.v.j c.$.L.c.v.c.c.c.c.c.c.c.c.c.c.c.c.c.c.c.c.c.c.c.c.c.c.c.c.c.c.c.c.c.c.c.c.c.c.c.c.c.c.c.c.&.&.&.&.&.&.&.&.&.&.&.&.&.&.&.&.&.&.&.&.&.&.&.&.&.&.&.&.&.&.&.&.*.*.&.&.,.,.,.,.,.>.>.k.E E x.S.XX^.} } } ` P b L ` ` L ^ R K H < H L ` } { ` ` [ / T T R ! ! ! { { [ [ T ~ G 5 5 5 4 ! ! V.V.V.V.Q E E A d D D h $.h 8.k.h h h f p ; ; o o o o X X O O   O O                   O O O O O O O O         O O O O         O O O O O O                         + + + + + + X X X X + + + + + + + + + + + +         + + + + + + + + + + + # # # + + # # O O   @ 7 j c.c.k.k.c.c.0.c.c.c.c.c.c.c.c.c.c.c.c.c.c.c.c.c.c.c.c.c.c.c.c.c.c.c.c.0.L.fXfX@.c.c.c.c.c.c.c.c.c.c.c.c.c.c.c.c.c.c.c.c.c.c.c.c.c.c.c.c.c.c.c.c.c.c.c.c.c.c.c.c.c.c.c.c.c.c.c.c.c.c.c.c.c.c.c.c.c.c.c.c.c.c.c.c.c.c.c.c.c.c.c.c.c.c.c.c.c.c.c.c.c.c.c.c.c.c.c.c.c.c.c.c.c.c.c.c.c.c.c.c.c.c.c.c.c.c.c.c.c.c.c.c.c.c.c.c.c.c.c.c.",
"c.c.c.c.c.c.c.c.c.c.c.c.c.c.c.c.c.c.c.c.c.c.c.c.c.c.c.c.c.c.c.c.c.c.c.c.c.c.c.c.c.c.c.c.c.c.c.c.c.c.c.c.c.c.c.c.c.c.c.c.c.c.c.c.c.c.c.c.c.c.c.c.c.c.c.v.v.v.c.v.c.c.c.c.c.c.c.c.c.c.c.c.c.c.c.c.c.c.c.c.c.c.c.c.c.c.c.c.c.c.c.c.c.c.c.c.c.c.c.c.c.c.c.c.c.c.c.c.c.c.c.c.c.c.c.c.c.c.c.c.c.c.c.c.c.c.c.c.c.c.c.c.c.c.c.c.c.c.c.c.c.c.c.c.c.c.c.c.c.c.c.c.c.c.c.c.c.c.c.c.c.c.c.c.c.c.c.c.c.c.c.c.c.c.c.c.c.c.c.c.c.c.c.c.c.c.c.c.c.c.c.c.,.,.c.c.*.*.*.&.&.0.0.0.c.c.c.c.c.c.c.c.c.c.c.c.c.c.c.c.c.c.c.c.c.c.c.c.c.c.c.c.c.c.c.c.c.c.c.c.c.c.c.c.c.c.c.c.&.&.&.&.&.&.&.&.&.&.&.&.&.&.&.&.&.&.*.*.,.,.,.,.,.>.>.>.>.>.k.E d W S.XXQ.Q.]. XQ.Q.} } |.|.oXoX^.{ R H H J m H ^ / Z.[ ! ! ~ ~ Y Y Y J ! ! T ! Y 4 3 2 2 d E x.E z.x.x.x.Q Q E D D D D D D D D 8.h f p p p # + + + + + X     O                                                                                                     + + X X o o + + + + + + # + + + # # + + + + X         X + + + + # # # # # # # # # # # # + O @ @ @ @ e j $.c.c.c.c.c.c.c.c.c.c.c.0.c.c.c.c.c.c.c.c.c.c.c.c.c.c.c.c.c.&.&.&.&.&.$.&.&.&.c.c.c.c.c.c.c.c.c.c.c.c.c.c.c.c.c.c.c.c.c.c.c.c.c.c.c.c.c.c.c.c.c.c.c.c.c.c.c.c.c.c.c.c.c.c.c.c.c.c.c.c.c.c.c.c.c.c.c.c.c.c.c.c.c.c.c.c.c.c.c.c.c.c.c.c.c.c.c.c.c.c.c.c.c.c.c.c.c.c.c.c.c.c.c.c.c.c.c.c.c.c.c.c.c.c.c.c.c.c.c.c.c.c.c.c.c.c.c.",
"c.c.c.c.c.c.c.c.c.c.c.c.c.c.c.c.c.c.c.c.c.c.c.c.c.c.c.c.c.c.c.c.c.c.c.c.c.c.c.c.c.c.c.c.c.c.c.c.c.c.c.c.c.c.c.c.c.c.c.c.c.c.c.c.c.c.c.c.c.c.c.c.c.c.c.c.L.H.v.v.c.c.c.c.c.c.c.c.c.c.c.c.c.c.c.c.c.c.c.c.c.c.c.c.c.c.c.c.c.c.c.c.c.c.c.c.c.c.c.c.c.c.c.c.c.c.c.c.c.c.c.c.c.c.c.c.c.c.c.c.c.c.c.c.c.c.c.c.c.c.c.c.c.c.c.c.c.c.c.c.c.c.c.c.c.c.c.c.c.c.c.c.c.c.c.c.c.c.c.c.c.c.c.c.c.c.c.c.c.c.c.c.c.c.c.c.c.c.c.c.c.c.c.c.c.c.c.c.c.c.&.c.,.,.*.*.*.*.*.*.&.0.0.0.c.c.c.c.c.c.c.c.c.c.c.c.c.c.c.c.c.c.c.c.c.c.c.c.c.c.c.c.c.c.c.c.c.c.c.c.c.c.c.c.c.c.c.c.&.&.&.&.&.&.&.&.&.&.&.&.&.&.&.&.&.&.*.*.,.,.,.,.>.k.k.k.>.k.E W ! [ S.^.].#X<X$X X X.X.X$X,X,X;XXX^.{ / R T J J T ~ ~ ! m 4 , , < 4 4 4 Y Y Y Y d 2 2 3 a d E E E E z.x.x.z.Q E D D D D D D D D h h p e p # + + + + + + X X   O   O                                                                                                 + +   X o o + + + + + + # + + + # # + + + + + +           o + + # # # # # # # # # # # # @ @ 7 7 7 7 7 7 e j $.c.c.c.c.c.c.c.c.c.c.c.c.c.c.c.c.c.c.c.c.c.c.c.c.c.c.c.&.&.&.&.&.&.&.&.&.c.c.c.c.c.c.c.c.c.c.c.c.c.c.c.c.c.c.c.c.c.c.c.c.c.c.c.c.c.c.c.c.c.c.c.c.c.c.c.c.c.c.c.c.c.c.c.c.c.c.c.c.c.c.c.c.c.c.c.c.c.c.c.c.c.c.c.c.c.c.c.c.c.c.c.c.c.c.c.c.c.c.c.c.c.c.c.c.c.c.c.c.c.c.c.c.c.c.c.c.c.c.c.c.c.c.c.c.c.c.c.c.c.c.c.c.c.c.c.",
"c.c.c.c.c.c.c.c.c.c.c.c.c.c.c.c.c.c.c.c.c.c.c.c.c.c.c.c.c.c.c.c.c.c.c.c.c.c.c.c.c.c.c.c.c.c.c.c.c.c.c.c.c.c.c.c.c.c.c.c.c.c.c.c.c.c.c.c.c.c.c.c.c.c.c.c.@.$.&.,.&.&.&.c.c.c.c.c.c.c.c.c.c.c.c.c.c.c.c.c.c.c.c.c.c.c.c.c.c.c.c.c.c.c.c.c.c.c.c.c.c.c.c.c.c.c.c.c.c.c.c.c.c.c.c.c.c.c.c.c.c.c.c.c.c.c.c.c.c.c.c.c.c.c.c.c.c.c.c.c.c.c.c.c.c.c.c.c.c.c.c.c.c.c.c.c.c.c.c.c.c.c.c.c.c.c.c.c.c.c.c.c.c.c.c.c.c.c.c.c.c.c.c.c.c.c.c.c.,.,.&.&.,.,.*.*.*.*.*.*.&.0.0.0.c.c.c.c.c.c.c.c.c.c.c.c.c.c.c.c.c.c.c.c.c.c.c.c.c.c.c.c.c.c.c.c.c.c.c.c.c.c.c.c.c.c.c.c.&.&.&.&.&.&.&.&.&.&.&.&.&.&.,.,.&.&.&.&.,.,.,.,.k.k.k.k.E E E x.A./.oX.X0X%X@X$X$X$X$X$X,X,X;X=XXXS.A.{ [ / ~ ~ ~ Y B B 4 5 & o - > 5 4 Y Y d d d a 3 3 d d d d D E Q z.x.z.Q E D D D D D D D D h g p # # + + + + + + + X X   O                                                                                                             o o + + + + + + # # # # # # # # + + + + +         X + + # # # # # 7 # # # # # # e e e e e 7 7 7 # 7 j $.c.c.c.c.c.c.c.c.c.c.c.c.c.c.c.c.c.c.c.c.c.c.c.c.c.c.&.&.&.&.c.c.c.c.c.c.c.c.c.c.c.c.c.c.c.c.c.c.c.c.c.c.c.c.c.c.c.c.c.c.c.c.c.c.c.c.c.c.c.c.c.c.c.c.c.c.c.c.c.c.c.c.c.c.c.c.c.c.c.c.c.c.c.c.c.c.c.c.c.c.c.c.c.c.c.c.c.c.c.c.c.c.c.c.c.c.c.c.c.c.c.c.c.c.c.c.c.c.c.c.c.c.c.c.c.c.c.c.c.c.c.c.c.c.c.c.c.c.c.c.c.c.c.c.",
"c.c.c.c.c.c.c.c.c.c.c.c.c.c.c.c.c.c.c.c.c.c.c.c.c.c.c.c.c.c.c.c.c.c.c.c.c.c.c.c.c.c.c.c.c.c.c.c.c.c.c.c.c.c.c.c.c.c.c.c.c.c.c.c.c.c.c.c.c.c.c.c.c.c.c.c.zXDXBXv.c.c.c.c.c.c.c.c.c.c.c.c.c.c.c.c.c.c.c.c.c.c.c.c.c.c.c.c.c.c.c.c.c.c.c.c.c.c.c.c.c.c.c.c.c.c.c.c.c.c.c.c.c.c.c.c.c.c.c.c.c.c.c.c.c.c.c.c.c.c.c.c.c.c.c.c.c.c.c.c.c.c.c.c.c.c.c.c.c.c.c.c.c.c.c.c.c.c.c.c.c.c.c.c.c.c.c.c.c.c.c.c.c.c.c.c.c.c.c.c.c.c.c.c.c.c.c.c.&.,.&.&.,.,.*.*.*.*.*.*.,.0.0.0.c.c.c.c.c.c.c.c.c.c.c.c.c.c.c.c.c.c.c.c.c.c.c.c.c.c.c.c.c.c.c.c.c.c.c.c.c.c.c.c.c.c.c.c.&.&.&.&.&.&.&.&.&.&.&.&.&.,.,.&.&.&.&.&.,.,.&.$.k.k.E E E E x.A.{  X<X5X%X<X%X#X%X%X<X<XOXOXoXXX{ { [ [ [ [ Z./ / ~ Y 4 B 4 > o o > 5 Y Y Y Y Y d a 3 3 d d a a D D E z.z.z.Q E D D D D D D D D h p e + + + + + O + + +       O                                                                                                             o o + + + + + + + # # # # # # # + + + + + + X       + + # # # # # 7 # # # # # # e p e e p p e 7 7 7 e j $.k.c.c.c.c.c.c.c.c.c.c.c.c.c.c.c.c.c.c.c.c.c.c.c.c.&.&.c.c.c.c.c.c.c.c.c.c.c.c.c.c.c.c.c.c.c.c.c.c.c.c.c.c.c.c.c.c.c.c.c.c.c.c.c.c.c.c.c.c.c.c.c.c.c.c.c.c.c.c.c.c.c.c.c.c.c.c.c.c.c.c.c.c.c.c.c.c.c.c.c.c.c.c.c.c.c.c.c.c.c.c.c.c.c.c.c.c.c.c.c.c.c.c.c.c.c.c.c.c.c.c.c.c.c.c.c.c.c.c.c.c.c.c.c.c.c.c.c.c.c.c.c.c.",
"c.c.c.c.c.c.c.c.c.c.c.c.c.c.c.c.c.c.c.c.c.c.c.c.c.c.c.c.c.c.c.c.c.c.c.c.c.c.c.c.c.c.c.c.c.c.c.c.c.c.c.c.c.c.c.c.c.c.c.c.c.0.0.c.c.c.c.c.c.c.c.c.,.,.c.c.SXPXKXfXc.c.c.c.c.c.c.c.c.c.c.c.c.c.c.c.c.c.c.c.c.c.c.c.c.c.c.c.c.c.c.c.c.c.c.c.c.c.c.c.c.c.c.c.c.c.c.c.c.c.c.c.c.c.c.c.c.c.c.c.c.c.c.c.c.c.c.c.c.c.c.c.c.c.c.c.c.c.c.c.c.c.c.c.c.c.c.c.c.c.c.c.c.c.c.c.c.c.c.c.c.c.c.c.c.c.c.c.c.c.c.c.c.c.c.c.c.c.c.c.c.c.c.c.c.c.c.c.&.&.&.&.&.&.*.*.*.*.*.*.,.,.,.,.c.c.c.c.c.c.c.c.c.c.c.c.c.c.c.c.c.c.c.c.c.c.c.c.c.c.c.c.c.c.c.c.c.c.c.c.c.c.c.c.c.c.c.c.c.c.c.c.c.c.c.c.c.c.c.c.c.c.c.c.c.c.&.&.$.$.$.$.n.V V l.G.G.F.S.OX$X1X%X@X.X X X.X.X.X.X} S.S.S.{ [ ! ! ! ! / / ! T Y Y 5 , 5 4 4 Y Y Y Y Y Y Y E D d a d d d d D D E E Q Q z.z.D D D D D D D g ; # + O + + + + O @ X X       O O               . .                                                                                         O O + + + + O O # # 7 7 7 7 # + + + + + + + + + X X + # # # @ @ 7 7 7 7 7 7 7 e e e e e e e e e e e p p p h c.c.c.c.c.,.,.&.c.c.c.c.c.c.c.c.c.c.c.c.c.c.c.c.&.&.&.&.&.&.c.c.c.c.c.c.c.c.c.c.c.c.c.c.c.c.c.c.c.c.c.c.c.c.c.c.c.c.c.c.c.c.c.c.c.c.c.c.c.c.c.c.c.c.c.c.c.c.c.c.c.c.c.c.c.c.c.c.c.c.c.c.c.c.c.c.c.c.c.c.c.c.c.c.c.c.c.c.c.c.c.c.c.c.c.c.c.c.c.c.c.c.c.c.c.c.c.c.c.c.c.c.c.c.c.c.c.c.c.c.c.c.c.c.c.c.c.c.c.c.c.c.",
"c.c.c.c.c.c.c.c.c.c.c.c.c.c.c.c.c.c.c.c.c.c.c.c.c.c.c.c.c.c.c.c.c.c.c.c.c.c.c.c.c.c.c.c.c.c.c.c.c.c.c.c.c.c.c.c.c.c.c.c.c.c.c.c.c.c.c.c.c.c.c.c.,.,.c.c.zXBXmXT.c.c.c.c.c.c.c.c.c.c.c.c.c.c.c.c.c.c.c.c.c.c.c.c.c.c.c.c.c.c.c.c.c.c.c.c.c.c.c.c.c.c.c.c.c.c.c.c.c.c.c.c.c.c.c.c.c.c.c.c.c.c.c.c.c.c.c.c.c.c.c.c.c.c.c.c.c.c.c.c.c.c.c.c.c.c.c.c.c.c.c.c.c.c.c.c.c.c.c.c.c.c.c.c.c.c.c.c.c.c.c.c.c.c.c.c.c.c.c.c.c.c.c.c.c.c.c.c.&.&.&.&.&.&.*.*.*.*.*.*.,.,.,.,.c.c.c.c.c.c.c.c.c.c.c.c.c.c.c.c.c.c.c.c.c.c.c.c.c.c.c.c.c.c.c.c.c.c.c.c.c.c.c.c.c.c.c.c.c.c.c.c.c.c.c.c.c.c.c.c.c.c.c.c.c.c.&.0.$.$.h h E E x.G.F.A.{ { .X%X&X*X@X X[.[.[. X|.].|.^.S.S.S.{ [ ! ! ! ! ! ~ J 4 4 5 , 4 4 Y Y Y ~ E Y Y Y E E E A d d d d D D E Q z.z.z.z.D D D D D D g p ; # + O + + + + @ X X X     O   O               . .                                                                                               X     X X + # 7 7 7 7 # + + X X + + + + + + + + # # # @ @ 7 7 e e e e e e e e e 7 7 7 # # # # # # ; e #.&.&.&.,.,.&.,.c.c.c.c.c.c.c.c.c.c.c.c.c.c.c.c.&.&.&.&.&.&.&.&.c.c.c.c.c.c.c.c.c.c.c.c.c.c.c.c.c.c.c.c.c.c.c.c.c.c.c.c.c.c.c.c.c.c.c.c.c.c.c.c.c.c.c.c.c.c.c.c.c.c.c.c.c.c.c.c.c.c.c.c.c.c.c.c.c.c.c.c.c.c.c.c.c.c.c.c.c.c.c.c.c.c.c.c.c.c.c.c.c.c.c.c.c.c.c.c.c.c.c.c.c.c.c.c.c.c.c.c.c.c.c.c.c.c.c.c.c.c.c.c.",
"c.c.c.c.c.c.c.c.c.c.c.c.c.c.c.c.c.c.c.c.c.c.c.c.c.c.c.c.c.c.c.c.c.c.c.c.c.c.c.c.c.c.c.c.c.c.c.c.c.c.c.c.c.c.c.c.c.c.0.0.0.0.c.c.c.c.c.c.c.c.,.,.c.c.c.,.,.$.$.&.&.c.c.c.c.c.c.c.c.c.c.c.c.c.c.c.c.c.c.c.c.c.c.c.c.c.c.c.c.c.c.c.c.c.c.c.c.c.c.c.c.c.c.c.c.c.c.c.c.c.c.c.c.c.c.c.c.c.c.c.c.c.c.c.c.c.c.c.c.c.c.c.c.c.c.c.c.c.c.c.c.c.c.c.c.c.c.c.c.c.c.c.c.c.c.c.c.c.c.c.c.c.c.c.c.c.c.c.c.c.c.c.c.c.c.c.c.c.c.c.c.c.c.c.c.c.c.c.&.&.&.&.&.&.*.*.*.*.&.&.&.0.&.&.c.c.c.c.c.c.c.c.c.c.c.c.c.c.c.c.c.c.c.c.c.c.c.c.c.c.c.c.c.c.c.c.c.c.c.c.c.c.c.c.c.c.c.c.c.c.c.c.c.c.c.c.c.c.c.c.0.0.0.c.c.c.0.0.$.$.h h E x.G.G.A.^ ` } $X%X%X@X{.].Q.].} ] } } } } S.S.G.S.Z.[ / ! ~ Y m 4 4 5 5 4 4 Y Y E E E E Q E Y E E E E d d d d D D E Q Q z.z.z.8.8.D D D g s ; ; # + O + + + + O X X X   O                     . .                                                                                                     X X + # 7 7 # # # + + X X X X + + + + + + # # # @ # 7 e p p p p p e e # # # # # + + + + + # # # 7 @.$.&.,.,.&.&.c.c.c.c.c.c.c.c.c.c.c.c.c.c.c.c.&.&.&.&.&.&.&.&.c.c.c.c.c.c.c.c.c.c.c.c.c.c.c.c.c.c.c.c.c.c.c.c.c.c.c.c.c.c.c.c.c.c.c.c.c.c.c.c.c.c.c.c.c.c.c.c.c.c.c.c.c.c.c.c.c.c.c.c.c.c.c.c.c.c.c.c.c.c.c.c.c.c.c.c.c.c.c.c.c.c.c.c.c.c.c.c.c.c.c.c.c.c.c.c.c.c.c.c.c.c.c.c.c.c.c.c.c.c.c.c.c.c.c.c.c.c.c.c.",
"&.c.c.c.c.c.c.c.c.c.c.c.c.c.c.c.c.c.c.c.c.c.c.c.c.c.c.c.c.c.c.c.c.c.c.c.c.c.c.c.c.c.c.c.c.c.c.c.c.c.c.c.c.c.c.c.c.c.0.0.0.0.0.0.0.0.c.c.c.c.,.,.c.c.c.c.v.&.v.J.c.c.c.c.c.c.c.c.c.c.c.c.c.c.c.c.c.c.c.c.c.c.c.c.c.c.c.c.c.c.c.c.c.c.c.c.c.c.c.c.c.c.c.c.c.c.c.c.c.c.c.c.c.c.c.c.c.c.c.c.c.c.c.c.c.c.c.c.c.c.c.c.c.c.c.c.c.c.c.c.c.c.c.c.c.c.c.c.c.c.c.c.c.c.c.c.c.c.c.c.c.c.c.c.c.c.c.c.c.c.c.c.c.c.c.c.c.c.c.c.c.c.c.c.c.c.c.c.&.&.&.&.&.&.*.*.*.*.&.&.&.0.0.0.c.c.c.c.c.c.c.c.c.c.c.c.c.c.c.c.c.c.c.c.c.c.c.c.c.c.c.c.c.c.c.c.c.c.c.c.c.c.c.c.c.c.c.c.c.c.c.c.c.c.c.c.c.c.c.c.0.0.0.c.c.c.0.8.8.$.h V Z.G.S.{ L H U .X%X&X$X{.].] ] } ' ' ' ' } S.S.S.S.G.A.Z.[ R Y 4 4 < 4 4 4 4 Y Y E E E E E Q E E E E E E d d d d D D E Q z.z.z.z.8.8.D D g s ; # ; # + O O + + + X X X X O                       . .                                                                                                     X X + # # # # # # + + X X X X X + + + + + + # # @ # # 7 p p p p p e 7 # # + O O + + O X X X O + @ 7 f $.0.0.0.0.c.c.c.c.&.c.c.c.c.c.c.c.c.c.c.c.&.&.&.&.&.&.&.&.c.c.c.c.c.c.c.c.c.c.c.c.c.c.c.c.c.c.c.c.c.c.c.c.c.c.c.c.c.c.c.c.c.c.c.c.c.c.c.c.c.c.c.c.c.c.c.c.c.c.c.c.c.c.c.c.c.c.c.c.c.c.c.c.c.c.c.c.c.c.c.c.c.c.c.c.c.c.c.c.c.c.c.c.c.c.c.c.c.c.c.c.c.c.c.c.c.c.c.c.c.c.c.c.c.c.c.c.c.c.c.c.c.c.c.c.c.c.c.c.",
"&.c.H.J.c.c.c.c.c.c.c.c.c.c.c.c.c.c.c.c.c.c.c.c.c.c.c.c.c.c.c.c.c.c.c.c.c.c.c.c.c.c.c.c.c.c.c.c.c.c.c.c.c.c.c.c.c.c.c.0.0.0.0.0.0.0.0.0.c.c.,.,.c.c.c.c.c.v.v.v.c.c.c.c.c.c.c.c.c.c.c.c.c.c.c.c.c.c.c.c.c.c.c.c.c.c.c.c.c.c.c.c.c.c.c.c.c.c.c.c.c.c.c.c.c.c.c.c.c.c.c.c.c.c.c.c.c.c.c.c.c.c.c.c.c.c.c.c.c.c.c.c.c.c.c.c.c.c.c.c.c.c.c.c.c.c.c.c.c.c.c.c.c.c.c.c.c.c.c.c.c.c.c.c.c.c.c.c.c.c.c.c.c.c.c.c.c.c.c.c.c.c.c.c.c.c.c.c.c.c.c.c.c.c.c.c.c.c.c.c.c.c.c.c.c.c.c.c.c.c.c.c.c.c.c.c.c.c.c.c.c.c.c.c.c.c.c.c.c.c.c.c.c.c.c.c.c.c.c.c.c.c.c.c.c.c.c.c.c.c.c.c.c.c.c.c.c.c.c.c.u.u.H.c.@.&.c.$.k.-XVX-X-X[ { R L I |.<X1X%X.X!.} ' ` ' I I L L { { S.XXS.S.{ [ / T m < < < 4 4 J ~ Y Y ! ! ! ! ! ! ! ! Q E E D d d d d D D k.l.k.k.k.k.k.E D h s p # ; # # O X X X X X         O O O O                 . . . .                                                                                         O O O O O O + + # # # # # # + O O O O O O + + + @ + # @ # # # # e e e e e ; # + X X     O O O O       O O O @ 7 p j $.8.&.*.*.*.&.&.c.c.c.c.c.c.c.c.c.c.c.c.c.c.c.c.c.c.c.c.c.c.c.c.c.c.c.c.c.c.c.c.c.c.c.c.c.c.c.c.c.c.c.c.c.c.c.c.c.c.c.c.c.c.c.c.c.c.c.c.c.c.c.c.c.c.c.c.c.c.c.c.c.c.c.c.c.c.c.c.c.c.c.c.c.c.c.c.c.c.c.c.c.c.c.c.c.c.c.c.c.c.c.c.c.c.c.c.c.c.c.c.c.c.c.c.c.c.c.c.c.c.c.c.c.c.c.c.c.c.c.c.c.c.c.c.c.c.",
"c.&.$.$.c.c.c.c.c.c.c.c.c.c.c.c.c.c.c.c.c.c.c.c.c.c.c.c.c.c.c.c.c.c.c.c.c.c.c.c.c.c.c.c.c.c.c.c.c.c.c.c.c.c.c.c.c.c.c.0.0.0.0.0.0.0.0.0.c.c.,.,.c.c.c.c.c.c.v.v.c.c.c.c.c.c.c.c.c.c.c.c.c.c.c.c.c.c.c.c.c.c.c.c.c.c.c.c.c.c.c.c.c.c.c.c.c.c.c.c.c.c.c.c.c.c.c.c.c.c.c.c.c.c.c.c.c.c.c.c.c.c.c.c.c.c.c.c.c.c.c.c.c.c.c.c.c.c.c.c.c.c.c.c.c.c.c.c.c.c.c.c.c.c.c.c.c.c.c.c.c.c.c.c.c.c.c.c.c.c.c.c.c.c.c.c.c.c.c.c.c.c.c.c.c.c.c.c.c.c.c.c.c.c.c.c.c.c.c.c.c.c.c.c.c.c.c.c.c.c.c.c.c.c.c.c.c.c.c.c.c.c.c.c.c.c.c.c.c.c.c.c.c.c.c.c.c.c.c.c.c.c.c.c.c.c.c.c.c.c.c.c.c.c.c.c.c.c.c.c.H.1.H.c.,.n.,.$.f lXVX-XG.R L L U Q.#X1X<X$X[.} } ` ` ` ^ I L L _ ` { } { [ ! R J m < 5 < < 4 4 ~ Y T T ! ! ! ! ! ! ! ! Q E E A d d d d D D k.z.k.k.k.k.k.D h h p ; ; # # + O X X X X X   O     O O O O                 . . . .                                                                                         O O O O O O + + + + # # # # + O O + O O O + + + @ @ # @ # # # # # # e e e ; # +         O O O O         O O O O + 7 p g 0.c.c.c.c.c.c.c.c.c.c.c.c.c.c.c.c.c.c.c.c.c.c.c.c.c.c.c.c.c.c.c.c.c.c.c.c.c.c.c.c.c.c.c.c.c.c.c.c.c.c.c.c.c.c.c.c.c.c.c.c.c.c.c.c.c.c.c.c.c.c.c.c.c.c.c.c.c.c.c.c.c.c.c.c.c.c.c.c.c.c.c.c.c.c.c.c.c.c.c.c.c.c.c.c.c.c.c.c.c.c.c.c.c.c.c.c.c.c.c.c.c.c.c.c.c.c.c.c.c.c.c.c.c.c.c.c.c.c.c.c.c.c.c.",
"c.&.$.$.c.c.c.c.c.c.c.c.c.c.c.c.c.c.c.c.c.c.c.c.c.c.c.c.c.c.c.c.c.c.c.c.c.c.c.c.c.c.c.c.c.c.c.c.c.c.c.c.c.c.c.c.c.c.0.0.0.0.0.0.0.0.0.c.c.,.,.,.c.c.c.c.c.c.c.c.c.c.c.c.c.c.c.c.c.c.c.c.c.c.c.c.c.c.c.c.c.c.c.c.c.c.c.c.c.c.c.c.c.c.c.c.c.c.c.c.c.c.c.c.c.c.c.c.c.c.c.c.c.c.c.c.c.c.c.c.c.c.c.c.c.c.c.c.c.c.c.c.c.c.c.c.c.c.c.c.c.c.c.c.c.c.c.c.c.c.c.c.c.c.c.c.c.c.c.c.c.c.c.c.c.c.c.c.c.c.c.c.c.c.c.c.c.c.c.c.c.c.c.c.c.c.c.c.c.c.c.c.c.c.c.c.c.c.c.c.c.c.c.c.c.c.c.c.c.c.c.c.c.c.c.c.c.c.c.c.c.c.c.c.c.c.c.c.c.c.c.c.c.c.c.c.c.c.c.c.c.c.c.c.c.c.c.c.c.c.c.c.c.c.c.c.c.c.c.c.,.,.c.c.n.>.k.l.D.:X:XZ.[ ^ P ` Q..X<X2X<X#X].] ' ` ^ ` R R ^ ^ _ _ ` [ ! T ~ J < , 5 > < 4 4 J ~ T ! ! ! ! ! ! ! ! ! ! Q E A A d d A A D D z.z.E E k.k.D h h h p ; # # # + O X   X X X         O O O O                 . . . . .                                                                                           O O O O + + + + @ # # # + O O O + + O + + + @ @ # # # # # # @ @ # e ; # # O X     X O O O O O O O O O O O O O @ @ 7 $.0.c.c.c.c.c.c.c.c.c.c.c.c.c.c.c.c.c.c.c.c.c.c.c.c.c.c.c.c.c.c.c.c.c.c.c.c.c.c.c.c.c.c.c.c.c.c.c.c.c.c.c.c.c.c.c.c.c.c.c.c.c.c.c.c.c.c.c.c.c.c.c.c.c.c.c.c.c.c.c.c.c.c.c.c.c.c.c.c.c.c.c.c.c.c.c.c.c.c.c.c.c.c.c.c.c.c.c.c.c.c.c.c.c.c.c.c.c.c.c.c.c.c.c.c.c.c.c.c.c.c.c.c.c.c.c.c.c.c.c.c.c.c.",
"&.c.H.J.c.c.c.c.c.c.c.c.c.c.c.c.c.c.c.c.c.c.c.c.c.c.c.c.c.c.c.c.c.c.c.c.c.c.c.c.c.c.c.c.c.c.c.c.c.c.c.c.c.c.c.c.c.c.c.c.0.0.0.0.c.c.c.,.,.,.,.,.c.c.c.c.c.c.c.c.c.c.c.c.c.c.c.c.c.c.c.c.c.c.c.c.c.c.c.c.c.c.c.c.c.c.c.c.c.c.c.c.c.c.c.c.c.c.c.c.c.c.c.c.c.c.c.c.c.c.c.c.c.c.c.c.c.c.c.c.c.c.c.c.c.c.c.c.c.c.c.c.c.c.c.c.c.c.c.c.c.c.c.c.c.c.c.c.c.c.c.c.c.c.c.c.c.c.c.c.c.c.c.c.c.c.c.c.c.c.c.c.c.c.c.c.c.c.c.c.c.c.c.c.c.c.c.c.c.c.c.c.c.c.c.c.c.c.c.c.c.c.c.c.c.c.c.c.c.c.c.c.c.c.c.c.c.c.c.c.c.c.c.c.c.c.c.c.c.c.c.c.c.c.c.c.c.c.c.c.c.c.c.c.c.c.c.c.c.c.c.c.c.c.c.c.c.c.c.c.,.,.c.k.V h l.G.lX-XZ./.{ } I Q.#X2X2X<X,X XQ.' ` L L L L L ^ ^ _ _ ` _ ! T ~ J > > 5 5 4 4 J Y ! ! ! ! ! Q ! ! ! ! ! ! E Y A A d d d d D D z.z.E k.k.k.h h h s 1 # # # # + O X   X X X   O O O O O O O                   . . . . .                                                                                         O + O O + @ + + # # # # + + O O + + O + + + @ O # # @ # # @ @ @ # # # # # O X   X X O O O O O O O O O O O O O O O @ 7 j $.$.c.c.c.c.&.c.c.c.c.c.c.c.c.c.c.c.c.c.c.c.c.c.c.c.c.c.c.c.c.c.c.c.c.c.c.c.c.c.c.c.c.c.c.c.c.c.c.c.c.c.c.c.c.c.c.c.c.c.c.c.c.c.c.c.c.c.c.c.c.c.c.c.c.c.c.c.c.c.c.c.c.c.c.c.c.c.c.c.c.c.c.c.c.c.c.c.c.c.c.c.c.c.c.c.c.c.c.c.c.c.c.c.c.c.c.c.c.c.c.c.c.c.c.c.c.c.c.c.c.c.c.c.c.c.c.c.c.c.c.c.",
"$.L.DXGXSXL.$.&.c.c.c.c.c.c.c.c.c.c.c.c.c.c.c.c.c.c.c.c.c.c.c.c.c.c.c.c.c.c.c.c.c.c.c.c.c.c.c.c.c.c.c.c.c.c.c.c.c.c.c.c.=.,.v.L.J.,.,.,.,.,.,.,.c.c.c.c.c.c.c.c.c.c.c.c.c.c.c.c.c.c.c.c.c.c.c.c.c.c.c.c.c.c.c.c.c.c.c.c.c.c.c.c.c.c.c.c.c.c.c.c.c.c.c.c.c.c.c.c.c.c.c.c.c.c.c.c.c.c.c.c.c.c.c.c.c.c.c.c.c.c.c.c.c.c.c.c.c.c.c.c.c.c.c.c.c.c.c.c.c.c.c.c.c.c.c.c.c.c.c.c.c.c.c.c.c.c.c.c.c.c.c.c.c.c.c.c.c.c.c.c.c.c.c.c.c.c.c.c.c.c.c.c.c.c.c.c.c.c.c.c.c.c.c.c.c.c.c.c.c.c.c.c.c.c.c.c.c.c.c.c.c.c.c.c.c.c.c.c.c.c.c.c.c.c.c.c.c.c.c.c.c.c.c.c.c.c.c.c.c.c.c.c.c.c.c.c.c.c.c.c.>.>.>.V d ! /.=XXXXXoX=XS.{ ` ].2X2X#X XQ.|.Q.` L L L L R R ^ ` { [ ! R ~ ~ J m 5 > > 5 4 4 Y Y ! ! ! ! ! ! ! ! ! ! ! ! E Y A A d d D D E E k.k.E E k.D h h s s p 1 ; # # + O X     X O     O O O O                             . . . . . . . .                                                                     .       + + + O @ @ @ @ @ @ # # @ @ O O + # # + + O O + + # @ @ # @ @ @ @ @ # # # + O   X X O O O O O O O O O O O O O O O O O @ 7 j k.c.8.$.0.c.c.c.c.c.c.c.c.c.c.c.c.c.c.c.c.c.c.c.c.c.c.c.c.c.c.c.c.c.c.c.c.c.c.c.c.c.c.c.c.c.c.c.c.c.c.c.c.c.c.c.c.c.c.c.c.c.c.c.c.c.c.c.c.c.c.c.c.c.c.c.c.c.c.c.c.c.c.c.c.c.c.c.c.c.c.c.c.c.c.c.c.c.c.c.c.c.c.c.c.c.c.c.c.c.c.c.c.c.c.c.c.c.c.c.c.c.c.c.c.c.c.c.c.c.c.c.c.c.c.c.c.c.c.c.",
"$.L.BXSXBXT.&.&.c.c.c.c.c.c.c.c.c.c.c.c.c.c.c.c.c.c.c.c.c.c.c.c.c.c.c.c.c.c.c.c.c.c.c.c.c.c.c.c.c.c.c.c.c.c.c.c.c.c.c.,.,.>.>.j =.<.<.<.<.,.,.c.c.c.c.c.c.c.c.c.c.c.c.c.c.c.c.c.c.c.c.c.c.c.c.c.c.c.c.c.c.c.c.c.c.c.c.c.c.c.c.c.c.c.c.c.c.c.c.c.c.c.c.c.c.c.c.c.c.c.c.c.c.c.c.c.c.c.c.c.c.c.c.c.c.c.c.c.c.c.c.c.c.c.c.c.c.c.c.c.c.c.c.c.c.c.c.c.c.c.c.c.c.c.c.c.c.c.c.c.c.c.c.c.c.c.c.c.c.c.c.c.c.c.c.c.c.c.c.c.c.c.c.c.c.c.c.c.c.c.c.c.c.c.c.c.c.c.c.c.c.c.c.c.c.c.c.c.c.c.c.c.c.c.c.c.c.c.c.c.c.c.c.c.c.c.c.c.c.c.c.c.c.c.c.c.c.c.c.c.c.c.c.c.c.c.c.c.c.c.c.c.c.c.c.c.c.c.c.,.n.>.V V D.-XXX^.{ OX,X|.` ` { |.2X,X#X|.Q.].Q.' I ^ ^ ^ R R ` { { [ ! R Y ~ J m < 5 5 < 4 m Y Y ! / ! ! x.! ! ! ! ! ! ! E Y A d d D D D E k.k.k.E E D h s s s f p 1 ; # # + O X     X O         O O                             . . . . . . . .                                                                             O O @ @ @ @ @ @ @ @ # # @ @ O O + @ # # # # + O O O O O @ @ @ @ @ @ # # # # + X X X O O O O O O O O O O O O   O O O O O O @ h k.b.b.0.*.c.c.c.c.c.c.c.c.c.c.c.c.c.c.c.c.c.c.c.c.c.c.c.c.c.c.c.c.c.c.c.c.c.c.c.c.c.c.c.c.c.c.c.c.c.c.c.c.c.c.c.c.c.c.c.c.c.c.c.c.c.c.c.c.c.c.c.c.c.c.c.c.c.c.c.c.c.c.c.c.c.c.c.c.c.c.c.c.c.c.c.c.c.c.c.c.c.c.c.c.c.c.c.c.c.c.c.c.c.c.c.c.c.c.c.c.c.c.c.c.c.c.c.c.c.c.c.c.c.c.c.c.c.c.",
"c.$.L.H.L.&.&.c.c.c.c.c.c.c.c.c.c.c.c.c.c.c.c.c.c.c.c.c.c.c.c.c.c.c.c.c.c.c.c.c.c.c.c.c.c.c.c.c.c.c.c.c.c.c.c.c.c.c.,.,.=.jXFXVXFXzX>.<.<.,.,.c.c.c.c.c.c.c.c.c.c.c.c.c.c.c.c.c.c.c.c.c.c.c.c.c.c.c.c.c.c.c.c.c.c.c.c.c.c.c.c.c.c.c.c.c.c.c.c.c.c.c.c.c.c.c.c.c.c.c.c.c.c.c.c.c.c.c.c.c.c.c.c.c.c.c.c.c.c.c.c.c.c.c.c.c.c.c.c.c.c.c.c.c.c.c.c.c.c.c.c.c.c.c.c.c.c.c.c.c.c.c.c.c.c.c.c.c.c.c.c.c.c.c.c.c.c.c.c.c.c.c.c.c.c.c.c.c.c.c.c.c.c.c.c.c.c.c.c.c.c.c.c.c.c.c.c.c.c.c.c.c.c.c.c.c.c.c.c.c.c.c.c.c.c.c.c.c.c.c.c.c.c.c.c.c.c.c.c.c.c.c.c.c.c.c.c.c.c.c.c.c.c.c.c.c.c.c.c.,.k.k.W N.=XoX|.} Q.,X$X` L L {  X$X#X XQ.Q.].Q.' ` ` ` ` ` ` { } { [ ! R ~ Y J J 4 < < 4 4 4 Y Y ! Z.! ! x.! ! ! x.! ! ! E Y A d A D D E E E k.E E D h d s f s f p 1 ; # # + X X O O O O         O                       . .   .                                                                                             O O @ @ @ @ # # # # # # # @ @ + @ # 7 7 7 # # # + @ @ @ @ @ @ @ @ @ # # # # # O   X O O + + + O + + @ @ + @ + O O O O O O O @ p 8.b.c.&.&.c.c.c.c.c.c.c.c.c.c.c.c.c.c.c.c.c.c.c.c.c.c.c.c.c.c.c.c.c.c.c.c.c.c.c.c.c.c.c.c.c.c.c.c.c.c.c.c.c.c.c.c.c.c.c.c.c.c.c.c.c.c.c.c.c.c.c.c.c.c.c.c.c.c.c.c.c.c.c.c.c.c.c.c.c.c.c.c.c.c.c.c.c.c.c.c.c.c.c.c.c.c.c.c.c.c.c.c.c.c.c.c.c.c.c.c.c.c.c.c.c.c.c.c.c.c.c.c.c.c.c.c.c.",
"&.$.&.$.$.&.c.&.c.c.c.c.c.c.c.c.c.c.c.c.c.c.c.c.c.c.c.c.c.c.c.c.c.c.c.c.c.c.c.c.c.c.c.c.c.c.c.c.c.c.c.c.c.c.c.c.c.,.,.,.q VXPXPXPXFX=.<.<.,.,.c.c.c.c.c.c.c.c.c.c.c.c.c.c.c.c.c.c.c.c.c.c.c.c.c.c.c.c.c.c.c.c.c.c.c.c.c.c.c.c.c.c.c.c.c.c.c.c.c.c.c.c.c.c.c.c.c.c.c.c.c.c.c.c.c.c.c.c.c.c.c.c.c.c.c.c.c.c.c.c.c.c.c.c.c.c.c.c.c.c.c.c.c.c.c.c.c.c.c.c.c.c.c.c.c.c.c.c.c.c.c.c.c.c.c.c.c.c.c.c.c.c.c.c.c.c.c.c.c.c.c.c.c.c.c.c.c.c.c.c.c.c.c.c.c.c.c.c.c.c.c.c.c.c.c.c.c.c.c.c.c.c.c.c.c.c.c.c.c.c.c.c.c.c.c.c.c.c.c.c.c.c.c.c.c.c.c.c.c.c.c.c.c.c.c.c.c.c.c.c.c.c.c.c.c.c.c.c.k.j V A.=XoX} } ].%X2X|.L P I ' |. X].Q.} ].].Q.' { { { ` ` { } S.{ [ ! R ~ ~ J J 4 4 4 4 4 4 Y Y / N.! ! x.! ! ! x.! ! ! E Y A d D D E Q E E k.k.D d d s s s f f p 1 ; # # + X X O O O O         O O                     . . . .                                                                                             O O @ @ @ # # # # # # # # @ @ + @ # e e e 7 7 # # # 7 7 # @ # @ @ @ # # # # # + X X O O O O + # @ @ # # # # # @ + O O O O O   O e $.c.c.&.&.c.c.c.c.c.c.c.c.c.c.c.c.c.c.c.c.c.c.c.c.c.c.c.c.c.c.c.c.c.c.c.c.c.c.c.c.c.c.c.c.c.c.c.c.c.c.c.c.c.c.c.c.c.c.c.c.c.c.c.c.c.c.c.c.c.c.c.c.c.c.c.c.c.c.c.c.c.c.c.c.c.c.c.c.c.c.c.c.c.c.c.c.c.c.c.c.c.c.c.c.c.c.c.c.c.c.c.c.c.c.c.c.c.c.c.c.c.c.c.c.c.c.c.c.c.c.c.c.c.c.c.c.",
"c.c.0.0.c.c.c.c.c.c.c.c.c.c.c.c.c.c.c.c.c.c.c.c.c.c.c.c.c.c.c.c.c.c.c.c.c.c.c.c.c.c.c.c.c.c.c.c.c.c.c.,.c.c.c.c.c.c.c.,.,.zXBXNXVXzX,.>.,.,.,.&.c.c.c.c.c.c.c.c.c.c.c.c.c.c.c.c.c.c.c.c.c.c.c.c.c.c.c.c.c.c.c.c.c.c.c.c.c.c.c.c.c.c.c.c.c.c.c.c.c.c.c.c.c.c.c.c.c.c.c.c.c.c.c.c.c.c.c.c.c.c.c.c.c.c.c.c.c.c.c.c.c.c.c.c.c.c.c.c.c.c.c.c.c.c.c.c.c.c.c.c.c.c.c.c.c.c.c.c.c.c.c.c.c.c.c.c.c.c.c.c.c.c.c.c.c.c.c.c.c.c.c.c.c.c.c.c.c.c.c.c.c.c.c.c.c.c.c.c.c.c.c.c.c.c.c.c.c.c.c.c.c.c.c.c.c.c.c.c.c.c.c.c.c.c.c.c.c.c.c.c.c.c.c.c.c.c.c.c.c.c.c.c.c.c.c.c.c.c.,.,.,.,.,.c.n.>.$.h E N./.^.' U ] .X1X#X} I P I ' ].} } Q.].].].} ' { { { { } } S.S.Z.[ R ~ J Y Y B J 4 4 4 4 4 4 Y ! ! Z.Z.V.V.V.x.! ! x.! ! Q E A E E E E k.E D h h h d s f f f f p p ; ; # + X                                           .                                               . . . .                                                   O + # # # # # # # # # @ @ @ # e e e e e e e e e e 7 # # # @ @ # # # # # # + O O O O O + # # # # # e e e ; # + + O     X     O j $.&.&.c.H.H.H.c.c.c.c.c.c.c.c.c.c.c.c.c.c.c.c.c.c.c.c.c.c.c.c.c.c.c.c.c.c.c.c.c.c.c.c.c.c.c.c.c.c.c.c.c.c.c.c.c.c.c.c.c.c.c.c.c.c.c.c.c.c.c.c.c.c.c.c.c.c.c.c.c.c.c.c.c.c.c.c.c.c.c.c.c.c.c.c.c.c.c.c.c.c.c.c.c.c.c.c.c.c.c.c.c.c.c.c.c.c.c.c.c.c.c.c.c.c.c.c.c.c.c.c.c.c.c.c.",
"c.c.0.c.c.c.c.c.c.c.c.c.c.c.c.c.c.c.c.c.c.c.c.c.c.c.c.c.c.c.c.c.c.c.c.c.c.c.c.c.c.c.c.c.c.c.c.c.c.c.,.c.c.c.c.c.c.c.c.c.,.=.f f f @.&.v.,.,.&.&.c.c.c.c.c.c.c.c.c.c.c.c.c.c.c.c.c.c.c.c.c.c.c.c.c.c.c.c.c.c.c.c.c.c.c.c.c.c.c.c.c.c.c.c.c.c.c.c.c.c.c.c.c.c.c.c.c.c.c.c.c.c.c.c.c.c.c.c.c.c.c.c.c.c.c.c.c.c.c.c.c.c.c.c.c.c.c.c.c.c.c.c.c.c.c.c.c.c.c.c.c.c.c.c.c.c.c.c.c.c.c.c.c.c.c.c.c.c.c.c.c.c.c.c.c.c.c.c.c.c.c.c.c.c.c.c.c.c.c.c.c.c.c.c.c.c.c.c.c.c.c.c.c.c.c.c.c.c.c.c.c.c.c.c.c.c.c.c.c.c.c.c.c.c.c.c.c.c.c.c.c.c.c.c.c.c.c.c.c.c.c.c.c.c.c.c.c.c.,.,.1.1.,.,.n.h k.D.G.A.S.S.I U {.&X1X#X} I P I ' Q.' ' Q.|.|.].} { } } } } } { { Z.[ ! Y J Y Y Y B J m 4 < 5 4 4 4 ! ! ! Z.V.V.V.! ! ! ! ! x.! Q Q E E E E k.E D h h d d s f f f f p p ; ; # + X                                           . .         . . . . .                           . . . .                                                     + # # # # # # # # # @ @ @ # e e e e e e e e e e e 7 7 # @ @ # # # # # # # + O O O   O O # # # # e p p p ; # # + + O X X O O @ j $.&.c.H.H.H.c.c.c.c.c.c.c.c.c.c.c.c.c.c.c.c.c.c.c.c.c.c.c.c.c.c.c.c.c.c.c.c.c.c.c.c.c.c.c.c.c.c.c.c.c.c.c.c.c.c.c.c.c.c.c.c.c.c.c.c.c.c.c.c.c.c.c.c.c.c.c.c.c.c.c.c.c.c.c.c.c.c.c.c.c.c.c.c.c.c.c.c.c.c.c.c.c.c.c.c.c.c.c.c.c.c.c.c.c.c.c.c.c.c.c.c.c.c.c.c.c.c.c.c.c.c.c.c.",
"c.c.c.c.c.c.c.c.c.c.c.c.c.c.c.c.c.c.c.c.c.c.c.c.c.c.c.c.c.c.c.c.c.c.c.c.c.c.c.c.c.c.c.c.c.c.c.c.c.c.c.c.c.c.c.c.c.c.c.c.=.c.J.H.$.&.c.&.&.&.&.&.c.c.c.c.c.c.c.c.c.c.c.c.c.c.c.c.c.c.c.c.c.c.c.c.c.c.c.c.c.c.c.c.c.c.c.c.c.c.c.c.c.c.c.c.c.c.c.c.c.c.c.c.c.c.c.c.c.c.c.c.c.c.c.c.c.c.c.c.c.c.c.c.c.c.c.c.c.c.c.c.c.c.c.c.c.c.c.c.c.c.c.c.c.c.c.c.c.c.c.c.c.c.c.c.c.c.c.c.c.c.c.c.c.c.c.c.c.c.c.c.c.c.c.c.c.c.c.c.c.c.c.c.c.c.c.c.c.c.c.c.c.c.c.c.c.c.c.c.c.c.c.c.c.c.c.c.c.c.c.c.c.c.c.c.c.c.c.c.c.c.c.c.c.c.c.c.c.c.c.c.c.c.c.c.c.c.c.c.c.c.c.c.c.c.c.c.c.c.c.,.1.1.,.,.k.E Z.F.A.Z.{ } U [.&X0X1X#X} I P I ' Q.' { Q. X|.} { { { { { { { { { { ! Y J 4 Y Y Y Y J m 4 < 2 4 5 4 Y ! ! ! V.V.x.x.x.x.! ! x.! l.l.E E E E k.D D h h h s a f f f f p p e ; + +                                             . . . .   . . . . . . . . . . . . . . . . .         .                                                         + # # # # # # # # @ @ @ @ e e e e e e e e e e p y e # @ @ # # # # # # # + + O O O O O O + + + # ; e p p p e ; # # + + + O O @ j &.c.c.u.H.c.c.c.c.c.c.c.c.c.c.c.c.c.c.c.c.c.c.c.c.c.c.c.c.c.c.c.c.c.c.c.c.c.c.c.c.c.c.c.c.c.c.c.c.c.c.c.c.c.c.c.c.c.c.c.c.c.c.c.c.c.c.c.c.c.c.c.c.c.c.c.c.c.c.c.c.c.c.c.c.c.c.c.c.c.c.c.c.c.c.c.c.c.c.c.c.c.c.c.c.c.c.c.c.c.c.c.c.c.c.c.c.c.c.c.c.c.c.c.c.c.c.c.c.c.c.c.c.",
"c.c.c.c.c.c.c.c.c.c.c.c.c.c.c.c.c.c.c.c.c.c.c.c.c.c.c.c.c.c.c.c.c.c.c.c.c.c.c.c.c.c.c.c.c.c.c.c.c.c.c.,.,.,.,.,.c.c.c.,.,.,.c.c.$.v.c.$.&.&.&.&.c.c.c.c.c.c.c.c.c.c.c.c.c.c.c.c.c.c.c.c.c.c.c.c.c.c.c.c.c.c.c.c.c.c.c.c.c.c.c.c.c.c.c.c.c.c.c.c.c.c.c.c.c.c.c.c.c.c.c.c.c.c.c.c.c.c.c.c.c.c.c.c.c.c.c.c.c.c.c.c.c.c.c.c.c.c.c.c.c.c.c.c.c.c.c.c.c.c.c.c.c.c.c.c.c.c.c.c.c.c.c.c.c.c.c.c.c.c.c.c.c.c.c.c.c.c.c.c.c.c.c.c.c.c.c.c.c.c.c.c.c.c.c.c.c.c.c.c.c.c.c.c.c.c.c.c.c.c.c.c.c.c.c.c.c.c.c.c.c.c.c.c.c.c.c.c.c.c.c.c.c.c.c.c.c.c.c.c.c.c.c.c.c.c.c.c.c.c.c.,.1.1.,.k.E G.F.[ / { { } |.$X5X5X1X#X} U P I ' ^.` ' Q.|.^.} } } ^ ^ ^ ^ [ [ [ [ Y Y 4 2 B Y Y Y B m 4 2 2 5 5 4 Y ~ ! ! V.V.V.x.x.x.! x.x.l.l.l.E E E E k.D D h h s a a s f f f p e ; # + +                                             . . .   . . . . . . . . . . . . . . . . . . . . . . . . .                                                       # 7 7 # 7 # # # @ @ O O 7 e e e e e e e e y p p e # @ @ # # # # # # # # + + O O O O O O X X + # # ; e p p e e ; # # # + O O @ j c.c.c.0.c.c.c.c.c.c.c.c.c.c.c.c.c.c.c.c.c.c.c.c.c.c.c.c.c.c.c.c.c.c.c.c.c.c.c.c.c.c.c.c.c.c.c.c.c.c.c.c.c.c.c.c.c.c.c.c.c.c.c.c.c.c.c.c.c.c.c.c.c.c.c.c.c.c.c.c.c.c.c.c.c.c.c.c.c.c.c.c.c.c.c.c.c.c.c.c.c.c.c.c.c.c.c.c.c.c.c.c.c.c.c.c.c.c.c.c.c.c.c.c.c.c.c.c.c.c.c.c.",
"c.c.c.c.c.c.c.c.c.c.c.c.c.c.c.c.c.c.c.c.c.c.c.c.c.c.c.c.c.c.c.c.c.c.c.c.c.c.c.c.c.c.c.c.c.v.v.f BXHXT.&.,.,.,.,.,.,.,.,.,.,.,.,.&.&.c.&.&.&.&.&.c.c.c.c.c.c.c.c.c.c.c.c.c.c.c.c.c.c.c.c.c.c.c.c.c.c.c.c.c.c.c.c.c.c.c.c.c.c.c.c.c.c.c.c.c.c.c.c.c.c.c.c.c.c.c.c.c.c.c.c.c.c.c.c.c.c.c.c.c.c.c.c.c.c.c.c.c.c.c.c.c.c.c.c.c.c.c.c.c.c.c.c.c.c.c.c.c.c.c.c.c.c.c.c.c.c.c.c.c.c.c.c.c.c.c.c.c.c.c.c.c.c.c.c.c.c.c.c.c.c.c.c.c.c.c.c.c.c.c.c.c.c.c.c.c.c.c.c.c.c.c.c.c.c.c.c.c.c.c.c.c.c.c.c.c.c.c.c.c.c.c.c.c.c.c.c.c.c.c.c.c.c.c.c.c.c.c.c.c.c.c.c.c.c.c.c.c.c.c.,.H.&.$.k.F.[ ! { } { { Q.#X2X5X2X#X X} ` L ` } } ` ` } ^.} ` ` ` R R R R ! ! R T 4 4 4 4 B Y Y B B 4 2 2 5 5 2 2 Y Y E Q ! ! x.V.x.x.x.x.l.l.l.E E E E E E h h h h s f p p p p p p e # # + +             . .                             . . . . . . . . . . . . . . . . . . . . . . . . . . . . .               . . .   . . . .                         + # ; ; 7 7 7 7 O + O O # # # # # # # e e e e y e # # @ # # # + # # ; # + + @ @ + @ @ O O X X X O X O O + + + + + + # # + O O @ j *.,.,.c.c.c.c.c.c.c.c.c.c.c.c.c.c.c.c.c.c.c.c.c.c.c.c.c.c.c.c.c.c.c.c.c.c.c.c.c.c.c.c.c.c.c.c.c.c.c.c.c.c.c.c.c.c.c.c.c.c.c.c.c.c.c.c.c.c.c.c.c.c.c.c.c.c.c.c.c.c.c.c.c.c.c.c.c.c.c.c.c.c.c.c.c.c.c.c.c.c.c.c.c.c.c.c.c.c.c.c.c.c.c.c.c.c.c.c.c.c.c.c.c.c.c.c.c.c.c.c.",
"c.c.c.c.c.c.c.c.c.c.c.c.c.c.c.c.c.c.c.c.c.c.c.c.c.c.c.c.c.c.c.c.c.c.c.c.c.c.c.c.c.c.c.c.c.v.v.$.BXGXL.$.&.&.&.&.,.,.,.,.,.,.,.,.&.&.&.&.&.&.&.&.c.c.c.c.c.c.c.c.c.c.c.c.c.c.c.c.c.c.c.c.c.c.c.c.c.c.c.c.c.c.c.c.c.c.c.c.c.c.c.c.c.c.c.c.c.c.c.c.c.c.c.c.c.c.c.c.c.c.c.c.c.c.c.c.c.c.c.c.c.c.c.c.c.c.c.c.c.c.c.c.c.c.c.c.c.c.c.c.c.c.c.c.c.c.c.c.c.c.c.c.c.c.c.c.c.c.c.c.c.c.c.c.c.c.c.c.c.c.c.c.c.c.c.c.c.c.c.c.c.c.c.c.c.c.c.c.c.c.c.c.c.c.c.c.c.c.c.c.c.c.c.c.c.c.c.c.c.c.c.c.c.c.c.c.c.c.c.c.c.c.c.c.c.c.c.c.c.c.c.c.c.c.c.c.c.c.c.c.c.c.c.c.c.c.c.c.c.c.c.c.v.k.k.x.Z.[ { } ` { Q.OX<X<X2X<X.X|.] U I ' } ' ` ` { S.{ / ^ ^ R R R R R R J J 4 4 4 4 B Y B B 4 2 2 5 5 5 2 5 d Y Y E Q Q ! ! x.x.x.x.l.l.E E E E E E h h h h h s p p p p p p p ; # # + +             . .                             . . . . . . . . . . . . . . $ $ $ $ $ . . . . . . . . . . .             . . .   . .       .                     X + # # 7 7 7 # # @ @ @ # # # # # # # 7 7 7 e # e # # @ # + + + # # ; # # # # # # # # # # O X X X X X X X X     X X X X     O O 7 j ,.c.c.c.c.c.c.c.c.c.c.c.c.c.c.c.c.c.c.c.c.c.c.c.c.c.c.c.c.c.c.c.c.c.c.c.c.c.c.c.c.c.c.c.c.c.c.c.c.c.c.c.c.c.c.c.c.c.c.c.c.c.c.c.c.c.c.c.c.c.c.c.c.c.c.c.c.c.c.c.c.c.c.c.c.c.c.c.c.c.c.c.c.c.c.c.c.c.c.c.c.c.c.c.c.c.c.c.c.c.c.c.c.c.c.c.c.c.c.c.c.c.c.c.c.c.c.c.c.c.",
"c.c.c.c.c.c.c.c.c.c.c.c.c.c.c.c.c.c.c.c.c.c.c.c.c.c.c.c.c.c.c.c.c.c.c.c.c.c.c.c.c.c.c.c.c.v.&.&.$.T.v.$.&.&.&.&.,.,.,.,.,.,.,.,.&.&.&.&.&.&.&.&.c.c.c.c.c.c.c.c.c.c.c.c.c.c.c.c.c.c.c.c.c.c.c.c.c.c.c.c.c.c.c.c.c.c.c.c.c.c.c.c.c.c.c.c.c.c.c.c.c.c.c.c.c.c.c.c.c.c.c.c.c.c.c.c.c.c.c.c.c.c.c.c.c.c.c.c.c.c.c.c.c.c.c.c.c.c.c.c.c.c.c.c.c.c.c.c.c.c.c.c.c.c.c.c.c.c.c.c.c.c.c.c.c.c.c.c.c.c.c.c.c.c.c.c.c.c.c.c.c.c.c.c.c.c.c.c.c.c.c.c.c.c.c.c.c.c.c.c.c.c.c.c.c.c.c.c.c.c.c.c.c.c.c.c.c.c.c.c.c.c.c.c.c.c.c.c.c.c.c.c.c.c.c.c.c.c.c.c.c.c.c.c.0.0.0.c.c.c.c.c.k.E E G.! { } { L ' |.,X<X,X,XoXoX^.' I I ' ' ` ^ ^ / / / T T T T T T T J J m 4 2 2 2 2 B Y Y B 2 2 5 4 5 5 2 2 4 d A Y Y E Q Q Q Q Q Q z.E E E E E E D h h h h s s p p ; ; ; e e ; # # + +             . .                     O O     . .   . . . . . $ $ $ $ $ $ = = = = % % $ $ $ $ $ $ $ $ .               .               . . . .             O     O + # # # # # 7 7 7 7 @ # # # # # # # # # @ @ @ # @ @ O + O O # # ; # e e e e e e e 7 # # + O O O X X X   O O O O O O   O O O + 7 =.v.c.c.c.c.c.c.c.c.c.c.c.c.c.c.c.c.c.c.c.c.c.c.c.c.c.c.c.c.c.c.c.c.c.c.c.c.c.c.c.c.c.c.c.c.c.c.c.c.c.c.c.c.c.c.c.c.c.c.c.c.c.c.c.c.c.c.c.c.c.c.c.c.c.c.c.c.c.c.c.c.c.c.c.c.c.c.c.c.c.c.c.c.c.c.c.c.c.c.c.c.c.c.c.c.c.c.c.c.c.c.c.c.c.c.c.c.c.c.c.c.c.c.c.c.c.c.c.c.",
"c.c.c.c.c.c.c.c.c.c.c.c.c.c.c.c.c.c.c.c.c.c.c.c.c.c.c.c.c.c.c.c.c.c.c.c.c.c.c.c.c.c.c.c.c.c.&.v.$.c.$.$.&.&.&.&.,.,.,.,.,.,.,.,.&.&.*.*.&.&.&.&.c.c.c.c.c.c.c.c.c.c.c.c.c.c.c.c.c.c.c.c.c.c.c.c.c.c.c.c.c.c.c.c.c.c.c.c.c.c.c.c.c.&.&.c.c.c.c.c.c.c.c.c.c.c.c.c.c.c.c.c.c.c.c.c.c.c.c.c.c.c.c.c.c.c.c.c.c.c.c.c.c.c.c.c.c.c.c.c.c.c.c.c.c.c.c.c.c.c.c.c.c.c.c.c.c.c.c.c.c.c.c.c.c.c.c.c.c.c.c.c.c.c.c.c.c.c.c.c.c.c.c.c.c.c.c.c.c.c.c.c.c.c.c.c.c.c.c.c.c.c.c.c.c.c.c.c.c.c.c.c.c.c.c.c.c.c.c.c.c.c.c.c.c.c.c.c.c.c.c.c.c.c.c.c.c.c.c.c.c.c.c.c.0.0.0.c.c.c.k.k.d Q ! Z.{ S.{ R ^ } OX,X,X:XoX{ oX^.` L ^ ` ^ { R T T T T J J J Y Y Y Y J 4 < < 5 5 2 2 B Y B B 2 5 4 4 4 5 2 2 2 d A A Y Y Y E E E Q Q E E E E E E D D h h h h s s p p # # # # p ; # # + +             . .                     O O     . .   . $ $ $ $ $ $ = = $ $ % = = = % % % % % % % % % % . . . .                         . . .       . .             + + # # # # 7 7 e e @ # # # # @ @ O O O O O O @ @ @ + O O O O # ; ; e e e e e e e e ; # # + + + # # O O O O O O O O     O O @ 7 7 $.c.c.c.c.c.c.c.c.c.c.c.c.c.c.c.c.c.c.c.c.c.c.c.c.c.c.c.c.c.c.c.c.c.c.c.c.c.c.c.c.c.c.c.c.c.c.c.c.c.c.c.c.c.c.c.c.c.c.c.c.c.c.c.c.c.c.c.c.c.c.c.c.c.c.c.c.c.c.c.c.c.c.c.c.c.c.c.c.c.c.c.c.c.c.c.c.c.c.c.c.c.c.c.c.c.c.c.c.c.c.c.c.c.c.c.c.c.c.c.c.c.c.c.c.c.c.c.c.",
"c.c.c.c.c.c.c.c.c.c.c.c.c.c.c.c.c.c.c.c.c.c.c.c.c.c.c.c.c.c.c.c.c.c.c.c.c.c.c.c.c.c.c.c.c.c.&.c.,.,.,.&.,.,.,.,.,.,.,.,.,.,.,.,.&.&.&.&.&.&.&.&.c.c.c.c.c.c.c.c.c.c.c.c.c.c.c.c.c.c.c.c.c.c.c.c.c.c.c.c.c.c.c.c.c.c.c.c.&.c.fX*.c.c.c.*.c.c.c.c.c.c.c.c.c.c.c.c.c.c.c.c.c.c.c.c.c.c.c.c.c.c.c.c.c.c.c.c.c.c.c.c.c.c.c.c.c.c.c.c.c.c.c.c.c.c.c.c.c.c.c.c.c.c.c.c.c.c.c.c.c.c.c.c.c.c.c.c.c.c.c.c.c.c.c.c.c.c.c.c.c.c.c.c.c.c.c.c.c.c.c.c.c.c.c.c.c.c.c.c.c.c.c.c.c.c.c.c.c.c.c.c.c.c.c.c.c.c.c.c.c.c.c.c.c.c.c.c.c.c.c.c.c.c.c.c.c.c.c.c.c.c.c.c.0.0.c.,.v.h d Y ! R ! S.[ { ` R ^ } |.^.oXoXoXoX^.` T R R R R R T T T m m , , , , 4 m m ~ ~ J J 4 4 4 4 m m B 4 4 4 4 4 m m d d G 4 4 3 2 d A Y E E E E E E E E E E D D h d d h s a p ; # # # # # # # o +               . .                 O O       . . . $ $ $ $ = = = = N N c c = % l l l l l k k k % % % % $ $ . . . . . .     .               .       . .     . .         + # # # p p p p p p e ; e # 7 # # @ @ @ O O O O O O # # + # # # 7 # 7 # 7 7 e 7 e # e # + + # # + + + + + + + + + + + + + # 7 f $.$.c.c.0.0.&.,.c.c.c.c.c.c.c.c.c.c.c.c.c.c.c.c.c.c.c.c.c.c.c.c.c.c.c.c.c.c.c.c.c.c.c.c.c.c.c.c.c.c.c.c.c.c.c.c.c.c.c.c.c.c.c.c.c.c.c.c.c.c.c.c.c.c.c.c.c.c.c.c.c.c.c.c.c.c.c.c.c.c.c.c.c.c.c.c.c.c.c.c.c.c.c.c.c.c.c.c.c.c.c.c.c.c.c.c.c.c.c.c.c.c.c.c.c.c.c.c.",
"c.c.c.c.c.c.c.c.c.c.c.c.c.c.c.c.c.c.c.c.c.c.c.c.c.c.c.c.c.c.c.c.c.c.c.c.c.c.c.c.c.c.c.c.c.c.c.c.,.,.,.,.,.,.,.,.,.,.,.,.,.,.,.,.&.&.&.&.&.&.&.&.c.c.c.c.c.c.c.c.c.c.c.c.c.c.c.c.c.c.c.c.c.c.c.c.c.c.c.c.c.c.c.c.c.c.c.c.@.Y.HXfX&.J.J.&.c.c.c.c.c.c.c.c.c.c.c.c.c.c.c.c.c.c.c.c.c.c.c.c.c.c.c.c.c.c.c.c.c.c.c.c.c.c.c.c.c.c.c.c.c.c.c.c.c.c.c.c.c.c.c.c.c.c.c.c.c.c.c.c.c.c.c.c.c.c.c.c.c.c.c.c.c.c.c.c.c.c.c.c.c.c.c.c.c.c.c.c.c.c.c.c.c.c.c.c.c.c.c.c.c.c.c.c.c.c.c.c.c.c.c.c.c.c.c.c.c.c.c.c.c.c.c.c.c.c.c.c.c.c.c.c.c.c.c.c.c.c.c.c.c.c.c.c.,.,.,.,.k.E E ! [ { { S.{ { ` R ^ S.^.} S.S.S.S.{ R T T T T ~ ~ T m m m m , , , , 4 m m ~ T ~ Y 4 4 4 4 4 4 m m 4 4 4 4 m m d 4 G 4 4 3 2 d A Y E E E E E E E E E E E D d d d h a p 1 ; # # # # # # o o +               . .                 O O       . . $ $ $ $ $ = = c b N m m N c c z z z l l l l l k k % % % % $ . . . . . .                                               + + # # p p p p p p e e e e e e 7 7 e # @ O O O # + # # # + + # # # # # # # # # # # # # # # # + + + + + + + + + + + + + + + # # f $.8.c.c.0.,.0.c.c.c.c.c.c.c.c.c.c.c.c.c.c.c.c.c.c.c.c.c.c.c.c.c.c.c.c.c.c.c.c.c.c.c.c.c.c.c.c.c.c.c.c.c.c.c.c.c.c.c.c.c.c.c.c.c.c.c.c.c.c.c.c.c.c.c.c.c.c.c.c.c.c.c.c.c.c.c.c.c.c.c.c.c.c.c.c.c.c.c.c.c.c.c.c.c.c.c.c.c.c.c.c.c.c.c.c.c.c.c.c.c.c.c.c.c.c.c.c.",
"c.c.c.c.c.c.c.c.c.c.c.c.c.c.c.c.c.c.c.c.c.c.c.c.c.c.c.c.c.c.c.c.c.c.c.c.c.c.c.c.c.c.c.c.c.c.c.c.,.,.,.,.,.,.,.,.,.,.,.,.,.,.,.,.&.&.&.&.&.&.&.&.c.c.c.c.c.c.c.c.c.c.c.c.c.c.c.c.c.c.c.c.c.c.c.c.c.c.c.c.c.c.c.c.c.c.c.c.=.Y.HXgX&.J.J.&.c.,.c.c.c.c.c.c.c.c.c.c.c.c.c.c.c.c.c.c.c.c.c.c.c.c.c.c.c.c.c.c.c.c.c.c.c.c.c.c.c.c.c.c.c.c.c.c.c.c.c.c.c.c.c.c.c.c.c.c.c.c.c.c.c.c.c.c.c.c.c.c.c.c.c.c.c.c.c.c.c.c.c.c.c.c.c.c.c.c.c.c.c.c.c.c.c.c.c.c.c.c.c.c.c.c.c.c.c.c.c.c.c.c.c.c.c.c.c.c.c.c.c.c.c.c.c.c.c.c.c.c.c.c.c.c.c.c.c.c.c.c.c.c.c.c.c.c.,.,.c.c.h W Z.Z.{ S.|.} { { ` ^ ` } { ` ^ ` [ / K b b J J m m m m m m m m < , , , < m m Y ~ ~ ~ m m m m m m J J J J J J B m J 4 G 4 4 3 2 d A Y E E E E E E E E E E E E d d h h a p ; # # # # # # # # # +               . .                         . . $ $ $ % % % x x m m Y T K M n n c v v v v x x x z l l % % % % $ $ . . . .                                               o # # ; p p p p p p e e e e e e 7 e e # # # # # + + + + # # + # # # # # # # # @ + O + + + O O O + + + + + + + + + + + + @ @ + # 7 f h >.c.0.0.c.c.c.c.c.c.c.c.c.c.c.c.c.c.c.c.c.c.c.c.c.c.c.c.c.c.c.c.c.c.c.c.c.c.c.c.c.c.c.c.c.c.c.c.c.c.c.c.c.c.c.c.c.c.c.c.c.c.c.c.c.c.c.c.c.c.c.c.c.c.c.c.c.c.c.c.c.c.c.c.c.c.c.c.c.c.c.c.c.c.c.c.c.c.c.c.c.c.c.c.c.c.c.c.c.c.c.c.c.c.c.c.c.c.c.c.c.c.c.c.c.",
"c.c.c.c.c.c.c.c.c.c.c.c.c.c.c.c.c.c.c.c.c.c.c.c.c.c.c.c.c.c.c.c.c.c.c.c.c.c.c.c.c.c.c.c.c.c.c.c.,.,.,.,.,.,.,.,.,.,.,.,.,.,.,.,.&.&.&.&.&.&.&.&.c.c.c.c.c.c.c.c.c.c.c.c.c.c.c.c.c.c.c.c.c.c.c.c.c.c.c.c.c.c.c.c.c.c.c.c.c.H.H.J.H.c.c.*.c.c.c.c.c.c.c.c.c.c.c.c.c.c.c.c.c.c.c.c.c.c.c.c.c.c.c.c.c.c.c.c.c.c.c.c.c.c.c.c.c.c.c.c.c.c.c.c.c.c.c.c.c.c.c.c.c.c.c.c.c.c.c.c.c.c.c.c.c.c.c.c.c.c.c.c.c.c.c.c.c.c.c.c.c.&.c.c.c.c.c.&.&.c.c.c.c.c.c.c.c.c.c.c.c.c.c.c.c.c.c.c.c.c.c.c.c.c.c.c.c.c.c.c.c.c.c.c.c.c.c.c.c.c.c.c.c.c.c.c.c.c.c.c.c.c.c.c.,.,.c.k.d ! S.S.} |.|.` ` { ` L ` { ` K ^ ^ ^ ^ < , , m m m m m m m m m J < < < , < m m Y Y ~ ~ J J J J m m J J J J Y Y m m 4 4 G 4 4 3 2 d A Y E E E E E E E E E D D D d d h d p 1 ; # # # # # # # # # +               . .                       . . . $ $ % % k l x c C Y ~ T T K K M v v v v v v v v v c z l k % % % $ $ . . .       .                     . .         . . . o + # ; e p p p p p e e e # # # # # # @ # # 7 # + + + # # + # # @ @ @ @ # # # @ + O O O O X X X X + + + + + + + + + + + @ # @ + 7 7 f h 8.0.0.0.c.c.c.c.c.c.c.c.c.c.c.c.c.c.c.c.c.c.c.c.c.c.c.c.c.c.c.c.c.c.c.c.c.c.c.c.c.c.c.c.c.c.c.c.c.c.c.c.c.c.c.c.c.c.c.c.c.c.c.c.c.c.c.c.c.c.c.c.c.c.c.c.c.c.c.c.c.c.c.c.c.c.c.c.c.c.c.c.c.c.c.c.c.c.c.c.c.c.c.c.c.c.c.c.c.c.c.c.c.c.c.c.c.c.c.c.c.c.c.c.",
"c.c.c.c.c.c.c.c.c.c.c.c.c.c.c.c.c.c.c.c.c.c.c.c.c.c.c.c.c.c.c.c.c.c.c.c.c.c.c.c.c.c.c.c.c.c.c.c.c.c.c.c.c.c.c.c.c.c.c.c.c.c.c.c.c.c.c.c.c.c.c.c.c.c.c.c.c.c.c.c.c.c.c.c.c.c.c.c.c.c.c.c.c.c.c.c.c.c.c.c.c.c.c.c.c.c.c.c.c.c.c.c.0.*.*.c.c.c.c.c.c.c.c.c.c.c.c.c.c.c.c.c.c.c.c.c.c.c.c.c.c.c.c.c.c.c.c.c.c.c.c.c.c.c.c.c.c.c.c.c.c.c.c.c.c.c.c.c.c.c.c.c.c.c.c.c.c.c.c.c.c.c.c.c.c.c.c.c.c.c.c.c.c.c.c.c.c.c.c.c.&.&.c.v.$.c.c.&.c.c.c.c.c.c.c.c.c.c.c.c.c.c.c.c.c.c.c.c.c.c.c.c.c.c.c.c.c.c.c.c.c.c.c.c.c.c.c.c.c.c.c.c.c.c.c.c.c.c.c.c.c.c.c.c.n.n.>.E x.S.XX^.OX|.] U } } ' ' ' ' ^ ^ ` { / H m , & & , , < b b m m Y T T T T < < < m 4 4 4 4 m J J J m m J J J J Y Y Y Y d 4 4 4 4 4 d A E E E E E E E E E E h h D E h h f p p 1 # # # X                             . .                       . . . $ $ % k x x N N T T Y J K K n n n n n v v v v v v c c l l k % % % $ $ $ . . . . . . . . . .                     . . .     o o o + # e p p p f p p p p p ; # # # # # # # # # # + + + + O O O # # # # # # # # # # + + X X X X X X     + + + + + + # 7 7 # @ 7 p j 8.c.c.8.c.c.c.c.c.c.c.c.c.c.c.c.c.c.c.c.c.c.c.c.c.c.c.c.c.c.c.c.c.c.c.c.c.c.c.c.c.c.c.c.c.c.c.c.c.c.c.c.c.c.c.c.c.c.c.c.c.c.c.c.c.c.c.c.c.c.c.c.c.c.c.c.c.c.c.c.c.c.c.c.c.c.c.c.c.c.c.c.c.c.c.c.c.c.c.c.c.c.c.c.c.c.c.c.c.c.c.c.c.c.c.c.c.c.c.c.c.c.c.c.",
"c.c.c.c.c.c.c.c.c.c.c.c.c.c.c.c.c.c.c.c.c.c.c.c.c.c.c.c.c.c.c.c.c.c.c.c.c.c.c.c.c.c.c.c.c.c.c.c.c.c.c.c.c.c.c.c.c.c.c.c.c.c.c.c.c.c.c.c.c.c.c.c.c.c.c.c.c.c.c.c.c.c.c.c.c.c.c.c.c.c.c.c.c.c.c.c.c.c.c.c.c.c.c.c.c.c.c.c.c.c.c.c.*.*.0.0.c.c.c.c.c.c.c.c.c.c.c.c.c.c.c.c.c.c.c.c.c.c.c.c.c.c.c.c.c.c.c.c.c.c.c.c.c.c.c.c.c.c.c.c.c.c.c.c.c.c.c.c.c.c.c.c.c.c.c.c.c.c.c.c.c.c.c.c.c.c.c.c.c.c.c.c.c.c.c.c.c.c.c.c.&.&.&.H.L.$.&.c.c.c.c.c.c.c.c.c.c.c.c.c.c.c.c.c.c.c.c.c.c.c.c.c.c.c.c.c.c.c.c.c.c.c.c.c.c.c.c.c.c.c.c.c.c.c.c.c.c.c.c.c.c.c.c.,.n.>.V W Z.S.XX|.OX].] U } } ] ' ] { { ` { } / K M < , & & > , < m m T T R R R R m < < m 4 4 4 4 J J J J J J J J Y Y Y Y Y Y d 4 4 4 4 4 d A E E E E E E E E E D D h h h h h s p p ; ; # o X                             . .                     . . . . $ % k l z c N N M m H H H M n n M M M M n n n n v c c c l z k % % $ $ $ . . . . . .   . . .                     .         o o o + # e p p p p p p p p p p p ; # # # # # # # # + + O O O O O + + # # # # # # # # # # O X X X X X         X o + + @ + 7 7 @ 7 q j $.$.8.c.c.c.c.c.c.c.c.c.c.c.c.c.c.c.c.c.c.c.c.c.c.c.c.c.c.c.c.c.c.c.c.c.c.c.c.c.c.c.c.c.c.c.c.c.c.c.c.c.c.c.c.c.c.c.c.c.c.c.c.c.c.c.c.c.c.c.c.c.c.c.c.c.c.c.c.c.c.c.c.c.c.c.c.c.c.c.c.c.c.c.c.c.c.c.c.c.c.c.c.c.c.c.c.c.c.c.c.c.c.c.c.c.c.c.c.c.c.c.c.c.",
"c.c.c.c.c.c.c.c.c.c.c.c.c.c.c.c.c.c.c.c.c.c.c.c.c.c.c.c.c.c.c.c.c.c.c.c.c.c.c.c.c.c.c.c.c.c.c.c.,.c.c.c.c.c.c.c.c.c.c.c.c.c.c.c.c.c.c.c.c.c.c.c.c.c.c.c.c.c.c.c.c.c.c.c.c.c.c.c.c.c.c.c.c.c.c.c.c.c.c.c.c.c.c.c.c.c.c.c.c.c.c.c.c.c.c.,.c.c.c.c.c.c.c.c.c.c.c.c.c.c.c.c.c.c.c.c.c.c.c.c.c.c.c.c.c.c.c.c.c.c.c.c.c.c.c.c.c.c.c.c.c.c.c.c.c.c.c.c.c.c.c.c.c.c.c.c.c.c.c.c.c.c.c.c.c.c.c.c.c.c.c.c.c.c.c.c.c.c.c.c.&.&.&.zXzXc.&.c.c.c.c.c.c.c.c.c.c.c.c.c.c.c.c.c.c.c.c.c.c.c.c.c.c.c.c.c.c.c.c.c.c.c.c.c.c.c.c.c.c.c.c.c.c.c.c.c.c.c.c.c.c.c.c.,.>.>.N./.^.^.oXOX X].] ] Q.].Q.} Q.Q.{ { S.S.{ T K M , > , , b m m T T R ^ ^ / / K < < < 4 4 5 5 J m J J ~ ~ Y Y Y ~ Y Y Y B d 4 4 4 4 4 d A E E E E E E E E E D D h h h h d f p p ; # # X X                                                 . . . . . $ % k l x l c N n M M M M M m < , m N M M M n n n n n c c z z z k % % $ $ . . . . . .     . .         .                     o o o + # e p p p f f f f s s p p p e e e e # # # # + + X O O + + + + # # # # # # # # + + O X   X X X     X X + + + + + + + 7 7 @ 7 p 7 g $.k.c.c.c.c.c.c.c.c.c.c.c.c.c.c.c.c.c.c.c.c.c.c.c.c.c.c.c.c.c.c.c.c.c.c.c.c.c.c.c.c.c.c.c.c.c.c.c.c.c.c.c.c.c.c.c.c.c.c.c.c.c.c.c.c.c.c.c.c.c.c.c.c.c.c.c.c.c.c.c.c.c.c.c.c.c.c.c.c.c.c.c.c.c.c.c.c.c.c.c.c.c.c.c.c.c.c.c.c.c.c.c.c.c.c.c.c.c.c.c.c.",
"c.c.c.c.c.c.c.c.c.c.c.c.c.c.c.c.c.c.c.c.c.c.c.c.c.c.c.c.c.c.c.c.c.c.c.c.c.c.c.c.c.c.c.c.c.c.c.c.c.c.c.c.c.c.c.c.c.c.c.c.c.c.c.c.c.c.c.c.c.c.c.c.c.c.c.c.c.c.c.c.c.c.c.c.c.c.c.c.c.c.c.c.c.c.c.c.c.c.c.c.c.c.c.c.c.c.c.c.c.c.c.c.c.c.,.,.c.c.c.c.c.c.c.c.c.c.c.c.c.c.c.c.c.c.c.c.c.c.c.c.c.c.c.c.c.c.c.c.c.c.c.c.c.c.c.c.c.c.c.c.c.c.c.c.c.c.c.c.c.c.c.c.c.c.c.c.c.c.c.c.c.c.c.c.c.c.c.c.c.c.c.c.c.c.c.c.c.c.c.c.$.v.$.zXzX&.&.c.c.c.c.c.c.c.c.c.c.c.c.c.c.c.c.c.c.c.c.c.c.c.c.c.c.c.c.c.c.c.c.c.c.c.c.c.c.c.c.c.c.c.c.c.c.c.c.c.c.c.c.c.c.c.c.k.j B.=X2X X|.oX;X].Q.] ] ].].].].Q.Q.} } ^.^.} R T M < , m M K T T T R ^ / [ [ [ R b < < 5 5 5 4 Y J J J Y Y ~ ~ Y Y Y Y Y B d 4 4 4 4 4 A A E E E E E E E E E D D h h h h d f p p ; # # X X                             .                 . . . . . $ $ k l x v l , N n m m n m m 4 2 , 2 , , , m n n n n n n c v z z z k % % $ . . . . . .     . .         . .                   o o o + # p p p p p p f f s s f p p p p p e e # # # + + X O O + + + + # # # # # # # # + + O X   X X X     X X + + + + + + + + 7 @ 7 7 @ f $.c.c.c.c.c.c.c.c.c.c.c.c.c.c.c.c.c.c.c.c.c.c.c.c.c.c.c.c.c.c.c.c.c.c.c.c.c.c.c.c.c.c.c.c.c.c.c.c.c.c.c.c.c.c.c.c.c.c.c.c.c.c.c.c.c.c.c.c.c.c.c.c.c.c.c.c.c.c.c.c.c.c.c.c.c.c.c.c.c.c.c.c.c.c.c.c.c.c.c.c.c.c.c.c.c.c.c.c.c.c.c.c.c.c.c.c.c.c.c.c.c.",
"c.c.c.c.c.c.c.c.c.c.c.c.c.c.c.c.c.c.c.c.c.c.c.c.c.c.c.c.c.c.c.c.c.c.c.c.c.c.c.c.c.c.c.c.c.c.c.c.c.c.c.c.c.c.c.c.c.c.c.c.c.c.c.c.c.c.c.c.c.c.c.c.c.c.c.c.c.c.c.c.c.c.c.c.c.c.c.c.c.c.c.c.c.c.c.c.c.c.c.c.c.c.c.c.c.c.c.c.c.c.c.c.c.c.c.c.c.c.c.c.c.c.c.c.c.c.c.c.c.c.c.c.c.c.c.c.c.c.c.c.c.c.c.c.c.c.c.c.c.c.c.c.c.c.c.c.c.c.c.c.c.c.c.c.c.c.c.c.c.c.c.c.c.c.c.c.c.c.c.c.c.c.c.c.c.c.c.c.c.c.c.c.c.c.c.c.c.c.c.c.&.@.&.$.L.0.&.c.c.c.c.c.c.c.c.c.c.c.c.c.c.c.c.c.c.c.c.c.c.c.c.c.c.c.c.c.c.c.c.c.c.c.c.c.c.c.c.c.c.c.c.c.c.c.c.c.,.1.1.1.=.k.l.d ! lXvXoXQ..X;X;XQ.U I ] .X.X[.]..X X X|.^.^.S.{ T K H M T T R R / / / / [ { } S.! J < < < < 4 4 Y Y Y ~ ~ ~ ~ ~ ! Y Y Y 4 d 4 4 4 4 4 4 d A E E E E E E D D E D h h h h h d p p p ; ; # O O                                             . . . . $ $ % k k l x v c c n n b n b < > & o o & & & & , b b n n n n c v v z z k k % % $ . . . . .         . . . .                 .           + # 1 1 p p p p p p p p p p p p p p e e # # o o o o # # + + + + + + # # + + + + + + X o             + + + + + + + + + O O @ # 7 7 7 p $.,.H.H.c.c.c.c.c.c.c.c.c.c.c.c.c.c.c.c.c.c.c.c.c.c.c.c.c.c.c.c.c.c.c.c.c.c.c.c.c.c.c.c.c.c.c.c.c.c.c.c.c.c.c.c.c.c.c.c.c.c.c.c.c.c.c.c.c.c.c.c.c.c.c.c.c.c.c.c.c.c.c.c.c.c.c.c.c.c.c.c.c.c.c.c.c.c.c.c.c.c.c.c.c.c.c.c.c.c.c.c.c.c.c.c.c.c.c.c.c.",
"c.c.c.c.c.c.c.c.c.c.c.c.c.c.c.c.c.c.c.c.c.c.c.c.c.c.c.c.c.c.c.c.c.c.c.c.c.c.c.c.c.c.c.c.c.c.c.c.c.c.c.c.c.c.c.c.c.c.c.c.c.c.c.c.c.c.c.c.c.c.c.c.c.c.c.c.c.c.c.c.c.c.c.c.c.c.c.c.c.c.c.c.c.c.c.c.c.c.c.c.c.c.c.c.c.c.c.c.c.c.c.c.c.c.c.c.c.c.c.c.c.c.c.c.c.c.c.c.c.c.c.c.c.c.c.c.c.c.c.c.c.c.c.c.c.c.c.c.c.c.c.c.c.c.c.c.c.c.c.c.c.c.c.c.c.c.c.c.c.c.c.c.c.c.c.c.c.c.c.c.c.c.c.c.c.c.c.c.c.c.c.c.c.c.c.c.c.c.c.c.gXmXmXv.&.c.&.0.c.c.c.c.c.c.c.c.c.c.c.c.c.c.c.c.c.c.c.c.c.c.c.c.c.c.c.c.c.c.c.c.c.c.c.c.c.c.c.c.c.c.c.c.c.c.c.c.,.1.1.,.c.k.E m lXvX,X} Q..XoXoX] I U Q..X.X.X.X.X.X X|.^.^.S.{ / ^ R T / / [ [ [ [ [ [ { Z.S.S.[ R m < < < 4 J Y Y ~ Y ~ ~ ~ ~ ! ~ Y Y 4 d 4 4 4 4 4 d d d A E E E E E D D D D h h h h h d p p p ; ; # O O                                             . . . . $ $ % k k z x v c c n n b b < , & o . . . . . o & , b n n n n n v v z z l k % % $ . . . . .   .     .   . .                 .           + # 1 1 p p ; ; p p p p e e p p p p e e # # o o o o # # + + + + # # # # + + + + + + X X         X X + + + + + + # + + X O O + @ 7 7 7 f =.,.H.H.c.c.c.c.c.c.c.c.c.c.c.c.c.c.c.c.c.c.c.c.c.c.c.c.c.c.c.c.c.c.c.c.c.c.c.c.c.c.c.c.c.c.c.c.c.c.c.c.c.c.c.c.c.c.c.c.c.c.c.c.c.c.c.c.c.c.c.c.c.c.c.c.c.c.c.c.c.c.c.c.c.c.c.c.c.c.c.c.c.c.c.c.c.c.c.c.c.c.c.c.c.c.c.c.c.c.c.c.c.c.c.c.c.c.c.c.",
"c.c.c.c.c.c.c.c.c.c.c.c.c.c.c.c.c.c.c.c.c.c.c.c.c.c.c.c.c.c.c.c.c.c.c.c.c.c.c.c.c.c.c.c.c.c.c.c.c.c.c.c.c.c.c.c.c.c.c.c.c.c.c.c.c.c.c.c.c.c.c.c.c.c.c.c.c.c.c.c.c.c.c.c.c.c.c.c.c.c.c.c.c.c.c.c.c.c.c.c.c.c.c.c.c.c.c.c.c.c.c.c.c.c.c.c.c.c.c.c.c.c.c.c.c.c.c.c.c.c.c.c.c.c.c.c.c.c.c.c.c.c.c.c.c.c.c.c.c.c.c.c.c.c.c.c.c.c.c.c.c.c.c.c.c.c.c.c.c.c.c.c.c.c.c.c.c.c.c.c.c.c.c.c.c.c.c.c.c.c.c.c.c.c.c.c.c.c.c.c.mXJXGXT.c.c.c.c.c.c.c.c.c.c.c.c.c.c.c.c.c.c.c.c.c.c.c.c.c.c.c.c.c.c.c.c.c.c.c.c.c.c.c.c.c.c.c.c.c.c.c.c.c.c.c.c.,.1.1.,.v.l.E G.nX2X^.' ^. X XQ.' L U |.$X$X@X.X#X.X X|.^.^.S.{ [ / ^ R [ [ { { { { { { S.S.S.S.} ! J < < 4 J J Y Y Y Y Y Y ~ ~ ! ~ Y Y 4 d 4 4 4 4 2 2 d d A E E E E D D D D D h h h h h s p p 1 ; # # X O                                               . . . $ % % k k z x v c c n n n b , , & o . . . . . . & , b M n n n n v v z z k k % % $ . . . . . . .             . .     . .     .   o X X X + # ; p 1 1 1 ; p p p p e e e e p p p e 1 # # o o o + + + # # # # # # # + + + + + o + + + +     X X o o + + # # # # + + O O O O @ 7 7 7 f =.*.c.c.c.c.c.c.c.c.c.c.c.c.c.c.c.c.c.c.c.c.c.c.c.c.c.c.c.c.c.c.c.c.c.c.c.c.c.c.c.c.c.c.c.c.c.c.c.c.c.c.c.c.c.c.c.c.c.c.c.c.c.c.c.c.c.c.c.c.c.c.c.c.c.c.c.c.c.c.c.c.c.c.c.c.c.c.c.c.c.c.c.c.c.c.c.c.c.c.c.c.c.c.c.c.c.c.c.c.c.c.c.c.c.c.c.c.c.",
"c.c.c.c.c.c.c.c.c.c.c.c.c.c.c.c.c.c.c.c.c.c.c.c.c.c.c.c.c.c.c.c.c.c.c.c.c.c.c.c.c.c.c.c.c.c.c.c.c.c.c.c.c.c.c.c.c.c.c.c.c.c.c.c.c.c.c.c.c.c.c.c.c.c.c.c.c.c.c.c.c.c.c.c.c.c.c.c.c.c.c.c.c.c.c.c.c.c.c.c.c.c.c.c.c.c.c.c.c.c.c.c.c.c.c.c.c.c.c.c.c.c.c.c.c.c.c.c.c.c.c.c.c.c.c.c.c.c.c.c.c.c.c.c.c.c.c.c.c.c.c.c.c.c.c.c.c.c.c.c.c.c.c.c.c.c.c.c.c.c.c.c.c.&.c.c.c.c.c.c.c.c.c.c.c.c.c.c.c.c.c.c.c.c.c.c.c.c.c.c.gXmXzX&.c.c.c.c.c.c.c.c.c.c.c.c.c.c.c.c.c.c.c.c.c.c.c.c.c.c.c.c.c.c.c.c.c.c.c.c.c.c.c.c.c.c.c.c.c.c.c.c.c.c.c.c.c.,.,.c.$.h ! vXlX^.` { ^. X^.' ` L U  X$X$X#X#X#X.X X|.^.^.S.{ / ^ T T / / [ [ A.A.{ A.S.S.|.|.S.[ R m 4 J J J ~ Y Y Y Y ~ ~ ~ ! ! Y Y 4 4 4 4 4 4 4 2 a d A A E E E D D D D D h h h h h s p p ; ; # o X                                             . . . . . $ % % k k z x v v c n n b , , > o . . .   . .   o & , b n n n n v v z z k k % % $ . . . . . . .             . . . . . .   . .   o X o o + # ; 1 1 1 1 1 p p p p e e e e p p p e 1 # # o o o + + + # # # # q 7 # # # # + + + + + + O O O X X o o + + # # ; ; # # @ @ O O @ @ 7 7 9 @.=.*.c.c.c.c.c.c.c.c.c.c.c.c.c.c.c.c.c.c.c.c.c.c.c.c.c.c.c.c.c.c.c.c.c.c.c.c.c.c.c.c.c.c.c.c.c.c.c.c.c.c.c.c.c.c.c.c.c.c.c.c.c.c.c.c.c.c.c.c.c.c.c.c.c.c.c.c.c.c.c.c.c.c.c.c.c.c.c.c.c.c.c.c.c.c.c.c.c.c.c.c.c.c.c.c.c.c.c.c.c.c.c.c.c.c.c.c.",
"c.c.c.c.c.c.c.c.c.c.c.c.c.c.c.c.c.c.c.c.c.c.c.c.c.c.c.c.c.c.c.c.c.c.c.c.c.c.c.c.c.c.c.c.c.c.c.c.c.c.c.c.c.c.c.c.c.c.c.c.c.c.c.c.c.c.c.c.c.c.c.c.c.c.c.c.c.c.c.c.c.c.c.c.c.c.c.c.c.c.c.c.c.c.c.c.c.c.c.c.c.c.c.c.c.c.c.c.c.c.c.c.c.c.c.c.c.c.c.c.c.c.c.c.c.c.c.c.c.c.c.c.c.c.c.c.c.c.c.c.c.c.c.c.c.c.c.c.c.c.c.c.c.c.c.c.c.c.c.c.c.c.c.c.c.c.c.c.c.c.c.c.c.&.c.c.&.$.c.&.c.c.c.c.c.c.c.c.c.c.c.c.c.c.c.c.c.c.c.c.c.c.c.c.c.c.c.c.c.c.c.c.c.c.c.c.c.c.c.c.c.c.c.c.c.c.c.c.c.c.c.c.c.c.c.c.c.c.c.c.c.c.c.c.c.c.c.c.c.c.c.c.c.c.c.c.c.,.,.,.h N.-XlX=X{ ^ { } { { ^ L P ' .X,X$X#X.X.X XQ.} { ` ^ ^ ^ R R R T ^ ` { { { { { S.S.|.|.S.{ ` R J J J J Y Y Y Y ~ ~ ~ ~ ! ! E Y Y Y Y Y d d 2 3 3 d d A D D D D D D D D D h h h h f p 1 e # + + X X                                         . .     . . $ % k k k z v v c n n n n < , & . . .     . . o > , b n n n n v v v z z k k % % $ . . . . . . . . . . . . . . . . . . . . .   . o o X o # # ; 1 p p 1 1 1 p p p 1 1 1 1 1 1 1 1 1 # # # # # # # # # # # 1 1 1 ; # # # # # + + + + + o + + + + + # + # # 7 7 7 7 # @ @ + + + @ 7 9 9 f $.c.c.c.c.c.c.c.c.c.c.c.c.c.c.c.c.c.c.c.c.c.c.c.c.c.c.c.c.c.c.c.c.c.c.c.c.c.c.c.c.c.c.c.c.c.c.c.c.c.c.c.c.c.c.c.c.c.c.c.c.c.c.c.c.c.c.c.c.c.c.c.c.c.c.c.c.c.c.c.c.c.c.c.c.c.c.c.c.c.c.c.c.c.c.c.c.c.c.c.c.c.c.c.c.c.c.c.c.c.c.c.c.c.c.c.c.",
"c.c.c.c.c.c.c.c.c.c.c.c.c.c.c.c.c.c.c.c.c.c.c.c.c.c.c.c.c.c.c.c.c.c.c.c.c.c.c.c.c.c.c.c.c.c.c.c.c.c.c.c.c.c.c.c.c.c.c.c.c.c.c.c.c.c.c.c.c.c.c.c.c.c.c.c.c.c.c.c.c.c.c.c.c.c.c.c.c.c.c.c.c.c.c.c.c.c.c.c.c.c.c.c.c.c.c.c.c.c.c.c.c.c.c.c.c.c.c.c.c.c.c.c.c.c.c.c.c.c.c.c.c.c.c.c.c.c.c.c.c.c.c.c.c.c.c.c.c.c.c.c.c.c.c.c.c.c.c.c.c.c.c.c.c.c.c.c.c.c.c.c.&.c.H.&.$.c.&.v.c.c.c.c.c.c.c.c.c.c.c.c.c.c.c.c.c.c.c.c.c.c.c.c.c.c.c.c.c.c.c.c.c.c.c.c.c.c.c.c.c.c.c.c.c.c.c.c.c.c.c.c.c.c.c.c.c.c.c.c.c.c.c.c.c.c.c.c.c.c.c.c.c.c.c.c.c.c.c.k.k.(.:X;X^.^ ^ / { / ^ I L U ]..X$X$X@X.X X].] ` I L K K K K K K T ^ ` { { { { { S.S.|.|.S.{ ` R J J J J Y Y Y Y Y Y Y ~ W W Y Y Y Y Y Y d d 2 3 3 d d A D D D D D D D D D h h h h f p 1 ; # + O X X                                         . .     . . $ % k k k z v v c n n b b b , > & o . . . . o o , < b b n n n v v v z z k k % % $ . . . . . . . . . . . . . . . . .   .     . . o o + # ; 1 1 1 p 1 1 1 1 1 1 1 p p 1 1 1 1 1 1 1 # # # # # # # # # ; # 1 1 ; ; ; ; # ; # # + + + + o o + + + + + + # # # # 7 7 7 # @ @ + O O @ 7 9 7 f &.c.c.c.c.c.c.c.c.c.c.c.c.c.c.c.c.c.c.c.c.c.c.c.c.c.c.c.c.c.c.c.c.c.c.c.c.c.c.c.c.c.c.c.c.c.c.c.c.c.c.c.c.c.c.c.c.c.c.c.c.c.c.c.c.c.c.c.c.c.c.c.c.c.c.c.c.c.c.c.c.c.c.c.c.c.c.c.c.c.c.c.c.c.c.c.c.c.c.c.c.c.c.c.c.c.c.c.c.c.c.c.c.c.c.c.",
"c.c.c.c.c.c.c.c.c.c.c.c.c.c.c.c.c.c.c.c.c.c.c.c.c.c.c.c.c.c.c.c.c.c.c.c.c.c.c.c.c.c.c.c.c.c.c.c.c.c.c.c.c.c.c.c.c.c.c.c.c.c.c.c.c.c.c.c.c.c.c.c.c.c.c.c.c.c.c.c.c.c.c.c.c.c.c.c.c.c.c.c.c.c.c.c.c.c.c.c.c.c.c.c.c.c.c.c.c.c.c.c.c.c.c.c.c.c.c.c.c.c.c.c.c.c.c.c.c.c.c.c.c.c.c.c.c.c.c.c.c.c.c.c.c.c.c.c.c.c.c.c.c.c.c.c.c.c.c.c.c.c.c.c.c.c.c.c.c.c.c.c.c.&.$.v.&.c.@.$.c.c.c.c.c.c.c.c.c.c.c.c.c.c.c.c.c.c.c.c.c.c.c.c.c.c.c.c.c.c.c.c.c.c.c.c.c.c.c.c.c.c.c.c.c.c.c.c.c.c.c.c.c.c.c.c.c.c.c.c.c.c.c.c.c.c.c.c.c.c.c.c.c.c.c.c.k.k.k.k.D.xX:X} L P R ^ / ^ L L L ' .X@X$X$X@X.XQ.] ` L P H H H M M M M T R ` { S.S.} } } S.|.|._.{ [ R J J J J m m Y Y Y Y Y Y E Y Y B V Y Y Y d d 2 3 3 a d A D E D D D D D D h h h h h f p 1 ; # + O X X                                           . . . . . $ % k k k z v c c n n n b b < , > > o o & & 5 , < b b n n n n v v v z z k k % % $ . . . . . . . . . . . . . . .           + . . o + # 1 1 1 1 1 1 1 1 1 1 1 1 1 1 1 1 1 p 1 1 1 1 ; ; ; # # # # 1 1 1 ; 1 1 1 1 q 1 ; ; # # + + + + + o + O + + + + # # + + # # # # # @ @ @ @ @ @ 7 7 7 $.c.c.c.c.c.c.c.c.c.c.c.c.c.c.c.c.c.c.c.c.c.c.c.c.c.c.c.c.c.c.c.c.c.c.c.c.c.c.c.c.c.c.c.c.c.c.c.c.c.c.c.c.c.c.c.c.c.c.c.c.c.c.c.c.c.c.c.c.c.c.c.c.c.c.c.c.c.c.c.c.c.c.c.c.c.c.c.c.c.c.c.c.c.c.c.c.c.c.c.c.c.c.c.c.c.c.c.c.c.c.c.c.c.c.c.",
"c.c.c.c.c.c.c.c.c.c.c.c.c.c.c.c.c.c.c.c.c.c.c.c.c.c.c.c.c.c.c.c.c.c.c.c.c.c.c.c.c.c.c.c.c.c.c.c.c.c.c.c.c.c.c.c.c.c.c.c.c.c.c.c.c.c.c.c.c.c.c.c.c.c.c.c.c.c.c.c.c.c.c.c.c.c.c.c.c.c.c.c.c.c.c.c.c.c.c.c.c.c.c.c.c.c.c.c.c.c.c.c.c.c.c.c.c.c.c.c.c.c.c.c.c.c.c.c.c.c.c.c.c.c.c.c.c.c.c.c.c.c.c.c.c.c.c.c.c.c.c.c.c.c.c.c.c.c.c.c.c.c.c.c.c.c.c.c.c.c.c.c.&.c.&.c.$.&.T.fX&.&.&.&.c.c.c.c.c.c.c.c.c.c.c.c.c.c.c.c.c.c.c.c.c.c.c.c.c.c.c.c.c.c.c.c.c.c.c.c.c.c.c.c.c.c.c.c.c.c.c.c.c.c.c.c.c.c.c.c.c.c.c.c.c.c.c.c.c.c.c.c.c.c.c.c.n.k.k.E -XlXoX^ P H T T T T R L U ]..X.X$X$X@X.X] U L P b b b b b m m m T R ` { S.S.S.S.S.S.|.|.S.} [ R J J J J 4 m B B B B Y Y Y Y B 4 B Y Y Y d d 2 3 3 a d d D D D D D D D D h h h h h f p 1 # + O X X O                                               . . . $ % k k k z v c c n n n b b < , , 5 > & > , < b b b n n n n n v v v z z k k % % $ . . . . . . . . . . . . . . .         + + + . + # # 1 1 1 1 1 1 1 1 1 1 1 1 1 1 1 1 1 p 1 1 1 1 ; ; ; 1 1 1 1 1 1 1 1 1 1 1 1 # # # # # # + + + + + o + O + + + # # # @ @ @ @ # # # # @ @ @ @ @ 7 7 7 f &.c.c.c.c.c.c.c.c.c.c.c.c.c.c.c.c.c.c.c.c.c.c.c.c.c.c.c.c.c.c.c.c.c.c.c.c.c.c.c.c.c.c.c.c.c.c.c.c.c.c.c.c.c.c.c.c.c.c.c.c.c.c.c.c.c.c.c.c.c.c.c.c.c.c.c.c.c.c.c.c.c.c.c.c.c.c.c.c.c.c.c.c.c.c.c.c.c.c.c.c.c.c.c.c.c.c.c.c.c.c.c.c.c.c.",
"c.c.c.c.c.c.c.c.c.c.c.c.c.c.c.c.c.c.c.c.c.c.c.c.c.c.c.c.c.c.c.c.c.c.c.c.c.c.c.c.c.c.c.c.c.c.c.c.c.c.c.c.c.c.c.c.c.c.c.c.c.c.c.c.c.c.c.c.c.c.c.c.c.c.c.c.c.c.c.c.c.c.c.c.c.c.c.c.c.c.c.c.c.c.c.c.c.c.c.c.c.c.c.c.c.c.c.c.c.c.c.c.c.c.c.&.0.0.c.c.c.c.c.c.c.c.c.c.c.c.c.c.c.c.c.c.$.&.c.c.$.&.&.$.&.c.c.c.c.c.c.c.c.c.c.c.c.c.c.c.c.c.c.c.c.c.c.c.c.c.c.c.&.c.c.c.c.$.SXDX&.&.&.&.&.&.&.&.c.c.c.c.c.c.c.c.c.c.c.c.c.c.c.c.,.,.,.,.c.c.c.c.c.c.c.c.c.c.c.c.c.c.c.c.c.c.c.c.c.c.c.c.c.c.c.c.c.c.c.c.c.c.c.c.c.c.c.c.c.c.,.,.c.,.,.,.v.>.W =X<X,X} P < < < < J T ^ { Q.Q.Q.Q. X#X#X.X X].' I K L R R K K J J R ^ ` [ S.S.{ { } S._.|.S.{ [ R m J J Y Y m 4 4 4 m Y Y 4 Y 4 4 J Y Y Y V d d 3 3 a a d E E E D h h h h h h h d d p p 1 # +   O                                                   . . . $ % k k k z c c n n n n b n b b b b b b b b b b n n n M M v v v z z z k k k % % . . . . . . . . . . . . . . . .     . . o o o o + # # o 1 1 1 1 1 1 1 - - o o o o ; 1 1 p p p p p p p p s p p p 1 1 ; ; ; 1 1 ; # # # # # + + + + O + + + + @ # # # 7 # # @ @ @ # 7 7 # 7 7 @ @ 7 7 7 7 9 j $.c.c.c.c.c.c.c.c.c.c.c.c.c.c.c.c.c.c.c.c.c.c.c.c.c.c.c.c.c.c.c.c.c.c.c.c.c.c.c.c.c.c.c.c.c.c.c.c.c.c.c.c.c.c.c.c.c.c.c.c.c.c.c.c.c.c.c.c.,.,.c.,.,.,.,.&.&.c.c.c.c.c.c.c.c.c.c.c.c.c.c.c.c.c.c.c.c.c.c.c.c.c.c.c.c.c.c.c.c.c.c.c.c.",
"c.c.c.c.c.c.c.c.c.c.c.c.c.c.c.c.c.c.c.c.c.c.c.c.c.c.c.c.c.c.c.c.c.c.c.c.c.c.c.c.c.c.c.c.c.c.c.c.c.c.c.c.c.c.c.c.c.c.c.c.c.c.c.c.c.c.c.c.c.c.c.c.c.c.c.c.c.c.c.c.c.c.c.c.c.c.c.c.c.c.c.c.c.c.c.c.c.c.c.c.c.c.c.c.c.c.c.c.c.c.c.c.c.c.c.c.c.c.v.v.c.c.c.c.c.c.c.c.c.c.c.c.c.c.c.c.$.&.T.zXgXH.&.$.c.c.c.c.c.c.c.c.c.c.c.c.c.c.c.c.c.c.c.c.c.c.c.c.c.c.c.c.c.c.c.c.&.$.DXVX&.&.&.&.&.&.&.&.c.c.c.c.c.c.c.c.c.c.c.c.c.c.c.c.c.c.,.,.0.0.0.c.,.,.,.,.c.c.c.c.c.c.c.c.c.c.c.c.c.c.c.c.c.c.c.c.c.c.c.c.c.c.c.c.c.c.c.c.c.c.c.c.,.,.1.,.n.h / 2X,X.X` H b b < b H T ^ { } } } } Q. X#X#X.X.X X|.} { { { [ ^ R R [ [ { } S.} { { } S._.|.S.{ [ R J Y Y Y Y B 4 4 4 m Y Y B Y 4 ~ ~ ~ Y E Y d d 3 3 a a d D E D D h h h h h h h d d p p 1 # O   O                                                   . . . $ % k k l z c c n n n n n n n n n n n n n n n n M M M M v v c c z z k k k % % $ . . . . . . . . . .     . . . .     . . o o # o o # # # # # # - - - - - - - - - 1 3 3 a d d d d h h h d d p p p 1 1 ; ; ; ; ; # # # # + + + + + + O + + + @ @ # 7 e e # # @ @ @ # # # # 7 7 @ @ 7 7 7 7 7 7 j $.0.c.c.c.c.c.c.c.c.c.c.c.c.c.c.c.c.c.c.c.c.c.c.c.c.c.c.c.c.c.c.c.c.c.c.c.c.c.c.c.c.c.c.c.c.c.c.c.c.c.c.c.c.c.c.c.c.c.c.c.c.c.c.c.c.c.c.c.$.H.=.c.,.,.&.&.c.c.c.c.c.c.c.c.c.c.c.c.c.c.c.c.c.c.c.c.c.c.c.c.c.c.c.c.c.c.c.c.c.c.c.c.",
"c.c.c.c.c.c.c.c.c.c.c.c.c.c.c.c.c.c.c.c.c.c.c.c.c.c.c.c.c.c.c.c.c.c.c.c.c.c.c.c.c.c.c.c.c.c.c.c.c.c.c.c.c.c.c.c.c.c.c.c.c.c.c.c.c.c.c.c.c.c.c.c.c.c.c.c.c.c.c.c.c.c.c.c.c.c.c.c.c.c.c.c.c.c.c.c.c.c.c.c.c.c.c.c.c.c.c.c.c.c.c.c.c.c.c.c.v.$.$.0.c.c.c.c.c.c.c.c.c.c.c.c.c.c.c.c.$.c.zXVXNXT.$.&.c.c.c.c.c.c.c.c.c.c.c.c.c.c.c.c.c.c.c.c.c.c.c.c.c.c.c.c.c.c.c.c.&.&.L.L.&.&.&.&.&.&.&.&.c.c.c.c.c.c.c.c.c.c.c.c.c.c.c.c.c.c.0.0.0.0.0.0.,.,.,.,.,.,.c.c.c.c.c.c.c.c.c.c.c.c.c.c.c.c.c.c.c.c.c.c.c.c.c.c.c.c.c.c.k.k.c.c.,.,.,.,.>.l.=XnX,X} L H b b b b H L ` { { { { { } Q. X#X;X#X#X;XoX|.S.{ ` ^ ! R [ [ { } [ { { { S.S._.|.|.} [ R ~ Y Y Y Y B 4 4 4 m Y Y Y ~ J { J ~ Y Y Y d d 3 3 a a d D D D D h h h h h h h d d p p 1 # X O O                                                 . . . . $ % k k k z c c c n n n n n n n n n n n n n n n M n n n v v c l l k k % % $ $ $ . . . . . . . . . . . . . . . . o o . . o o # o o - ; 1 1 1 1 1 1 2 3 3 2 2 d d A A A A A A A h d d h h d p p p 1 1 p ; # # # # # # # + + + + + + + + + @ @ # # 7 7 e # # @ @ @ # 7 # # @ 7 7 @ 7 7 e e 7 9 7 f $.0.c.c.c.c.c.c.c.c.c.c.c.c.c.c.c.c.c.c.c.c.c.c.c.c.c.c.c.c.c.c.c.c.c.c.c.c.c.c.c.c.c.c.c.c.c.c.c.c.c.c.c.c.c.c.c.c.c.c.c.c.c.c.c.c.c.&.&.&.$.&.,.,.&.&.c.c.c.c.c.c.c.c.c.c.c.c.c.c.c.c.c.c.c.c.c.c.c.c.c.c.c.c.c.c.c.c.c.c.c.c.",
"c.c.c.c.c.c.c.c.c.c.c.c.c.c.c.c.c.c.c.c.c.c.c.c.c.c.c.c.c.c.c.c.c.c.c.c.c.c.c.c.c.c.c.c.c.c.c.c.c.c.c.c.c.c.c.c.c.c.c.c.c.c.c.c.c.c.c.c.c.c.c.c.c.c.c.c.c.c.c.c.c.c.c.c.c.c.c.c.c.c.c.c.c.c.c.c.c.c.c.c.c.c.c.c.c.c.c.c.c.c.c.c.c.c.c.c.$.$.c.T.c.c.&.c.c.c.c.c.c.c.c.c.c.c.c.c.&.$.L.zXfXH.$.J.c.c.c.c.c.c.c.c.c.c.c.c.c.c.c.c.c.c.c.c.c.c.c.c.c.c.c.c.c.c.c.c.$.$.c.c.&.&.&.&.&.&.&.&.c.c.c.c.c.c.c.c.c.c.c.c.c.c.c.c.c.c.0.0.0.0.0.0.,.,.,.,.,.,.c.c.c.c.c.c.c.c.c.c.c.c.c.c.c.c.c.c.c.c.c.c.c.c.c.c.c.c.c.c.c.k.c.c.,.,.,.>.d -XnXvX.X' P H H H H H P L ` { { { { ' ' } Q. X#X,X,X,X;XOXXXS.{ { ` ^ R ! ` [ ! ` { { S.S._.|.|.} [ ! T ~ W ~ Y B 4 4 4 m Y Y ! Y ~ S.< < 4 a Y d d a 3 3 a d h D D D D h h h h h h d d p p ; # X O O                                                 . . . . $ % k k k l v c c c n n n n n n n n n n n M M M M n M M v c z l l l % % % $ $ . . . . . . . . . . . . . . . . o o o o o o o o o 1 1 1 1 d d d d E E E E Q Q ! ! ! Q E A d d d a d a d d f f p p 1 1 ; ; # # + + # # # + + + + + + + O O @ # # # # # 7 # # @ @ @ 7 7 # # 7 7 7 @ 7 7 e e e 9 7 7 f $.0.c.c.c.c.c.c.c.c.c.c.c.c.c.c.c.c.c.c.c.c.c.c.c.c.c.c.c.c.c.c.c.c.c.c.c.c.c.c.c.c.c.c.c.c.c.c.c.c.c.c.c.c.c.c.c.c.c.c.c.c.c.c.c.c.c.gXL.jXT.,.,.&.&.c.c.c.c.c.c.c.c.c.c.c.c.c.c.c.c.c.c.c.c.c.c.c.c.c.c.c.c.c.c.c.c.c.c.c.c.",
"c.c.c.c.c.c.c.c.c.c.c.c.c.c.c.c.c.c.c.c.c.c.c.c.c.c.c.c.c.c.c.c.c.c.c.c.c.c.c.c.c.c.c.c.c.c.c.c.c.c.c.c.c.c.c.c.c.c.c.c.c.c.c.c.c.c.c.c.c.c.c.c.c.c.c.c.c.c.c.c.c.c.c.c.c.c.c.c.c.c.c.c.c.c.c.c.c.c.c.c.c.c.c.c.c.c.c.c.c.c.c.c.c.c.c.c.c.$.fXDXL.&.&.&.c.c.c.c.c.c.c.c.c.c.c.c.0.c.c.c.c.c.c.c.c.c.c.c.c.c.c.c.c.c.c.c.c.c.c.c.c.c.c.c.c.c.c.c.c.c.c.c.c.c.c.c.&.&.&.&.&.&.&.&.&.&.&.&.c.c.c.c.c.c.c.c.c.c.c.c.c.c.c.c.c.c.0.0.0.0.0.c.1.1.,.,.,.,.c.c.c.c.c.c.c.c.c.c.c.c.c.c.c.c.c.c.c.c.c.c.c.c.c.c.c.c.c.c.c.c.c.c.,.n.k.E /.vXnX#X] I L ^ L L L L L I ` ' { ` ^ L ^ ` } Q.oX#XOXOX;XOXXXS.{ ` L K ! ! ! ! ! ! ` [ S.S.S.S.} { ` ! ~ ~ ~ ~ Y B 4 4 4 d Y Y Y ~ m :X[   5 > d a 3 3 3 3 3 p d h h E D D D h h d d h h s 1 ; # O   O                                                   . . . $ % % % k k l c c c v v v v N N v v v v v c c c z z z z z z l l % % % $ $ . . . . . . . . . . . . . o o . . .   o o o o 2 d E E V.Z.G.G.Z.Z.Z.Z.Z.V.! ! Q Q Q Q Q Y Y A d d a 3 a a p d f f p p 1 1 ; # + + + + # # # # + + + + + + + + @ @ # # # # # # 7 7 @ @ # # # # 7 @ @ @ @ e f f g f y e O f 0.c.c.c.c.c.c.c.c.c.c.c.c.c.c.c.c.c.c.c.c.c.c.c.c.c.c.c.c.c.c.c.c.c.c.c.c.c.c.c.c.c.c.c.c.c.c.c.c.c.c.c.c.c.c.c.c.c.c.c.c.c.c.v.j BXLXJXLXBX,.,.&.c.c.c.c.c.c.c.c.c.c.c.c.c.c.c.c.c.c.c.c.c.c.c.c.c.c.c.c.c.c.c.c.c.c.c.c.c.",
"c.c.c.c.c.c.c.c.c.c.c.c.c.c.c.c.c.c.c.c.c.c.c.c.c.c.c.c.c.c.c.c.c.c.c.c.c.c.c.c.c.c.c.c.c.c.c.c.c.c.c.c.c.c.c.c.c.c.c.c.c.c.c.c.c.c.c.c.c.c.c.c.c.c.c.c.c.c.c.c.c.c.c.c.c.c.c.c.c.c.c.c.c.c.c.c.c.c.c.c.c.c.c.c.c.c.c.c.c.c.c.c.c.c.c.c.v.v.L.NXJ.c.&.c.c.c.c.c.c.c.c.c.c.c.c.c.c.0.c.c.c.c.c.c.c.c.c.c.c.c.c.c.c.c.c.c.c.c.c.c.c.c.c.c.c.c.c.c.c.c.c.c.c.c.c.c.&.&.&.&.&.&.&.&.&.&.&.&.c.c.c.c.c.c.c.c.c.c.c.c.c.c.c.c.c.c.0.0.0.0.0.0.1.1.,.,.,.,.c.c.c.c.c.c.c.c.c.c.c.c.c.c.c.c.c.c.c.c.c.c.c.c.c.c.c.c.c.c.c.c.c.c.,.>.d ! lXnX2X' ` P L ` ` ` ` ` ` ` ' } { ` ^ L P L ` { ^. XoXOX=XOXoX|.} ` R R ! ! ! T T ! ` [ S.S.S.} { [ ! ! ~ ~ ~ Y Y B 4 4 4 d Y Y Y ~ m :X:Xo o o 2 3 3 1 3 3 3 3 d h h E D D D h h d d d h s 1 # # X X                                                     . . . $ $ % % k k l z z c c v v v v v v v v v v x x z l l l z l l % % % $ $ $ . . . . . . . . . . . . . . . . > E l.! Z.Z.Z.Z.F.F.F.G.G.Z.Z.Z.Z.Z.Z.Z.V.V.! ! Q Q Q Q Y Y d d d a 3 3 3 p p p f p p p 1 1 # o + + # # # # # # + + + + + + + + @ @ @ # # # # # 7 @ @ O # # # # 7 @ @ @ @ e y y #.g y w 6 y #.0.c.c.c.c.c.c.c.c.c.c.c.c.c.c.c.c.c.c.c.c.c.c.c.c.c.c.c.c.c.c.c.c.c.c.c.c.c.c.c.c.c.c.c.c.c.c.c.c.c.c.c.c.c.c.c.c.c.c.c.c.H.c.$.BXKXJXKXmX,.,.&.c.c.c.c.c.c.c.c.c.c.c.c.c.c.c.c.c.c.c.c.c.c.c.c.c.c.c.c.c.c.c.c.c.c.c.c.c.",
"c.c.c.c.c.c.c.c.c.c.c.c.c.c.c.c.c.c.c.c.c.c.c.c.c.c.c.c.c.c.c.c.c.c.c.c.c.c.c.c.c.c.c.c.c.c.c.c.c.c.c.c.c.c.c.c.c.c.c.c.c.c.c.c.c.c.c.c.c.c.c.c.c.c.c.c.c.c.c.c.c.c.c.c.c.c.c.c.c.c.c.c.c.c.c.c.c.c.c.c.c.c.c.c.c.c.c.c.c.c.c.c.c.c.c.c.H.c.$.L.c.c.c.c.c.c.c.c.c.c.c.c.c.c.c.c.c.c.c.c.c.c.c.c.c.c.c.c.c.c.c.c.c.c.c.c.c.c.c.c.c.c.c.c.c.c.c.c.c.c.c.c.c.c.c.c.&.&.&.&.&.&.&.&.&.&.&.&.c.c.c.c.c.c.c.c.c.c.c.c.c.c.c.c.c.c.c.c.0.0.0.c.H.H.H.H.c.c.c.c.c.c.c.c.c.c.c.c.c.c.c.c.c.c.c.c.c.c.c.c.c.c.c.c.c.c.c.c.,.,.c.c.n.h ! oXvX0X} L ' I ' } } } } } ' ] } ^.} { ` ^ H K L ^ { ^.|.oXOX;XOX|.S.{ ` ^ R R R R ! ! ` [ S.} { { [ ! T T T ~ ~ ~ Y B 4 4 4 B Y Y B ~ J ,XvXo o 2 o * ; 1 3 3 3 3 d h h E h h h h h h h h h f 1 # # O                     . .                               . . . $ $ % % % k k l l l z z x x x x z x x x x x x x k k k l % % % % $ $ . . . . . . . . . . o o o o . o 2 2 x.W.-XG._.F.F.F.F.G.Z.Z.Z.Z.Z.Z.Z.) ) V.V.x.! Q E E E E E d d d d a p p 1 1 p p p p # # ; # o o # # # # # # # # + + + + # + + + @ @ @ @ @ @ @ @ 7 @ @ O @ 7 7 7 7 7 @ @ @ w y y $.#.y w w y g 0.c.c.c.c.c.c.c.c.c.c.c.c.c.c.c.c.c.c.c.c.c.c.c.c.c.c.c.c.c.c.c.c.c.c.c.c.c.c.c.c.c.c.c.c.c.c.c.c.c.c.c.c.c.c.c.c.c.c.c.c.,.H.&.v.L.L.J.&.,.,.c.c.c.c.c.c.c.c.c.c.c.c.c.c.c.c.c.c.c.c.c.c.c.c.c.c.c.c.c.c.c.c.c.c.c.c.c.c.",
"c.c.c.c.c.c.c.c.c.c.c.c.c.c.c.c.c.c.c.c.c.c.c.c.c.c.c.c.c.c.c.c.c.c.c.c.c.c.c.c.c.c.c.c.c.c.c.c.c.c.c.c.c.c.c.c.c.c.c.c.c.c.c.c.c.c.c.c.c.c.c.c.c.c.c.c.c.c.c.c.c.c.c.c.c.c.c.c.c.c.c.c.c.c.c.c.c.c.c.c.c.c.c.c.c.c.c.c.c.c.c.c.c.c.c.c.c.$.c.&.c.c.v.c.c.c.c.c.c.c.c.c.c.c.c.c.c.c.c.c.c.c.c.c.c.c.c.c.c.c.c.c.c.c.c.c.c.c.c.c.c.c.c.c.c.c.c.c.c.c.c.c.c.c.c.c.&.&.&.&.&.&.&.&.&.&.&.&.c.c.c.c.c.c.c.c.c.c.c.c.c.c.c.c.c.c.c.c.,.,.,.,.c.c.u.u.c.c.c.c.c.c.c.c.c.c.c.c.c.c.c.c.c.c.c.c.c.c.c.c.c.c.c.c.c.c.c.c.,.,.,.c.k.E =X2X5X.XH U Q.Q. X.X.X X X XQ.Q.|.|.^.S.{ ` H K K L ^ { } ^.oX=XOXoXS.} { ` R R R R ! ! ` [ { [ [ [ ! T R T T ~ ~ ~ Y B 4 4 4 B Y Y J ~ J 2XnX< o >   o # ; 1 1 1 1 d h h E h h h h h h h h h f 1 # # O                     .                                 . . . $ $ $ % % % % k k l l l l l l l x x x x x l l l k k k % % % % $ $ . . . . . . .   . . . o o o o o d N.F.G.`.XXG.S.S.S.S.F.S.Z.Z.Z.[ Z.[ ) ) ) V.V.! ! Q E E E E A d d d d d f p p 1 1 1 # # # # # + o o o # # + # # # + + + + # @ + + + @ @ @ @ @ O O + @ @ O O @ 7 7 7 7 7 @ @ @ w y y $.#.g t y y f 0.c.c.c.c.c.c.c.c.c.c.c.c.c.c.c.c.c.c.c.c.c.c.c.c.c.c.c.c.c.c.c.c.c.c.c.c.c.c.c.c.c.c.c.c.c.c.c.c.c.c.c.c.c.c.c.c.c.c.c.c.v.v.H.,.,.L.$.&.,.,.c.c.c.c.c.c.c.c.c.c.c.c.c.c.c.c.c.c.c.c.c.c.c.c.c.c.c.c.c.c.c.c.c.c.c.c.c.c.",
"c.c.c.c.c.c.c.c.c.c.c.c.c.c.c.c.c.c.c.c.c.c.c.c.c.c.c.c.c.c.c.c.c.c.c.c.c.c.c.c.c.c.c.c.c.c.c.c.c.c.c.c.c.c.c.c.c.c.c.c.c.c.c.c.c.c.c.c.c.c.c.c.c.c.c.c.c.c.c.c.c.c.c.c.c.c.c.c.c.c.c.c.c.c.c.c.c.c.c.c.c.c.c.c.c.c.c.c.c.c.c.c.c.c.c.c.c.c.c.c.&.c.c.c.c.c.c.c.c.c.c.c.c.c.c.c.c.c.c.c.c.c.c.c.c.c.c.c.c.c.c.c.c.c.c.c.c.c.c.c.c.c.c.c.c.c.c.c.c.c.c.c.c.c.c.c.c.c.c.c.c.c.c.c.c.c.c.c.c.c.c.c.c.c.c.c.c.c.c.c.c.c.c.c.c.c.c.,.3.3.N n.<.c.c.0.c.c.c.c.c.c.c.c.c.c.c.c.c.c.c.c.c.c.c.c.c.c.,.c.c.c.c.c.,.,.,.,.,.*.>.V d F.oX2X$XP b ' Q. X#X<X1X,X#X X].|.|.|.^.S.} { ^ ^ ! ! ^ ` { } XXXXXXoXS.S.{ [ ! ! ! ! ! ! [ [ / ! ! ! ! R T T T T ! ~ Y Y m 4 4 m B Y m ~ J <XnX|.> 2 o o # # 1 1 1 1 f h h E h h h h h h h h h f 1 # # +                                                         . . . . . . $ $ % % % k k k l l l l l l l l k k k % % % % % $ $ $ . . . . . .   .   . o & 2   o o 2 ! G.F._._._._.F.F.S.S.S.A.Z.Z.Z.) ) ) ) ) ) ) ) V.x.Q Q Q E E D d h h d d s f p p ; ; # # # + + + + + + # # # # @ @ @ @ @ @ + + + + + + @ + + + @ O O O @ O O O O O @ 7 7 @ @ 6 w w w t g #.g u w w f 8.c.c.c.c.c.c.c.c.c.c.c.c.c.c.c.c.c.c.c.c.c.c.c.c.c.c.c.c.c.c.c.c.c.c.c.c.c.c.c.c.c.c.c.c.c.c.c.c.c.c.c.c.c.c.c.c.c.c.c.c.c.,.&.&.c.c.c.c.c.c.c.c.c.c.c.c.c.c.c.c.c.c.c.c.c.c.c.c.c.c.c.c.c.c.c.c.c.c.c.c.c.c.c.c.c.c.c.c.",
"c.c.c.c.c.c.c.c.c.c.c.c.c.c.c.c.c.c.c.c.c.c.c.c.c.c.c.c.c.c.c.c.c.c.c.c.c.c.c.c.c.c.c.c.c.c.c.c.c.c.c.c.c.c.c.c.c.c.c.c.c.c.c.c.c.c.c.c.c.c.c.c.c.c.c.c.c.c.c.c.c.c.c.c.c.c.c.c.c.c.c.c.c.c.c.c.c.c.c.c.c.c.c.c.c.c.c.c.c.c.c.c.c.c.c.c.c.c.c.c.c.c.c.c.c.c.c.c.c.c.c.c.c.c.c.c.c.c.c.c.c.c.c.c.c.c.c.c.c.c.c.c.c.c.c.c.c.c.c.c.c.c.c.c.c.c.c.c.c.c.c.c.c.c.c.c.c.c.c.c.c.c.c.c.c.c.c.c.c.c.c.c.c.c.c.c.c.c.c.c.c.c.c.c.c.c.c.<.N z z C <.>.c.0.c.c.c.c.c.c.c.c.c.c.c.c.c.c.c.c.c.c.c.c.c.c.,.c.c.c.c.c.,.,.,.,.,.&.>.V / ,X.X$X' < L  X#X$X<X1X1X1X#X.X].Q.|.^.^.S.{ [ / / ^ ^ / ` { } |.|.|.^.S.} { [ [ [ [ [ ! ! ! ! ! ! R R R R T T T T ! ~ ! Y Y B 4 m B Y m J H 2XbXvXJ o o o # # 1 1 1 1 1 f h h h h h h h h h h h f 1 # # +                                                         . . . . . . . $ $ $ % % % k k k k k k k k k % % % % $ $ $ $ . . . . . . . .   .   . . . . . 2 Y / Z.F.F._.F.F.F.F.F.S.S.S.G.A.Z.[ [ ) V.) ) ) ) ) ) V.z.z.Q E E D D h h d s s s p p p e # # # # + O + + + + # # # # @ @ @ @ @ @ + + + + + + @ @ + @ @ + O O @ @ @ O O O O O 7 @ @ @ w w w w u u g g t w y #.c.c.c.c.c.c.c.c.c.c.c.c.c.c.c.c.c.c.c.c.c.c.c.c.c.c.c.c.c.c.c.c.c.c.c.c.c.c.c.c.c.c.c.c.c.c.c.c.c.c.c.c.c.c.c.c.c.c.c.c.&.,.&.&.c.c.c.c.c.c.c.c.c.c.c.c.c.c.c.c.c.c.c.c.c.c.c.c.c.c.c.c.c.c.c.c.c.c.c.c.c.c.c.c.c.c.c.c.",
"c.c.c.c.c.c.c.c.c.c.c.c.c.c.c.c.c.c.c.c.c.c.c.c.c.c.c.c.c.c.c.c.c.c.c.c.c.c.c.c.c.c.c.c.c.c.c.c.c.c.c.c.c.c.c.c.c.c.c.c.c.c.c.c.c.c.c.c.c.c.c.c.c.c.c.c.c.c.c.c.c.c.c.c.c.c.c.c.c.c.c.c.c.c.c.c.c.c.c.c.c.c.c.c.c.c.c.c.c.c.c.c.c.c.c.c.c.c.c.c.c.c.c.c.c.c.c.c.c.c.c.c.c.c.c.c.c.c.c.c.c.c.c.c.c.c.c.c.c.c.c.c.c.c.c.c.c.c.c.c.c.c.c.c.c.c.c.c.c.c.c.c.c.c.c.c.c.c.c.c.c.c.c.c.c.c.c.c.c.c.c.c.c.c.c.c.c.c.c.c.c.c.c.c.c.c.c.<.6X6X6X6X3.<.k.c.c.c.c.c.c.c.c.c.c.c.c.c.c.c.c.c.c.c.c.c.c.c.c.c.c.c.c.c.,.,.,.c.$.$.V ! :XXX} .XP b Q.<X<X<X1X1X<X@X.X].Q.Q.Q.Q.} { [ / / [ [ [ [ ` { S.S.S.S.S.G.S.{ [ [ [ [ [ R R R R ~ T T T T T T T T T ! ! ! ! Y Y B B B B 4 J H <XbXAX+X  o o # # # # * # # # f f h h h h h h h h h f 1 # # + . .                                                 .       . . . . . . $ $ % % % % % % % % % % % % % % % $ $ . . . . . . . . . . . . . o o   o 4 Y Z.A.F.F.S.S.A.G.S.S.S.A.A.A.A.A.Z.Z.Z.Z.V.V.) ) ) x.x.x.V.x.z.E E D h h h h s f f p p p e # # # + + X X O + + + # # # # # # # # @ + @ @ + + + + @ @ @ @ # # @ O @ # # 7 @ @ @ O @ @ @ @ w w w w y t u u u y y #.0.c.c.c.c.c.c.c.c.c.c.c.c.c.c.c.c.c.c.c.c.c.c.c.c.c.c.c.c.c.c.c.c.c.c.c.c.c.c.c.c.c.c.c.c.c.c.c.c.c.c.c.c.c.c.c.c.c.c.c.&.&.&.&.c.c.c.c.c.c.c.c.c.c.c.c.c.c.c.c.c.c.c.c.c.c.c.c.c.c.c.c.c.c.c.c.c.c.c.c.c.c.c.c.c.c.c.c.",
"c.c.c.c.c.c.c.c.c.c.c.c.c.c.c.c.c.c.c.c.c.c.c.c.c.c.c.c.c.c.c.c.c.c.c.c.c.c.c.c.c.c.c.c.c.c.c.c.c.c.c.c.c.c.c.c.c.c.c.c.c.c.c.c.c.c.c.c.c.c.c.c.c.c.c.c.c.c.c.c.c.c.c.c.c.c.c.c.c.c.c.c.c.c.c.c.c.c.c.c.c.c.c.c.c.c.c.c.c.c.c.c.c.c.c.c.c.c.c.c.c.c.c.c.c.c.c.c.c.c.c.c.c.c.c.c.c.c.c.c.c.c.c.c.c.c.c.c.c.c.c.c.c.c.c.c.c.c.c.c.c.c.c.c.c.c.c.c.c.c.c.c.c.c.c.c.c.c.c.c.c.c.c.c.c.c.c.c.c.c.c.c.c.c.c.c.c.c.c.c.c.c.c.c.c.c.c.<.ZXZXZXZX~.C k.c.c.c.c.c.c.c.c.c.c.c.c.c.c.c.c.c.c.c.c.c.c.c.c.c.c.c.c.c.,.,.,.c.$.V Y XX=XR OX' < H <X2X1X1X1X1X.X XQ.] } } } } { ` ` / { { [ [ [ [ { S.G.G.G.G.G.A.Z.[ ! ! ! T R T T T ~ Y ~ ~ T T T T T T ! ! ! ! ! Y B B B B 4 H H 1XbXbXvX4 o o o # # # # # # # # p p f d d h h h h d f 1 # # + X                                                   . .     . . . . . . . $ $ $ $ % $ $ $ $ $ $ $ $ $ $ $ $ . . . . . . . .     . . . o o > 4 ~ / A.A.A.A.S.A.A.A.A.A.A.A.A.Z.Z.Z.Z.Z.Z.Z.Z.V.V.V.V.x.x.x.x.x.M.M.k.D h h h h s f p p p p e ; # # + O O X X O O + + + # # # # 7 # # 7 # @ @ + + + + @ @ @ @ # e e O @ # e e e e 6 @ @ @ @ @ w w w w t t w t g t y f $.c.c.c.c.c.c.c.c.c.c.c.c.c.c.c.c.c.c.c.c.c.c.c.c.c.c.c.c.c.c.c.c.c.c.c.c.c.c.c.c.c.c.c.c.c.c.c.c.c.c.c.c.c.c.c.c.c.c.c.&.&.&.&.c.c.c.c.c.c.c.c.c.c.c.c.c.c.c.c.c.c.c.c.c.c.c.c.c.c.c.c.c.c.c.c.c.c.c.c.c.c.c.c.c.c.c.c.",
"c.c.c.c.c.c.c.c.c.c.c.c.c.c.c.c.c.c.c.c.c.c.c.c.c.c.c.c.c.c.c.c.c.c.c.c.c.c.c.c.c.c.c.c.c.c.c.c.c.c.c.c.c.c.c.c.c.c.c.c.c.c.c.c.c.c.c.c.c.c.c.c.c.c.c.c.c.c.c.c.c.c.c.c.c.c.c.c.c.c.c.c.c.c.c.c.c.c.c.c.c.c.c.c.c.c.c.c.c.c.c.c.c.c.c.c.c.c.c.c.c.c.c.c.c.c.c.c.c.c.c.c.c.c.c.c.c.c.c.c.c.c.c.c.c.c.c.c.c.c.c.c.c.c.c.c.c.c.c.c.c.c.c.c.c.c.c.c.c.c.c.c.c.c.c.c.c.c.c.c.c.c.c.c.c.c.c.c.c.c.c.c.c.c.c.c.c.c.c.c.c.c.c.c.c.c.c.<.).).).).3.<.>.c.c.c.c.c.c.c.c.c.c.c.c.c.c.c.c.c.c.c.c.c.c.c.c.c.c.c.c.c.1.1.1.,.k.V G.lX^ S.} P < ].5X<X,X#X.X X X|.].Q.} { { { { ` ` ` ` ` [ [ [ [ [ [ G.A.Z.[ ! ! ! ! ! T T ~ ~ ~ ~ Y ~ T T ! R ! ! ! ! ! ! ! ! ! ! ! ! ~ Y Y 4 J H 7XbXbXbXoX> o & * # 7 7 7 7 7 # # # 1 p p s h h h d f 1 1 # +                                                                   . . . . . . $ $ $ $ $ $ $ $ $ $ $ . . $ . .                       o > 4 ~ Z.Z.{ A.S.A.[ [ [ [ [ Z.Z.Z.Z.Z.Z.Z.Z.Z.Z.V.V.V.! x.x.x.x.z.z.z.M.k.k.8.h h g f f p p 1 p e ; # # # # + O O O O X O + + + + # # 7 7 p e e e # @ # # # @ @ @ @ # @ # e e ; e e y y y y e 6 @ @ @ y y g g u u t t u y y 9 f $.&.c.c.c.c.c.c.c.c.c.c.c.c.c.c.c.c.c.c.c.c.c.c.c.c.c.c.c.c.c.c.c.c.c.c.c.c.c.c.c.c.c.c.c.c.c.c.c.c.c.c.c.c.c.c.c.c.c.c.c.c.c.c.c.c.c.c.c.c.c.c.c.c.c.c.c.c.c.c.c.c.c.c.c.c.c.c.c.c.c.c.c.c.c.c.c.c.c.c.c.c.c.c.c.c.c.",
"c.c.c.c.c.c.c.c.c.c.c.c.c.c.c.c.c.c.c.c.c.c.c.c.c.c.c.c.c.c.c.c.c.c.c.c.c.c.c.c.c.c.c.c.c.c.c.c.c.c.c.c.c.c.c.c.c.c.c.c.c.c.c.c.c.c.c.c.c.c.c.c.c.c.c.c.c.c.c.c.c.c.c.c.c.c.c.c.c.c.c.c.c.c.c.c.c.c.c.c.c.c.c.c.c.c.c.c.c.c.c.c.c.c.c.c.c.c.c.c.c.c.c.c.c.c.c.c.c.c.c.c.c.c.c.c.c.c.c.c.c.c.c.c.c.c.c.c.c.c.c.c.c.c.c.c.c.c.c.c.c.c.c.c.c.c.c.c.c.c.c.c.c.c.c.c.c.c.c.c.c.c.c.c.c.c.c.c.c.c.c.c.c.c.c.c.c.c.c.c.c.c.c.c.c.&.&.<.Z Z Z Z C <.>.c.c.c.c.c.c.c.c.c.c.c.c.c.c.c.c.c.c.c.c.c.c.c.c.c.c.c.c.,.1.1.1.,.V / lXA./ } ' P } ,X<X#X.X X|.Q.].^.Q.Q.Q.} { { { { { [ ` ` [ [ / / Z.Z.Z.[ ! ! ! ! ! ! ! T T ~ ~ ~ ~ ~ T T ! ! ! ! ! ! ! ! ! ! ! ! ! ! ! ! Y Y Y J P 0XwXbXbX0Xm & & 1 # 7 7 7 7 7 7 # # # # 1 1 p s h d f 1 ; # +                                                                         . . . . . . . . . . . . . . . . . . .                     o 2 Y ! Z.{ { { { { { [ _ _ _ _ _ ) ) ) ) ) ) ) V.V.V.! x.Q Q Q z.z.Q Q z.k.k.8.h h g f p p p ; ; ; ; # # # # # # O O O O O O + + + + # # 7 7 p p p e # @ # # # # @ @ @ @ @ # e e e y p g g f y y e 7 @ @ y y g g g u u u t y y 6 y f $.c.c.c.c.c.0.0.0.0.c.c.c.c.c.c.c.c.c.c.c.c.c.c.c.c.c.c.c.c.c.c.c.c.c.c.c.c.c.c.c.c.c.c.c.c.c.c.c.c.c.c.c.c.c.c.c.c.c.c.c.c.c.c.c.c.c.c.c.c.c.c.c.c.c.c.c.c.c.c.c.c.c.c.c.c.c.c.c.c.c.c.c.c.c.c.c.c.c.c.c.c.c.c.c.c.",
"c.c.c.c.c.c.c.c.c.c.c.c.c.c.c.c.c.c.c.c.c.c.c.c.c.c.c.c.c.c.c.c.c.c.c.c.c.c.c.c.c.c.c.c.c.c.c.c.c.c.c.c.c.c.c.c.c.c.c.c.c.c.c.c.c.c.c.c.c.c.c.c.c.c.c.c.c.c.c.c.c.c.c.c.c.c.c.c.c.c.c.c.c.c.c.c.c.c.c.c.c.c.c.c.c.c.c.c.c.c.c.c.c.c.c.c.c.c.c.c.c.c.c.c.c.c.c.c.c.c.c.c.c.c.c.c.c.c.c.c.c.c.c.c.c.c.c.c.c.c.c.c.c.c.c.c.c.c.c.c.c.c.c.c.c.c.c.c.c.c.c.c.c.c.c.c.c.c.c.c.c.c.c.c.c.c.c.c.c.c.c.c.c.c.c.c.c.c.c.c.c.c.c.c.c.c.,.,.<.<.<.<.,.,.c.c.c.c.c.c.c.c.c.c.c.c.c.c.c.c.c.c.c.c.c.c.c.c.c.c.c.c.c.,.,.,.1.c.E :X=X[ S.S.} ` OX<XOX|.|.^.^.^.^.^.^.^.} } } { { { { [ ` ` [ [ / N.Z./ ! ! T ~ ~ T T T T T T ~ ~ ~ ~ ~ ! ! ! ! ! ! ! ! ! ! ! ! ! ! ! / / ! ! ~ ~ J P qXwXwXbXnX|.> & 1 1 7 7 7 7 7 7 # # # # # # 1 1 f d f 1 1 # + O                                                                         . . . . . . . . . . . . . . . . . . . . . . . . . . o 1 a E x.G.A.{ { { { [ [ _ R R ! ! ! ! ! ! ! ) ) ) ! ! x.Q z.z.z.z.z.z.Q Q z.k.8.8.h g s p e e e ; ; # # # # # # # # O O O O O O + + # # # # 7 e e e p e 7 # # # # # @ @ # # @ @ e e e y r g g g g g y e 6 @ y y g g g #.#.u t 6 6 6 y f $.0.c.c.c.c.0.0.0.0.c.c.c.c.c.c.c.c.c.c.c.c.c.c.c.c.c.c.c.c.c.c.c.c.c.c.c.c.c.c.c.c.c.c.c.c.c.c.c.c.c.c.c.c.c.c.c.c.c.c.c.c.c.c.c.c.c.c.c.c.c.c.c.c.c.c.c.c.c.c.c.c.c.c.c.c.c.c.c.c.c.c.c.c.c.c.c.c.c.c.c.c.c.c.c.c.",
"c.c.c.c.c.c.c.c.c.c.c.c.c.c.c.c.c.c.c.c.c.c.c.c.c.c.c.c.c.c.c.c.c.c.c.c.c.c.c.c.c.c.c.c.c.c.c.c.c.c.c.c.c.c.c.c.c.c.c.c.c.c.c.c.c.c.c.c.c.c.c.c.c.c.c.c.c.c.c.c.c.c.c.c.c.c.c.c.c.c.c.c.c.c.c.c.c.c.c.c.c.c.c.c.c.c.c.c.c.c.c.c.c.c.c.c.c.c.c.c.c.c.c.c.c.c.c.c.c.c.c.c.c.c.c.c.c.c.c.c.c.c.c.c.c.c.c.c.c.c.c.c.c.c.c.c.c.c.c.c.c.c.c.c.c.c.c.c.c.c.c.c.c.c.c.c.c.c.c.c.c.c.c.c.c.c.c.c.c.c.c.c.c.c.c.c.c.c.c.c.c.c.c.c.c.c.,.,.H.H.H.H.c.c.c.c.c.c.c.c.c.c.c.c.c.c.c.c.c.c.c.c.c.c.c.c.c.c.c.c.c.c.c.c.,.,.,.k.F.lXR ^.OXoX|.|.|.|.} ^.^.Q.Q.Q.Q.^.^.Q.S.} { { { { { [ [ [ [ Z.N.N.Z.Z.! Y Y J Y Y Y Y T T T ~ ~ ~ ~ ~ ! ! ! ! ! / ! ! ! ! ! ! ! ! / / Z.[ ! ! T L L qXwXwXbXbX2XJ > > 1 7 9 9 7 7 7 # # # # # # # # 1 h p 1 ; # + O                                                                         . . . . . . . . . . . . . . . . . . . . . . . . . o 2 E x.N.Z.G.A.{ [ [ [ _ ! R T T T T ! ! ! ! ! ! Q Q Q x.x.Q z.z.z.z.z.z.z.z.k.k.k.8.h g s p e e e ; ; # # # # # # + + O O O O O O O O + # # # 7 e e e p e 7 # # # # # @ @ # # @ @ e e e e e e g g g g y y e 6 y y g g g #.#.#.t 6 6 6 y y f $.c.c.c.c.,.c.0.0.c.c.c.c.c.c.c.c.c.c.c.c.c.c.c.c.c.c.c.c.c.c.c.c.c.c.c.c.c.c.c.c.c.c.c.c.c.c.c.c.c.c.c.c.c.c.c.c.c.c.c.c.c.c.c.c.c.c.c.c.c.c.c.c.c.c.c.c.c.c.c.c.c.c.c.c.c.c.c.c.c.c.c.c.c.c.c.c.c.c.c.c.c.c.c.c.",
"c.c.c.c.c.c.c.c.c.c.c.c.c.c.c.c.c.c.c.c.c.c.c.c.c.c.c.c.c.c.c.c.c.c.c.c.c.c.c.c.c.c.c.c.c.c.c.c.c.c.c.c.c.c.c.c.c.c.c.c.c.c.c.c.c.c.c.c.c.c.c.c.c.c.c.c.c.c.c.c.c.c.c.c.c.c.c.c.c.c.c.c.c.c.c.c.c.c.c.c.c.c.c.c.c.c.c.c.c.c.c.c.c.c.c.c.c.c.c.c.c.c.c.c.c.c.c.c.c.c.c.c.c.c.c.c.c.c.c.c.c.c.c.c.c.c.c.c.c.c.c.c.c.c.c.c.c.c.c.c.c.c.c.c.c.c.c.c.c.c.c.c.c.c.c.c.c.c.c.c.c.c.c.c.c.c.c.c.c.c.c.c.c.c.c.c.c.c.c.c.c.c.c.c.c.c.c.c.v.v.v.c.c.c.c.c.c.c.c.c.c.c.c.c.c.c.c.c.c.c.c.c.c.c.c.c.c.c.0.0.0.c.c.c.n.m.j m.lXS.|.OXOXoXOX<X|.} { ' { { { { { } } { { { { { A.{ [ / / / ! ! Y Y Y Y Y Y Y Y Y Y Y Y ~ ~ ! ! ~ Y Y Y ! ! ! Z.Z./ / ! / Z./ / Z.Z./ / Z.Z.Z.Z.! _ ].qXwXwXwXbXnX} > & * 7 7 7 7 7 ; ; # # # # # # # # # # e ; # + +                                                       .                   . . .               .   . .         o o . . * 3 E ! N.N.N.Z.Z.Z.[ ! ! ! ! ~ Y ! ! ! ! ! ! ! ! Q Q Q Q Q Q Q Q Q z.z.z.k.D D D 8.D h h g g p y e e e 7 # @ # @ @ @ @ @ @ O O O O O O O O + @ # 7 e e e e e e 7 @ @ @ 6 7 7 7 7 7 6 e e e w 6 @ @ e y g g g y t w w t u g #.g u u #.t 6 O 6 w y f $.0.0.0.c.c.c.c.c.c.c.c.c.c.c.c.c.c.c.c.c.c.c.c.c.c.c.c.c.c.c.c.c.c.c.c.c.c.c.c.c.c.c.c.c.c.c.c.c.c.c.c.c.c.c.c.c.c.c.c.c.c.c.c.c.c.c.c.c.c.c.c.c.c.c.c.c.c.c.c.c.c.c.c.c.c.c.c.c.c.c.c.c.c.c.c.c.c.c.c.c.c.c.c.",
"c.c.c.c.c.c.c.c.c.c.c.c.c.c.c.c.c.c.c.c.c.c.c.c.c.c.c.c.c.c.c.c.c.c.c.c.c.c.c.c.c.c.c.c.c.c.c.c.c.c.c.c.c.c.c.c.c.c.c.c.c.c.c.c.c.c.c.c.c.c.c.c.c.c.c.c.c.c.c.c.c.c.c.c.c.c.c.c.c.c.c.c.c.c.c.c.c.c.c.c.c.c.c.c.c.c.c.c.c.c.c.c.c.c.c.c.c.c.c.c.c.c.c.c.c.c.c.c.c.c.c.c.c.c.c.c.c.c.c.c.c.c.c.c.c.c.c.c.c.c.c.c.c.c.c.c.c.c.c.c.c.c.c.c.c.c.c.c.c.c.c.c.c.c.c.c.c.c.c.c.c.c.c.c.c.c.c.c.c.c.c.c.c.c.c.c.c.c.c.c.c.c.c.c.c.c.c.c.c.c.c.c.c.c.c.c.c.c.c.c.c.c.c.c.c.c.c.c.c.c.c.c.c.c.c.c.c.c.0.0.0.c.c.c.>.V k.xXlX` oX;X XOX<XoXS.{ { ` ` ` ` ` ` ` ` [ / / / / / / R ~ ~ ~ Y Y Y Y Y Y Y Y Y Y Y Y Y Y Y Y ~ ~ ~ Y Y Y Y ! ! ! Z.Z./ / [ Z.[ [ Z.Z.Z.Z.Z.Z.Z.Z.[ ` ].qXqXwXwXbXbX,XJ > * q q 7 7 7 ; ; # # # # # # # # ; ; ; ; # + +                                     .                 . .                                             o o o o o o o & 2 d W N.N.N./ / ! ! T ~ ~ Y Y Y Y Y Y E E E E E E E Q Q Q Q Q Q Q Q k.k.8.k.D D D D D h g s p y e 7 e # @ @ @ @ @ @ @ O O O O O O O O O O O O + # 7 e e e e e 7 7 6 @ @ 6 7 7 # 7 7 7 e e e e w 6 @ e y g g g g u t w w t u #.#.u t u u w 6 @ 6 w t $.0.0.0.c.c.c.c.c.c.c.c.c.c.c.c.c.c.c.c.c.c.c.c.c.c.c.c.c.c.c.c.c.c.c.c.c.c.c.c.c.c.c.c.c.c.c.c.c.c.c.c.c.c.c.c.c.c.c.c.c.c.c.c.c.c.c.c.c.c.c.c.c.c.c.c.c.c.c.c.c.c.c.c.c.c.c.c.c.c.c.c.c.c.c.c.c.c.c.c.c.c.c.c.",
"c.c.c.c.c.c.c.c.c.c.c.c.c.c.c.c.c.c.c.c.c.c.c.c.c.c.c.c.c.c.c.c.c.c.c.c.c.c.c.c.c.c.c.c.c.c.c.c.c.c.c.c.c.c.c.c.c.c.c.c.c.c.c.c.c.c.c.c.c.c.c.c.c.c.c.c.c.c.c.c.c.c.c.c.c.c.c.c.c.c.c.c.c.c.c.c.c.c.c.c.c.c.c.c.c.c.c.c.c.c.c.c.c.c.c.c.c.c.c.c.c.c.c.c.c.c.c.c.c.c.c.c.c.c.c.c.c.c.c.c.c.c.c.c.c.c.c.c.c.c.c.c.c.c.c.c.c.c.c.c.c.c.c.c.c.c.c.c.c.c.c.c.c.c.c.c.c.c.c.c.c.c.c.c.c.c.c.c.c.c.c.c.c.c.c.c.c.c.c.c.c.c.c.c.c.c.c.c.c.c.c.c.c.c.c.c.c.c.c.c.c.c.c.c.c.c.c.c.c.c.c.c.c.c.c.c.c.c.0.0.0.c.c.k.V V W.lXS.OX XOXOX2XoX` } { [ ! R R R R R R R R T ~ ~ ~ ~ Y m 4 4 4 4 4 4 4 B B B B Y Y Y Y Y Y Y Y Y Y Y Y Y Y Y Y ! ! / Z.[ [ Z.Z.[ [ [ [ Z.Z.Z.Z.Z.Z.{ `  XqX8XwXwXwXbXvX} > & * 7 7 7 # ; ; # # # # # # # # # # ; ; # + +                                   . . .                                           X X X X     X X o o o o o o & & 2 d Y W W ! ! ! ! W Y Y Y Y Y Y d 4 d d A A A A A A D D D D E F F F F F F D D D D D S S g g g g y e e # ; @ O O @ @ @ @ @ @ O O O O O O O O O O O @ # 7 e e e e e 7 @ @ @ @ 7 7 7 7 7 7 e e w e e e 6 @ e y g g u u u u u t w t u 8.#.w y y y 6 6 @ 6 w f $.0.0.c.c.c.c.c.c.c.c.c.c.c.c.c.c.c.c.c.c.c.c.c.c.c.c.c.c.c.c.c.c.c.c.c.c.c.c.c.c.c.c.c.c.c.c.c.c.c.c.c.c.c.c.c.c.c.c.c.c.c.c.c.c.c.c.c.c.c.c.c.c.c.c.c.c.c.c.c.c.c.c.c.c.c.c.c.c.c.c.c.c.c.c.c.c.c.c.c.c.c.c.",
"c.c.c.c.c.c.c.c.c.c.c.c.c.c.c.c.c.c.c.c.c.c.c.c.c.c.c.c.c.c.c.c.c.c.c.c.c.c.c.c.c.c.c.c.c.c.c.c.c.c.c.c.c.c.c.c.c.c.c.c.c.c.c.c.c.c.c.c.c.c.c.c.c.c.c.c.c.c.c.c.c.c.c.c.c.c.c.c.c.c.c.c.c.c.c.c.c.c.c.c.c.c.c.c.c.c.c.c.c.c.c.c.c.c.c.c.c.c.c.c.c.c.c.c.c.c.c.c.c.c.c.c.c.c.c.c.c.c.c.c.c.c.c.c.c.c.c.c.c.c.c.c.c.c.c.c.c.c.c.c.c.c.c.c.c.c.c.c.c.c.c.c.c.c.c.c.c.c.c.c.c.c.c.c.c.c.c.c.c.c.c.c.c.c.c.c.c.c.c.c.c.c.c.c.c.c.c.c.c.c.c.c.c.c.c.c.c.c.c.c.c.c.c.c.c.c.c.c.c.c.c.c.c.c.c.c.c.c.0.0.0.c.c.k.V N.lX/.} $X.X.X2XoX` ^ { { ` R ~ J J J ~ ~ ~ ~ Y Y Y Y d 4 2 > > > > > 4 4 d d d B B B B B Y Y B B Y Y Y Y E E Y Y Y ! Z.Z.[ [ Z.[ [ [ [ Z.Z.Z.Z.Z.Z.{ { { .XqX8XqXwXwXbXbX,XJ > * q 7 e e ; ; ; ; ; ; ; # # # # ; ; ; # + +                                   . . .                                           X X X X o o o o o o o o & & > > d Y ! ! W W W W ~ T B 4 4 d 4 2 2 5 2 2 d d d d d d d d D D D D D D D D D D D D g g g g g g g s y e e # @ @ @ @ @ @ @ @ @ @ O O O O O O O O O O O @ # 7 e e e e 7 7 @ @ @ @ 7 7 7 7 7 7 e e e e e 6 6 @ e y g g u u u u g u t w u 8.#.w t t t t 6 6 @ 6 y $.0.0.c.c.c.c.c.c.c.c.c.c.c.c.c.c.c.c.c.c.c.c.c.c.c.c.c.c.c.c.c.c.c.c.c.c.c.c.c.c.c.c.c.c.c.c.c.c.c.c.c.c.c.c.c.c.c.c.c.c.c.c.c.c.c.c.c.c.c.c.c.c.c.c.c.c.c.c.c.c.c.c.c.c.c.c.c.c.c.c.c.c.c.c.c.c.c.c.c.c.c.c.",
"c.c.c.c.c.c.c.c.c.c.c.c.c.c.c.c.c.c.c.c.c.c.c.c.c.c.c.c.c.c.c.c.c.c.c.c.c.c.c.c.c.c.c.c.c.c.c.c.c.c.c.c.c.c.c.c.c.c.c.c.c.c.c.c.c.c.c.c.c.c.c.c.c.c.c.c.c.c.c.c.c.c.c.c.c.c.c.c.c.c.c.c.c.c.c.c.c.c.c.c.c.c.c.c.c.c.c.c.c.c.c.c.c.c.c.c.c.c.c.c.c.c.c.c.c.c.c.c.c.c.c.c.c.c.c.c.c.c.c.c.c.c.c.c.c.c.c.c.c.c.c.c.c.c.c.c.c.c.c.c.c.c.c.c.c.c.c.c.c.c.c.c.c.c.c.c.c.c.c.c.c.c.c.c.c.c.c.c.c.c.c.c.c.c.c.c.c.c.c.c.c.c.c.c.c.c.c.c.c.c.c.c.c.c.c.c.c.c.c.c.c.c.c.c.c.c.c.c.c.c.c.c.c.c.c.c.c.c.0.0.c.c.k.k.V -X=X` ]..X.X2X:X{ ^ / [ ~ < , 4 4 < 4 B B B B d 4 2 2 & & & & & 2 > > 2 5 4 4 d d d d d d d d d d d d V Y E W Y Y Y Y ~ ! ! / [ [ [ [ [ Z.Z.Z.Z.Z.Z.{ { { .X7X9X9XqXqXbXbX0XXX& & * p p p p p e ; ; ; ; # # # # # # # # # + +                             . . . . . . . .                                     X X X X o o o o o o o o & > 2 5 Y Y Y Y Y Y Y Y Y Y 4 2 > > 2 3 2 2 2 2 a a d d d d d d d h S S D D D D D D S g g g g g s s s s y e e # @ @ @ # # # # # # # # @ + O O O O O O O O @ 7 e e e e e 7 6 @ @ @ @ 7 7 6 6 7 7 e e e e e w w 6 e w y g u g #.8.u u y w y 7.8.o.t y t y t t w w 9 f #.$.0.0.c.c.c.c.c.c.c.c.c.c.c.c.c.c.c.c.c.c.c.c.c.c.c.c.c.c.c.c.c.c.c.c.c.c.c.c.c.c.c.c.c.c.c.c.c.c.c.c.c.c.c.c.c.c.c.c.c.c.c.c.c.c.c.c.c.c.c.c.c.c.c.c.c.c.c.c.c.c.c.c.c.c.c.c.c.c.c.c.c.c.c.c.c.c.c.c.c.c.",
"c.c.c.c.c.c.c.c.c.c.c.c.c.c.c.c.c.c.c.c.c.c.c.c.c.c.c.c.c.c.c.c.c.c.c.c.c.c.c.c.c.c.c.c.c.c.c.c.c.c.c.c.c.c.c.c.c.c.c.c.c.c.c.c.c.c.c.c.c.c.c.c.c.c.c.c.c.c.c.c.c.c.c.c.c.c.c.c.c.c.c.c.c.c.c.c.c.c.c.c.c.c.c.c.c.c.c.c.c.c.c.c.c.c.c.c.c.c.c.c.c.c.c.c.c.c.c.c.c.c.c.c.c.c.c.c.c.c.c.c.c.c.c.c.c.c.c.c.c.c.c.c.c.c.c.c.c.c.c.c.c.c.c.c.c.c.c.c.c.c.c.c.c.c.c.c.c.c.c.c.c.c.c.c.c.c.c.c.c.c.c.c.c.c.c.c.c.c.c.c.c.c.c.c.c.c.c.c.c.c.c.c.c.c.c.c.c.c.c.c.c.c.c.c.c.c.c.c.c.c.c.c.c.c.c.c.c.c.0.0.c.c.k.E x./.^.' |..XOX,X|./ R Z./ m & & 5 2 5 5 5 2 4 4 2 1 1 & & o o o * * 2 > > 2 5 4 d d d d d d d d 4 4 4 4 d V E E Y Y Y Y Y ! ! ! / / [ [ [ Z.Z.Z.Z.Z.Z.{ ` { .X1X9X9X9XqXwXwXvX5Xm & * p p p p p p e ; ; ; # # # # # # # # # # + + +                           . + + + . . .                                 X X X X X o o o o o & * > > 5 4 Y Y Y Y ~ Y Y Y Y Y Y B 4 2 > 5 2 2 2 2 2 2 a a d d d d d h h h D D D D D D g g g g g g g y p y e y y e e @ 6 6 # # # # # # # # @ @ + O O O O O O O O @ 7 e e e e e 7 6 @ @ @ @ 7 7 6 6 7 7 e e e e e e e e 6 e y g u g #.8.#.u u y y #.7.#.u t y t y y t w 7 7 f $.0.0.c.c.c.c.c.c.c.c.c.c.c.c.c.c.c.c.c.c.c.c.c.c.c.c.c.c.c.c.c.c.c.c.c.c.c.c.c.c.c.c.c.c.c.c.c.c.c.c.c.c.c.c.c.c.c.c.c.c.c.c.c.c.c.c.c.c.c.c.c.c.c.c.c.c.c.c.c.c.c.c.c.c.c.c.c.c.c.c.c.c.c.c.c.c.c.c.c.c.",
"c.c.c.c.c.c.c.c.c.c.c.c.c.c.c.c.c.c.c.c.c.c.c.c.c.c.c.c.c.c.c.c.c.c.c.c.c.c.c.c.c.c.c.c.c.c.c.c.c.c.c.c.c.c.c.c.c.c.c.c.c.c.c.c.c.c.c.c.c.c.c.c.c.c.c.c.c.c.c.c.c.c.c.c.c.c.c.c.c.c.c.c.c.c.c.c.c.c.c.c.c.c.c.c.c.c.c.c.c.c.c.c.c.c.c.c.c.c.c.c.c.c.c.c.c.c.c.c.c.c.c.c.c.c.c.c.c.c.c.c.c.c.c.c.c.c.c.c.c.c.c.c.c.c.c.c.c.c.c.c.c.c.c.c.c.c.c.c.c.c.c.c.c.c.c.c.c.c.c.c.c.c.c.c.c.c.c.c.c.c.c.c.c.c.c.c.c.c.c.c.c.c.c.c.c.c.c.c.c.c.c.c.c.c.c.c.c.c.c.c.c.c.c.c.c.c.c.c.c.c.c.c.c.c.c.,.c.c.0.0.c.c.k.E G.^.^ Q..X]..X|.^ T ~ ! m & o & > 2 2 2 2 2 2 2 1 * * & & & o o * * 1 2 > > 2 4 d B d d d d d 2 2 2 2 2 2 d V V B B m m Y Y ~ ! ! / [ [ [ { { { Z.Z.A.{ { { 3X1X&X9X9XqXwXwX0X0XS., * 1 p p p p p p ; ; 1 ; e ; e e e e # # # # # + +                   .   . + # # # + . .     X   o o o o o o o o X X o o o o o o o o o o o o 3 3 3 2 4 J ~ Y ~ Y Y Y Y Y Y Y Y B 4 2 5 5 2 3 2 2 2 2 a a d d d d d d h h D D D h g g g g g g g s p s p p y y y e e @ 6 e e w # # # # @ @ @ @ @ O O O + + O O + # e e e e 7 e 7 7 6 @ 6 6 7 7 @ @ 7 7 e e e e e e w w 6 e w y u u #.8.#.g u u y y 7.8.#.u t y y y u t f f y g 0.c.,.0.c.c.c.c.c.c.c.c.c.c.c.c.c.c.c.c.c.c.c.c.c.c.c.c.c.c.c.c.c.c.c.c.c.c.c.c.c.c.c.c.c.c.c.c.c.c.c.c.c.c.c.c.c.c.c.c.c.c.c.c.c.c.c.c.c.c.c.c.c.c.c.c.c.c.c.c.c.c.c.c.c.c.c.c.c.c.c.c.c.c.c.c.c.c.c.c.",
"c.c.c.c.c.c.c.c.c.c.c.c.c.c.c.c.c.c.c.c.c.c.c.c.c.c.c.c.c.c.c.c.c.c.c.c.c.c.c.c.c.c.c.c.c.c.c.c.c.c.c.c.c.c.c.c.c.c.c.c.c.c.c.c.c.c.c.c.c.c.c.c.c.c.c.c.c.c.c.c.c.c.c.c.c.c.c.c.c.c.c.c.c.c.c.c.c.c.c.c.c.c.c.c.c.c.c.c.c.c.c.c.c.c.c.c.c.c.c.c.c.c.c.c.c.c.c.c.c.c.c.c.c.c.c.c.c.c.c.c.c.c.c.c.c.c.c.c.c.c.c.c.c.c.c.c.c.c.c.c.c.c.c.c.c.c.c.c.c.c.c.c.c.c.c.c.c.c.c.c.c.c.c.c.c.c.c.c.c.c.c.c.c.c.c.c.c.c.c.c.c.c.c.c.c.c.c.c.c.c.c.c.c.c.c.c.c.c.c.c.c.c.c.c.c.c.c.c.c.c.c.c.c.c.c.1.1.H.c.c.c.c.k.E S.` I ]..X|.|.L K Y B 4 & o o * 2 2 > > & * * * * * * * & o o o * * * * > > 2 2 4 d d d d d d d > > > > 3 2 d B d 4 4 4 m Y ~ ~ / / [ [ [ { { { Z.Z.A.{ { } 3X1X&X9X9XqXqXqX9X5X,Xm 2 1 p p p p p p p 1 p ; e e e e e e # # # # # # + +             .       . + + + + + . . X X o o + + # + + + # o o o o o o o o o o o o o o o 2 2 2 2 < 4 J J Y Y Y Y Y Y Y Y Y B 4 2 5 2 2 2 2 2 2 a a a d d d d d d h h S D g g g g g g g g g p p s s p e e y e e @ e e e w @ # # @ @ @ @ @ @ O O O + + O O + # e e y e e e 7 7 @ @ 6 6 7 7 @ @ 7 7 e e e e e w w y e 6 e y t u #.#.#.#.#.u y y #.7.7.#.u y y y o.u #.f y y 0.0.c.c.c.c.c.c.c.c.c.c.c.c.c.c.c.c.c.c.c.c.c.c.c.c.c.c.c.c.c.c.c.c.c.c.c.c.c.c.c.c.c.c.c.c.c.c.c.c.c.c.c.c.c.c.c.c.c.c.c.c.c.c.c.c.c.c.c.c.c.c.c.c.c.c.c.c.c.c.c.c.c.c.c.c.c.c.c.c.c.c.c.c.c.c.c.c.c.c.",
"c.c.c.c.c.c.c.c.c.c.c.c.c.c.c.c.c.c.c.c.c.c.c.c.c.c.c.c.c.c.c.c.c.c.c.c.c.c.c.c.c.c.c.c.c.c.c.c.c.c.c.c.c.c.c.c.c.c.c.c.c.c.c.c.c.c.c.c.c.c.c.c.c.c.c.c.c.c.c.c.c.c.c.c.c.c.c.c.c.c.c.c.c.c.c.c.c.c.c.c.c.c.c.c.c.c.c.c.c.c.c.c.c.c.c.c.c.c.c.c.c.c.c.c.c.c.c.c.c.c.c.c.c.c.c.c.c.c.c.c.c.c.c.c.c.c.c.c.c.c.c.c.c.c.c.c.c.c.c.c.c.c.c.c.c.c.c.c.c.c.c.c.c.c.c.c.c.c.c.c.c.c.c.c.c.c.c.c.c.c.c.c.c.c.c.c.c.c.c.c.c.c.c.c.c.c.c.c.c.c.c.c.c.c.c.c.c.c.c.c.c.c.c.c.c.c.c.c.c.c.c.c.c.c.H.1.1.1.1.,.,.k.l.G.{  .] ].} ].` K J J 4 > & * 2 2 * * * & * * * * * * * * o o o o o o o o & > > > 2 2 a a 4 4 4 2 & & & & & 2 2 d 4 4 4 4 4 4 J ~ T ! [ [ [ { { { { { { { { } $X&X&X4X8X8X8X8X8XqX0X` > 1 ; # e e p p p p e e e e # ; # # # # # # # # # # # + X               o + # # o o o o o o # # # # # # # # # # * * o o o o # # # - > > 1 1 3 2 2 5 J ~ ~ T Y Y Y Y Y Y Y Y Y d 2 2 2 2 2 2 2 3 3 3 a a a a d d h g h h D D g g g g g g g p f f p y y y y e e e e e e e e e 7 @ @ @ 6 @ @ @ @ O O O + + O O @ 7 e e y y f f e 9 7 6 6 6 6 7 7 7 7 7 e e w 9 w y y y w w w w 6 w u #.8.8.8.#.#.o.o.#.0.9.o.t y o.#.7.#.o.g f #.&.0.0.&.&.&.&.c.c.c.c.c.c.c.c.c.c.c.c.c.c.c.c.c.c.c.c.c.c.c.c.c.c.c.c.c.c.c.c.c.c.c.c.c.c.c.c.c.c.c.c.c.c.c.c.c.c.c.c.c.c.c.c.c.c.c.c.c.c.c.c.c.c.c.c.c.c.c.c.c.c.c.c.c.c.c.c.c.c.c.c.c.c.c.c.c.c.c.c.",
"c.c.c.c.c.c.c.c.c.c.c.c.c.c.c.c.c.c.c.c.c.c.c.c.c.c.c.c.c.c.c.c.c.c.c.c.c.c.c.c.c.c.c.c.c.c.c.c.c.c.c.c.c.c.c.c.c.c.c.c.c.c.c.c.c.c.c.c.c.c.c.c.c.c.c.c.c.c.c.c.c.c.c.c.c.c.c.c.c.c.c.c.c.c.c.c.c.c.c.c.c.c.c.c.c.c.c.c.c.c.c.c.c.c.c.c.c.c.c.c.c.c.c.c.c.c.c.c.c.c.c.c.c.c.c.c.c.c.c.c.c.c.c.c.c.c.c.c.c.c.c.c.c.c.c.c.c.c.c.c.c.c.c.c.c.c.c.c.c.c.c.c.c.c.c.c.c.c.c.c.c.c.c.c.c.c.c.c.c.c.c.c.c.c.c.c.c.c.c.c.c.c.c.c.c.c.c.c.c.c.c.c.c.c.c.c.c.c.c.c.c.c.c.c.c.c.c.c.c.c.c.c.c.c.1.1.1.1.1.c.,.k.x.S.` ' ].{.'.{ R K J m 2 & * 2 * * & o o o # # * * * * # # o o o o o o o o o o & > 1 3 2 2 2 2 2 2 * & o o o o & & 2 4 4 4 5 4 4 4 Y ~ T ! ` [ { { } } { { { } $X&X%X&X&X&X8X8X8X8X0X|.J > ; # e e p p p p e e e e # # # # # # # # # # # # # # # # o         o + # * * # o o o # # # # # # # # * * * * * * * * ; ; ; ; > 1 1 2 3 3 2 2 a 4 ~ ~ T T Y Y Y Y Y Y V V d 4 2 2 2 2 2 2 2 3 3 3 a a a a d d h h h h g g g g g g g g p p f f g y y y y y e e e e e e e e 7 @ 6 @ 6 @ @ @ @ O @ @ + O O O @ 7 e e y y f f y 9 7 6 7 6 7 7 7 7 7 7 e e w w w y y u u w w w @ 6 w w #.8.8.7.7.#.o.o.0.9.#.y y o.7.7.7.#.#.#.f #.0.0.&.&.&.&.c.c.c.c.c.c.c.c.c.c.c.c.c.c.c.c.c.c.c.c.c.c.c.c.c.c.c.c.c.c.c.c.c.c.c.c.c.c.c.c.c.c.c.c.c.c.c.c.c.c.c.c.c.c.c.c.c.c.c.c.c.c.c.c.c.c.c.c.c.c.c.c.c.c.c.c.c.c.c.c.c.c.c.c.c.c.c.c.c.c.c.c.",
"c.c.c.c.c.c.c.c.c.c.c.c.c.c.c.c.c.c.c.c.c.c.c.c.c.c.c.c.c.c.c.c.c.c.c.c.c.c.c.c.c.c.c.c.c.c.c.c.c.c.c.c.c.c.c.c.c.c.c.c.c.c.c.c.c.c.c.c.c.c.c.c.c.c.c.c.c.c.c.c.c.c.c.c.c.c.c.c.c.c.c.c.c.c.c.c.c.c.c.c.c.c.c.c.c.c.c.c.c.c.c.c.c.c.c.c.c.c.c.c.c.c.c.c.c.c.c.c.c.c.c.c.c.c.c.c.c.c.c.c.c.c.c.c.c.c.c.c.c.c.c.c.c.c.c.c.c.c.c.c.c.c.c.c.c.c.c.c.c.c.c.c.c.c.c.c.c.c.c.c.c.c.c.c.c.c.c.c.c.c.c.c.c.c.c.c.c.c.c.c.c.c.c.c.c.c.c.c.c.c.c.c.c.c.c.c.c.c.c.c.c.c.c.c.c.c.c.c.c.c.c.c.c.c.1.1.1.1.c.c.k.E Z.} ' ] .X.X|.{ L T Y Y 5 & * * * * # o o o o o # # * * 1 * o o o o o o o o o o o o > 1 3 3 2 2 2 2 * & o o o . . o & 2 4 4 2 , , 2 4 m Y ~ ! ` [ { { A.{ { { } ,X%X%X%X*X&X8X8X8X8X9X,X[ o 1 1 ; e p p p p p e e p p p ; ; ; ; # # # # # # # # # # # + o . o # # # * * # o + o # # # # # # # # * * * * * * 1 1 1 1 1 1 1 1 2 2 2 2 d d Y Y Y ! ! ! Y Y Y Y d d d d 4 2 2 2 2 2 2 2 2 2 3 3 a a a a s s g g s s s s g g g g g p p p f f y y y y y y y e e e e e e e 7 7 @ @ 6 @ @ @ @ O + + + + O O @ 7 e e y y f f f e w 9 7 6 6 6 7 9 9 9 e e w w w y u u u u y e 6 @ @ @ t #.8.7.7.7.#.o.7.0.7.u y o.7.7.7.7.7.#.y #.&.&.&.&.&.&.c.c.c.c.c.,.c.c.c.c.,.c.c.c.c.c.c.c.c.c.c.c.c.c.c.c.c.c.c.c.c.c.c.c.c.c.c.c.c.c.c.c.c.c.c.c.c.c.c.c.c.c.c.c.c.c.c.c.c.c.c.c.c.c.c.c.c.c.c.c.c.c.c.c.c.c.c.c.c.c.c.c.c.c.c.c.c.c.c.c.c.c.",
"c.c.c.c.c.c.c.c.c.c.c.c.c.c.c.c.c.c.c.c.c.c.c.c.c.c.c.c.c.c.c.c.c.c.c.c.c.c.c.c.c.c.c.c.c.c.c.c.c.c.c.c.c.c.c.c.c.c.c.c.c.c.c.c.c.c.c.c.c.c.c.c.c.c.c.c.c.c.c.c.c.c.c.c.c.c.c.c.c.c.c.c.c.c.c.c.c.c.c.c.c.c.c.c.c.c.c.c.c.c.c.c.c.c.c.c.c.c.c.c.c.c.c.c.c.c.c.c.c.c.c.c.c.c.c.c.c.c.c.c.c.c.c.c.c.c.c.c.c.c.c.c.c.c.c.c.c.c.c.c.c.c.c.c.c.c.c.c.c.c.c.c.c.c.c.c.c.c.c.c.c.c.c.c.c.c.c.c.c.c.c.c.c.c.c.c.c.c.c.c.c.c.c.c.c.c.c.c.c.c.c.c.c.c.c.c.c.c.c.c.c.c.c.c.c.c.c.c.c.c.c.c.c.c.1.1.1.c.k.k.E x.S.} ] {.3X.X} ^ R T ~ B 2 1 * & * o o o o o o o o o # # # # o # o o o . o o o o o o o > 1 2 2 2 2 2 & & o o . . . . o & 2 4 2 2 2 > 5 4 4 m ~ ! [ [ A.A.{ { { Q.,X%X$X%X*X*XqX8X8X8X1X2X|.5 1 1 1 1 p p p p p e p p p p ; ; ; ; # # # # # # # # # # # # # # + # # # * * # # + + # # # # # # # # * * * * * * 1 1 3 3 2 2 3 3 2 2 2 2 A Y E E ! ! ! ! Y Y Y E d d d d 2 2 2 2 2 2 2 2 2 3 3 3 a a a a s s g g s s s s g g g g g p p f f f y y y y y y y e e e e e e e 7 6 @ @ 6 @ @ @ + O + + + + O + @ 7 e y f f f f g y w 9 9 7 6 6 7 w 9 9 e e w w w y u u u u u y w @ @ O 6 t #.7.7.7.7.#.7.9.7.o.u o.7.7.7.7.7.7...y $.&.&.&.&.&.c.c.c.c.c.c.c.c.c.c.,.,.c.c.c.c.c.c.c.c.c.c.c.c.c.c.c.c.c.c.c.c.c.c.c.c.c.c.c.c.c.c.c.c.c.c.c.c.c.c.c.c.c.c.c.c.c.c.c.c.c.c.c.c.c.c.c.c.c.c.c.c.c.c.c.c.c.c.c.c.c.c.c.c.c.c.c.c.c.c.c.c.",
"c.c.c.c.c.c.c.c.c.c.c.c.c.c.c.c.c.c.c.c.c.c.c.c.c.c.c.c.c.c.c.c.c.c.c.c.c.c.c.c.c.c.c.c.c.c.c.c.c.c.c.c.c.c.c.c.c.c.c.c.c.c.c.c.c.c.c.c.c.c.c.c.c.c.c.c.c.c.c.c.c.c.c.c.c.c.c.c.c.c.c.c.c.c.c.c.c.c.c.c.c.c.c.c.c.c.c.c.c.c.c.c.c.c.c.c.c.c.c.c.c.c.c.c.c.c.c.c.c.c.c.c.c.c.c.c.c.c.c.c.c.c.c.c.c.c.c.c.c.c.c.c.c.c.c.c.c.c.c.c.c.c.c.c.c.c.c.c.c.c.c.c.c.c.c.c.c.c.c.c.c.c.c.c.c.c.c.c.c.c.c.c.c.c.c.c.c.c.c.c.c.c.c.c.c.c.c.c.c.c.c.c.c.c.c.c.c.c.c.c.c.c.c.c.c.c.c.c.c.c.c.c.c.c.1.H.=.c.k.a Q F.OX]..X1X%X].|.S.! T ! B 2 1 & o . . o o o . o o o o o o # # # o o o o o . . o o o o o * * 1 2 1 1 2 * & o . . . . o o o & 2 2 2 2 2 2 2 4 4 J ~ T / [ A.A.{ { ^.<X%X*X%X*X@X&X9XqX9X&X1XOXZ.5 1 1 1 p p p p p p p p p p p p e ; # # ; ; # # # # # # # # # # # # # # # # # # # # # # # # # # o o # # 1 1 1 1 3 3 3 2 2 2 2 2 d A Y Y Y Y Y Y Y E E E E Y d d a 2 3 1 1 1 1 1 2 2 3 3 1 3 3 3 p p a p p p p p s s p p p f f f e 7 e e e e e e p p r r y y g y y e e e 7 6 6 @ @ @ @ @ @ @ @ @ + + 7 7 7 e y f #.#.#.#.#.g y y w w w e w e w 9 w w w w w y u u u u u u u y w 6 6 w u 7.9.0.0.7.7.9.p.p.o...o.o.q.9.p.p.y y @.&.0.0.*.*.c.c.c.c.c.c.c.c.c.c.c.c.c.c.c.c.c.c.c.c.c.c.c.c.c.c.c.c.c.c.c.c.c.c.c.c.c.c.c.c.c.c.c.c.c.c.c.c.c.c.c.c.c.c.c.c.c.c.c.c.c.c.c.c.c.c.c.c.c.c.c.c.c.c.c.c.c.c.c.c.c.c.c.c.c.c.c.c.c.c.c.c.",
"c.c.c.c.c.c.c.c.c.c.c.c.c.c.c.c.c.c.c.c.c.c.c.c.c.c.c.c.c.c.c.c.c.c.c.c.c.c.c.c.c.c.c.c.c.c.c.c.c.c.c.c.c.c.c.c.c.c.c.c.c.c.c.c.c.c.c.c.c.c.c.c.c.c.c.c.c.c.c.c.c.c.c.c.c.c.c.c.c.c.c.c.c.c.c.c.c.c.c.c.c.c.c.c.c.c.c.c.c.c.c.c.c.c.c.c.c.c.c.c.c.c.c.c.c.c.c.c.c.c.c.c.c.c.c.c.c.c.c.c.c.c.c.c.c.c.c.c.c.c.c.c.c.c.c.c.c.c.c.c.c.c.c.c.c.c.c.c.c.c.c.c.c.c.c.c.c.c.c.c.c.c.c.c.c.c.c.c.c.c.c.c.c.c.c.c.c.c.c.c.c.c.c.c.c.c.c.c.c.c.c.c.c.c.c.c.c.c.c.c.c.c.c.c.c.c.c.c.c.c.c.c.c.c.H.*.$.k.E Y G.XX.X X&X7X<X|.{ ` R T ~ d 2 & o o . . . . . .         . o o o o o o . o o . o o o o o o o * * * * * * * & o o . . . . o o o & & & & & & 1 2 2 4 J ~ ! / [ A.A.{ ^.<X%X@X%X*X}.&X9X8X8X&X1X2X=X4 > 1 ; p f f f f p p p p p p p e e ; ; p e ; # # # # # # # # # # # # + + + + # + + + + # # # # # # * * a a a 2 2 2 d d d d d d A d Y Y Y Y Y Y Y Y Y Y Y d d a 2 3 1 1 1 1 1 1 2 2 3 3 1 3 3 3 p p p p p p p p s s p p f f f f e 7 e e e e e e p p r r y y f g y e e e 9 7 6 @ @ @ @ @ @ @ @ @ + + 7 7 7 e y f #.#.#.#.#.g y y y y w w w w w w w w w w w y u u u u g g u y t t w 6 w u 7.9.0.0.7.7.w.K.9.o.X.o.q.9.p.p.#.y @.$.0.0.*.*.c.c.c.c.c.c.c.c.c.c.c.c.c.c.c.c.c.c.c.c.c.c.c.c.c.c.c.c.c.c.c.c.c.c.c.c.c.c.c.c.c.c.c.c.c.c.c.c.c.c.c.c.c.c.c.c.c.c.c.c.c.c.c.c.c.c.c.c.c.c.c.c.c.c.c.c.c.c.c.c.c.c.c.c.c.c.c.c.c.c.c.c.",
"c.c.c.c.c.c.c.c.c.c.c.c.c.c.c.c.c.c.c.c.c.c.c.c.c.c.c.c.c.c.c.c.c.c.c.c.c.c.c.c.c.c.c.c.c.c.c.c.c.c.c.c.c.c.c.c.c.c.c.c.c.c.c.c.c.c.c.c.c.c.c.c.c.c.c.c.c.c.c.c.c.c.c.c.c.c.c.c.c.c.c.c.c.c.c.c.c.c.c.c.c.c.c.c.c.c.c.c.c.c.c.c.c.c.c.c.c.c.c.c.c.c.c.c.c.c.c.c.c.c.c.c.c.c.c.c.c.c.c.c.c.c.c.c.c.c.c.c.c.c.c.c.c.c.c.c.c.c.c.c.c.c.c.c.c.c.0.0.c.c.c.c.c.c.c.c.c.c.c.c.c.c.c.c.c.c.c.c.c.c.c.c.c.c.c.c.c.c.c.c.c.c.c.c.c.c.c.c.c.c.c.c.c.c.c.c.c.c.c.c.c.c.c.c.c.c.c.c.c.c.c.c.c.c.c.c.$.h E ! =XoX|.3X9X&X3X'.` K ~ T Y 4 2 o o o . . . . . . . . .     . . o o . . o o o o o o o o o o o o * * * * * * & & o . . . . o o . o o o o o o o * 1 2 4 B Y ! / [ A.{ ^.<X,X@X$X@X}.*X4X9X8X&X1X2X2X[ 5 1 ; j f f f f p p p e e p e p p p p p p p e # # # # # # # # # # + # # # # o o # # # # # # # 1 1 1 1 d d a a d d 4 4 4 4 4 4 d d d d d d Y V d d d d V d a 2 3 2 * o 1 1 1 1 1 1 1 3 1 1 3 3 a a a p p p p p s s p p f f f f e 7 e e e e e e y p y y y y y f f y e e 9 7 6 @ @ @ @ @ @ @ @ @ 7 7 7 7 7 e f f #.#.#.#.#.#.u y t t t w w w w w w e w w w y u g #.#.#.#.u y y t u w 6 w #.7.9.0.0.9.p.p.p.y.o.X.q.9.p.p.%.@.@.$.0.*.0.*.c.c.c.c.c.c.c.c.c.c.c.c.c.c.c.c.c.c.c.c.c.c.c.c.c.c.c.c.c.c.c.c.c.c.c.c.c.c.c.c.c.c.c.c.c.c.c.c.c.c.c.c.c.c.c.c.c.c.0.0.c.c.c.c.c.c.c.c.c.c.c.c.c.c.c.c.c.c.c.c.c.c.c.c.c.c.c.c.c.c.c.c.",
"c.c.c.c.c.c.c.c.c.c.c.c.c.c.c.c.c.c.c.c.c.c.c.c.c.c.c.c.c.c.c.c.c.c.c.c.c.c.c.c.c.c.c.c.c.c.c.c.c.c.c.c.c.c.c.c.c.c.c.c.c.c.c.c.c.c.c.c.c.c.c.c.c.c.c.c.c.c.c.c.c.c.c.c.c.c.c.c.c.c.c.c.c.c.c.c.c.c.c.c.c.c.c.c.c.c.c.c.c.c.c.c.c.c.c.c.c.c.c.c.c.c.c.c.c.c.c.c.c.c.c.c.c.c.c.c.c.c.c.c.c.c.c.c.c.c.c.c.c.c.c.c.c.c.c.,.,.,.,.,.c.c.c.c.c.c.0.0.c.c.c.c.c.c.c.c.c.c.c.c.c.c.c.c.c.c.c.c.c.c.c.c.c.c.c.c.c.c.c.c.c.c.c.c.c.c.c.c.c.c.c.c.c.c.c.c.c.c.c.c.c.c.c.c.c.c.c.c.c.c.c.c.c.c.c.c.k.h ! S.2XOX.X%X1X.X'.` R < 4 Y B 2 & o o . . . . . . .   . .         . . . . . o o o o o o o o o o o o & o & o o & & o o . . o . . . . o o o o o o o * > 2 4 B T ! / [ ` ^.,X#X.X@X@X}.*X4X9X8X&X&X1X2XoX4 > ; f f f f f f p p e e e e p p p p p e p p 1 # # # # # # # o + + + # + + o o o # # # # * # 1 1 1 1 d d d d d d 4 4 4 d d d a a d d d d d d d d d d d a 2 3 1 * o o 1 1 1 1 1 1 1 1 1 1 p p a a p p p p e e s s p p f f f f e 7 e e e e e e y y y y y y y y f f y e w 9 7 6 6 @ 6 6 6 @ @ @ 7 7 7 7 7 e f f #.#.#.#.#.#.u y y y t t t w t w y e w w w y u u #.#.#.#.u u y t u u w 6 y #.7.9.u.p.p.p.p.p.y.o.q.q.d.p.9.#...#.0.0.0.0.c.c.c.c.c.c.c.c.c.c.c.c.c.c.c.c.c.c.c.c.c.c.c.c.c.c.c.c.c.c.c.c.c.c.c.c.c.c.c.c.c.c.c.c.c.c.c.c.c.c.c.c.c.c.c.c.c.c.0.0.c.c.c.c.c.c.c.c.c.c.c.c.c.c.c.c.c.c.c.c.c.c.c.c.c.c.c.c.c.c.c.c.",
"c.c.c.c.c.c.c.c.c.c.c.c.c.c.c.c.c.c.c.c.c.c.c.c.c.c.c.c.c.c.c.c.c.c.c.c.c.c.c.c.c.c.c.c.c.c.c.c.c.c.c.c.c.c.c.c.c.c.c.c.c.c.c.c.c.c.c.c.c.c.c.c.c.c.c.c.c.c.c.c.c.c.c.c.c.c.c.c.c.c.c.c.c.c.c.c.c.c.c.c.c.c.c.c.c.c.c.c.c.c.c.c.c.c.c.c.c.c.c.c.c.c.c.c.c.c.c.c.c.c.c.c.c.c.c.c.c.c.c.c.c.c.c.c.c.c.c.c.c.c.c.c.c.c.,.,.<.<.<.n.J.,.,.&.c.0.0.0.0.c.c.c.c.c.c.c.c.c.c.c.c.c.c.c.c.c.c.c.c.c.c.c.c.c.c.c.c.c.c.c.c.c.c.c.c.c.c.c.c.c.c.c.c.c.c.c.c.c.c.c.c.c.c.c.c.c.c.c.c.c.0.0.0.c.c.k.k.l./ vX$X.X@X1XOXS.! G J 5 4 B 4 > & o . . .           . . .           . . . .         . o o o o o o o o o o o o o o o . . . . . . . . . . . . . . . o & * 2 2 B Y ~ / [ ^.:X#X.X.X@X.X*X4X9X4X&X&X0XqXvX} o 1 p f f f f f f f p p p p p p p p e e 1 1 1 # # # # # # # + + # # # + # # # # o o # # 1 3 a a d d d d d d Y d d 2 2 a a a 2 3 2 a d d d d d d d d a a 3 1 o o o o 1 1 1 ; 1 1 1 1 1 p p p p p p p p p p p p p e e e 7 e 7 7 7 # 7 # # @ 6 e y y y y y g g g g g y y e w 9 9 7 7 6 6 6 7 7 9 9 9 9 w y f g #.#.#.#.#.#.#.g f f y y t t t y w 9 w w y y u u 7.7.7.7.#.y t g u u u y y o.%.9.p.p.d.d.d.d.p.i.p.d.d.p.9.o.o.o.7.0.0.0.0.0.&.&.,.,.,.,.,.,.,.,.c.c.c.c.c.c.c.c.c.c.c.c.c.c.c.c.c.c.c.c.c.c.c.c.c.c.c.c.c.c.c.c.c.c.c.c.c.c.c.c.c.c.c.c.c.0.0.0.c.c.c.c.c.c.c.c.c.c.c.c.c.c.c.c.c.c.c.c.c.c.c.c.c.c.c.c.c.c.c.c.",
"c.c.c.c.c.c.c.c.c.c.c.c.c.c.c.c.c.c.c.c.c.c.c.c.c.c.c.c.c.c.c.c.c.c.c.c.c.c.c.c.c.c.c.c.c.c.c.c.c.c.c.c.c.c.c.c.c.c.c.c.c.c.c.c.c.c.c.c.c.c.c.c.c.c.c.c.c.c.c.c.c.c.c.c.c.c.c.c.c.c.c.c.c.c.c.c.c.c.c.c.c.c.c.c.c.c.c.c.c.c.c.c.c.c.c.c.c.c.c.c.c.c.c.c.c.c.c.c.c.c.c.c.c.c.c.c.c.c.c.c.c.c.c.c.c.c.c.c.c.c.c.c.c.c.,.<.>.<.<.=.,.v.c.,.&.0.0.0.0.0.c.c.c.c.c.c.c.c.c.c.c.c.c.c.c.c.c.c.c.c.c.c.c.c.c.c.c.c.c.c.c.c.c.c.c.c.c.c.c.c.c.c.c.c.c.c.c.c.c.c.c.c.c.c.c.c.c.c.c.c.0.0.0.c.c.k.h V -XvX@X@X$X,X^./ J 2 d a B 4 2 & o o . .             . . .           .                   . o o o o o o o o o o o o o . . . . . . . . . . . . . . . o o * * 1 4 B B Y ^ ^.;X#X.X.X.X.X*X&X4X4X&X4X9XqX9X<X< 3 p f f f f f f f p p p p p p p p e e ; # # # # # # + + # o o # # # + # # # # # o o o 1 3 a a a a a a a a a a 2 3 3 3 3 3 1 1 3 a d d d d d d a a a 1 1 * o o o o * * 1 ; ; ; 1 1 1 1 p p p p p p p p e p e e e ; e 7 7 7 # # # # 7 7 @ @ e y y y y y g g g g g y f y y e e w w w w w w w w w w w w t u u #.#.#.#.#.#.#.g g f g y y t t t w w w y t y u #.7.7.7.7.7.u y y u u o.o...t o.7.p.p.p.d.g.d.d.d.d.d.g.g.i.4.o.o.%.0.0.0.0.0.&.&.,.,.,.,.,.,.,.,.c.c.c.c.c.c.c.c.c.c.c.c.c.c.c.c.c.c.c.c.c.c.c.c.c.c.c.c.c.c.c.c.c.c.c.c.c.c.c.c.c.c.c.c.c.0.0.0.c.c.c.c.c.c.c.c.c.c.c.c.c.c.c.c.c.c.c.c.c.c.c.c.c.c.c.c.c.c.c.c.",
"c.c.c.c.c.c.c.c.c.c.c.c.c.c.c.c.c.c.c.c.c.c.c.c.c.c.c.c.c.c.c.c.c.c.c.c.c.c.c.c.c.c.c.c.c.c.c.c.c.c.c.c.c.c.c.c.c.c.c.c.c.c.c.c.c.c.c.c.c.c.c.c.c.c.c.c.c.c.c.c.c.c.c.c.c.c.c.c.c.c.c.c.c.c.c.c.c.c.c.c.c.c.c.c.c.c.c.c.c.c.c.c.c.c.c.c.c.c.c.c.c.c.c.c.c.c.c.c.c.c.c.c.c.c.c.c.c.c.c.c.c.c.c.c.c.c.c.c.c.c.c.c.c.c.,.,.T.VXGXFXFXmX@.&.c.0.0.0.c.c.c.c.c.c.c.c.c.c.c.c.c.c.c.c.c.c.c.c.c.c.c.c.c.c.c.c.c.c.c.c.c.c.c.c.c.c.c.c.c.c.c.c.c.c.c.c.c.c.c.c.c.c.c.c.c.c.c.c.c.c.0.0.0.c.c.k.h W 2XvX$X*X%X X` K < 5 2 d B 2 & o o o       . . . . .         . . .                               .   . . . .         . . . . . . . . . . . . . . . o o o & * 2 2 4 m T S.;X;X.X.X.X.X%X&X4X&X&X4XqXqX0XvXS.3 p p f f f f f f p p p p p p p p e ; # # # # # # # # # # o o o # o o # # # # # # o ; 3 3 a a a a 2 2 2 2 2 3 1 1 * * * * * 1 p a d s a a a a a a 3 1 1 * o o o o * * ; ; ; ; ; 1 1 1 p p p p p p p e e p ; ; ; # # # # # # # # # 7 7 6 6 7 e y y y y g g u g g g y y y y y y y t t w w w w w w w w t u g #.#.#.#.#.#.#.#.o.u y u y y y t t t t t y u #.#.7.7.7.7.7.#.y 6 y u o.o.o...t o.0.p.p.p.d.d.g.d.g.g.g.g.d.q.O.o.#.0.u.0.0.0.&.&.,.,.,.,.,.,.,.,.c.c.c.c.c.c.c.c.c.c.c.c.c.c.c.c.c.c.c.c.c.c.c.c.c.c.c.c.c.c.c.c.c.c.c.c.c.c.c.c.,.,.,.c.c.c.0.0.0.0.c.c.c.c.c.c.c.c.c.c.c.c.c.c.c.c.c.c.c.c.c.c.c.c.c.c.c.c.c.c.",
"&.&.&.&.c.c.c.c.c.c.c.c.c.c.c.c.c.c.c.c.c.c.c.c.c.c.c.c.c.c.c.c.c.c.c.c.c.c.c.c.c.c.c.c.c.c.c.c.c.c.c.c.c.c.c.c.c.c.c.c.c.c.c.c.c.c.c.c.c.c.c.c.c.c.c.c.c.c.c.c.c.c.c.c.c.c.c.c.c.c.c.c.c.c.c.c.c.c.c.c.c.c.c.c.c.c.c.c.c.c.c.c.c.c.c.c.c.c.c.c.c.c.c.c.c.c.c.c.c.c.c.c.c.c.c.c.c.c.c.c.c.c.c.c.c.c.c.c.c.c.c.c.c.c.c.,.T.JXPXIXIXVX$.v.c.0.0.0.c.c.c.c.c.c.c.c.c.c.c.c.c.c.c.c.c.c.c.c.c.c.c.c.c.c.c.c.c.c.c.c.c.c.c.c.c.c.c.c.c.c.c.c.c.c.c.c.c.c.c.c.c.c.c.c.c.c.c.c.c.c.c.c.0.k.c.k.V A.,X5X%X%X@X' L < , 5 a d 4 & & o o o o o   . . . . .       . . . .                                                   . . . . . . . . . . . . . . . o o o o o * > 2 , m { =X;XoX X X@X%X&X4X&X&X4X9XqX0XvXvXY 3 p f f f f f f p p p p p p p p ; ; # # # # # # # # # # o o # # o o # # # # # # o ; 3 3 a a a a 3 3 3 3 1 * # o o o o o # * 1 p p p 3 3 3 3 3 3 1 * o o o o o # * * ; ; ; ; ; ; 1 1 p p p p p p p e p p # # # @ @ O # # @ @ @ @ 7 7 6 6 @ e y y y y g g u g g g g g g y y f f y y t w w w w w w w t u #.#.#.#.#.#.#.#.#.#.u g u u y u y y y y y u #.#.#.7.7.7.7.7.7.y @ w y o.o.#.o.y t %.9.p.p.p.p.d.d.d.g.g.g.d.i.4.o.o.%.0.0.0.0.&.&.,.,.,.,.,.,.,.,.c.c.c.c.c.c.c.c.c.c.c.c.c.c.c.c.c.c.c.c.c.c.c.c.c.c.c.c.c.c.c.c.c.c.c.c.c.c.c.c.,.,.,.,.c.c.0.0.0.0.c.c.c.c.c.c.c.c.c.c.c.c.c.c.c.c.&.&.c.c.c.c.c.c.c.c.c.c.c.c.",
"*.*.*.*.*.*.&.&.&.&.&.&.c.c.c.c.c.c.c.c.c.c.c.c.c.c.c.c.c.c.c.c.c.c.c.c.c.c.c.c.c.c.c.c.c.c.c.c.c.c.c.c.c.c.c.c.c.c.c.c.c.c.c.c.c.c.c.c.c.c.c.c.c.c.c.c.c.c.c.c.c.c.c.c.c.c.c.c.c.c.c.c.c.c.c.c.c.c.c.c.c.c.c.c.c.c.c.c.c.c.c.c.c.c.c.c.c.c.c.c.c.c.c.c.c.c.c.c.c.c.c.c.c.c.c.c.c.c.c.c.c.c.c.c.c.c.c.c.c.c.0.0.0.c.c.c.T.mXNXmXNXzXv.$.c.0.c.0.c.0.c.c.c.c.c.c.c.c.c.c.c.c.c.c.c.c.c.c.c.c.c.c.c.c.c.c.c.c.c.c.c.c.c.c.c.c.c.c.c.c.c.c.c.c.c.c.c.c.c.c.c.c.c.c.c.c.c.c.c.c.0.c.0.c.k.k.E :X5X5X4X%X@XQ.^ m 4 d d d 3 o o o o o o o     . . . . . . . . . . . .               . . . .   . . . .                 . . . . . . . . . . . . . . . . . . o o . & & > < / oXOX.X X X@X%X&X4X&X&X4X9XqXqXvXvXXX- 3 g f f g g f f f f f p p p p p ; # # # # # # # # # # # # # # # # # # o o # # # # 1 1 1 1 p a 3 1 1 * o # # # # # # o # * 1 1 p p 3 3 3 3 3 3 3 1 * o 1 1 1 1 ; ; 1 ; 1 ; ; ; # # # # ; ; ; e 7 7 7 7 @ @ @ @ 7 @ @ @ @ @ @ @ @ @ 6 6 @ 7 w y y u f y y y g g g g y y u u u u u u y t t t w w t u u o.#.#.#.7.7.#.#.#.#.#.o.u u o.o.o.o.o.o.o.o.#.#.7.#.#.#.#.8.7.u 6 6 t u #.#.t 6 y o.7.w.p.7.o.o.9.i.d.g.g.d.i.q.O.o.o.%.u.0.*.&.&.,.,.,.,.,.,.,.,.c.c.c.c.c.c.c.c.c.c.c.c.c.c.c.c.c.c.c.c.c.c.c.c.c.c.c.c.c.c.c.c.&.&.&.&.&.&.,.,.,.,.,.,.&.&.0.0.0.0.c.c.c.c.c.c.c.c.c.c.c.c.&.&.&.&.&.&.&.&.&.&.c.c.c.c.c.c.c.c.",
"*.*.*.*.*.*.&.&.&.&.&.&.c.c.c.c.c.c.c.c.c.c.c.c.c.c.c.c.c.c.c.c.c.c.c.c.c.c.c.c.c.c.c.c.c.c.c.c.c.c.c.c.c.c.c.c.c.c.c.c.c.c.c.c.c.c.c.c.c.c.c.c.c.c.c.c.c.c.c.c.c.c.c.c.c.c.c.c.c.c.c.c.c.c.c.c.c.c.c.c.c.c.c.c.c.c.c.c.c.c.c.c.c.c.c.c.c.c.c.c.c.c.c.c.c.c.c.c.c.c.c.c.c.c.c.c.c.c.c.c.c.c.c.c.c.c.c.c.c.c.0.0.c.0.c.c.$.>.=.=.$.>.v.v.c.c.c.c.0.0.c.c.c.c.c.c.c.c.c.c.c.c.c.c.c.c.c.c.c.c.c.c.c.c.c.c.c.c.c.c.c.c.c.c.c.c.c.c.c.c.c.c.c.c.c.c.c.c.c.c.c.c.c.c.c.c.c.c.c.c.0.0.0.c.k.k.! <XvXqX4X$X@XQ.^ m 4 d d 2 1 & o o o o o o     . . . . . . . . . . . .                 . . .   . . . .                 . . . . . . . . . . . . . . . . . . o o . o & & , / XXoX X X X@X&X&X&X&X&X&X9X9XvXvXvX2X~ d g f #.g g g f f f f p p p p p e ; # # # ; # # # # # # # # # # # # # o o o o o # # ; 1 1 1 1 1 1 * # o o + o . . . . # * 1 1 1 1 1 1 3 3 3 3 3 1 * * * 1 1 1 ; 1 1 ; 1 ; ; ; # # # # ; ; ; ; 7 7 7 7 @ @ @ @ 7 @ 7 7 @ @ @ @ @ @ 6 6 @ # w w y y f f g u g g g g y y u g u u u u u y t t w i i u o.o.#.#.#.#.7.#.#.#.#.#.#.o.#.#.o.o.o.o.o.o.#.7.7.7.7.#.#.#.7.#.u 6 6 y #.#.7.y w y u o.7.0.#.t t o.4.p.g.g.g.s.y.7.o.o.=.u.*.*.*.&.,.,.,.,.,.,.,.,.c.c.c.c.c.c.c.c.c.c.c.c.c.c.c.c.c.c.c.c.c.c.c.c.c.c.c.c.c.c.c.c.&.&.&.&.&.&.,.,.,.,.,.,.,.&.0.0.0.0.c.c.c.c.c.c.c.c.c.c.c.c.&.&.&.&.&.&.&.&.&.&.c.c.c.c.c.c.c.c.",
"*.*.*.*.*.*.&.&.&.&.&.&.c.c.c.c.c.c.c.c.c.c.c.c.c.c.c.c.c.c.c.c.c.c.c.c.c.c.c.c.c.c.c.c.c.c.c.c.c.c.c.c.c.c.c.c.c.c.c.c.c.c.c.c.c.c.c.c.c.c.c.c.c.c.c.c.c.c.c.c.c.c.c.c.c.c.c.c.c.c.c.c.c.c.c.c.c.c.c.c.c.c.c.c.c.c.c.c.c.c.c.c.c.c.c.c.c.c.c.c.c.c.c.c.c.c.c.c.c.c.c.c.c.c.c.c.c.c.c.c.c.c.c.c.c.c.c.c.c.c.0.0.0.c.c.c.v.,.v.v.v.n.v.v.c.c.c.c.0.0.c.c.c.c.c.c.c.c.c.c.c.c.c.c.c.c.c.c.c.c.c.c.c.c.c.c.c.c.c.c.c.c.c.c.c.c.c.c.c.c.c.c.c.c.c.c.c.c.c.c.c.c.c.c.c.c.c.c.c.c.0.0.0.c.k.E /.vXbXqX4X$X@XQ.^ m 4 B V 2 & o o o o o o o             . . .       . . . .         . . . .     . . . .                 . . . . . . . . . . . . . . . . . . o o . . o & , T /.XXoXQ. X@X&X&X&X&X&X&X4X9XqXvXvXvX=XY s #.#.#.g g g g g g p p s s p p e e e e ; ; # # # # # # # # # # # # o o o o o o # # # ; ; 1 1 * o o     .   . . . . # * * * 1 1 1 1 1 1 3 3 1 1 1 * * * 1 1 1 1 p 1 1 ; ; ; ; ; # # # # # # 7 7 7 7 @ @ @ @ @ @ @ @ @ @ @ @ 6 # @ 6 @ @ 6 6 w y y f y y y y g g u u u g o.o.o.u u u i i i i u u o.#.7.7.7.7.7.7.#.#.#.#.#.#.#.#.o.o.#.#.#.7.7.7.7.7.7.7.#.#.#.#.u y 6 y #.#.8.u y o.u g g 8.y 6 @ 6 +.5.g.R.g.d.p.9.o.o.%.*.*.*.,.,.,.,.,.,.,.,.,.,.c.c.c.c.c.c.c.c.c.c.c.c.c.c.c.c.c.c.c.c.c.c.c.c.c.c.c.c.c.c.c.c.&.&.&.&.&.&.,.,.,.,.,.,.,.&.0.0.c.c.c.c.c.c.c.c.c.c.c.c.c.c.&.&.&.&.&.&.&.&.&.&.c.c.c.c.c.c.c.c.",
"*.*.*.*.*.*.&.&.&.&.&.&.c.c.c.c.c.c.c.c.c.c.c.c.c.c.c.c.c.c.c.c.c.c.c.c.c.c.c.c.c.c.c.c.c.c.c.c.c.c.c.c.c.c.c.c.c.c.c.c.c.c.c.c.c.c.c.c.c.c.c.c.c.c.c.c.c.c.c.c.c.c.c.c.c.c.c.c.c.c.c.c.c.c.c.c.c.c.c.c.c.c.c.c.c.c.c.c.c.c.c.c.c.c.c.c.c.c.c.c.c.c.c.c.c.c.c.c.c.c.c.c.c.c.c.c.c.c.c.c.c.c.c.c.c.c.c.c.c.c.0.0.c.0.c.c.c.,.v.J.$.>.v.v.c.c.c.c.0.0.c.c.c.c.c.c.c.c.c.c.c.c.c.c.c.c.c.c.c.c.c.c.c.c.c.c.c.c.c.c.c.c.c.c.c.c.c.c.c.c.c.c.c.c.c.c.c.c.c.c.c.c.c.c.c.c.c.c.c.c.0.0.0.k.k.Y 2XbXbX8X4X$X@X^.^ m 4 B 2 2 & o o o o o o o     . . .   . . .       . . . .       . . . . .     . . . .                 . . . . . . . . . . . . . . . . . . o . . . . o & T S.^.oX^. X@X&X%X&X&X&X&X4X9XqXqXqXvXvX) d h g #.g g g g g g f f s s p p e e e ; ; ; # # # # # # # # # # # # + o o o o o # # # # # ; * o o . .     . . . . . # # * * * * * * 1 1 1 3 1 1 1 * * * 1 1 1 1 p 1 1 ; ; ; ; # # # # # # # 7 7 7 7 @ @ @ @ @ @ @ @ @ @ @ @ @ 7 @ 6 @ @ @ 6 w w y y y y y y g g u u u g o.o.o.u u u i i i i u o.#.7.7.7.7.7.7.7.#.#.#.#.#.#.#.#.#.#.7.7.7.7.7.7.7.7.7.7.#.#.u u y y w y #.#.9.#.y o.#.g g g w @ O @ 6 X.y.g.sXg.d.y.O.o.%.*.*.*.,.,.,.,.,.,.,.,.,.,.c.c.c.c.c.c.c.c.c.c.c.c.c.c.c.c.c.c.c.c.c.c.c.c.c.c.c.c.c.c.c.c.&.&.&.&.&.&.,.,.,.,.,.,.,.&.0.0.c.c.c.c.c.c.c.c.c.c.c.c.c.c.&.&.&.&.&.&.&.&.&.&.c.c.c.c.c.c.c.c.",
"*.*.*.*.c.c.c.c.*.*.&.&.c.c.c.c.c.c.c.c.c.c.c.c.c.c.c.c.c.c.c.c.c.c.c.c.c.c.c.c.c.c.c.c.c.c.c.c.c.c.c.c.c.c.c.c.c.c.c.c.c.c.c.c.c.c.c.c.c.c.c.c.c.c.c.c.c.c.c.c.c.c.c.c.c.c.c.c.c.c.c.c.c.c.c.c.c.c.c.c.c.c.c.c.c.c.c.c.c.c.c.c.c.c.c.c.c.c.c.c.c.c.c.c.c.c.c.c.c.c.c.c.c.c.c.c.c.c.c.c.c.c.c.c.c.c.c.c.c.c.c.c.0.0.0.0.c.c.c.c.c.c.c.c.c.c.0.0.c.c.c.c.c.c.c.c.c.c.c.c.c.c.c.c.&.&.$.$.c.c.$.c.c.c.c.c.c.c.c.c.c.c.c.c.c.c.c.c.c.c.c.c.c.c.c.c.c.c.c.c.c.c.c.c.0.0.0.c.c.c.0.0.c.k.A } bXbXwXqX4X$X@X^.^ R W B 2 & & o o o o o o o             . . .           . . .       . . . . . . . .   .                 . . . . . . . . . . . . . . . . o o o o o o o o & m [ /.S.} |.#X3X%X&X&X&X&X4X9XqXqXqX0XvX=XA 3 g #.#.#.#.g g g g g g g p p e e e ; ; ; # # # # # # # # # # # # # # # # # o o # # # o o # o X               . . o o # # # # # # * 1 1 1 1 1 1 1 1 1 1 ; 1 1 1 e ; 1 1 ; # 7 7 7 # # # # 7 7 7 7 # 7 6 6 6 6 # # 7 7 7 7 7 7 # # 7 7 6 6 6 e w y f f f f y y y y u u o.o.o.o.o.o.u u o.o.#.7.7.7.7.7.7.7.%.%.%.%.%.%.%.%.%.%.%.7.7.7.7.7.7.7.7.7.7.7.#.#.y y t y w u #.7.8.#.y y g #.g g e @ X @ @ 6 o.q.g.tXrXs.%.o.o.%.0.*.,.,.,.,.,.,.c.c.c.c.c.c.c.c.c.c.c.c.c.c.c.c.c.c.c.c.c.c.c.c.c.c.c.c.c.c.c.c.c.c.c.c.c.c.c.c.,.,.v.v.,.,.,.,.,.c.c.c.c.c.c.c.c.c.c.c.c.c.,.c.c.c.c.c.*.*.*.*.*.*.*.*.*.*.*.*.*.*.*.*.",
"*.*.*.*.c.c.c.c.*.*.&.&.c.c.c.c.c.c.c.c.c.c.c.c.c.c.c.c.c.c.c.c.c.c.c.c.c.c.c.c.c.c.c.c.c.c.c.c.c.c.c.c.c.c.c.c.c.c.c.c.c.c.c.c.c.c.c.c.c.c.c.c.c.c.c.c.c.c.c.c.c.c.c.c.c.c.c.c.c.c.c.c.c.c.c.c.c.c.c.c.c.c.c.c.c.c.c.c.c.c.c.c.c.c.c.c.c.c.c.c.c.c.c.c.c.c.c.c.c.c.c.c.c.c.c.c.c.c.c.c.c.c.c.c.c.c.c.c.c.c.c.c.0.0.0.0.c.c.c.c.c.c.c.c.c.c.0.0.c.c.c.c.c.c.c.c.c.c.c.c.c.c.c.c.$.L.mXT.$.c.c.c.c.c.c.c.c.c.c.c.c.c.c.c.c.c.c.c.c.c.c.c.c.c.c.c.c.c.c.c.c.c.c.c.0.0.0.c.c.c.0.0.c.E J 5XwXwXqXqX4X$X@X X{ / ~ B 2 & o o o o o o o o             . . . .         . . .       . . . .   . .                       . . . . . . . . . . . . . . . . o o o o o o o o o 4 / S.} { Q.@X3X%X&X&X&X&X4X9XqXqXqXqXvX2X) 3 g #.#.#.#.#.g g g g g g p p e e e ; ; ; # # # # # * * # # # q q # # # # # # # # o # o o # o X             . . o o o # # # # # # # # * * 1 1 1 1 1 1 1 ; 1 1 1 ; ; 1 1 7 7 7 7 7 # # # # 7 7 7 7 # # 7 7 7 7 # # 7 7 7 7 7 7 7 # 7 7 6 @ @ 6 e y f f f f y y y y u u o.o.o.o.o.o.o.o.o.o.7.7.7.9.7.7.7.7.%.%.%.%.#.%.%.%.%.%.%.7.7.7.7.7.7.7.7.7.#.#.#.y t y w w y u #.7.8.#.y y y g g g e @ X X O @ t o.d.tXtXrXy.O.%.0.0.*.,.,.,.,.,.,.c.c.c.c.c.c.c.c.c.c.c.c.c.c.c.c.c.c.c.c.c.c.c.c.c.c.c.c.c.c.c.c.c.c.c.c.c.c.c.&.&.c.$.&.>.>.,.,.,.c.c.0.c.c.c.c.,.,.c.c.c.c.c.c.,.c.c.c.*.*.*.*.*.*.*.*.*.*.*.*.*.*.*.*.",
"c.c.c.c.c.c.c.c.*.*.*.*.c.c.c.c.c.c.c.c.c.c.c.c.c.c.c.c.c.c.c.c.c.c.c.c.c.c.c.c.c.c.c.c.c.c.c.c.c.c.c.c.c.c.c.c.c.c.c.c.c.c.c.c.c.c.c.c.c.c.c.c.c.c.c.c.c.c.c.c.c.c.c.c.c.c.c.c.c.c.c.c.c.c.c.c.c.c.c.c.c.c.c.c.c.c.c.c.c.c.c.c.c.c.c.c.c.c.c.c.c.c.c.c.c.c.c.c.c.c.c.c.c.c.c.c.c.c.c.c.c.c.c.c.c.c.c.c.c.c.c.c.c.c.c.c.c.c.c.c.c.c.c.c.c.c.0.0.c.c.c.c.c.c.c.c.c.c.c.c.c.c.c.c.$.T.GXT.$.&.H.c.&.c.c.c.c.c.c.c.c.c.c.c.c.c.c.c.c.c.c.c.c.c.c.c.c.c.c.c.c.c.c.c.0.0.0.0.c.c.c.0.8.d { nXbXwX8X9X4X$X@X X} / T 2 & o o o o o o o o o             . . . . . .   . . . . .     . .             . .                 . . . . . . . . . . . . . . . . . . o . o o o o . , / { { ` } .X3X%X&X&X&X&X4X9XqXqXqXqXvXvX+XG s #.#.#.#.g g g g g g g j p p e p e e ; e e p p 1 1 p p p p p p 1 1 1 1 1 # # o # o o o # o X             . . . o o o # # # # # # # & * # # ; ; 1 1 1 1 1 1 ; ; 1 1 1 7 7 7 # # # # # # 7 7 7 7 @ 7 7 7 7 6 6 7 7 7 7 7 6 6 # # @ 7 7 6 6 7 e e y y y y y y y y y u #.#.#.#.o.#.#.#.#.#.7.7.9.9.9.7.7.7.#.#.#.#.#.#.%.%.7.7.7.7.7.7.7.7.7.7.7.7.#.#.u t y w w w y u #.7.8.#.y y y y g g e @ X X @ O 6 y 9.tXyXeXi.9.%.u.0.*.,.,.,.,.,.,.c.c.c.c.c.c.c.c.c.c.c.c.c.c.c.c.c.c.c.c.c.c.c.c.c.c.c.c.c.c.c.c.c.c.c.c.c.c.c.c.&.&.$.fXjXjXT.>.c.c.c.0.c.c.c.,.c.c.c.c.c.c.c.c.c.c.c.c.*.*.*.*.*.*.*.*.*.*.*.*.*.*.*.*.",
"c.c.c.c.c.c.c.c.*.*.*.*.c.c.c.c.c.c.c.c.c.c.c.c.c.c.c.c.c.c.c.c.c.c.c.c.c.c.c.c.c.c.c.c.c.c.c.c.c.c.c.c.c.c.c.c.c.c.c.c.c.c.c.c.c.c.c.c.c.c.c.c.c.c.c.c.c.c.c.c.c.c.c.c.c.c.c.c.c.c.c.c.c.c.c.c.c.c.c.c.c.c.c.c.c.c.c.c.c.c.c.c.c.c.c.c.c.c.c.c.c.c.c.c.c.c.c.c.c.c.c.c.c.c.c.c.c.c.c.c.c.c.c.c.c.c.c.c.c.c.c.c.c.c.c.c.c.c.c.c.c.c.c.c.c.c.0.0.c.c.c.c.c.c.c.c.c.c.c.c.c.c.c.c.$.L.zXc.H.&.c.&.c.c.c.c.c.c.c.c.c.c.c.c.c.c.c.c.c.c.c.c.c.c.c.c.c.c.c.c.c.c.c.c.0.0.0.0.c.c.c.c.$.D vXbXwX8X9X4X4X%X@X X^./ Y 2 & o o o o o o o o .             . . . . .       . . . .     . .             . .                 . . . . . . . . . . . . . . . . . . . . . . . o . > T { { ` }  X@X*X%X&X&X&X4X9XqXqXqXqXqXvX2X) s g #.#.#.#.g g g h g g f p p e p e e e e e e e p p p f f f f f p p p p 1 1 1 # # # o o o o X             . . . X X o o o o o o o o o # # # ; ; 1 1 1 1 ; ; ; ; ; ; ; 7 7 7 # # # # # # 7 7 7 7 @ 7 7 e e e e e e 7 7 7 7 6 # # @ 7 7 6 6 6 7 e y y y y f y y y y u o.#.#.#.#.#.#.#.#.7.7.9.9.9.7.7.7.7.#.#.#.#.#.#.%.%.7.7.7.7.7.7.7.7.7.7.7.7.#.u y y w w w w t u 7.7.7.#.t y y y y g e @ X X O O O 6 o.d.tXtXs.y.9.u.0.0.,.,.,.,.,.,.c.c.c.c.c.c.c.c.c.c.c.c.&.c.c.c.c.c.c.c.c.c.c.c.c.c.c.c.c.c.c.c.c.c.c.c.c.c.c.c.c.$.$.mXJXJXNXj c.c.0.0.c.c.c.,.c.c.c.c.c.c.c.c.c.c.c.c.*.*.*.*.*.*.*.*.*.*.*.*.*.*.*.*.",
"u.H.H.H.H.H.c.c.*.*.*.*.c.c.c.c.c.c.c.c.c.c.c.c.c.c.c.c.c.c.c.c.c.c.c.c.c.c.c.c.c.c.c.c.c.c.c.c.c.c.c.c.c.c.c.c.c.c.c.c.c.c.c.c.c.c.c.c.c.c.c.c.c.c.c.c.c.c.c.c.c.c.c.c.c.c.c.c.c.c.c.c.c.c.c.c.c.c.c.c.c.c.c.c.c.c.c.c.c.c.c.c.c.c.c.c.c.c.c.c.c.c.c.c.c.c.c.c.c.c.c.c.c.c.c.c.c.c.c.c.c.c.c.c.c.c.c.c.c.c.c.c.c.c.c.c.c.c.c.c.c.c.c.c.c.c.c.c.c.c.c.c.c.c.c.c.c.c.c.c.c.c.c.c.0.0.0.c.c.&.c.&.c.c.c.c.c.c.c.c.c.c.c.c.c.c.c.c.c.c.c.c.c.c.c.c.c.c.c.c.c.c.c.c.c.c.c.c.c.c.c.c.f D.nX9X8X4X4X&X4X<X#XoX/.Z.B > & & o o o o o . . .             . . .   . .             . . . .   . . .     . .             . . . . . . . . . . . . . . . . . . . . . . . . . . . > R { { ` }  X@X$X%X&X%X&X4X4X9XqXqXqXqX0X7X>XM.u 7.u #.8.#.#.h g g g g g g g g g g g p p p p p p f f f f f f p p p p p p 1 1 ; # # # # o             . . . .       o o o o o o o # # # # # # # # 1 1 e e e e # # q p e 7 # # # 7 # # 7 7 6 6 7 w e e e e w w e e e e e e e e e 7 7 7 7 6 7 7 e y y y f y y y t y u u #.#.#.#.#.#.%.%.7.0.0.0.8.#.#.#.#.#.#.#.#.#.#.#.#.#.#.#.#.#.#.#.7.#.#.#.#.y y y w w w w y u #.7.#.u t y t t w y w : X X     O O o.y.g.d.d.s.d.U.0.0.&.,.,.,.,.,.c.c.c.c.c.c.c.c.c.c.c.c.c.J.&.c.c.c.c.c.c.c.c.c.c.c.c.c.c.c.c.c.c.c.c.c.c.c.c.c.c.c.$.zXHXHXmX,.,.c.0.0.c.c.c.c.c.c.c.c.c.c.c.c.c.c.c.c.*.*.*.*.-.-.*.*.*.*.*.*.*.*.*.*.",
"u.H.H.H.H.H.c.c.*.*.*.*.c.c.c.c.c.c.c.c.c.c.c.c.c.c.c.c.c.c.c.c.c.c.c.c.c.c.c.c.c.c.c.c.c.c.c.c.c.c.c.c.c.c.c.c.c.c.c.c.c.c.c.c.c.c.c.c.c.c.c.c.c.c.c.c.c.c.c.c.c.c.c.c.c.c.c.c.c.c.c.c.c.c.c.c.c.c.c.c.c.c.c.c.c.c.c.c.c.c.c.c.c.c.c.c.c.c.c.c.c.c.c.c.c.c.c.c.c.c.c.c.c.c.c.c.c.c.c.c.c.c.c.c.c.c.c.c.c.c.c.c.c.c.c.c.c.c.c.c.c.c.c.c.c.c.c.c.c.c.c.c.c.c.c.c.c.c.c.c.c.c.c.c.0.0.c.c.c.c.c.c.c.c.c.c.c.c.c.c.c.c.c.c.c.c.c.c.c.c.c.c.c.c.c.c.c.c.c.c.c.c.c.c.c.c.c.c.c.c.c.k.E xXvX5X&X&X*X*X4X%X#XoXS.W 4 & & & o o o o o . .               . . .   .             . . . . . . . . .     . .                 . .   . . . . . . . . .         . . . . . . . . . , ! { } { ^..X.X@X$X%X%X%X%X4X9X8XqX8XqX9X7XcXW.#.7.u #.#.#.#.h g g g g g g g g g g g p p p p f f f f f f f f p p p p p p p p 1 ; ; ; # # o   X       . . .           o o o o o o o o + + # # # # # # ; ; ; ; # # # 7 e 7 # # 7 7 7 # 7 7 6 6 6 w e w w w w w w w w w e e e e e 7 7 e 7 7 6 7 e e e e y y y y w t y u #.#.#.#.#.#.#.#.%.7.8.8.#.#.#.y y y o.o.u u o.o.u u u u o.#.#.#.#.#.#.#.u y y y w w w w w y #.#.#.t y u y t w w r ; X X     O O y 7.d.g.tXs.d.a.u.0.0.&.c.,.,.,.c.c.c.c.c.c.c.c.c.c.c.c.v.c.$.&.c.c.c.c.c.c.c.c.c.c.c.c.c.c.c.c.c.c.c.c.c.c.c.c.c.v.H.$.,.<.J.v.,.,.c.c.c.c.c.c.c.c.c.c.c.c.c.c.c.c.c.c.*.*.*.*.-.-.*.*.*.*.*.*.*.*.*.*.",
"u.u.H.H.1.1.c.c.*.*.*.*.c.c.c.c.c.c.c.c.c.c.c.c.c.c.c.c.c.c.c.c.c.c.c.c.c.c.c.c.c.c.c.c.c.c.c.c.c.c.c.c.c.c.c.c.c.c.c.c.c.c.c.c.c.c.c.c.c.c.c.c.c.c.c.c.c.c.c.c.c.c.c.c.c.c.c.c.c.c.c.c.c.c.c.c.c.c.c.c.c.c.c.c.c.c.c.c.c.c.c.c.c.c.c.c.c.c.c.c.c.c.c.c.c.c.c.c.c.c.c.c.c.c.c.c.c.c.c.c.c.c.c.c.c.c.c.c.c.c.c.c.c.c.c.c.c.c.c.c.c.c.c.c.c.c.c.c.c.c.c.c.c.c.c.c.c.c.c.c.c.c.c.c.c.c.c.c.c.c.c.c.c.c.c.c.c.c.c.c.c.c.c.c.c.c.c.c.c.c.c.c.c.c.c.c.c.c.c.c.c.c.c.c.c.c.c.c.c.c.c.k.x.lX,X<X*X*X@X@X%X$X#XXXZ.T 2 & & & o o o o . . . .             . . .                   . . . . . . . . . . .                   . . . . . .     . . . . . . . . . . .   . . . . . 2 / A.S.} ^.#X.X.X$X%X%X%X%X4X9XqX8X8X8X8X7XcX-X7.7.7.7.#.#.#.g h h h g g g g g g g g p p p p f f s s s s s s f f f p p p p p p 1 1 ; 1 # o o X X X X                     o X o o o o o o # # # # # # e e ; ; # # # 7 e e # # 7 7 7 7 7 7 e 6 e w w w w w w w w w w w y y y w e e e e 7 7 7 7 7 7 7 e e e w w y y y u u #.#.#.#.#.#.#.#.#.7.7.#.u y t t t y y y y u u y y y y u u o.#.o.o.o.o.y y y y w w w w y y y #.u t y u y y t w w r : X   . O O w o.p.tXd.tXd.d.p.0.0.0.c.c.c.c.c.c.c.c.c.c.c.c.c.c.c.c.c.c.v.&.*.c.c.c.c.c.c.c.c.c.c.c.c.c.c.c.c.c.c.c.c.c.c.c.c.f v.c.>.<.,.,.,.,.c.c.c.c.c.c.c.c.c.c.c.c.c.c.c.,.,.c.*.*.*.*.*.*.*.*.*.*.*.*.*.*.*.*.",
"u.u.1.1.1.1.c.c.*.*.*.*.c.*.*.*.c.c.c.c.c.c.c.c.c.c.c.c.c.c.c.c.c.c.c.c.c.c.c.c.c.c.c.c.c.c.c.c.c.c.c.c.c.c.c.c.c.c.c.c.c.c.c.c.c.c.c.c.c.c.c.c.c.c.c.c.c.c.c.c.c.c.c.c.c.c.c.c.c.c.c.c.c.c.c.c.c.c.c.c.c.c.c.c.c.c.c.c.c.c.c.c.c.c.c.c.c.c.c.c.c.c.c.c.c.c.c.c.c.c.c.c.c.c.c.c.c.c.c.c.c.c.c.c.c.c.c.c.c.c.c.c.c.c.c.c.c.c.c.c.c.c.c.c.c.c.c.c.c.c.c.c.c.c.c.c.c.c.c.c.c.c.c.c.c.c.c.c.c.c.c.c.c.c.c.c.c.c.c.c.c.c.c.c.c.c.c.c.c.c.c.c.c.c.c.c.c.c.c.c.c.c.c.c.c.c.c.c.c.c.c.k.`.:XOX3X3X3X@X@X%X#X.X^./ m , & & & o o o o . . . .             . . .                       . . . . . . . . . . . . .     . . .         . . . . . . . . . . . . . . . . . . . . . 4 / S.S.} |.#X.X}.@X$X$X$X%X%X0XqXqX8X8X8X7XcXxXw.g.R.p.0.7.#.#.#.#.#.#.#.#.g g g g g p p f f s s s s s s f f f f f p p p p p p p p 1 1 1 # # X X X o                     X X o o o o o o # # # # # # # # # # # # # * 7 7 # # 7 7 7 7 e e e e w w w w w w w w w w w y y y y e w e e 6 7 7 7 7 7 7 7 9 w w w w y y y y u u #.#.#.#.#.#.#.#.#.#.#.y t y t t t t t t y y t t t t y y y o.o.o.o...y y y y w w w w y y y u y y u y y y t w w r w X   .   O 6 o.9.d.g.tXg.d.p.p.0.0.0.c.c.c.c.c.c.c.c.c.c.c.c.c.c.c.$.L.fXH.*.*.*.*.c.c.c.c.c.c.c.c.c.c.c.c.c.c.c.c.c.c.c.c.c.c.v.v.>.,.=.,.,.c.c.c.c.c.c.c.,.c.c.c.,.,.c.c.c.c.c.c.*.*.*.*.*.*.*.*.*.*.*.*.*.*.*.*.",
"0.,.,.,.,.,.,.u.u.u.c.*.*.*.*.*.*.*.*.*.c.,.*.*.c.c.c.c.c.c.c.c.*.*.*.*.*.*.*.*.*.*.&.&.&.&.&.&.c.c.c.c.c.c.c.c.c.c.c.c.c.c.c.c.c.c.c.c.$.$.c.@.c.c.c.c.c.c.c.c.c.c.c.c.c.c.c.c.c.c.c.c.c.c.c.c.c.c.c.c.c.c.c.c.c.c.c.c.c.c.c.c.c.c.c.c.c.c.c.c.c.c.c.c.c.c.c.c.c.c.c.c.c.c.c.c.c.c.c.c.c.c.c.c.c.c.c.c.c.c.c.c.c.c.c.c.c.c.c.c.c.c.c.c.c.c.c.c.c.c.c.c.c.c.c.c.c.c.c.c.c.c.c.c.c.c.c.c.c.c.c.c.c.c.c.c.c.c.c.c.c.c.c.c.c.c.c.c.c.c.c.c.c.c.c.c.c.c.c.c.c.c.c.c.c.c.c.H.,.c.c.k.F.=X|.]..X] ] .X<X,X.X{ < 2 > & & o o o o . . .     . .         . . . .                 . . . . . . . . . . . . . . . . . .   .                 . . . . . . . .       . .   . o . 4 [ A.{ }  X.X.X{..X{.$X$X$X%X5X0X8X8X8XqX7XcXkXd.g.sXsXsXR.R.p.9.%.#.7.#.o.o.#.#.#.#.g g g g g g g g g s s s f p p p p f f f p p p s p 1 ; ; # X X X                 . . . .     o o + + + + # # # # # # # # 7 7 7 7 7 e e e 7 7 7 7 e e e e w e w w w w w y w y y y y y y y e e 7 7 7 7 7 7 7 7 7 7 w w w w t y y y y y u g #.u u u g y y y w w w w w t t t w w w w w w t y e e y y @.@.@.@.y y w y w w y y y y y y y y u y y y y y t t t 6 + .   O w o.p.sXg.g.s.i.y.7.7.0.0.c.c.c.c.c.c.c.c.c.c.c.c.c.c.c.&.J.zXJ.*.*.*.*.&.&.&.&.c.c.c.c.c.c.c.c.c.c.c.c.c.c.c.c.c.*.*.*.,.,.*.,.,.*.*.*.c.,.,.c.c.c.,.c.H.0.*.H.*.*.*.*.H.H.H.H.,.,.,.,.,.u.0.0.c.c.c.c.",
"*.*.,.,.,.,.*.u.u.u.c.*.*.*.*.*.*.*.*.*.c.,.,.*.c.c.c.c.c.c.c.c.*.*.*.*.*.*.*.*.*.*.&.&.&.&.&.&.c.c.c.c.c.c.c.c.c.c.c.c.c.c.c.c.c.c.c.c.&.H.gXL.c.c.c.c.c.c.c.c.c.c.c.c.c.c.c.c.c.c.c.c.c.c.c.c.c.c.c.c.c.c.c.c.c.c.c.c.c.c.c.c.c.c.c.c.c.c.c.c.c.c.c.c.c.c.c.c.c.c.c.c.c.c.c.c.c.c.c.c.c.c.c.c.c.c.c.c.c.c.c.c.c.c.c.c.c.c.c.c.c.c.c.c.c.c.c.c.c.c.c.c.c.c.c.c.c.c.c.c.c.c.c.c.c.c.c.c.c.c.c.c.c.c.c.c.c.c.c.c.c.c.c.c.c.c.c.c.c.c.c.c.c.c.c.c.c.c.c.c.c.c.c.c.c.c.H.H.,.c.k.E G.-X|.} |.' ]  X;X;XoX` < 2 > 1 & & o o o . . .     . .         . . .                   . . . . $ $ $ $ $ $ $ $ . . . . . . . .             .   . . . . . . . .       . . . . o . m ` ` { } |. X X[.[.[..X$X$X%X1X0XqX9X9XqX7XlXW.g.yXsXsXsXsXR.R.d.i.y.y.y.9.4.4.#.#.#.#.g g h g g g g g s s s s s s s s s s s p p p p p p p ; # # X X   o             . . . .     o o + + + + + + + + # # # # # # # 7 # # e 7 7 7 7 7 e e e e w e w w w w w w w y y y y y y y e e 7 6 7 7 7 7 7 7 7 7 w w t t y y y y y y u u u u u u g y y t w 6 w 6 6 6 6 6 w w w w 6 6 6 6 7 7 7 7 f @.@.@.y y w w w w y y y y y y y y y y y y y y y y y w + + O O w o.9.g.d.s.i.y.O.O.7.0.0.c.c.c.c.c.c.c.c.c.c.c.c.c.c.c.H.H.Y.c.*.*.*.*.&.&.&.&.c.c.c.c.c.c.c.c.c.c.c.c.c.c.c.c.*.*.*.*.&.&.*.*.*.*.*.*.c.c.c.c.c.c.,.c.c.H.c.*.H.*.H.H.H.H.H.H.,.1.,.,.u.u.c.0.c.c.c.c.",
"H.1.,.,.,.,.H.H.,.1.c.*.c.*.*.*.*.*.*.*.c.c.*.*.c.c.c.c.c.c.c.c.*.*.*.*.*.*.*.*.*.*.&.&.&.&.&.&.c.c.c.c.c.c.c.c.c.c.c.c.c.c.c.c.c.c.c.c.&.fXKXfXc.c.c.c.c.c.c.c.c.c.c.c.c.c.c.c.c.c.c.c.c.c.c.c.c.c.c.c.c.c.c.c.c.c.c.c.c.c.c.c.c.c.c.c.c.c.c.c.c.c.c.c.c.c.c.c.c.c.c.c.c.c.c.c.c.c.c.c.c.c.c.c.c.c.c.c.c.c.c.c.c.c.c.c.c.c.c.c.c.c.c.c.c.c.c.c.c.c.c.c.c.c.c.c.c.c.c.c.c.c.c.c.c.c.c.c.c.c.c.c.c.c.c.c.c.c.c.c.c.c.c.c.c.c.c.c.c.c.c.c.c.c.c.c.c.c.c.c.c.c.c.c.c.c.H.H.,.c.k.E G.XXS.S.{ L U |.OXoX^.! < 2 > * & & o o o . . .     . .   .     . .                 . . . . . . $ % % % % $ $ $ $ $ . . . . . .         . . . . . . . . . . . .       . . o o & & m / ^ { } } Q.].].].].[..X$X$X%X5X9X9X9X0X7X>XE.g.sXyXyXyXtXg.sXsXsXd.tXd.d.p.i.9.#.#.#.#.#.#.g g g g g g g g s g g s s s s s s s s s f p p p e # # O O X             . . . .     o o + + + + + + + + # # # @ # # + # # # e e 7 7 e e e e e e e e e e w e w w e y y y y y y y e e 7 7 7 7 7 7 7 7 7 7 e e y w y y f f u u u u u u u u g u y t w 6 w 6 6 6 6 6 6 @ @ @ @ @ @ @ 7 + 7 7 9 y @.@.@.y y w t y y y y y u u y y t t u o.u u y y y y e # O O w u 9.g.i.i.y.5.X.o.o.0.0.0.0.0.0.0.0.0.c.c.c.c.c.c.c.c.c.H.*.&.&.&.*.*.&.&.&.&.c.c.c.c.c.c.c.c.c.c.c.c.c.c.c.c.*.*.*.*.&.*.*.*.*.*.*.*.c.c.c.c.c.c.c.c.*.&.*.c.=.H.H.H.H.H.H.H.1.1.H.H.H.H.c.c.0.c.c.c.",
"H.1.1.1.,.,.1.H.1.1.c.*.c.*.*.*.*.*.*.*.c.c.0.0.c.c.c.c.c.c.c.c.*.*.*.*.*.*.*.*.*.*.&.&.&.&.&.&.c.c.c.c.c.c.c.c.c.c.c.c.c.c.c.c.c.c.c.c.&.T.GXT.c.c.c.c.c.c.c.c.c.c.c.c.c.c.c.c.c.c.c.c.c.c.c.c.c.c.c.c.c.c.c.c.c.c.c.c.c.c.c.c.c.c.c.c.c.c.c.c.c.c.c.c.c.c.c.c.c.c.c.c.c.c.c.c.c.c.c.c.c.c.c.c.c.c.c.c.c.c.c.c.c.c.c.c.c.c.c.c.c.c.c.c.c.c.c.c.c.c.c.c.c.c.c.c.c.c.c.c.c.c.c.c.c.c.c.c.c.c.c.c.c.c.c.c.c.c.c.c.c.c.c.c.c.c.c.c.c.c.c.c.c.c.c.c.c.c.c.c.c.c.c.c.c.c.H.1.,.c.k.E G.XXG.} ^ P I |.|.oXS.R 4 2 > * & & o o o o . .     . . . . . .                 . . . . . . . . % % % % % % % % % $ $ . . . . . . .       . . . . . . . . . . .   . . . . & 1 o & J ^ ^ } } ' ' ].].].].]. X.X#X,X1X9XqX0X0XlX>XE.g.yXyXyXtXg.g.tXyXsXsXsXsXtXg.g.d.i.9.7.7.8.#.#.#.g g g g g g g g g g g g f f g g p f j f p p p e # # + .                         o o + O + + + + + O O O O O + + @ @ @ @ # # 7 7 e e e e e e e 6 w w e e w w e e y y e e y y e e 7 7 7 7 7 7 7 7 7 7 e e w w y y y g u u u u u u u u u y t w 6 6 6 6 @ @ @ @ @ @ @ @ O O O O O O @ @ 9 y y @.g y y w t y y y y y u y t t t t y u u u y i i t e e 7 @ i u 7.d.i.i.y.4.t t o.0.0.0.0.0.0.0.0.0.c.c.c.c.c.c.c.c.=.J.c.c.*.*.*.*.&.&.&.&.c.c.c.c.c.c.c.c.c.c.c.c.c.c.c.c.*.*.*.*.&.&.&.*.*.*.*.*.c.c.c.c.c.c.c.c.*.*.gXmXmXY.*.H.H.H.H.H.H.H.H.u.1.H.c.c.c.c.c.c.",
"H.H.,.,.,.,.H.H.1.1.u.0.0.0.1.1.H.H.H.H.H.H.c.0.c.c.c.c.c.c.c.c.*.*.*.*.*.*.*.*.*.*.&.&.&.&.&.&.c.c.c.c.c.c.c.c.c.c.c.c.c.c.c.c.c.c.c.c.c.c.c.c.c.c.c.c.c.c.c.c.c.c.c.c.c.c.c.c.c.c.c.c.c.c.c.c.c.c.c.c.c.c.c.c.c.c.c.c.c.c.c.c.c.c.c.c.c.c.c.c.H.$.@.&.c.c.c.c.c.c.c.c.c.c.c.c.c.c.c.c.c.c.c.c.c.c.c.c.c.c.c.c.c.c.c.c.c.c.c.c.c.c.c.c.c.c.c.c.c.c.c.c.c.c.c.c.c.c.c.c.c.c.c.c.c.c.c.c.c.c.c.c.c.c.c.c.c.c.c.c.c.c.c.c.c.c.c.c.c.c.c.c.c.c.c.c.c.c.c.c.c.c.c.c.c.,.1.1.,.,.k.l.F.F.G.! K J L } |.S.` T < 5 > & & & o o . . . .     . . . . . . . . . . . . . . . . . $ $ $ $ $ % k k k k = = = % % $ $ $ $ . . .           . . . . . . . . . .     . . a 3 > & , T R ` } } ' ' ] ] ] ] Q.]. X#X,X1X9XqX7XcXlX`.R.tXyXyXeXrXs.h.tXyXyXyXyXyXyXtXtXg.d.d.p.0.9.7.7.7.7.#.#.#.#.#.g g g g g g g g g g g f f f f f p e e # # O                     + + O   + + + + O O O O O O O O O O + + O O # # # # # 7 7 # ; ; 7 @ 7 7 e e e e e e e e e e e e e e e 7 7 7 7 7 7 7 7 7 e e w y y y y f g g g g g g g g y y t w 9 6 @ O O O O O O O O O O           O O 6 9 y y g f y y y y y y y y y t y w t y o.o.y u t y t t g g u w i u %.9.y.y.9.%.y y o.7.0.0.0.0.0.0.c.c.c.c.c.c.c.c.c.c.c.H.c.c.*.*.*.*.*.*.*.*.c.c.c.c.c.c.c.c.c.c.c.c.c.c.c.c.c.c.c.c.*.,.c.,.*.*.*.*.c.c.c.c.c.c.c.c.H.H.zXHXFXfX=.*.0.0.H.H.1.1.u.u.1.1.0.c.c.c.c.c.",
"u.u.,.,.,.,.u.u.H.1.u.u.*.*.1.1.H.H.H.H.H.H.c.c.c.c.c.c.c.c.c.c.*.*.*.*.*.*.*.*.*.*.&.&.&.*.&.&.c.c.c.c.c.c.c.c.c.c.c.c.c.c.c.c.c.c.c.c.c.c.c.c.c.c.c.c.c.c.c.c.c.c.c.c.c.c.c.c.c.c.c.c.c.c.c.c.c.c.c.c.c.c.c.c.c.c.c.c.c.c.c.c.c.c.c.c.c.c.c.c.T.SXSXgXc.c.c.c.c.c.c.c.c.c.c.c.c.c.c.c.c.c.c.c.c.c.c.c.c.c.c.c.c.c.c.c.c.c.c.c.c.c.c.c.c.c.c.c.c.c.c.c.c.c.c.c.c.c.c.c.c.c.c.c.c.c.c.c.c.c.c.c.c.c.c.c.c.c.c.c.c.c.c.c.c.c.c.c.c.c.c.c.c.c.c.c.c.c.c.c.c.c.c.c.c.c.,.,.,.c.k.l./.F.! Y , , J { |.} ! ~ < > > & & o . . . . . .     . . . . . .     . . . . . . . . $ $ $ % % % k k k k l k k k k % % % $ $ $ . . .         . . . . . . . . . .   . . o d 2 2 5 m T ^ ` } { ' U ] ] ] ] !.Q.]..X,X1X1X0X2XcXxXE.R.tXtXeXrXs.s.s.s.eXtXyXtXtXtXtXrXs.s.i.p.0.0.7.7.7.7.7.#.#.o.o.#.g g g g g #.#.g g g f j j f f p e e ; ; #                     + . O   + + o o O O O O O O O O O O O O O O + + O O @ @ # # @ @ @ @ 6 6 7 7 e e 7 e e e e e e e e e e 7 7 7 7 7 7 7 7 7 e e w y y y y y g g g g g g y y y y w w 9 6 @ O O O O O O O O O               O @ 6 w y y y y y y y y y y y y t w w t y o.o.y y y y t t g 7.7.u i u #.7.y.y.9.%.y y #.7.0.0.0.0.0.0.c.c.c.c.c.c.c.c.c.c.c.c.c.c.*.*.*.*.*.*.*.*.c.c.c.c.c.c.c.c.c.c.c.c.c.c.c.c.c.c.c.c.*.,.,.*.*.*.-.-.c.c.c.c.c.c.c.c.c.H.Y.zXgX*.*.H.*.*.H.H.1.1.u.u.1.1.0.0.c.c.c.,.",
"u.H.H.c.1.u.u.u.H.H.H.H.H.H.H.H.H.H.H.H.H.H.,.,.c.c.c.c.c.c.c.c.*.*.*.*.-.-.*.*.*.*.&.&.*.*.*.*.c.c.c.c.c.c.c.c.c.c.c.c.c.c.c.c.c.c.c.c.c.c.c.c.c.c.c.c.c.c.c.c.c.c.c.c.c.c.c.c.c.c.c.c.c.c.c.c.c.c.c.c.c.c.c.c.c.c.c.c.c.c.c.c.c.c.c.c.c.c.c.c.T.LXLXgXc.c.c.c.c.c.c.c.c.c.c.c.c.c.c.c.c.c.c.c.c.c.c.c.c.c.c.c.c.c.c.c.c.c.c.c.c.c.c.c.c.c.c.c.c.c.c.c.c.c.c.c.c.c.c.c.c.c.c.c.c.c.c.c.c.c.c.c.c.c.c.c.c.c.c.c.c.c.c.c.c.c.c.c.c.c.c.c.c.c.c.c.c.c.c.c.c.c.c.c.c.c.,.,.,.c.k.l./.G.E 5 > , J { S.{ R J 5 > & o o o o . . . . .         . .           . . . . . $ $ = = = x l l l l z l x l l l l k k % % $ $ $ . . .       . . . . . . . . . .   . * 1 d d B B ~ R [ { { ' U I U U ' ' ' Q.]. X$X<X1X0X2XcXxXM.R.tXtXtXs.s.i.i.s.rXeXeXrXrXrXrXs.i.s.i.y.9.7.%.#.#.8.8.8.#.#.#.o.#.#.#.#.#.#.#.#.#.#.g j j j g f p e e e # O O             . . + +       X X X O O O O O O O O O O O O O O O O O O O O + + @ @ @ @ @ @ @ 6 6 6 7 7 e e e e e e e e e e 7 7 7 7 7 7 7 7 e w w w y y y y g g g g g g y y y y w w 9 6 @ O O O O O O                   O O O 6 e y y r y w y y y y y y y t w w t y o.o.y ..y y y w u 7.7.4.u u #.#.y.y.y.%...y #.$.0.0.0.0.0.0.c.c.c.c.c.c.c.c.c.c.c.c.c.c.*.*.*.*.*.*.*.*.c.c.c.c.c.c.c.c.c.c.c.c.c.c.c.c.c.c.c.c.*.*.*.*.-.-.-.-.c.c.c.c.c.c.c.c.*.H.$.@.*.*.H.u.*.*.u.H.1.1.,.u.1.H.c.0.c.,.,.,.",
"u.u.H.c.1.H.u.H.H.H.H.H.H.H.H.H.u.H.H.H.H.H.c.,.c.c.c.c.,.c.c.c.*.*.*.*.-.-.*.*.*.*.&.&.*.*.*.*.c.c.c.c.c.c.c.c.c.c.c.c.c.c.c.c.c.c.c.c.c.c.0.c.c.c.c.c.c.c.c.c.c.c.c.c.c.c.c.c.c.c.c.c.c.c.c.c.c.c.c.c.c.c.c.c.c.c.c.c.c.c.c.c.c.c.c.c.c.c.c.c.H.mXzX&.c.c.c.c.c.c.c.c.c.c.c.c.c.c.c.c.c.c.c.c.c.c.c.c.c.c.c.c.c.c.c.c.c.c.c.c.c.c.c.c.c.c.c.c.c.c.c.c.c.c.c.c.c.c.c.c.c.c.c.c.c.c.c.c.c.c.c.c.c.c.c.c.c.c.c.c.c.c.c.c.c.c.c.c.c.c.c.c.c.c.c.c.c.c.c.c.c.c.c.c.c.c.,.c.,.c.k.l./.N.d 2 & , Y A.S.[ ~ 4 5 > & o o o . . . . . .         . .           . . . . . $ = = = x x x x z z z z x x x x l l k k % % % $ . . . .     . . . . . . . . . . . o 1 d d B Y ~ T ^ [ { { ^ I L ` U U U ' ] Q. X.X%X1X5X2XcX-Xw.R.g.tXtXf.r.r.r.s.f.s.rXrXrXrXs.r.r.y.y.9.7.#.#.#.#.$.$.v.0.0.0.#.o.o.#.#.#.#.#.#.#.#.#.j j g g f p e e e # @ O             . . + +       X X X O O O O O O O O O O O O O O O O O O O O O O O O @ @ @ @ @ @ 6 6 e e e e e e e e e e e e 7 7 7 7 7 7 7 7 e w w t y y y y g g g y g g y y y y w 9 9 @ @ O O O O O                     O O O @ 7 w r s y w y y y y y y y t w w y y o.o.y ..y y y w w u S u u u o.o.9.9.y.9...y #.#.0.0.0.0.0.0.c.c.c.c.c.c.c.c.c.c.c.c.c.c.*.*.*.*.*.*.*.*.c.c.c.c.c.c.c.c.c.c.c.c.c.c.c.c.c.c.c.c.*.*.*.*.-.-.-.-.c.c.c.c.c.c.c.c.*.H.H.c.H.H.H.H.H.*.u.1.1.1.,.u.1.H.c.c.c.,.,.,.",
"u.u.*.,.H.H.u.u.u.u.0.0.H.H.H.H.*.*.*.*.H.H.H.H.H.1.0.0.H.H.H.H.1.,.,.*.0.0.1.1.*.*.*.*.*.*.*.*.c.c.c.c.c.c.c.c.c.c.c.c.c.c.c.c.c.c.c.c.c.c.c.c.c.c.c.c.c.c.c.c.c.c.c.c.c.c.c.c.c.c.c.c.c.c.c.c.c.c.c.c.c.c.c.c.c.c.c.c.c.c.c.c.c.c.c.c.c.c.c.c.$.$.$.$.&.&.&.&.c.c.c.c.c.c.c.c.c.c.c.c.c.c.c.c.c.c.c.c.c.c.c.c.c.c.c.c.c.c.c.c.c.c.c.c.c.c.c.c.c.c.c.c.c.c.c.c.c.c.c.c.c.c.c.c.c.c.c.c.c.c.c.c.c.c.c.c.c.c.c.c.c.c.c.c.c.c.c.c.c.c.c.c.c.c.c.c.c.c.c.c.c.c.c.c.c.c.,.c.,.>.k.W.W.d > o o 2 Y ! ! T J m 5 > & o o o o . . . . .                         . . . $ % = N C ( C C N v v v v v v v v z l l l k k % % $ . . . . . . . . . . . . . . . o 1 d B W ! / [ / R R ^ R R R R ^ ^ ' ' ' ' Q. X.X%X1X2XlXlXW.p.g.tXd.d.y.y.y.y.y.y.y.f.f.f.f.f.y.4.X.i t t w w y f f f j j j j g #.#.7.#.#.#.#.#.#.#.#.g g g g f p e e ; # @ X X O O + + + + + o o   O O + + + O O O + X X       X X X X X X X O O O O O O O O O O @ @ @ @ # # 7 7 e e e e e e e e e e e 7 7 7 7 7 e e w w y y y y u u #.u y y g g f y y t e @ O @ O O O O O O     . . O O         O O O @ 6 e r r y y y y y y y y y y t y y t u y t y y y y w w w w w u u o.o.9.9.9.0.%.@.@.#.0.0.0.0.0.0.c.c.c.c.c.c.c.c.c.c.c.c.,.c.,.,.c.c.*.*.*.*.*.*.*.*.*.*.*.*.*.*.*.*.c.c.c.c.u.H.H.H.,.,.u.u.u.H.H.H.H.H.H.H.1.1.u.H.*.H.H.H.,.*.0.H.H.1.H.H.*.,.,.1.,.1.1.H.0.0.,.,.",
"u.0.0.,.H.H.H.u.H.u.u.*.H.H.H.u.*.*.0.*.u.u.H.H.1.1.0.0.H.H.H.H.1.1.,.,.u.u.1.H.*.*.*.*.*.*.*.*.c.c.c.c.c.c.c.c.c.c.c.c.c.c.c.c.c.c.c.c.c.c.c.c.c.c.c.c.c.c.c.c.c.c.c.c.c.c.c.c.c.c.c.c.c.c.c.c.c.c.c.c.c.c.c.c.c.c.c.c.c.c.c.c.c.c.c.c.c.c.c.c.&.&.&.&.&.&.&.&.c.c.c.c.c.c.c.c.c.c.c.c.c.c.c.c.c.c.c.c.c.c.c.c.c.c.c.c.c.c.c.c.c.c.c.c.c.c.c.c.c.c.c.c.c.c.c.c.c.c.c.c.c.c.c.c.c.c.c.c.c.c.c.c.c.c.c.c.c.c.c.c.c.c.c.c.c.c.c.c.c.c.c.c.c.c.c.c.c.c.c.c.c.c.c.c.c.c.,.c.,.>.l.W.D.2 > o & 5 Y ! ! Y J 4 , > & o o o o . . . . .                       . . . $ % % x N C ( C M M n n n v v v v v v z l l l k k % $ $ . . . . . . . . . . . . . . 2 d d B W ! / [ ^ R R ^ R R R R ^ / ` { ' ' Q. X@X%X1X2XlXxXE.g.g.g.d.d.y.y.y.y.y.y.y.y.i.i.y.y.7.o.u w @ @ @ @ 7 7 7 7 7 7 7 7 9 w y y #.#.#.#.#.#.#.#.g g g g f p e e 7 # @ X X O O O + + + + . o     O O + + O O O O   X     X X X X X X X X O O O O O O O O O O @ @ @ @ # # 7 7 e e e e e e e e e e e e e 7 7 7 e e w w y y y y u u #.#.u y g f f y y t e @ O O O O O O O       . . O             O O @ @ 7 y r y y y y y y y y u u y t y w u y t w y y y y w w w w y y u o.7.7.9.9.7.#.o.#.8.0.0.0.0.0.c.c.c.c.c.c.c.c.c.c.c.c.c.,.c.c.c.c.*.*.*.*.*.*.*.*.*.*.*.*.*.*.*.*.c.c.c.c.u.u.H.H.,.,.u.u.H.H.H.H.H.u.H.H.1.1.u.u.H.H.1.H.,.,.0.u.1.1.H.H.0.,.,.1.,.1.1.H.u.*.,.,.",
"u.H.,.,.H.H.0.u.H.H.,.,.1.1.u.u.H.H.u.H.u.u.*.,.,.,.,.0.1.1.1.1.H.1.H.H.u.H.H.H.*.*.*.*.*.*.*.*.c.c.c.c.c.c.c.c.c.c.c.c.c.c.c.c.c.c.c.c.c.c.c.c.c.c.c.c.c.c.,.c.c.c.c.c.c.c.c.c.c.c.c.c.c.c.c.c.c.c.c.c.c.c.c.c.c.c.c.c.c.c.c.c.c.c.c.c.c.c.c.c.c.c.c.c.&.&.&.&.c.c.0.0.c.c.c.c.c.c.c.c.c.c.c.c.c.c.c.c.c.c.c.c.c.c.c.c.c.c.c.c.c.c.c.c.c.c.c.c.c.c.c.c.c.c.c.c.c.c.c.c.c.c.c.c.c.c.c.c.c.c.c.c.c.c.c.c.c.c.c.c.c.c.c.c.c.c.c.c.c.c.c.c.c.c.c.c.c.c.c.c.c.c.c.c.c.c.c.c.n.>.l.W.m.2 & o > 4 Y W ! Y m < , > & o o o o . . . . .     . .             . . . . $ % k x N C C C M m n v n v v v c v v v z l x k k k % $ . . . . . . . . . . . . . o 2 2 d V W ! / [ R K K R ^ R R R ^ / ` { ' ' Q. X@X%X1X2X2XxXE.g.g.g.d.s.y.y.y.y.q.q.y.y.y.y.y.y.o.u w 6 @ @ X O O O O O @ @ + @ O @ 6 7 y #.#.#.#.g #.#.g g g g g f e e e # @ O X O O O O O             O O O O O O             X X X X X X X X O O O O O O O O O O @ @ @ @ # # 7 7 7 7 7 7 e e e e e e e e e e y y e e y y y t y y u #.#.#.#.g f g y y y t 6 @ O O O O                             O O O O @ 6 y y y y f y y y #.#.#.#.u y t y u y t y w w w w w e w w w t u #.%.%.7.9.7.#.#.#.8.0.0.0.0.0.c.c.,.c.c.c.c.c.c.c.c.c.c.c.c.c.c.c.*.*.*.*.*.*.*.*.*.*.*.*.*.*.*.*.c.c.c.c.u.u.H.1.,.,.,.u.,.,.H.,.u.u.*.,.,.,.,.u.1.,.1.1.1.,.H.H.,.,.H.H.0.u.1.1.,.,.H.H.u.u.1.1.",
"H.H.1.1.1.1.0.,.H.H.,.,.1.1.u.0.H.H.H.H.u.0.*.,.,.,.,.0.-.1.1.1.H.H.H.H.u.H.H.H.*.*.*.*.*.*.*.*.c.c.c.c.c.c.c.c.c.c.c.c.c.c.c.c.c.c.c.c.c.c.c.c.c.c.c.c.c.c.c.c.c.c.c.c.c.c.c.c.c.c.c.c.c.c.c.c.c.c.c.c.c.c.c.c.c.c.c.c.c.c.c.c.c.c.c.c.c.c.c.c.&.&.&.&.&.&.&.&.c.0.c.c.c.c.c.c.c.c.c.c.c.c.c.c.c.c.c.c.c.c.c.c.c.c.c.c.c.c.c.c.c.c.c.c.c.c.c.c.c.c.c.c.c.c.c.c.c.c.c.c.c.c.c.c.c.c.c.c.c.c.c.c.c.c.c.c.c.c.c.c.c.c.c.c.c.c.c.c.c.c.c.c.c.c.c.c.c.c.c.c.c.c.c.c.c.c.c.c.n.>.x.W.E o o o 2 d Y Y Y Y 4 2 2 > & o o o o . . . . .     . .             . . . $ $ % k x M C ( C M m n n n v v v v v v v v x l x k k % $ . . . . . . . . . . . . . 1 2 2 d V W ! / [ R J J R R L R R ^ / ` { ' ' Q. X@X%X1X2XlX-XM.g.g.g.d.i.y.y.y.y.q.q.q.q.9.y.9.9.o.y 6 @ O O O O   O   O           O @ @ e f #.#.g g #.#.#.#.g g g f y e e # @ O X O O O O O O           O O O O                 O O X X X X X X O O O O O O O O O O O O O O O @ 7 7 7 7 7 7 7 7 e e e e e e e e y y y y y y y y y y u #.#.#.#.g f g y y y w 6 @ O O O O                             O O O O @ @ y y y y y f y y #.#.#.#.#.u u t u y t y w w w w w w w w 6 t #.7.o.o.#.7.7.7.#.7.8.0.0.0.0.0.c.c.c.c.c.c.c.c.c.c.c.c.c.c.c.c.c.c.*.*.*.*.*.*.*.*.*.*.*.*.*.*.*.*.c.c.c.c.H.H.H.,.,.,.,.-.,.,.,.,.u.0.0.,.,.,.0.0.u.,.,.1.1.1.H.H.,.,.H.u.u.u.H.H.0.*.H.H.H.u.1.1.",
"H.H.1.1.1.1.,.,.H.1.1.1.,.,.,.0.H.H.u.u.u.u.,.,.u.0.*.*.0.0.u.u.0.0.u.u.H.u.u.0.c.c.c.c.*.*.*.*.*.*.*.*.*.*.*.*.*.*.*.*.*.*.*.*.*.*.*.*.*.*.*.*.*.*.*.*.*.*.*.*.c.c.c.c.c.c.c.c.c.c.c.c.c.c.c.c.c.c.c.c.c.c.c.c.c.c.c.c.c.c.c.c.c.c.c.c.c.c.c.c.c.c.c.c.c.c.c.c.J.&.$.c.c.c.c.c.c.c.c.c.c.c.c.c.c.c.c.c.c.c.c.c.c.c.c.c.c.c.c.c.c.c.c.c.c.c.c.c.c.c.c.c.c.c.c.c.c.c.c.c.c.c.c.c.c.c.c.c.c.c.c.c.c.c.c.c.c.c.c.c.c.c.c.c.c.c.c.c.c.c.c.c.c.c.c.c.c.c.c.c.c.c.c.c.,.,.c.c.c.>.m.W.d o o o 5 4 B Y Y B 4 4 2 > & o o o . . . . . . . .             . . . . $ $ % l x x C C C C M N n N v v n v v v v c v v l x k k $ $ . . . . . . . . . .     * 1 1 d B Y W ! T T H K T R R R R R ^ ` ` ` { { Q.Q.#X%X%X2XlXW.w.g.g.g.s.i.y.y.y.y.y.q.q.q.9.9.9.#.#.y 9 @ O O                     O O O O @ @ e f j j j j g g $.8.g g f y e e # O O X X X X X     O O +   O               O O O O O O O O O O     X X X X         O O O O O O + # 7 7 7 7 7 7 7 7 7 7 7 7 e y y f y y y y u u u u u o.#.#.#.#.#.#.#.g y y y w 6 @ O O O O                               O O O @ @ y y y y y y u #.7.7.7.7.7.7.o.t t t t t y y y y y y y y w y y o.o.#.o.o.7.7.7.7.9.0.0.0.0.0.*.*.,.&.&.,.,.,.*.*.c.c.c.c.c.c.c.c.*.*.*.*.*.*.*.*.*.*.*.*.*.*.,.*.H.H.u.u.u.u.,.,.u.u.*.,.,.u.u.u.1.1.1.,.,.,.1.1.u.0.,.,.,.,.H.H.,.u.u.u.u.H.H.H.0.u.u.H.H.H.H.H.",
"H.H.1.1.1.1.,.,.H.1.,.,.,.1.,.,.H.H.*.*.H.H.,.1.u.0.0.,.0.0.H.H.,.,.u.u.H.u.u.0.c.c.c.c.*.*.*.*.*.*.*.*.*.*.*.*.*.*.*.*.*.*.*.*.*.*.*.*.*.*.*.*.*.*.*.*.*.*.*.*.c.c.c.c.c.c.c.c.c.c.c.c.c.c.c.c.c.c.c.c.c.c.c.c.c.c.c.c.c.c.c.c.c.c.c.c.c.c.c.c.c.c.c.c.c.c.c.c.&.NXmX@.c.c.c.c.c.c.c.c.c.c.c.c.c.c.c.c.c.c.c.c.c.c.c.c.c.c.c.c.c.c.c.c.c.c.c.c.c.c.c.c.c.c.c.c.c.c.c.c.c.c.c.c.c.c.c.c.c.c.c.c.c.c.c.c.c.c.c.c.c.c.c.c.c.c.c.c.c.c.c.c.c.c.c.c.c.c.c.c.c.c.c.c.,.,.c.c.k.>.m.D.3 o o & 5 4 B Y B 4 4 5 2 > & & o o . . . . . . . .             . . . . $ $ % l l N C C C C m b c N N N n n n v v v v N x x k k $ . . .   . . . . . . .   # 1 a 2 d Y E W ~ T ~ K K T R T K K K ` ` ` { { { Q.Q.@X$X$X,X>XW.w.d.g.s.i.y.y.y.y.y.q.q.q.q.9.9.7.#.#.y 9 @ O O                     O O O O O O @ 7 7 7 7 7 f g $.8.$.#.g g p e 7 # # O X X X X     O + +   O                   O O O O O O O O     X X X X         O O O O O O O # 7 7 @ @ @ @ 7 7 7 7 7 7 e y y y y y y g u u u u u o.#.#.#.#.#.#.#.g y t t w @ O O O O O                               O O O @ 6 y u y y y y #.#.7.7.7.7.7.9.7.y t t t t t y y y y y y y w y y u o.o.u u o.7.7.7.9.0.0.*.0.*.*.*.c.H.H.c.,.,.*.*.c.c.c.c.c.c.c.c.*.*.*.*.*.*.*.*.*.*.*.*.*.-.*.*.1.H.H.H.u.u.,.,.u.0.0.,.0.0.H.u.H.H.1.,.,.,.1.1.H.u.1.1.,.,.H.H.0.0.H.u.u.u.H.H.u.u.H.H.H.u.H.H.",
"0.0.,.,.H.H.H.H.u.u.,.,.1.1.H.H.H.,.*.*.H.H.H.H.H.H.1.,.H.H.H.H.,.,.1.1.H.H.,.*.c.c.c.c.*.*.*.*.*.*.*.*.*.*.*.*.*.*.*.*.*.*.*.*.*.*.*.*.*.*.*.*.*.*.*.*.*.*.*.*.c.c.c.c.c.c.c.c.c.c.c.c.c.c.c.c.c.c.c.c.c.c.c.c.c.c.c.c.c.c.c.c.c.c.c.c.c.c.c.c.c.c.c.c.c.c.c.c.f GXGX7 c.c.c.c.c.c.c.c.c.c.c.c.c.c.c.c.c.c.c.c.c.c.c.c.c.c.c.c.c.c.c.c.c.c.c.c.c.c.c.c.c.c.c.c.c.c.c.c.c.c.c.c.c.c.c.c.c.c.c.c.c.c.c.c.c.c.c.c.c.c.c.c.c.c.c.c.c.c.c.c.c.c.c.c.c.c.c.c.c.c.c.c.c.c.c.k.k.V m.m.& o o 2 5 4 B Y 4 4 2 , 2 > & & o o . . . . . . . .             . . . $ $ % % l N M C C M m b , , , , , n n n n v v v v l x x = $ . . .     . . . . . . * 1 a a d V Y E Y Y ~ J J T T R T R T T ` { { } Q.Q.Q. X.X3X3X,X-XC.w.g.d.s.i.y.y.y.y.q.9.9.q.q.9.9.7.7.#.y 7 7 O O                             O O O O @ 6 @ @ 7 e g $.#.$.$.g g p e 7 # # O X X X X X X X O   O       O     O     O O O O O O O O     X X X X     X X O O O O O O + # 7 7 7 6 7 7 7 7 7 7 9 9 e e y y f f g g #.o.o.o.#.#.#.#.#.#.#.#.#.g y t t w @ O O O                             O O   O O O @ 6 y y y t u u #.7.9.9.9.9.9.9.7.u t y y y y y y y t t t y w t t y o...y i u X.7.7.9.0.0.0.*.,.,.*.*.$.$.*.*.,.*.*.c.,.,.c.c.c.c.c.*.*.*.*.*.*.*.*.*.*.*.*.-.-.*.*.H.1.H.H.-.,.,.,.u.H.,.,.1.H.H.H.H.H.u.u.*.0.H.H.u.H.H.H.,.0.u.u.1.H.H.H.0.u.,.,.1.1.H.H.u.u.,.,.",
"u.*.,.,.H.H.H.u.u.0.0.*.H.H.H.H.H.1.*.*.H.H.H.H.H.H.1.1.1.H.H.H.,.1.1.H.H.H.,.,.c.c.c.c.*.*.*.*.*.*.*.*.*.*.*.*.*.*.*.*.*.*.*.*.*.*.*.*.*.*.*.*.*.*.*.*.*.*.*.*.c.c.c.c.c.c.c.c.c.c.c.c.c.c.c.c.c.c.c.c.c.c.c.c.c.c.c.c.c.c.c.c.c.c.c.c.c.c.c.c.c.c.c.c.c.c.c.c.$.zXgX@.c.c.c.c.c.c.c.c.c.c.c.c.c.c.c.c.c.c.c.c.c.c.c.c.c.c.c.c.c.c.c.c.c.c.c.c.c.c.c.c.c.c.c.c.c.c.c.c.c.c.c.c.c.c.c.c.c.c.c.c.c.c.c.c.c.c.c.c.c.c.c.c.c.c.c.c.c.c.c.c.c.c.c.c.c.c.c.c.c.c.c.c.c.c.c.c.>.V m.x.& o > 2 5 4 B Y 4 5 , > 2 > & o o . . . . . . . . .             . . . . $ % % l N M M M c , , & & & & & c n n n v v v x l l l % $ . . .     . . . . . . 1 2 d d V V Y Y Y J J J J T T T T R T T { { } ^.Q.Q.]. X.X$X,X>X`.C.e.g.d.i.y.q.q.q.q.q.9.9.q.9.9.9.7.7.#.y 7 7 O O                             O O O O O O @ @ @ 7 e g g g #.#.g g p e e # @ O X X X X X X O O O       O O   O         O O O O O O     X X X X   X X X O O O O O O + + 7 7 6 6 7 7 7 7 7 7 9 9 e y y y f f g g #.o.o.o.#.#.#.#.#.#.#.#.#.g y y t w @ O O O O O                         O O   O O @ @ 6 w y y w u u #.7.9.9.9.9.4.q.9.X.y t t t y y y y t t t y w y t y y y y i t u o.#.9.0.0.0.*.,.,.,.L.SXSXL.,.,.*.*.c.c.c.c.c.c.,.c.*.*.*.*.*.*.*.*.*.*.*.*.-.*.*.*.1.H.1.H.u.,.,.,.H.H.1.1.1.H.H.H.H.H.H.u.u.0.H.H.u.H.H.H.,.0.u.u.1.H.H.H.0.,.,.,.1.1.H.H.u.0.0.,.",
"u.u.,.,.,.0.0.u.H.H.H.H.H.1.u.H.H.H.H.H.*.*.0.H.H.H.0.u.u.H.H.H.,.,.,.0.u.u.1.,.,.,.,.,.u.u.u.H.H.H.H.u.*.*.*.*.c.c.,.,.,.,.c.c.*.*.*.*.*.*.*.*.*.*.*.*.*.*.*.*.c.c.c.c.c.c.c.c.c.c.c.c.c.c.c.c.c.c.c.c.c.c.c.c.c.c.c.c.c.c.c.c.c.c.c.c.c.c.c.c.c.c.c.c.c.c.c.c.c.c.c.c.c.c.c.c.c.c.c.c.c.c.c.c.c.c.c.c.c.c.c.c.c.c.c.c.c.c.c.c.c.c.c.c.c.c.c.c.c.c.c.c.c.c.c.c.c.c.c.c.c.c.c.c.c.c.c.c.c.c.c.c.c.c.c.c.c.c.c.c.c.c.c.c.c.c.c.c.c.c.c.c.c.c.c.c.c.c.c.c.c.c.0.0.c.c.c.k.>.l.D.V o o > > 2 4 B V 4 4 2 2 > > & o o . . . . . . .                   . . $ % l l v v M M M , & . . . . . & , n n n v v v v z l l % $ $ . . .   . . . . . * 1 a V Y V B Y Y J J J J / ! T T T R / / ` } ^.|.|. X X.X.X,X>X>XF.M.0.p.p.y.9.4.4.7.q.q.q.q.9.9.7.4.4.u u y e 7 O                                     O O O O O O @ 7 e f g g g g g f y e e @ O + O O O O O O O   O O O O O O O         O O O O O O O O O O O O O O O O O O O O O O O + @ @ 7 7 6 6 6 6 @ 7 e e e y y y f f g g #.o.#.#.#.#.#.#.#.#.#.#.#.g y y 9 9 e e O O O O O O O O             O O O O O O @ @ @ 6 e e e e w u #.7.q.q.q.q.4.q.4.o.u u u u u u y y y u #.#.t w w t u u y t u o.o.o.9.0.0.*.c.c.,.,.L.IXIXL.,.,.,.,.,.,.c.c.c.c.c.c.c.c.c.c.H.H.H.H.u.u.H.H.H.H.u.u.u.u.0.0.H.H.H.H.H.H.0.u.u.H.H.H.H.H.H.1.1.1.H.H.H.H.H.H.,.1.1.H.1.1.H.H.H.H.1.1.,.,.*.u.u.u.,.,.",
"H.u.1.1.,.,.u.u.H.H.H.H.,.,.u.u.H.H.H.H.*.0.0.H.H.H.0.*.u.u.H.H.,.1.*.0.u.u.1.1.*.1.,.,.u.0.u.1.H.H.H.H.*.*.*.*.c.c.,.,.,.,.c.0.*.*.*.*.*.*.*.*.*.*.*.*.*.*.*.*.c.c.c.c.c.c.c.c.c.c.c.c.c.c.c.c.c.c.c.c.c.c.c.c.c.c.c.c.c.c.c.c.c.c.c.c.c.c.c.c.c.c.c.c.c.c.c.c.c.c.c.c.c.c.c.c.c.c.c.c.c.c.c.c.c.c.c.c.c.c.c.c.c.c.c.c.c.c.c.c.c.c.c.c.c.c.c.c.c.c.c.c.c.c.c.c.c.c.c.c.c.c.c.c.c.c.c.c.c.c.c.c.c.c.c.c.c.c.c.c.c.c.c.c.c.c.c.c.c.c.c.c.c.c.c.c.c.c.c.c.c.c.0.0.c.c.c.k.>.k.m.a o o & > 2 4 d V B 4 5 2 > & o o o . . . . . . .                   . . $ % l l v v M M M , & . .     . & , n n n v v v z z l k % $ . . .   . . .   . * p 2 d V Y Y B Y J J J J J ^ ! T T T R / / { } ^.|.|. X X.X.X,X,X>XC.e.0.9.9.7.o.o.o.o.7.9.9.9.9.9.7.4.4.u u y e 7 @ O                                     O O O O O O @ 7 e e f g g f y f e e ; @ O O O O O O O O O O O O O O O O O O O O O O O + + O O O O O O O O O O O O O O O O O O O O @ @ @ @ @ @ @ 6 6 6 7 w y y y f f g g #.o.#.#.#.#.#.#.#.#.#.u g y y y 9 9 e e 6 @ O O O O O O             O O O O X @ @ 6 e e e e e e w u #.7.q.q.q.q.4.4.5.4.4.4.o.o.u u y y u #.#.7.#.t w w u u u u o.o.o.o.%.0.0.*.c.c.,.,.J.zXzXJ.,.,.,.,.,.,.c.c.c.c.c.c.c.c.c.c.H.H.H.H.u.u.H.H.1.H.0.0.H.u.u.,.H.H.H.u.H.H.0.*.u.u.H.H.H.H.H.1.,.,.H.u.H.H.H.u.,.1.1.H.,.,.H.u.H.H.1.1.,.,.0.0.H.u.1.1.",
"H.H.H.1.H.H.u.H.u.H.*.*.,.*.*.u.c.c.H.H.-.-.H.H.H.1.1.*.,.1.H.H.1.1.H.H.H.H.H.1.0.0.H.,.H.H.1.1.H.H.H.H.H.H.u.u.c.c.0.0.c.c.c.c.*.*.*.*.*.*.*.*.*.*.*.*.*.*.*.*.c.c.c.c.c.c.c.c.c.c.c.c.c.c.c.c.c.c.c.c.c.c.c.c.c.c.c.c.c.c.c.c.c.c.c.c.c.c.c.c.c.c.c.c.c.c.c.c.c.c.c.c.c.c.c.c.c.c.c.c.c.c.c.c.c.c.c.c.c.c.c.c.c.c.c.c.c.c.c.c.c.c.c.c.c.c.c.c.c.c.c.c.c.c.c.c.c.c.c.c.c.c.c.c.c.c.c.c.c.c.c.c.c.c.c.c.c.c.c.c.c.c.c.c.c.c.c.c.c.c.c.c.c.c.c.c.c.c.c.c.c.c.0.0.c.c.c.c.>.k.l.* o o & > 2 4 d V Y B 4 4 > > & o o . . . . . . .                   . . $ % l l v v M M M = & . .     . & , n n n v v v z z l k % $ . . .     . . . # * p 2 d Y ~ Y J Y J J J J J ^ R T T T ^ / / { S.^.|.|. X X.X3X,X>X-XF 8.9.o.o.u y t y o.#.7.7.7.7.7.7.4.o.u u y e 7 7 O                                     O O O O O O O O # # e e y p p p y e e @ O O O O O O O O O O O O O O O O O O O O O # @ + O O O O O O O + O O + O + O O O O O O O O O O @ @ @ @ @ @ @ 6 6 w w y y f g f g #.#.#.#.#.#.#.#.#.#.#.y g y y y 7 7 7 7 e 6 @ O O O O O O O O O O O O O O @ O @ e w w w w w e e w u #.7.q.q.y.y.7.4.5.4.5.5.9.7.u u u u #.#.7.9.7.#.t w u u #.7.7.#.#.o.#.0.0.0.c.c.,.,.,.=.=.,.,.,.,.c.,.,.c.c.c.c.c.c.c.c.c.c.-.1.H.H.u.u.,.,.1.,.,.,.H.H.,.,.1.1.u.u.1.1.,.,.,.1.H.H.u.H.0.0.,.0.0.u.1.1.u.u.,.,.H.H.,.0.0.u.0.0.,.,.1.1.H.H.H.H.H.1.",
"H.H.H.1.H.H.H.H.u.u.u.*.,.,.0.u.*.0.H.H.H.-.H.H.1.1.,.,.,.1.1.H.1.H.H.H.H.H.H.H.u.u.H.H.H.H.1.1.H.H.H.H.H.H.H.H.c.0.0.0.c.c.c.c.*.*.*.*.*.*.*.*.*.*.*.*.*.*.*.*.c.c.c.c.c.c.c.c.c.c.c.c.c.c.c.c.c.c.c.c.c.c.c.c.c.c.c.c.c.c.c.c.c.c.c.c.c.c.c.c.c.c.c.c.c.c.c.c.c.c.c.c.c.c.c.c.c.c.c.c.c.c.c.c.c.c.c.c.c.c.c.c.c.c.c.c.c.c.c.c.c.c.c.c.c.c.c.c.c.c.c.c.c.c.c.c.c.c.c.c.c.c.c.c.c.c.c.c.c.c.c.c.c.c.c.c.c.c.c.c.c.c.c.c.c.c.c.c.c.c.c.c.c.c.c.c.c.c.c.c.c.c.0.0.0.0.c.c.>.k.k.o o o & > 2 4 d V Y Y B d > > & o o . . . . . . .                 . . . $ % % l v v M M m = & . .     . & , n n n v v v z z k % $ $ . . .     . . . * 1 1 2 d Y T J J J J R L L L ^ R T T T ^ / ^ { ^.^. X X X.X.X3X,X>X`.F 8.#...y w w w w y u #.#.#.#.7.7.7.o.u u y e 7 7 +                                     O   O O O O O O O @ @ ; p p p p p e e ; @ O O O O O O O @ @ @ @ # # # @ @ @ @ O + # @ + + O O O O O + + + @ # + + O O O O O O O O O O @ @ @ @ @ @ @ @ @ w w e y y g g g #.#.#.#.#.#.#.#.#.#.u y g f y y 7 7 7 7 e e 6 @ O O O O O O O O O O O O @ O @ e w e w e w e e e w u #.7.q.q.y.y.7.4.5.5.9.9.q.9.u u u u #.7.9.9.9.7.#.t u u #.7.7.7.%.o.#.%.*.0.0.c.,.,.*.c.c.*.,.,.,.c.,.,.c.c.c.c.c.c.c.c.c.c.-.1.H.H.*.,.,.,.,.,.,.,.H.H.,.,.1.1.u.0.1.1.,.,.,.1.1.1.u.u.u.*.,.,.u.u.1.1.u.0.0.*.H.H.,.*.u.u.u.*.,.,.1.1.H.H.H.H.H.1.",
",.1.1.H.1.1.,.,.H.c.,.*.*.*.*.0.*.*.-.1.H.H.H.H.H.H.H.H.,.,.,.,.u.u.u.H.H.H.u.u.u.H.H.H.H.1.1.1.H.H.H.H.H.H.H.H.H.H.H.H.H.H.H.H.c.c.c.c.c.c.,.c.c.c.c.c.c.c.c.c.c.c.c.c.c.c.c.c.c.c.c.c.c.c.c.c.c.c.c.c.c.c.c.c.c.c.c.c.c.c.c.c.c.c.c.c.c.c.c.c.c.c.c.c.c.c.c.c.c.c.c.c.c.c.c.c.c.c.c.c.c.c.c.c.c.c.c.c.c.c.c.c.c.c.c.c.c.c.c.c.c.c.c.c.c.c.c.c.c.c.c.c.c.c.c.c.c.c.c.c.c.c.c.c.c.c.c.c.c.c.c.c.c.c.c.c.c.c.c.c.c.c.c.c.c.c.c.c.c.c.c.c.c.c.c.c.c.c.c.c.c.c.c.c.0.0.c.c.>.k.h * o o & o 2 4 B V Y Y m 4 2 > & o . . . . . . . .               . . . . $ % l z v v M M m = & . . . . & , , b n n v v v z l k % $ $ . . .       . # 2 1 2 4 B ~ T J J J J L L _ ` { R K K K ^ ` { S.^.|. X X.X.XOXOX,X+X) F 8.o...6 @ @ @ 6 w y u u u #.7.u u u u u y e e 7 @ O               O O                   O O O O O O O @ @ @ @ @ e y y e e e e e e e e e e e e e e e e 7 7 7 7 7 6 6 7 7 @ @ @ @ @ @ @ @ @ @ @ # # # # + + + O + + O O O @ @ @ @ @ @ @ @ @ @ @ w w y y f g #.#.#.#.#.#.#.#.#.#.#.#.y y y y y y w w w w w w e e @ O O O O O O O O O O O O @ e e t t t w w w w e y y #.7.9.9.q.q.q.q.q.q.d.d.d.d.p.o.t t o.o.7.7.7.7.o.t u u #.7.7.7.%.o.#.%.%.*.u.H.H.1.,.,.,.,.,.,.,.,.,.,.c.c.,.,.c.c.0.0.,.,.*.*.u.u.H.1.1.,.1.1.1.1.H.1.1.1.,.,.,.0.0.0.,.,.,.0.0.u.1.1.,.,.*.,.,.1.,.,.,.0.0.u.u.H.H.H.u.u.u.H.H.H.u.u.u.H.H.H.u.u.",
",.1.1.H.1.1.,.,.H.H.,.*.-.*.*.0.*.*.H.H.H.1.H.H.H.H.H.H.,.,.1.1.0.0.u.H.H.H.u.u.u.H.H.H.H.H.1.1.H.H.H.H.H.H.H.H.H.H.H.H.H.H.H.H.c.c.c.c.,.c.c.c.c.c.c.c.c.c.c.c.c.c.c.c.c.c.c.c.c.c.c.c.c.c.c.c.c.c.c.c.c.c.c.c.c.c.c.c.c.c.c.c.c.c.c.c.c.c.c.c.c.c.c.c.c.c.c.c.c.c.c.c.c.c.c.c.c.c.c.c.c.c.c.c.c.c.c.c.c.c.c.c.c.c.c.c.c.c.c.c.c.c.c.c.c.c.c.c.c.c.c.c.c.c.c.c.c.c.c.c.c.c.c.c.c.c.c.c.c.c.c.c.c.c.c.c.c.c.c.c.c.c.c.c.c.c.c.c.c.c.c.c.c.c.c.c.c.c.c.c.c.c.c.c.0.0.c.k.k.k.h * & & & & 2 4 B V Y Y B 4 2 > & o . . . . . . . .                 . . . $ % l z v v n M N , & . . o o 2 m m m M n v v z z k % % $ $ . . .     . . * 2 2 2 4 Y ~ J J J L R _ ` ` { { I K K K ^ ` } S.^.|. X X X.XOX X3X+XQ F #...y @ @ @ @ @ @ 9 y y y g g g u u u f y e y 7 @ +               O O                 O O O O O O O O @ @ @ @ O @ @ ; e e e e e e e e e e e e e e e e e e e 7 9 9 7 7 7 @ @ # @ @ 7 7 # @ 7 @ # # # # + + + O O O O O @ @ O O @ @ @ @ @ @ @ @ w w y y f g #.#.#.#.#.#.#.#.#.#.#.y y y y y y y e e t t w w e e ; # @ @ @ @ @ @ @ @ @ @ 7 e e e y t w t w w w e y u #.7.9.9.q.q.q.q.q.9.i.i.p.p.w.o.t t o.o.#.#.7.#.u t i u 7.7.7.7.%.#.o.#.=.$.u.u.H.H.,.,.,.,.,.,.,.,.,.,.c.c.,.,.c.c.0.*.,.,.*.*.u.u.H.H.1.1.1.1.1.1.H.1.,.,.1.1.,.*.u.*.,.,.,.,.u.u.1.1.,.,.0.,.,.1.,.,.u.0.0.*.u.u.H.u.u.0.u.u.H.H.u.0.H.H.H.H.H.u.",
",.,.H.H.u.u.*.0.H.H.H.H.-.u.H.H.H.H.H.H.-.1.*.*.H.0.H.H.1.1.1.1.,.,.1.1.H.H.0.0.,.,.H.1.c.c.0.0.H.H.H.H.H.H.H.H.H.H.H.H.H.H.H.H.c.c.c.c.c.c.c.c.c.c.c.c.c.c.c.c.c.c.c.c.c.c.c.c.c.c.c.c.c.c.c.c.c.c.c.c.c.c.c.c.c.c.c.c.c.c.c.c.c.c.c.c.c.c.c.c.c.c.c.c.c.c.c.c.c.c.c.c.c.c.c.c.c.c.c.c.c.c.c.c.c.c.c.c.c.c.c.c.c.c.c.c.c.c.c.c.c.c.c.c.c.c.c.c.c.c.c.c.c.c.c.c.c.c.c.c.c.c.c.c.c.c.c.c.c.c.c.c.c.c.c.c.c.c.c.c.c.c.c.c.c.c.c.c.c.c.c.c.c.c.c.c.c.c.c.c.c.c.c.0.c.0.c.k.k.k.d * & & > > 2 4 B V Y Y B 4 2 2 & & . . . . . . . .               . . . . $ k l z v v n M N b & o o o 2 B m m m m n v v z k k % % $ . . . .   . . o 2 1 2 4 J T ~ J L L R ` ] } ].|.' R K L K L ` { ^.|.|. X X X.XOX|.+X_.Q D g ..y O O O O O @ @ 7 e e f g g g u u g y y y 7 @ + O         O O O O                 O O O O O O @ @ @ @ @ @ O @ O @ ; e e e e e e e e e e e e e e e e e e e w 9 e e 7 7 # # 7 7 7 7 7 7 7 7 # # # # # # # + + O O O @ @ 6 6 @ @ @ @ @ @ @ @ w w y y f g #.#.#.#.#.#.#.#.#.#.y y y y y y y y y y y y y t w e e e e 7 7 7 7 7 7 7 7 7 e e e e y y y y t t t t y u #.7.9.q.q.q.q.q.q.q.q.q.9.9.9.o.y o.o.o.u y o.o.u t w u #.o.7.7.7.%.%.%.#.$.*.u.H.H.,.,.,.,.,.,.,.,.,.,.c.c.c.c.c.c.c.c.,.,.H.H.H.H.H.H.u.u.1.1.1.1.u.u.,.,.1.1.H.H.u.u.1.1.H.H.u.H.H.H.H.H.0.u.1.1.H.H.u.u.,.,.1.1.H.H.,.0.,.1.H.H.*.0.,.1.H.H.0.u.",
"0.*.H.H.H.u.u.0.H.H.H.H.H.H.H.H.H.H.H.H.*.*.*.*.0.0.H.H.1.1.1.1.,.,.,.1.1.H.*.,.,.1.1.1.0.0.0.0.H.H.H.H.H.H.H.H.H.H.H.H.H.H.H.H.c.c.c.c.c.c.c.c.c.c.c.c.c.c.c.c.c.c.c.c.c.c.c.c.c.c.c.c.c.c.c.c.c.c.c.c.c.c.c.c.c.c.c.c.c.c.c.c.c.c.c.c.c.c.c.c.c.c.c.c.c.c.c.c.c.c.c.c.c.c.c.c.c.c.c.c.c.c.c.c.c.c.c.c.c.c.c.c.c.c.c.c.c.c.c.c.c.c.c.c.c.c.c.c.c.c.c.c.c.c.c.c.c.c.c.c.c.c.c.c.c.c.c.c.c.c.c.c.c.c.c.c.c.c.c.c.c.c.c.c.c.c.c.c.c.c.c.c.c.c.c.c.c.c.c.c.c.c.0.0.c.c.c.k.>.k.V & > 2 2 2 2 2 B B Y Y B 4 2 2 & & . . . . . . . .               . . . . $ k l z v v n M n b , & o 5 m m m m m n n v v z k % % $ $ . . . .   . o o 2 2 4 Y ~ ~ J H R _ ` ' '.].]. X' R K L P L ` } |.|.|. X X X XOX_.+X_.Q g g y 9 O     O O O O @ e e y y g g u u g y y e 7 # + O         O O O O                 O O O O O O O O @ @ @ @ @ @ O O e e ; ; e e e e e e e e e e e e e e e e w w e e 7 7 7 7 7 7 7 7 7 7 @ @ @ @ @ @ + # # + + @ @ @ y y y y w 6 @ @ @ @ @ 6 w w y y f g #.#.#.#.#.#.#.#.#.o.y y y y y y y y f f g g g y y y e w w 9 9 7 9 9 9 9 9 7 w e e e y y y y t t t t t u #.7.9.q.q.q.q.q.q.q.q.9.q.9.7.o.u o.o.o.y t t o.u t i u o.o.7.7.9.%.%.O.o.%.*.u.u.H.,.,.,.,.,.,.,.,.,.,.c.c.c.c.c.c.c.c.c.c.H.H.H.H.u.u.u.u.1.1.1.-.u.0.0.*.H.H.H.H.H.u.1.1.H.H.H.H.H.H.H.u.u.u.H.H.H.H.H.u.,.,.1.1.H.H.,.,.,.1.1.1.,.,.,.1.1.1.0.,.",
"0.u.u.H.1.1.,.,.*.0.1.1.1.,.,.,.H.H.H.H.1.1.1.1.J.*.*.J.,.*.J.=.1.H.H.u.0.*.*.*.,.,.,.0.u.u.1.,.,.,.0.0.H.H.H.1.1.,.H.H.H.1.1.1.*.0.0.u.u.H.,.,.,.u.u.u.1.1.1.,.,.,.c.c.c.,.,.,.c.c.c.c.c.c.c.c.*.*.*.*.*.*.*.*.*.*.*.*.*.*.*.*.*.*.*.*.c.c.c.c.c.c.c.c.c.c.c.c.c.c.c.c.c.c.c.c.c.c.c.c.c.c.c.c.c.c.c.c.c.c.c.c.c.c.c.c.c.c.c.c.c.c.c.c.c.c.c.c.c.c.c.c.c.c.c.c.c.c.c.c.c.c.c.c.c.c.c.c.c.c.c.c.c.c.c.c.c.c.c.c.c.c.c.c.c.c.c.c.c.c.c.c.c.c.c.c.c.c.c.c.c.c.0.u.u.0.c.k.k.E E 2 2 2 2 2 2 4 m Y T Y B B 2 2 & & o . . . . . . .           . .     . $ $ % l z v v n n n b c , , b b n n n n v v z z l k % $ $ . . . . . o o * 1 2 2 m Y ~ T L ^ ` ] Q.|..X.X.XOX' R P K P L ` } |.|.|.|.|.|.|.|._.-XD.h s y 7 O O         O O O @ : e y u u u u g f y e e 7 @ + X   O O O O O O O O O O O O O O O O   O O O + + @ @ @ # # # @ @ # # # # # # # # # # e e e e e e e e e e e e e e e e e e 7 7 7 7 7 7 7 7 @ @ @ @ @ @ 7 7 7 7 y y 9 e y f 8.g y w 6 @ @ @ e e y y y g #.#.#.#.#.#.#.#.#.u o.y y y y y y y g g g g g g u u y y y w w 9 9 9 7 7 e e e 9 w t y y t y t t t y #.u #.7.9.9.9.9.9.9.9.9.9.9.7.7.#.7.#.#.#.o.o.y 6 6 t o.i i u o.#.7.9.y.%.o.o.@.0.u.u.1.0.H.1.1.1.,.H.H.H.H.H.H.*.*.*.H.H.H.0.*.*.*.*.u.1.1.,.,.*.0.1.1.1.,.,.,.H.H.H.H.1.1.u.H.H.H.H.H.H.H.H.1.1.1.H.H.H.H.1.1.0.u.u.H.H.H.*.0.0.u.u.H.*.0.0.u.u.H.,.,.",
"u.u.H.H.1.1.,.,.u.0.H.H.1.,.0.,.H.H.H.H.1.1.H.H.H.H.H.H.=.*.J.H.H.H.H.H.*.*.0.0.,.1.*.0.u.u.1.1.,.,.u.u.H.H.1.1.,.,.H.H.H.H.,.1.,.,.u.u.H.H.,.,.0.0.H.u.H.H.1.,.0.,.c.c.c.,.,.,.c.c.c.c.c.c.c.c.*.*.*.*.*.*.*.*.*.*.*.*.*.*.*.*.*.*.*.*.c.c.c.c.c.c.c.c.c.c.c.c.c.c.c.c.c.c.c.c.c.c.c.c.c.c.c.c.c.c.c.c.c.c.c.c.c.c.c.c.c.c.c.c.c.c.c.c.c.c.c.c.c.c.c.c.c.c.c.c.c.c.c.c.c.c.c.c.c.c.c.c.c.c.c.c.c.c.c.c.c.c.c.c.c.c.c.c.c.c.c.c.c.c.c.c.c.c.c.c.c.c.c.c.c.c.0.u.u.0.c.k.k.x.! m m 4 , , , , m m T Y B B 2 2 & & . . . . . . . .           . .     . $ $ % l z v c n n n n n n b n n n n M v v v z l k % $ $ . . . . . . * 1 2 > 2 4 J T T R ^ ' } ]..XOXOXOX.XOX' R P L P L ` } |.|.|.|.|.|.|.|._.-Xx.h p e +       .     O O O @ @ w w w u u g f f y y e 7 # + O X   O O O O O O O O O O O O O O O O O + O + + @ @ @ @ @ # @ @ @ @ @ @ O O @ @ @ @ # 7 # # e e e e e e e e e e e e e e e e e e 7 7 7 7 7 7 7 7 7 7 e e w e y y f g #.#.8.$.g y y 6 6 6 7 e e e y y g #.#.#.#.#.#.#.#.#.#.y y y y y y y g g g g g g g u #.#.y y y y y y y f y y y y w w w y y y t y y u #.#.#.7.9.9.9.9.9.9.9.9.9.9.7.7.#.7.#.#.#.#.o.o.6 6 w y i i u #.#.%.9.y.%.o.o.#.-.u.u.u.H.u.1.1.,.,.H.H.H.H.0.u.*.*.*.-.H.H.H.H.*.*.u.u.1.1.,.,.u.0.H.H.1.,.0.*.H.u.H.H.1.1.u.u.H.H.1.1.H.H.H.1.,.,.H.u.H.H.1.1.0.,.u.u.H.H.,.,.u.u.H.H.,.,.u.u.H.H.,.,.",
"1.1.H.H.H.H.H.H.u.H.H.H.H.H.0.u.-.1.*.*.1.,.1.H.H.H.H.H.BXBX1.*.H.H.1.H.H.H.u.1.1.1.H.H.H.H.H.1.H.H.u.u.H.H.u.0.,.0.u.u.u.0.,.,.,.,.1.H.H.H.1.1.1.H.H.H.H.H.u.u.0.0.0.c.c.c.c.c.c.c.,.,.c.c.c.c.*.*.*.*.*.*.*.*.*.*.*.*.*.*.*.*.*.*.*.*.c.c.c.c.c.c.c.c.c.c.c.c.c.c.c.c.c.c.c.c.c.c.c.c.c.c.c.c.c.c.c.c.c.c.c.c.c.c.c.c.c.c.c.c.c.c.c.c.c.c.c.c.c.c.c.c.c.c.c.c.c.c.c.c.c.c.c.c.c.c.c.c.c.c.c.c.c.c.c.c.c.c.c.c.c.c.c.c.c.c.c.c.c.c.c.c.c.c.c.c.c.c.c.c.c.c.0.u.H.c.c.k.W N./ T T J m m , , m m T Y B B 4 2 * & o . . . . . . .           .       . $ $ % l z v v n n n n n n n n n n n v v c l l k % % $ . . . . . . # 1 2 > > , m Y T ! R { |. X.X$X,X#XOX.X|.` L H K K L { } |.|.|.|.|.|.|.|._.F.E h p 7                 O O O @ @ e w y f g g f f y f e # # + O X       X X O O O O O O O O O O + + # # # # @ @ @ @ @ @ @ @ O O O O O O O O O O @ @ @ # # e 7 e e e e e e e e e e e e e e e e e e e e e e e e e e e y e y f g g $.8.8.8.8.8.#.y w e 6 e e e y y g #.#.#.#.#.#.#.#.#.#.y y y y y y y g g g g g g g g #.#.#.g g g g g g g g g f y t w y y y t t u u u #.#.7.7.9.q.q.q.9.9.9.9.9.9.7.7.#.#.#.#.9.7.#.#.t w w t t i u o.#.%.y.y.+...#.%.*.u.u.u.u.u.1.1.,.1.1.H.*.*.*.*.c.0.H.H.H.H.H.H.H.H.H.H.H.H.H.H.u.H.H.H.H.H.0.u.u.u.*.,.,.,.*.u.,.,.1.1.u.H.0.0.,.0.0.u.0.0.,.,.,.,.1.1.H.1.1.,.1.1.H.H.,.,.1.H.H.H.1.1.",
"1.1.H.H.H.H.H.u.u.u.H.H.H.u.u.u.*.*.*.*.1.,.,.,.J.*.*.J.JXKXfX*.H.H.H.H.H.H.1.1.1.H.H.H.H.H.H.H.H.H.H.H.u.u.u.0.,.0.u.u.u.0.*.,.1.1.1.H.H.H.1.1.1.H.H.H.H.H.H.u.0.0.c.c.c.c.c.c.c.c.c.,.c.c.c.c.*.*.*.*.*.*.*.*.*.*.*.*.*.*.*.*.*.*.*.*.c.c.c.c.c.c.c.c.c.c.c.c.c.c.c.c.c.c.c.c.c.c.c.c.c.c.c.c.c.c.c.c.c.c.c.c.c.c.c.c.c.c.c.c.c.c.c.c.c.c.c.c.c.c.c.c.c.c.c.c.c.c.c.c.c.c.c.c.c.c.c.c.c.c.c.c.c.c.c.c.c.c.c.c.c.c.c.c.c.c.c.c.c.c.c.c.c.c.c.c.c.c.c.c.c.c.0.u.H.c.c.k.W Z.[ ^ R T T J m m m m T Y B m 4 2 * & o . . . . . . . .         .       . $ $ % l z v v n n n M M M M n v v v v c l l % % % $ $ . . . . . # * 2 > 5 5 4 J J K ^ ` } |.OX#X,X,XOXOX|.|.^ K H H K L { S.|.|.|.|.|.|.|.|._.G.D h e @                 O O O O O @ e e y f f f f y f e 7 # # # + X     X X O O O O O O O O + + @ @ # # # # @ @ @ @ @ @ @ @ O O O O O O O O @ @ O O O O O O e e e e e e e e e e p p e e f f f e e e e e e e f f f e y y f g #.$.8.0.8.0.9.0.0.8.g w 7 7 e e t y y g #.#.#.#.#.#.u u #.o.y y y y y y g y y g g g g g #.#.#.#.g g g g #.#.#.#.#.@.g y t y y y y y y y #.#.#.7.9.q.q.q.9.9.9.9.9.9.7.7.#.#.#.#.0.9.7.#.y t t t w i u o.#.7.y.y.....%.0.0.u.u.*.H.H.1.1.,.,.H.H.*.*.*.*.H.H.H.H.H.H.H.H.H.H.H.H.H.H.H.u.u.u.H.H.H.u.u.u.u.0.0.,.,.,.0.0.0.,.,.,.u.u.u.*.,.,.u.u.u.*.,.,.,.,.1.1.H.1.1.,.1.1.H.H.1.1.1.H.H.H.1.1.",
",.,.H.H.H.H.u.u.1.H.H.H.H.H.1.1.H.H.H.0.1.1.1.1.H.H.H.H.zXgXY.,.1.1.1.1.H.H.H.H.u.u.u.H.H.H.u.u.H.1.u.u.H.H.,.*.H.H.u.u.u.H.H.H.u.H.H.H.H.H.H.H.1.1.H.H.H.H.0.u.c.c.c.c.c.c.c.c.c.c.,.,.,.,.1.1.*.*.*.*.*.*.*.*.*.*.*.*.*.*.*.*.*.*.*.*.c.,.c.c.c.c.c.c.c.c.c.c.c.c.c.c.c.c.c.c.c.c.c.c.c.c.c.c.c.c.c.c.c.c.c.c.c.c.c.c.c.c.c.c.c.c.c.c.c.c.c.c.c.c.c.c.c.c.c.c.c.c.c.c.c.c.c.c.c.c.c.c.c.c.c.c.c.c.c.c.c.c.c.c.c.c.c.c.c.c.c.c.c.c.c.c.c.c.c.c.c.c.c.c.c.c.0.u.,.c.k.E ! Z.{ ` ^ ^ ^ T T K K T R ~ J m 4 2 > & o . . . . . . . . . . . . . .   . . $ $ % k l v v v v v v v v v v v v z x l k % % % $ $ . . . . . o * 2 2 , , < m J K R { Q..X$XOXOXOX|.|.|.^.} R K H H K ^ { ^.^.^.|.|.|.|.|.|.XX! d f @ O         . .       O O O O @ 7 e e f f f f f y e e 7 # # @ O X X X X   O     O O + + @ @ # # # # # # @ @ @ @ # # # # # # @ @ O O O O O O O O O O O + @ # e e f p e 7 e e e e g j g f f f f p y f f f f f f f f f g #.#.#.$.$.K.M.0.8.M.0.8.g y e @ O @ 6 e w y g #.#.g g u u o.o.o.o.y y y y y y y t y #.#.#.#.#.#.#.#.#.#.#.#.#.#.#.#.#.#.#.#.u u u u o.o.o.#.%.%.%.#.#.O.O.%.7.9.9.0.9.7.7.#.#.#.#.0.7.7.#.#.o.y t t t t t ..o.9.p.o...%.P.P.u.0.*.H.H.H.1.1.1.1.H.1.1.H.u.0.0.H.H.1.H.H.H.H.1.,.,.,.0.0.u.u.u.0.0.H.H.0.u.u.u.,.,.u.u.0.0.0.u.u.H.1.1.,.,.*.,.1.1.u.u.,.,.,.,.H.H.,.,.,.1.,.,.*.0.u.H.H.H.H.H.H.H.",
",.,.H.H.1.1.u.0.1.H.H.H.H.H.1.1.H.H.0.0.1.1.1.1.H.H.H.1.=.*.1.H.H.1.1.1.H.H.1.1.0.0.u.H.H.H.u.u.1.1.u.u.H.H.,.,.H.H.u.u.u.H.H.H.u.u.H.H.H.H.H.u.,.,.H.u.H.H.0.*.c.,.c.c.c.c.c.c.c.c.,.,.,.1.1.H.*.*.*.*.*.*.*.*.*.*.*.*.*.*.*.*.*.*.*.*.c.c.c.c.c.c.c.c.c.c.c.c.c.c.c.c.c.c.c.c.c.c.c.c.c.c.c.c.c.c.c.c.c.c.c.c.c.c.c.c.c.c.c.c.c.c.c.c.c.c.c.c.c.c.c.c.c.c.c.c.c.c.c.c.c.c.c.c.c.c.c.c.c.c.c.c.c.c.c.c.c.c.c.c.c.c.c.c.c.c.c.c.c.c.c.c.c.c.c.c.c.c.c.c.c.c.0.0.c.c.k.E ! [ ` ' ' ` ^ ^ T T T T R T J m 4 2 > & o . . . . . . . . . . . . . .   . . . $ % k l z v v v v v v v v v v z z l k % % $ $ $ . . . . . o * 2 4 , , < < H K R ` { |..XOXOXOX|.S.{ { ` ^ P K H H L [ { } } } |.|.|.|._._.F.E p p O           . .     O O O O O O @ 7 e f e e e e e e e 7 7 # # @ X X X X   O     O O + + @ @ # # # # # # # # # # # # # # # # @ @ O O O O O O O O O O O + @ # e e e 7 7 7 g g g g j j f f f f p y y y f y f f f f f g #.#.$.#.$.$.K.M.0.9.8.#.y e f y e 7 6 w w w w y y g g y y y o.o.o.o.y y y y y y y t y u #.#.#.#.#.#.#.#.#.#.f f #.#.#.#.#.#.7.#.#.#.#.#.#.#.#.%.%.%.#.#.O.o.o.%.9.9.0.9.7.7.#.#.#.#.0.7.7.#.#.#.#.o.o.o.o.o...o.9.p.#...%.K.P.u.u.*.*.H.1.1.,.1.1.H.H.H.H.H.*.*.H.H.,.H.H.H.H.H.*.,.,.,.u.u.H.u.u.*.H.H.0.,.H.u.1.1.H.u.u.*.u.u.H.H.1.1.,.,.0.,.,.1.H.u.1.1.0.*.H.H.0.,.,.1.,.,.u.0.u.u.H.H.H.H.H.u.",
",.u.u.H.1.,.,.0.1.1.u.H.0.0.,.,.H.H.H.H.1.1.,.,.H.H.H.1.*.*.1.H.H.H.H.H.-.*.c.0.,.*.1.1.H.H.0.0.1.,.,.0.H.1.1.,.H.H.0.0.,.,.H.1.0.u.,.,.1.1.u.u.,.0.0.u.1.1.,.,.c.c.c.c.c.c.c.c.c.c.0.0.,.*.H.H.*.*.*.*.*.*.*.*.*.*.*.*.*.*.*.*.*.*.*.*.c.c.c.c.c.c.c.c.c.c.c.c.c.c.c.c.c.c.c.c.c.c.c.c.c.c.c.c.c.c.c.c.c.c.c.c.c.c.c.c.c.c.c.c.c.c.c.c.c.c.c.c.c.c.c.c.c.c.c.c.c.c.c.c.c.c.c.c.c.c.c.c.c.c.c.c.c.c.c.c.c.c.c.c.c.c.c.c.c.c.c.c.c.c.c.c.c.c.c.c.c.c.c.c.c.c.0.0.c.c.E E ! ! ^ } !.' ^ ^ R ^ R R R ~ Y m 4 2 > & o . . . . . . . . . . . . . . .   . $ $ % % k l v v v v v v v v v z z l k k % $ $ . . . . . . . # 2 2 4 , , < b K ! ` { } ].|..XOX|.} ` ^ R K H b b H H R ` } } } } S.S.|.|._._.Z.Y 1 +                                 @ 7 7 p e e e e e e e 7 e e # @ @ O O O O O     O O + + @ @ # # 7 7 7 7 e 7 e e 7 7 # # # # # @ O O O O O O O       O + @ # e e e e e y #.#.#.#.f f f y f f y y y e y y e f f f f g #.#.$.#.#.#.0.8.8.#.y w @ @ e e y e e e e 9 w w w t y y u y u u u u y y g y g y t y w y u #.#.#.#.#.#.#.#.g f y y u g #.#.#.7.7.7.#.#.#.#.#.%.O.%.%.#.#.o.o.o.o.7.7.9.9.7.7.#.#.#.#.0.7.7.#.#.#.#.#.7.#.#.#.o.O.9.p.%.o.9.U.P.u.u.*.*.H.u.0.,.,.H.H.H.H.H.H.*.-.H.H.,.,.H.H.u.u.*.*.,.,.1.H.H.H.,.,.1.1.,.,.H.H.H.1.H.H.,.,.1.1.H.H.H.H.H.H.0.u.1.1.H.H.H.1.0.u.u.H.0.u.1.1.H.H.u.u.0.u.,.,.1.1.u.u.",
"0.0.u.u.1.,.,.*.,.,.u.u.u.*.,.,.H.H.H.H.1.1.,.,.H.H.H.H.1.1.H.H.c.c.H.H.-.*.0.0.,.,.,.1.1.H.,.,.,.,.*.0.H.H.1.1.1.H.*.,.,.1.1.1.0.*.,.,.1.1.u.0.,.*.u.u.1.1.,.,.c.c.c.c.c.c.c.c.c.c.0.0.u.0.H.H.*.*.*.*.*.*.*.*.*.*.*.*.*.*.*.*.*.*.*.*.c.c.c.c.c.c.c.c.c.c.c.c.c.c.c.c.c.c.c.c.c.c.c.c.c.c.c.c.c.c.c.c.c.c.c.c.c.c.c.c.c.c.c.c.c.c.c.c.c.c.c.c.c.c.c.c.c.c.c.c.c.c.c.c.c.c.c.c.c.c.c.c.c.c.c.c.c.c.c.c.c.c.c.c.c.c.c.c.c.c.c.c.c.c.c.c.c.c.c.c.c.c.c.c.c.c.0.0.c.k.E Y Z.R I } Q.!.' ` ^ ^ ^ / R ~ Y m 4 2 > & o . . . . . . . . . . . . . .     . . $ % % k l z z v z z z z z z z z k k % $ $ . . . . . .   o * 2 4 4 4 < m K ^ ` { |.].].].|.|.S.` R T J m < , < m H R ` { { { { } S.S.|._._.) a #                                   O @ 7 e e e e e e e e 7 e e # @ @ O O O O O O O O O + + @ @ # # 7 7 7 7 e e e e 7 7 7 # # # @ @ O O O   O O       X O + @ # e e y g g $.g g g g y y y y y y y y e e e y f f f f f g #.#.#.$.#.#.#.g y y 6 @ O O @ @ @ e 7 7 7 e 9 9 w w y y y y y y y y y y g f g y y t y w t u #.#.#.#.#.#.#.g y y y y y y g #.7.7.7.7.7.7.7.7.#.o.%.%.#.#.o.o.o.o.o.4.9.9.7.7.#.#.#.#.0.7.7.#.#.#.#.#.7.#.#.#.%.%.9.y.9.o.9.R.P.u.u.*.*.u.u.0.0.,.H.H.H.H.H.H.*.-.1.H.*.,.H.H.u.u.*.*.1.1.1.H.H.H.,.,.1.1.,.,.H.H.H.1.H.H.,.,.1.1.H.H.H.H.H.u.u.u.H.H.H.H.H.1.u.u.H.H.u.u.H.H.H.H.H.u.0.*.,.,.1.1.u.0.",
"1.1.H.H.,.,.,.1.,.,.H.H.1.1.,.,.,.*.0.u.u.u.,.,.H.H.H.H.H.H.H.H.0.H.H.H.1.,.,.*.0.u.u.u.1.1.1.,.H.H.-.*.H.H.H.H.1.1.H.H.H.H.H.1.0.u.u.H.H.H.,.0.u.u.*.,.H.H.u.u.c.c.c.c.H.H.H.H.H.H.c.c.u.u.u.H.c.c.c.c.c.c.c.c.c.c.c.c.c.c.c.c.c.c.c.c.c.c.c.c.c.c.c.c.c.c.c.c.c.0.c.c.c.,.0.0.c.c.c.c.c.c.c.c.c.c.c.c.c.c.c.c.c.c.c.c.c.c.c.c.c.c.c.c.c.c.c.c.c.c.c.c.c.c.c.c.c.c.c.c.c.c.c.c.c.c.c.c.c.c.c.c.c.c.c.c.c.c.c.c.c.c.c.c.c.c.c.c.c.c.c.c.c.c.c.c.c.c.c.c.c.c.c.c.c.k.D Z.G.! L ] [..X X' ` ` ` ` ! ~ T B 2 2 2 > > o . . . . . . . . . . . . . .   . . . $ $ % k k l z x x x x z z k k % % $ $ . . . . . .   o & 2 2 B m Y T T ^ [ ` } Q.|..X].} ` ^ J < , > & & 2 4 4 m T ^ { S.{ { } S.S.S.F.`.x.d #                                 O # + e e e e e e e e e e e 7 # # @ + O O   O O   O O O + @ @ @ 7 e 7 e e e p p e e e 7 7 7 7 7 7 @ O   O         O O O # e y e y g g g g f f f f y y y y e e e e e p f f f f g g g g #.#.#.u 6 @ O @ @ 6 6 6 6 @ @ @ @ @ e @ @ e w w w w w y y u y y y y u u u g u u u y y y y y o.o.#.#.#.#.#.u u y y y y y o.o.o.#.7.9.9.7.7.7.9.7.7.4.4.4.O.O.o.O.4.4.4.7.7.7.#.y y #.#.#.o.o.o.o.7.7.7.7.%.%.9.u.p.d.y.r.i.R.p.u.u.H.H.H.H.1.1.1.u.H.*.*.H.H.H.H.*.*.*.u.u.u.1.1.1.,.,.0.0.u.H.H.1.1.H.H.u.u.1.H.H.H.H.H.u.u.u.H.H.H.H.H.H.1.,.,.H.H.H.H.H.H.*.*.,.H.u.H.H.H.,.,.,.u.u.H.H.H.,.,.,.0.",
"1.1.H.H.0.,.,.1.0.*.H.H.1.1.,.,.,.1.0.u.H.H.,.1.H.H.H.H.H.H.H.H.H.H.H.H.1.1.,.,.0.u.H.H.1.H.,.,.H.H.1.*.u.H.H.H.,.1.u.u.H.H.1.1.0.*.u.u.H.H.,.,.u.0.0.,.H.H.H.u.c.c.c.c.H.H.H.H.H.H.*.,.0.0.H.H.c.c.c.c.c.c.c.c.c.c.c.c.c.c.c.c.c.c.c.c.c.c.c.c.c.c.c.c.c.c.c.c.0.0.0.c.,.,.c.0.c.c.c.c.c.c.c.c.c.c.c.c.c.c.c.c.c.c.c.c.c.c.c.c.c.c.c.c.c.c.c.c.c.c.c.c.c.c.c.c.c.c.c.c.c.c.c.c.c.c.c.c.c.c.c.c.c.c.c.c.c.c.c.c.c.c.c.c.c.c.c.c.c.c.c.c.c.c.c.c.c.c.c.c.c.c.c.c.c.k.V N./.` I ' [..X XQ.' { { { / R ~ Y 4 5 5 2 2 > o . . . . . . . . . . . . .   . . . . $ % % k k k l k k k k k k % $ $ . . . . . . .   o & 2 2 d B T T ^ / ` ` { Q.OX X|.} ' L J < , & & & & * 2 4 4 J ^ { } { { } S.S.S._.-Xx.s +       O                           @ @ # # e e e e e e e e e 7 # # @ + O O O O O O O O O + @ @ # 7 e e e e e p p p e e 7 7 e e 7 7 7 @ O   O O O O O O # # e e e e e e e e f f f f y y y y e e e e f f j g g g g g g g #.#.g t 6 @ @ @ 6 7 9 e e e e e e e e @ O @ 7 w w w w w t t t y y u u g u #.u u u y y y y y ..o.o.o.#.#.#.#.#.u u u y y y y o.o.o.o.7.9.7.9.9.9.7.4.7.4.4.O.o.o.4.4.o.o.7.7.o.y y #.@.@.y y o.o.7.7.7.7.%.%.9.u.p.d.i.t.i.d.u.u.u.H.H.H.H.H.1.1.u.u.*.0.c.H.H.-.-.*.0.0.H.u.H.H.1.,.,.*.u.u.H.H.1.1.H.u.u.0.1.H.H.H.1.1.u.0.H.H.H.H.H.H.1.1.,.,.H.H.1.H.H.H.*.*.*.H.H.H.H.H.,.,.0.0.u.u.H.H.1.1.,.,.",
",.,.H.H.0.u.1.1.0.u.u.H.u.u.,.0.,.,.H.H.H.H.H.1.H.H.H.H.H.H.H.H.1.1.H.H.H.1.H.H.1.H.H.H.H.H.H.u.H.H.*.*.H.0.H.H.,.,.0.u.0.*.1.,.,.,.1.1.H.1.1.,.u.H.,.,.H.H.0.u.c.c.c.,.u.H.*.*.u.u.*.*.*.0.,.,.c.c.c.c.c.c.c.c.c.c.c.c.c.c.c.c.,.c.c.c.c.,.,.c.c.c.c.c.c.c.c.c.c.c.,.,.,.,.c.0.c.c.c.c.c.c.c.c.c.c.c.c.c.c.c.c.c.c.c.c.c.c.c.c.c.c.c.c.c.c.c.c.c.c.c.c.c.c.c.c.c.c.c.c.c.c.c.c.c.c.c.c.c.c.c.c.c.c.c.c.c.c.c.c.c.c.c.c.c.c.c.c.c.c.c.c.c.c.c.c.c.c.c.c.c.c.c.c.c.n.V N.-X{ I ' Q.@X.XQ.' { { { [ ! T T 4 4 4 4 4 > & . . . . . . . . . . . . . . . . . . . $ % % % % k k k % % % % $ $ . . . . . . .   o > 2 5 m m ~ ! / ` ` ` { ^. XOX|.} U L H m , > & & & & & * 2 4 J R ` { { { } S.S.XX`.G.E s # +     O O                   O O O + + O # 7 e e e e e p p e e 7 # # + O O O O O O O O + + @ # # # e e e e p p p p p p e e 7 7 7 7 e 7 + O X X X X O @ # # ; ; e e 6 6 6 6 y y y y y y y y f f f f f g g g g g g g g g g h e 7 @ O @ # e e e e e e g g g g y @   O @ 6 w e y y y y y y y y u u u u y y y y y y y y y @.@.#.u #.#.#.#.#.#.#.#.o.o.o...o.o.o.o.7.q.7.9.9.q.7.7.7.4.O.o.o.4.4.4.o.o.#.y t t y y y y y o.o.4.7.7.7.4.4.9.y.p.d.s.i.i.i.u.u.u.H.0.0.c.H.1.-.0.0.*.*.H.H.H.H.0.*.1.H.H.H.H.H.u.u.H.H.u.H.H.H.u.u.H.H.,.0.1.1.u.H.1.,.,.0.,.,.1.1.H.H.u.u.,.0.u.H.,.,.H.H.*.u.H.H.,.,.1.1.1.1.H.H.,.1.H.H.1.1.H.H.",
",.,.H.u.u.u.H.H.u.u.H.H.H.u.u.0.,.,.,.H.H.H.1.1.H.H.H.H.H.H.H.H.1.-.1.H.H.H.H.H.1.H.H.H.H.H.H.u.H.H.*.*.*.*.H.H.,.,.0.u.0.,.,.,.,.,.1.1.H.1.1.,.H.H.1.1.1.1.0.*.c.c.,.,.-.*.*.*.H.0.0.*.*.,.,.1.c.c.,.,.c.c.c.c.c.c.c.c.c.c.c.c.,.c.c.c.c.c.c.c.c.c.c.c.c.c.c.c.c.c.,.,.,.,.c.c.c.c.c.c.c.c.c.c.c.c.c.c.c.c.c.c.c.c.c.c.c.c.c.c.c.c.c.c.c.c.c.c.c.c.c.c.c.c.c.c.c.c.c.c.c.c.c.c.c.c.c.c.c.c.c.c.c.c.c.c.c.c.c.c.c.c.c.c.c.c.c.c.c.c.c.c.c.c.c.c.c.c.c.c.c.c.c.c.c.n.V N.:XS.I U !.@X.XQ.' ` { { { / R T m m m m m 2 > o . . . . . . . . . . . . .   . . . . $ $ $ % % % % % % % $ $ $ . . . . . . .     > > , 5 m T ! [ { ` ` ` Q.OXOX|.} ' L H b < , > & & & & & & > 2 m R [ { { { } G.XXXXG.l.V f # #                             O O + O O + # e e e e e p p e e 7 # # @ O O O O O O O O + + @ # # # 7 e e e 7 7 p p p p e e 7 7 7 e e e # + + + O O @ # # # # # 6 6 w w w w y y y y y f f f f g g g g g g g g g g g g g g h # @ + O # ; e y y y y y g g g g y @     O O @ 6 e y y y y y y y y y y t t t t t y y y y y y y @.u #.#.#.#.#.#.7.7.#.#.o.o.o.o...o.o.7.q.9.9.9.q.7.7.7.4.o.o.o.o.o.o.o.o.y 6 6 y y y y y o.o.4.7.7.7.4.4.9.y.p.d.h.s.i.i.u.u.u.H.0.0.c.H.1.1.0.0.-.*.H.H.H.H.0.c.1.H.H.H.H.H.H.u.H.H.H.H.H.u.u.0.H.H.,.,.,.,.u.u.1.,.,.*.,.,.1.1.H.u.u.0.0.0.u.u.,.,.H.u.u.u.H.H.,.,.1.1.1.1.H.H.,.1.1.1.H.H.H.H.",
"*.u.u.u.u.H.H.H.H.H.H.H.H.H.H.H.u.u.H.H.H.H.c.0.H.H.H.H.H.H.H.H.*.*.H.H.H.H.u.H.1.,.H.H.H.H.u.u.H.H.H.H.*.*.gXgXH.u.u.0.u.u.H.H.H.H.H.H.1.H.H.H.H.H.1.1.1.1.,.,.c.c.c.c.H.H.-.-.H.H.*.*.*.*.H.H.H.1.H.H.c.c.c.,.c.c.c.c.c.c.c.c.c.c.c.c.c.c.c.c.,.c.c.c.,.,.,.,.H.H.1.1.1.H.c.c.c.c.c.c.c.c.c.c.c.c.c.c.c.c.c.c.c.c.c.c.c.c.c.c.c.c.c.c.c.c.c.c.c.c.c.c.c.c.c.c.c.c.c.c.c.c.c.c.c.c.c.c.c.c.c.c.c.c.c.c.c.c.c.c.c.c.c.c.c.c.c.c.c.c.c.c.c.c.c.c.c.c.c.c.c.c.c.c.c.n.V N.:X;XQ.Q.@X@X.X X' ` { { S.S./ R J Y Y Y Y m 2 & o o o . . . . . . . . . . . . . . . . . . $ $ $ $ $ $ $ $ $ . . . . . . .     o 5 < < < [ { { ` ' Q. X$X,XOX].] ` I L P M < , > & o o & & & & , 4 T [ [ { { { S.G./.G.x.h p # +                 O O O O         O O O O @ 7 7 e e e p p p p e 7 7 # + O O O O O X O + + O O # # # # # # # 7 e p p p p e a p p p p p # # # # # + O O O @ 7 7 e e e e w w t y g g g g g g g g g g g g g g g g g g g g e # + + + @ e y r u r u g S 8.8.g g e @   O     O O p g g g g y f y y t t w w y y y y y y y y y y y u #.#.#.#.#.7.7.9.9.7.#.o.o.o.u o.o.7.9.9.y.y.y.9.7.7.4.4.4.4.7.7.7.o.o.y y t 9 6 9 9 t u o.o.4.4.4.4.q.i.d.g.tXtXg.i.q.7.7.0.u.H.H.1.1.1.1.u.-.u.H.H.H.H.H.H.H.1.1.H.H.H.H.0.u.1.1.u.H.H.H.*.0.1.1.,.,.,.,.*.u.u.u.*.,.,.u.u.u.,.,.,.0.0.0.,.,.*.0.u.u.H.H.H.H.*.0.1.1.1.1.H.H.,.,.H.H.1.1.u.H.",
"0.0.H.u.u.u.H.H.H.H.H.u.H.H.1.1.u.0.H.H.1.H.c.0.H.H.H.H.H.H.H.H.0.*.H.H.1.1.u.u.,.,.H.H.H.H.0.0.H.H.0.0.*.*.zXzXH.u.u.0.u.u.H.H.H.u.H.H.1.H.H.H.H.H.1.1.1.1.,.,.c.c.c.,.H.H.1.u.H.H.,.,.u.u.H.H.H.1.H.H.c.c.c.c.c.c.c.c.c.c.c.c.c.c.c.c.c.c.c.c.c.c.c.c.,.c.,.,.H.H.1.1.H.H.c.c.c.c.c.c.c.c.c.c.c.c.c.c.c.c.c.c.c.c.c.c.c.c.c.c.c.c.c.c.c.c.c.c.c.c.c.c.c.c.c.c.c.c.c.c.c.c.c.c.c.c.c.c.c.c.c.c.c.c.c.c.c.c.c.c.c.c.c.c.c.c.c.c.c.c.c.c.c.c.c.c.c.c.c.c.c.c.c.c.c.n.V N.=X;X.X@X@X@X.XoX} { } S.^.S.` ! J ~ ~ ~ ~ m 4 > o o o . . . . . . . . .         . . . . . . . . . . . . . . . . . . . .     o > 5 4 R ! } ^.Q.Q.[.@X%X1X3X.X].] ` ^ L P M < , , & o . . & & & > 4 ~ ! [ [ [ [ Z.Z.G.G.W s q #                   O O O           O O O O + @ # 7 e e e p p p e e e # # + O O O O + + + + @ @ # # @ # - # # # p p p p p f j j j f a p # # # + X O O O @ # e e e e e e t t y g g #.#.g #.#.g #.g g g g g g g g g g g p # O + + # e y u u u u g S 8.8.8.g g e O   O       O # e p g g g f f y y y t t y y y w w w w y y y y y u #.#.#.#.7.9.9.9.7.7.o.o.o.o.o.o.%.7.9.y.y.y.9.7.9.9.7.7.7.7.4.7.O.o.o.y y y 9 9 9 t o.o.o.4.4.4.5.q.i.d.g.g.g.g.i.i.7.7.u.u.H.H.1.1.1.1.u.*.H.H.H.H.H.H.H.H.,.,.H.u.H.H.0.*.1.1.u.u.H.H.,.,.1.1.,.,.,.,.0.0.u.0.0.,.0.0.H.u.1.1.*.*.u.*.*.,.*.*.u.u.H.H.H.H.u.0.H.H.,.,.H.u.0.*.H.H.1.1.u.u.",
"1.H.H.H.0.u.,.,.1.1.u.u.*.,.1.1.u.u.1.1.1.1.0.0.H.H.H.H.H.H.H.H.0.u.H.H.1.*.*.0.,.0.0.u.1.1.,.*.u.-.*.*.H.=.fXI.H.H.,.*.1.1.H.H.u.u.*.,.1.1.u.H.0.0.,.,.H.H.H.H.c.c.c.c.H.H.H.H.H.H.H.1.u.H.H.H.u.H.H.H.c.c.c.c.c.,.c.c.c.c.c.,.c.c.c.c.c.c.,.,.c.c.c.c.c.c.c.c.u.H.1.H.H.1.c.c.c.c.c.c.c.c.c.c.c.c.c.c.c.c.c.c.c.c.c.c.c.c.c.c.c.c.c.c.c.c.c.c.c.c.c.c.c.c.c.c.c.c.c.c.c.c.c.c.c.c.c.c.c.c.c.c.c.c.c.c.c.c.c.c.c.c.c.c.c.c.c.c.c.c.c.c.c.c.c.c.c.c.c.c.c.c.c.c.c.k.V N.^.#X<X$X%X$X#X.X X^.S.^.|.S.{ ! K T R T ~ B 5 2 o o . . . . . . . . . .             . . . . . . . . . . . . . . . . . .   o 5 J m ! XX,X|. X.X.X3X$X%X3X.X].} } ` ^ L K H m < 2 > & . . o & & & 5 Y ! ! ! [ [ [ / D.x.E p * O                   O O             O O O O O @ 7 7 7 7 7 7 p p e e e e # @ + O O O + X o o @ @ # # - - - - 1 p f s s s s j f f f f p # + + O   O O O + 7 e e e e e f f y y g g #.8.$.#.#.#.g g g g p p p p e e y y f e @ O 7 p p f u u 4.4.4.S 7.7.7.8.g g e O O O         O O # e g g f g g g f y y t t t y w w w 9 9 9 9 y t y u #.#.7.9.9.9.7.7.o.o.o.o...o.o.%.9.9.y.y.9.9.9.4.9.9.9.9.q.4.#.o.o.o.y y 9 9 t t o.o.o.o.5.5.5.i.g.g.s.s.s.s.i.d.9.9.u.u.H.H.1.1.1.1.*.*.c.H.H.H.H.H.1.-.,.0.0.u.1.1.,.,.,.,.,.u.H.1.1.,.u.u.*.0.1.1.H.H.u.H.,.,.1.H.H.H.H.1.H.H.u.u.1.,.H.H.H.H.*.u.*.*.u.H.H.H.,.0.0.u.0.u.u.H.,.,.*.u.",
"1.H.H.H.0.*.,.,.1.1.u.0.0.,.,.,.H.1.1.1.1.1.0.0.H.H.H.H.H.H.H.H.0.0.H.H.1.,.0.0.*.0.u.u.1.1.,.,.u.*.*.H.1.*.*.=.*.H.,.,.,.1.1.H.u.0.0.,.,.,.u.u.u.,.,.,.H.H.H.u.c.c.c.c.H.H.H.H.H.H.1.1.u.H.H.H.u.H.H.H.c.c.c.c.c.,.c.c.c.,.c.c.c.,.c.c.c.c.,.c.c.c.c.c.c.c.c.0.u.H.H.H.1.H.c.c.c.c.c.c.c.c.c.c.c.c.c.c.c.c.c.c.c.c.c.c.c.c.c.c.c.c.c.c.c.c.c.c.c.c.c.c.c.c.c.c.c.c.c.c.c.c.c.c.c.c.c.c.c.c.c.c.c.c.c.c.c.c.c.c.c.c.c.c.c.c.c.c.c.c.c.c.c.c.c.c.c.c.c.c.c.c.c.c.c.n.V / /.oX1X5X4X%X$X#X.X X^.^.|.S.{ ` L L R R ~ J 4 > o o . . . . . . . . . .   .         . .   . . . . . . . . . . . . . . o o 5 J { :X,XOXOX.X.X@X$X3X@X{.{.].].} { ` ^ R K J m 4 2 * * o . o & & & 2 Y T ! ! ! ! [ ! N.! d 1 #                     O O             O O + O O O @ 7 7 7 q p p p e e e e e # O O O X X X # o o o - - - ; ; ; 1 s d h d h h h p 1 p # + +         O O O # e e e e w w f f g g g #.8.8.8.8.8.8.y y e e 7 # # # # # 7 e e # @ O e f g g o.4.4.5.4.7.7.e.7.8.g g e O O O             O # p g g g g g g g u y y y y w w w 9 9 6 6 6 w t t #.#.7.9.9.9.7.7.o.o.o.o.o.o.o.#.%.9.y.y.9.9.5.4.9.9.9.9.q.7.o.o.#.o.o.y y y t t o.o.o.o.5.5.i.i.g.g.s.i.i.i.d.d.9.9.u.u.H.H.1.1.1.1.*.*.,.H.H.H.H.H.1.-.,.,.u.u.1.1.,.,.,.,.0.0.H.1.1.,.H.u.u.0.1.1.H.H.H.H.1.1.1.H.H.H.H.H.H.H.H.H.1.H.H.H.H.H.*.*.*.*.u.u.H.H.,.*.u.u.u.u.H.H.,.,.0.0.",
"1.1.H.H.H.H.1.1.*.*.*.u.H.H.,.*.*.*.H.H.H.1.,.,.H.c.c.0.*.*.H.H.u.u.0.0.H.H.H.H.H.H.u.u.1.H.H.H.H.H.H.H.1.,.,.,.*.0.1.1.1.,.,.,.H.H.H.H.1.1.u.H.H.H.H.H.,.0.0.u.1.1.H.H.0.*.,.1.,.1.1.H.0.0.,.,.-.u.1.H.H.H.H.H.1.1.1.,.,.,.H.H.1.1.u.H.H.H.H.H.u.H.H.H.H.H.u.u.u.u.,.,.,.H.u.u.1.1.,.,.c.c.c.,.,.,.c.c.c.c.c.c.c.c.,.c.c.c.,.c.c.c.c.c.c.c.c.c.c.c.c.c.c.c.c.c.c.c.c.c.c.c.c.c.c.c.c.c.c.c.c.c.c.c.c.c.c.c.c.c.c.c.c.c.c.c.c.c.c.c.c.c.c.c.c.c.c.c.c.c.c.c.c.c.v.n.E Z.oX#X1X5X5X%X@X X X^.S.S.S.S.^.} R K K T Y Y B 2 & . . . . . . . . . . .                 .       . . . . . . o o 2 & & T ! ^.,X2X<X3XOX.XOX$X%X%X%X$X.X.X].} } { ` ! R ~ J 4 4 2 2 * * o o o & & , 4 J ~ R R ! ! ! ! E d p # + +                                 O + +     + + # p p p p 7 7 p 7 + @ @ + O O   O o o # ; ; ; ; ; ; - 1 3 d D E z.A d 1 ; X o o   .   X X O O O O @ @ e w y y @.@.g #.#.#.#.$.8.8.8.g f e @ O O O O O O O @ O O O   O @ : y y g #.7.7.9.q.p.w.9.7.8.g g e @ O                     @ 6 y g g g g g g f y y y y w w w w w w 6 t y y o.#.7.7.7.7.7.7.#.#.#.#.o.o.o.o.#.7.9.9.7.7.7.7.9.u.p.i.9.7.4.o.o.o.o.y y y y y o.o.o.4.4.5.i.g.g.h.q.4.4.5.i.p.9.0.u.u.H.1.1.1.1.1.1.1.1.1.H.H.H.H.*.*.1.1.H.H.*.,.,.1.,.1.1.H.0.0.,.,.H.H.H.H.*.0.0.u.u.H.,.,.*.u.u.u.*.*.0.u.u.u.,.,.,.0.u.u.H.H.H.*.,.1.1.H.0.0.,.,.*.*.,.H.H.H.*.*.",
",.,.H.u.H.H.1.1.*.*.*.u.H.H.,.1.*.*.H.H.H.1.*.,.H.H.c.0.*.*.H.H.H.u.u.*.H.H.H.u.H.u.u.0.1.H.H.H.H.H.H.H.1.1.,.,.u.0.H.H.1.,.0.,.H.u.H.H.1.1.u.u.H.H.1.1.,.,.u.u.1.1.H.H.0.,.,.1.,.1.1.H.u.0.*.,.*.u.1.1.H.H.u.u.H.H.1.,.0.,.H.H.1.1.u.u.H.H.1.1.u.u.H.H.1.1.u.0.u.u.,.,.,.1.u.u.1.1.,.,.0.0.c.c.,.,.c.c.c.c.c.c.c.c.,.c.c.c.c.c.c.c.c.c.c.c.c.c.c.c.c.c.c.c.c.c.c.c.c.c.c.c.c.c.c.c.c.c.c.c.c.c.c.c.c.c.c.c.c.c.c.c.c.c.,.,.c.c.c.c.c.c.c.c.c.c.c.c.c.c.c.c.c.c.c.n.E A.oX#X1X5X1X$X X} } ` ^ ^ ` { S.S.^ K K T T T T 4 & o . . . . . . . . . .         . .     . .     . . . o . 2 d 2 , J { OX,X,X,XOXOX.X|. X.X3X$X%X$X3X.X|.].} { ` [ ! T Y Y 4 4 2 2 2 * o o o o & > 5 4 J R T T ! ! ! E d p p + +                                 + + +     X + # p p 7 7 7 7 # # + + + O O O + + o # ; 1 ; ; ; ; 1 3 a d d D D D ; ; o X o o o   +   X X O O O O @ ; e y y ..@.#.#.#.#.#.0.0.8.8.u y 7 @ @ @ O O + # # @ @ O O O   O @ : y g g 8.7.q.q.p.p.p.9.7.g g e O   O                       O @ 6 y g g g g #.g y f y y w t w w w t t t y o.o.#.7.7.7.7.7.#.#.#.#.o.o.o.o.#.#.7.7.7.%.%.%.9.u.p.i.9.q.7.o.o.o.o.y y y y y o.o.o.4.4.5.i.g.d.q.4.4.i 4.q.q.9.0.u.u.H.1.,.,.1.1.1.1.1.1.H.H.H.c.*.*.1.1.H.H.0.,.,.1.,.1.1.H.u.*.,.,.H.H.1.1.,.,.u.u.H.H.,.,.0.0.H.u.*.,.0.u.H.H.,.1.,.*.u.u.H.H.H.0.,.1.1.H.u.,.,.,.*.*.*.H.H.H.u.*.",
",.0.0.u.0.0.,.,.u.*.H.H.H.H.H.H.0.u.H.H.u.u.*.*.H.H.H.H.*.H.H.H.H.H.,.,.1.1.u.u.H.H.*.0.1.,.u.H.,.,.H.H.H.H.H.H.u.H.H.H.H.u.0.u.u.u.*.,.,.,.,.u.*.,.1.1.,.,.1.H.,.,.H.H.0.u.1.1.,.*.H.H.u.u.1.1.*.,.,.,.,.c.u.u.H.H.u.u.0.u.u.H.,.,.*.u.*.,.1.1.0.u.,.,.1.,.,.0.H.,.,.,.H.H.u.u.H.H.c.c.0.c.c.c.,.c.c.c.c.c.c.c.c.c.c.c.c.c.c.c.c.c.c.c.c.c.c.c.c.c.c.c.c.c.c.c.c.c.c.c.c.c.c.c.c.c.c.c.c.c.c.c.c.c.c.c.c.c.c.c.c.c.c.c.c.,.c.c.c.c.c.c.c.c.c.c.c.c.c.c.c.c.c.c.$.n.E F.oX#X1X5X%X.XQ.' ` L J K T R [ A.{ R T T T / ! B > o . . . . . . . . . .           . . . . . . . . o & > > , < , { oX2X5X5X,XOX|.+X+X|.|. X.XOX$X3X.X|.].} } { ^ [ ! T ~ Y m 4 2 2 2 * o o o o & o > < ~ ~ ~ ~ Y ! ! E d p 1 + o                 X X                 +     X + # 7 7 7 # # # # + . .       + + + o # ; 1 1 1 1 ; 1 p s d p p 1 ; X X X X   o o   + O O O O O O O ; e y y @.@.$.$.#.#.#.8.8.8.g g e : @ @ @ ; # # e e e e @ O X O   X @ : r g 8.7.9.w.p.p.p.p.9.7.g e O     O                           O 6 y g g g g g g f f y y y t y y t 6 t y o.o.#.#.%.%.%.%.#.#.#.#.#.#.#.#.o.#.#.7.7.#.#.#.7.9.p.p.w.9.7.4.o.o.o.y y y y y o.o.o.4.X.9.p.d.9.4.i i i i 4.7.9.0.u.u.H.,.,.,.1.1.1.1.1.1.H.,.H.H.H.0.,.,.H.H.0.u.1.1.,.,.H.H.u.u.1.1.*.,.1.1.,.,.1.H.H.H.1.1.1.H.H.H.,.,.H.H.H.H.H.1.H.H.H.H.H.H.H.H.,.,.H.H.u.u.1.,.*.u.H.H.H.H.*.*.",
",.*.u.u.u.,.,.,.H.H.H.H.H.H.H.H.u.u.H.H.H.u.u.0.H.H.H.H.u.H.H.H.H.H.,.,.1.1.u.0.H.H.,.,.,.,.u.u.,.c.H.H.H.H.H.u.u.u.H.H.H.u.u.u.u.0.0.,.,.,.0.0.0.,.,.,.1.1.1.H.*.,.H.H.u.u.H.H.0.0.H.H.H.H.1.1.*.*.,.,.,.c.u.u.H.H.H.u.u.u.H.H.,.,.0.0.0.,.,.,.0.*.,.,.1.,.,.,.H.H.,.,.H.H.H.H.H.H.c.c.0.0.c.c.,.c.c.c.c.c.c.c.c.c.c.c.c.c.c.c.c.c.c.c.c.c.c.c.c.c.c.c.c.c.c.c.c.c.c.c.c.c.c.c.c.c.c.c.c.c.c.c.c.c.c.c.c.c.c.c.c.c.c.c.c.c.c.c.c.c.c.c.c.c.c.c.c.c.c.c.c.c.c.c.$.k.W /.oX#X1X5X@X].' ` L H m m m J T ! A./ T T T Z./ W 2 * . .         . .             . . . . . . o o o > , , , > P |.2X0X0X2X$X$XOX X+X|.|.|.|. XOXOXOX+X|.|.} { ` R [ ! T Y Y B 4 2 1 2 * o o o o o . o , ~ J J Y Y x.l.E h p 1 + o                 X X                         + + 7 7 7 7 + + + o .       + + + o o # # 1 ; 1 1 1 ; ; p p o X     X X o o o o o   + O O O O O O O e y g g @.$.$.$.#.#.#.#.8.g y e e e e e e e e e s p g g @ O O O     @ : g S 7.e.e.p.p.p.p.p.0.7.e O                                     O 6 y y g g g g g f y y t t y y y 6 6 y o.o.#.%.#.#.%.%.#.#.#.#.#.#.#.#.o.o.#.#.#.o.o.o.7.9.i.w.q.9.9.7.o.o.o.y y y y y #.#.o.o.X.9.p.0.o.u i i w i o.#.0.0.u.H.1.1.,.,.1.1.1.1.1.1.H.,.H.H.0.0.,.,.H.u.u.u.H.H.0.,.H.H.H.u.1.1.0.,.,.,.1.1.1.H.H.H.1.1.1.H.H.H.1.H.H.H.H.H.H.1.H.H.H.H.H.H.H.H.0.*.H.H.H.u.1.1.u.u.H.H.H.H.*.*.",
"1.1.,.,.1.1.H.H.H.H.H.H.H.H.H.H.H.H.H.H.1.1.1.1.1.1.1.1.1.1.1.1.H.1.1.1.,.,.,.0.1.1.,.,.,.,.,.u.*.*.H.H.H.H.u.u.H.H.H.H.H.H.1.1.1.1.1.,.,.,.1.1.0.u.1.1.,.,.H.H.0.u.u.u.H.H.H.H.0.u.H.H.H.H.H.H.,.,.c.H.,.,.,.,.,.,.*.u.u.u.*.,.u.u.0.0.0.u.u.H.H.H.1.1.,.1.1.H.,.,.H.H.1.,.,.,.0.0.u.u.H.u.u.0.1.1.H.H.H.H.c.,.c.,.c.c.c.c.c.c.*.*.*.*.*.*.*.*.*.*.*.*.*.*.*.*.c.c.c.c.c.c.c.c.c.,.c.c.c.c.c.c.c.c.c.c.c.c.c.c.c.c.c.c.c.c.c.c.c.c.c.c.c.c.c.c.c.c.c.c.c.c.c.c.&.>.F./.oX$X%X@X|.' I H H m m m m m m m ! Z./ ~ ~ T ! ! E 1 . .                 . . . . . . . o & & & & , , 5 5 P } $X0XqX9X&X%X$X$X.X X|.|.|.|.|.|.|.|.|.|.|.|.] | ` ! [ ! ~ Y Y d 4 2 2 * # o o o o o o o > 4 4 4 m d V V E V f 1 + +                 + X X   X o                 + + + # # # X o # # # # o o o o + # + + + # # # # # + + + + O O O O O + + + + + +   O   O O # # # # y f g #.$.#.#.$.g 8.S r @ @ : : : : ; ; e y e e s s y e ; O O     O X ; s S 7.e.w.p.p.d.p.0.#.y @ O                                         O y g g g g #.@.y y ....y y y y t t y o.#.#.%.o.o...y u u u u u u u u #.#.#.#.o.u u o.7.9.9.0.9.9.7.o.o.o.y y y y y #.7.7.7.o.9.p.p.u i w w w 6 i #.0.0.u.H.1.1.1.1.1.1.1.1.1.1.1.,.,.,.1.1.,.u.u.u.u.H.H.H.0.u.u.H.H.H.H.H.0.u.1.1.,.,.H.H.,.,.1.1.1.,.,.,.H.H.H.H.H.H.H.H.1.1.u.H.1.1.1.1.0.u.u.H.H.H.H.H.u.H.H.H.H.H.H.0.",
"1.1.1.,.1.1.H.H.H.H.H.H.H.H.H.H.H.H.H.H.1.1.1.1.1.1.1.1.1.1.1.1.H.1.,.,.1.1.,.,.1.1.,.,.,.,.0.u.*.*.H.H.1.H.u.u.1.H.H.H.H.H.1.1.H.H.1.,.,.,.1.1.u.u.1.1.,.,.H.H.0.0.H.H.u.u.H.H.u.u.H.H.H.H.H.H.,.,.c.H.,.,.1.1.,.,.0.0.u.0.0.,.H.u.u.,.u.u.H.H.H.H.1.1.,.1.1.H.,.1.1.H.,.,.,.,.*.,.u.u.H.u.u.0.1.1.H.H.H.H.,.,.c.,.c.c.c.c.c.c.*.*.*.*.*.*.*.*.*.*.*.*.*.*.*.*.c.c.c.c.c.c.c.c.c.,.,.c.c.c.c.,.c.c.c.c.c.c.c.c.c.c.c.c.c.c.c.c.c.c.c.c.c.c.c.c.c.c.c.c.c.c.c.c.&.k.W.XX X$X$X.X} ^ P < , > > 2 4 4 4 2 B ! Z./ ~ ~ Y T Y & . .             . . . .     . . o o & > > > , > < K OX2X0X0X9X1X%X*X.X.X|.|.|.Q.Q.Q.S.S.} S._._._.'.{ ` _ _ ! R ~ Y B 4 2 2 1 * o o o o o o o o o < 4 4 4 4 d d d h f 1 + +                 X X X + o X                 X + + + + +   o # # 1 1 ; # # o o o + + + + + + O X X X X X O O O O O O + + + + + + + + O O e e e e y f g g #.#.$.h g s : X @ @ ; e e e e e r r r r g s s y ; O O     O o ; r S 7.e.w.w.w.0.0.#.y @ O                                           O y g g #.#.#.#.@.y ....y y y y y t y o.#.#.%.o.o.y t t t t y y u u u u u g #.u u y u o.7.9.9.9.9.9.o.o.y y y y y y o.7.7.7.o.0.p.0.y t 6 6 6 @ w g $.0.H.H.1.1.1.1.1.1.1.1.1.1.1.1.,.1.1.H.0.0.H.u.u.u.H.H.u.u.H.H.H.u.H.H.u.u.1.1.,.,.H.H.,.,.1.1.1.,.0.,.H.u.H.H.H.H.H.H.,.1.u.u.1.1.,.,.u.u.H.H.H.u.H.H.H.H.H.H.H.H.H.0.",
"1.1.,.,.1.1.H.H.*.*.*.*.H.H.H.H.H.H.H.H.1.,.1.1.1.1.1.1.1.1.1.1.u.u.,.,.1.1.H.H.u.u.*.0.,.,.H.H.*.u.u.H.,.,.,.0.1.1.u.u.0.,.,.,.H.H.u.u.*.0.H.H.u.H.H.H.*.u.u.H.1.H.H.H.0.u.,.,.1.1.H.H.u.u.0.*.,.,.H.H.u.u.1.1.1.1.H.H.u.H.,.,.H.H.,.,.1.1.H.H.H.H.u.u.,.,.H.H.,.,.H.H.u.u.,.*.,.,.1.1.H.H.,.,.,.,.u.H.H.H.c.c.c.c.c.c.c.c.c.c.*.*.*.*.*.*.*.*.*.*.*.*.*.*.*.*.c.c.c.c.c.c.c.c.c.c.c.c.c.c.c.c.c.c.c.c.c.c.c.c.c.c.c.c.c.c.c.c.c.c.c.c.c.c.c.c.c.c.c.c.c.c.c.c.&.n./.oX#X1X&X.X` L b < & o o & & & & & 2 B ! Z./ ! W W V & . . . . . .     . . o o o o o # o & & > > > & H ].2X0X0X0X0X1X%X.X{.].|.|.].|.Q.Q.} S.} } } } } } } { ! ! ! ! ~ Y m d 4 2 2 * o o o o o o o o o o > 5 5 5 5 a a d d f p + +       O + + + + + + + + o o o                 + o . . .   o # # d p 1 1 1 ; # + + + + + + O O O O O O O O O @ O O O O O + + + O # # # # p p y y y g g #.#.#.#.#.g ; X   @ ; ; e e e r s r u g g S S g g e + O     O X - r S e.e.q.q.9.7.%.y @ O                                             O e #.#.7.#.#.o.o.o.o.o.o.o.y y y t y o.o.#.#.o.o.y t t t w w w w w r r u u u u t t i u 7.9.9.9.9.9.o.o.t y y y y y o.#.7.7.7.0.0.7.t 6 @ @ @ @ 6 y $.*.H.H.1.1.1.1.1.1.1.1.1.1.u.u.*.0.H.H.1.H.H.H.0.u.,.,.1.1.H.H.u.u.*.,.u.H.H.H.,.u.u.H.*.0.H.H.H.H.0.u.*.u.*.*.H.H.H.H.,.*.0.u.1.1.1.,.1.1.H.H.u.u.*.*.,.,.H.H.H.H.H.H.",
"1.1.,.1.,.1.H.H.*.*.*.*.0.u.H.H.*.0.H.H.1.,.,.1.1.1.1.1.1.1.1.1.u.0.0.*.H.H.H.H.H.u.u.0.1.1.1.H.u.u.H.H.,.,.*.*.,.,.u.u.u.,.,.,.H.H.H.u.u.0.H.H.H.H.H.H.0.0.u.u.1.H.H.H.0.0.*.,.1.1.H.H.u.0.0.,.,.,.u.u.u.u.H.H.1.1.H.H.H.H.1.1.H.H.,.,.1.1.H.H.H.u.u.0.0.*.H.H.,.,.H.H.u.u.u.u.,.1.1.H.H.H.,.,.,.,.u.-.u.H.c.c.c.c.c.c.c.c.c.c.*.*.*.*.*.*.*.*.*.*.*.*.*.*.*.*.c.c.c.c.c.c.c.c.c.c.c.c.c.c.c.c.c.c.c.c.c.c.c.c.c.c.c.c.c.,.c.c.c.c.c.c.c.c.c.c.c.c.c.c.c.c.c.c.,.m.XXoX1X0X5X@XL H < , & . . o & & & & & 2 B ! ! ! / ! B o . . . . . . o o o o o o o o o o o & & > > > L OX0XvX1X1X0X0X%X$X.X].].].|.].|.Q.} } } } { } } } } } { ! ! R T Y Y 4 4 2 2 & & o o o o o o o o o o o 2 2 2 3 a a a s f p + +         + + + + + + + + o o o                 o         X o # # d d 3 3 a p 1 # # # + + + O O O O O O O O O O O O O O O + + + + # # # # p p p p y f g g #.#.#.g y @ X : - ; e r r r s r g g g g 8.S g g e + O     O X # s S 7.8.7.7.o.o.y 6 O O                                             O e $.7.7.7.#.#.o.o.o.o.o.o.o.y u y y o.#.#.#.o.u y t t w w w w w w w w w w u t t w t u o.7.9.9.9.9.o.u t y y y y y u o.7.7.7.0.8.#.t 6 @ O O O 6 y f $.H.H.1.1.1.1.1.1.1.1.1.1.H.u.u.0.H.H.1.H.H.H.0.*.,.,.1.1.H.H.u.0.0.,.H.H.H.H.0.0.u.u.u.0.H.H.H.u.u.u.*.*.*.*.*.u.H.H.,.,.0.0.1.1.1.1.1.1.H.H.u.u.0.,.,.,.1.H.H.H.H.H.",
",.,.,.,.,.,.,.,.,.,.c.c.,.,.,.,.,.,.,.,.,.,.,.,.,.,.,.,.,.,.,.,.u.H.,.,.,.u.u.u.H.H.1.,.,.,.H.H.1.1.H.H.,.,.1.1.,.,.H.H.H.1.1.,.H.H.H.1.1.1.H.H.H.H.H.H.,.1.H.H.1.1.H.H.H.H.1.1.,.*.0.u.u.u.,.,.1.u.u.H.H.H.1.,.,.,.*.0.H.H.H.1.H.1.1.1.u.u.u.H.H.H.1.1.0.u.u.H.0.u.u.u.1.1.1.,.,.0.u.u.H.1.1.,.c.u.u.u.,.,.,.,.,.1.c.c.c.c.c.c.*.*.*.*.*.*.*.*.*.*.*.*.*.*.*.*.c.c.c.c.c.c.c.c.c.c.c.c.c.c.c.c.*.*.*.*.*.*.*.*.*.*.*.*.*.*.*.*.&.&.&.&.&.&.&.&.&.&.&.&.&.&.&.8.h D.-XoX2X0X5XQ.L M < , & & & & & & & & 4 d B W W / N.A.Y 4 2 2 2 1 * o o o o o o o o o & & & , > > < ].vX0X1X1X1X2X1X,X$X.X|.} ' ' ` ` ` ` { { { { { { { { { { [ ! R ~ J m m 4 4 2 2 > & o o o o o o o o o o o 1 1 1 1 1 p s s f p # + + +     X X o + + + + + o o X o + + o o                 # - ; 1 d s 3 3 p e # # @ + + O O O O O + O + + X X X X + + + +   + + # 7 p f j f f f f f f f f #.#.g e @ @ @ - e s g g g g g S 7.7.7.7.7.8.g g g e X       O O e e e y @ @ O                                                       @ e #.8.7.7.7.7.#.o.#.#.#.#.o.o.o.u o.o.o.o.#.o.u y y w w w e e e e e e w w t t t w w t u #.7.9.7.7.#.u y y y y y y o.o.o.7.7.9.7.#.6 6 6 6 @ @ @ 6 y $.H.-.1.1.1.1.1.1.H.H.H.,.,.,.u.u.u.H.1.1.H.H.H.H.1.1.,.,.,.u.u.u.,.,.,.,.,.1.u.u.0.0.u.u.,.,.,.0.0.u.c.c.c.c.,.,.,.,.,.,.,.,.,.,.,.,.,.,.,.,.,.,.,.,.,.,.,.,.,.,.,.,.",
",.,.,.,.,.,.,.,.,.,.c.c.,.,.,.,.,.,.,.,.,.,.,.,.,.,.,.,.,.,.,.,.H.H.,.,.0.0.H.u.H.H.1.1.,.,.H.u.1.H.H.H.*.,.,.1.*.,.H.H.1.1.,.,.H.H.H.1.,.,.H.u.H.H.H.u.,.1.1.H.,.,.H.H.H.H.1.1.,.1.0.0.H.H.1.1.1.u.H.H.H.H.1.1.,.,.u.0.H.H.H.1.H.1.,.,.u.0.H.H.H.H.1.1.0.,.u.u.0.u.H.H.1.H.,.,.,.0.u.u.H.H.1.1.,.*.u.u.,.,.,.,.,.1.0.0.c.c.c.c.*.*.*.*.*.*.*.*.*.*.*.*.*.*.*.*.c.c.c.c.c.c.c.c.c.c.c.c.c.c.c.c.*.*.*.*.*.*.*.*.*.*.*.*.*.*.*.*.&.&.&.&.&.&.&.&.&.&.&.&.&.&.&.8.h G.XX|.1X0X<XQ.K M < > & & & & & & & & 2 4 4 B ~ ! / D.! Y 4 2 2 2 * o o o o o o o o o o > > & & K OXnX0X5X1X1X%X%X$X,XOX X].{ ` ` ` ` ` ` ` ` ` ` [ _ ! ! ! ! R ~ J J m m 4 d d 2 2 > & o o o o o o o o o o o # # * * 1 p s s f p # + o +     X X o + + + + + o o X o o o o o o X X X X X X X # ; ; 1 a a 1 ; # # + + + O O O O O O O O O O X X X X       X + + # p f p f j f f f f f f f f f #.g e @ O @ ; ; s s g g g g g #.7.9.7.7.7.8.g g s p X         O X X X X O                                                           O w g #.7.7.7.7.7.#.#.#.#.#.#.#.o.o.o.#.#.o.#.o.u y w w w w w w w w e e w w w w w w w t t u #.7.7.7.7.o.y y y y y y y o.o.o.7.7.7.o.6 6 6 6 O O @ @ y $.c.1.1.1.1.1.1.1.H.H.H.H.H.,.0.0.H.H.,.,.H.u.H.H.1.1.,.,.0.0.H.u.1.1.0.,.,.1.H.u.u.*.H.u.1.1.,.*.u.u.c.c.c.c.,.,.,.,.,.,.,.,.,.,.,.,.,.,.,.,.,.,.,.,.,.,.,.,.,.,.,.,.",
",.,.,.,.,.,.,.,.,.,.c.c.,.,.,.,.,.,.,.,.,.,.,.,.,.,.,.,.,.,.,.,.H.H.1.1.1.H.H.H.H.H.H.H.,.u.u.u.1.,.H.H.0.0.H.1.0.u.u.H.u.u.,.*.u.H.0.0.,.0.0.u.H.1.u.u.,.*.H.H.,.0.0.u.0.0.,.,.1.1.H.H.H.H.H.1.H.H.u.H.H.H.u.u.H.H.u.u.u.H.0.0.u.u.,.,.,.0.,.1.0.0.,.,.,.,.1.1.1.1.H.H.H.H.H.u.H.H.H.H.H.H.u.u.H.H.u.H.H.,.u.u.H.H.0.0.c.c.c.c.*.*.*.*.*.*.*.*.*.*.*.*.*.*.*.*.c.c.,.,.c.c.c.c.c.c.c.c.c.c.c.c.*.*.*.*.*.*.*.*.*.*.*.*.*.*.*.*.&.&.&.&.&.&.&.&.&.&.&.&.&.&.&.8.h G.XX|.1X0X@X` H m , & & & & & & & & & > 2 4 4 Y R / N.! Y d 2 2 > & o o o o o o o o o < , 5 < } vXnX2X5X1X1X%X$X$XOXOXOX|.} ` L L L R R R R ! ! ! R R ~ J ~ ~ J J J m m m 4 d 4 3 1 * o o o o o o o o o o o o # # # # + q a s f p # + o o o + o + + + + + + + o o o o o + o o o + # + # # # # # ; 1 1 1 ; # o + + O O O O + + O O O O O O O O O O       O # e p p g f j f f f f f f f g f f f g y @ O # ; ; e g g g g #.g #.7.q.q.q.9.7.8.g g s p X                                                                               @ w #.7.7.7.7.7.7.7.O.o.o.o.o.o.#.#.#.#.#.#.#.o.u y 6 6 6 : w w w w e 6 w w w w w w 6 w t y u 7.7.7.9.7.u y u u u y t y o.X.o.7.7.o.9 6 6 6 @ @ @ @ 9 $.c.c.H.H.H.H.u.H.*.*.u.0.H.H.*.0.,.,.,.0.0.u.0.0.,.,.1.1.H.H.H.H.H.1.0.u.1.1.H.H.,.,.H.H.H.1.H.H.u.H.c.c.c.c.,.,.,.,.,.,.,.,.,.,.,.,.,.,.,.,.,.,.,.,.,.,.,.,.,.,.,.,.",
",.,.,.,.,.,.,.,.,.,.c.c.,.,.,.,.,.,.,.,.,.,.,.,.,.,.,.,.,.,.,.,.H.H.1.1.1.H.H.H.u.u.u.H.*.0.u.u.,.,.u.u.u.u.H.H.0.u.u.H.u.u.0.0.u.u.u.*.,.,.u.u.1.1.u.0.0.*.H.H.*.0.u.u.u.0.*.,.,.1.1.H.H.H.H.1.H.H.H.H.H.u.u.u.H.H.H.u.u.u.u.,.u.0.0.*.,.,.,.1.u.*.,.,.,.,.1.1.1.H.H.H.H.H.H.u.1.H.H.H.H.H.u.u.1.H.H.H.u.u.u.u.H.H.c.c.c.c.c.,.*.*.*.*.*.*.*.*.*.*.*.,.*.*.*.*.c.c.c.c.c.c.,.,.c.c.c.,.c.,.,.c.*.*.*.*.*.*.*.*.*.*.*.*.*.*.*.*.&.&.&.&.&.&.&.&.&.&.&.&.&.&.&.8.h G.XX|.%X%X.X` b < > & & & & & & & & & > > , , 4 T / Z.! T Y 4 , > & o o o o o o o o o & o K ;XvX0X2X2X1X1X%X$XOXOXOXOXoX^.{ ` R L K K R R R R ! R R T J J 4 4 J J B m m m d d 2 2 1 * o o o o o o o o o o o o o o o o # * q a f p # + o o o + + + + + + + + + o + o + o o o o # # # # # # # # # # 1 p # # X X X O O O O O + + O O O O O O O O O O O O + 7 p h g g g j f f f f f f f f g f f f y @ @ O # e e p g g g #.#.#.#.7.9.q.9.9.7.8.g g g p X                                                                               @ w #.8.7.7.7.7.7.7.%.o.o.o.#.#.#.#.#.#.o.o.#.o.u y @ 6 @ @ w w w w e 6 w w w w w 6 6 w t t u #.7.7.7.7.o.u t u u u w t t i o.o.o.y 9 6 6 6 @ @ @ @ 9 $.0.0.H.H.H.H.u.u.-.*.u.0.0.u.,.,.,.1.,.*.u.u.u.*.,.,.1.1.H.H.H.H.H.1.u.u.H.H.H.H.,.,.H.H.H.1.H.H.H.H.c.c.c.c.,.,.,.,.,.,.,.,.,.,.,.,.,.,.,.,.,.,.,.,.,.,.,.,.,.,.,.,.",
",.,.,.,.,.,.,.,.,.,.c.c.,.,.,.,.,.,.,.,.,.,.,.,.,.,.,.,.,.,.,.,.,.,.1.1.1.,.,.,.1.1.,.c.0.0.,.,.,.0.u.u.u.u.H.H.H.H.H.u.H.H.H.H.1.1.,.,.*.,.1.1.,.,.,.0.0.u.u.H.H.H.u.u.u.H.H.H.u.u.H.H.H.H.c.0.,.,.u.H.H.H.,.0.H.H.u.u.u.H.,.,.u.H.,.,.*.0.1.1.u.u.,.,.,.,.H.H.1.,.H.H.H.H.u.u.1.1.H.H.H.H.0.0.1.1.-.1.1.1.u.u.H.H.0.0.0.0.,.,.H.1.0.*.H.H.H.H.,.,.,.,.H.1.1.1.c.c.,.c.c.c.c.c.c.c.c.c.c.c.c.c.*.*.*.*.*.*.*.*.*.*.*.*.*.*.*.*.*.*.*.*.*.*.&.&.&.&.&.&.&.&.&.8.D -XS.|.$X2X#X` b , > > & & & 2 2 2 > & & > , , , m ^ A.{ ! L J 2 2 > & o o o & & & & & H 5 ^.vX0X5X1X2X2X,X$XOXOX|.S.S.S.S.[ ! L J J J J ~ T T ~ ~ J 4 4 5 < 5 2 2 2 5 d d d d 3 2 1 & o o o o o o o o o o o o o o o o + + * a p e # # o + + + + + + + + + + + 1 ; # + o o # # # # # # ; ; # o # ; ; ; # + X X O O O O + O + + O O O O O O O O O @ @ 7 f f f f h g g g g g s g f f f f h g j f @ @ 7 7 ; e p s g #.#.#.7.7.8.0.q.q.q.e.7.8.g g p # O                                                                               O e y o.#.4.q.i.p.p.7.#.o.o.#.#.#.#.o.#.#.o.#.o.u u w w w w w w w w e e e e w w w 6 6 6 w t y o.7.7.7.7.7.7.7.#.#.#.t t t t o.#.o.t y t 6 6 @ @ @ @ y $.0.0.H.H.H.H.H.H.*.*.u.H.,.,.,.0.1.1.H.H.u.u.u.H.H.H.u.u.u.H.H.H.u.u.u.H.H.H.H.H.1.1.,.1.1.H.1.1.,.,.c.c.c.c.,.,.,.,.,.,.,.,.,.,.,.,.,.,.,.,.,.,.,.,.,.,.,.,.,.,.,.,.",
",.,.,.,.,.,.,.,.,.,.c.c.,.,.,.,.,.,.,.,.,.,.,.,.,.,.,.,.,.,.,.,.,.1.1.1.1.,.0.*.1.1.c.c.0.0.*.,.,.0.u.u.u.u.H.H.H.H.H.u.H.H.1.H.1.1.,.,.0.,.,.1.,.,.0.0.0.*.u.H.H.H.u.0.u.H.H.H.0.0.H.H.H.H.c.0.,.,.u.u.H.H.,.,.1.1.u.0.H.H.,.,.H.H.,.,.u.0.H.H.H.u.1.1.0.*.H.H.,.,.H.H.1.H.0.0.,.1.u.u.H.H.*.,.1.1.-.-.1.1.H.H.H.H.0.0.c.c.,.,.H.u.0.0.H.H.H.H.,.,.,.,.H.1.1.H.c.c.c.c.c.c.c.c.c.c.c.c.c.c.c.c.*.*.*.*.*.*.*.*.*.*.*.*.*.*.*.*.*.*.*.*.*.*.&.&.&.&.&.&.,.c.&.8.E XX{ } #X<X#X' b , , > > 2 2 4 d d 2 2 > > > > > b ^ S.{ ` R J 4 2 > > > > > > > > > 5 > ` 2XvX5X1X1X1X,X,XOXOX|.^.S.G.A.[ R ~ J m 4 4 4 J Y Y Y 4 5 5 , 5 5 5 > > 2 2 2 2 2 2 2 1 & o o o o o o o o o o o o o o o + + + # * q p # # # o + + + + + + + # # # # p ; # + o + o o ; ; ; ; ; ; # # # # # # + X X X O O O O + + + + O O O O O O O O @ 7 f j g g g g g g g g g g g g g g g g g p p e O @ # # e p s g g #.#.#.#.#.8.9.9.q.q.e.7.8.g g e O O                                                                               O e w u o.4.9.9.9.9.7.o.o.o.#.#.#.#.#.#.#.#.#.o.u u w w w w w w w w e e e e w w w w 6 6 w t u o.#.7.7.7.7.7.7.7.7.7.y y y y o.7.o.t y y y 6 6 @ @ @ y $.*.0.c.H.u.*.H.H.*.1.H.H.1.1.u.u.H.H.H.u.u.0.u.u.H.H.u.0.H.H.H.H.H.u.H.H.H.H.H.H.1.1.,.1.1.H.1.1.,.,.c.c.c.c.,.,.,.,.,.,.,.,.,.,.,.,.,.,.,.,.,.,.,.,.,.,.,.,.,.,.,.,.",
",.,.,.,.,.,.,.,.,.,.c.c.,.,.,.,.,.,.,.,.,.,.,.,.,.,.,.,.,.c.,.,.,.1.1.1.H.H.0.u.H.1.c.c.0.0.,.,.H.H.H.H.0.0.,.,.H.1.u.u.,.,.1.1.H.H.H.H.0.u.1.1.H.H.u.u.,.,.1.1.H.H.0.0.,.1.H.H.u.u.1.1.1.1.0.0.,.*.*.u.H.1.1.,.1.,.,.0.H.H.1.1.H.H.1.1.u.H.H.H.H.H.H.1.0.u.u.H.,.0.u.u.1.,.,.*.,.*.0.u.H.1.1.,.1.1.1.-.1.1.H.H.1.1.,.0.c.c.,.,.H.H.*.*.H.H.H.H.H.H.u.u.H.H.H.H.c.c.c.c.c.c.c.c.c.c.c.c.,.,.c.c.*.*.*.*.*.*.*.*.*.*.*.*.*.*.*.*.*.*.*.*.*.*.&.&.&.&.,.&.c.c.c.$.x.F.R ] .X%X@XQ.b , , > 2 4 4 d B B d 2 , > > > & b ` |.} { _ L m 4 2 , 2 5 5 5 4 < < < P ,XvX0X1X1X1X%X$XOX.XoX|.S.S.Z.[ R Y 4 4 4 < 4 4 4 4 B 4 4 2 2 > > > > > & > > 2 2 2 2 2 * * o o o . . . . o o o o o . o o o o + + + * p # # # o o + + + + + + # # # p ; ; # + + + + + p p p p e # # + + + + O O O O O O O O O O O O O O O O O   O # 7 f j $.$.#.#.$.$.#.#.g g g g s s g g g g 7 # @ O O O O @ e p s g #.#.#.#.7.7.8.0.9.q.q.e.7.#.g y # O                                                                                 O e w u o.4.7.7.7.9.7.X.i u o.o.#.#.#.#.#.#.#.o.u u w w w w w w w w e e e e w w w w 6 6 w t u u #.7.9.9.7.7.9.9.9.9.o.o.o.o.o.7.o.y y y y w 6 6 6 6 y $.0.0.c.0.*.*.H.H.H.H.H.,.1.1.u.H.H.H.H.H.,.0.,.1.H.H.*.0.,.1.H.H.0.u.,.,.1.1.H.H.u.u.,.,.H.H.u.u.,.0.c.c.c.c.,.,.,.,.,.,.,.,.,.,.,.,.,.,.,.,.,.,.,.,.,.,.,.,.,.,.,.,.",
",.,.,.,.,.,.,.,.,.,.c.c.,.,.,.,.,.,.,.,.,.,.,.,.,.,.,.,.,.c.,.,.1.1.1.1.H.u.u.u.H.H.c.c.c.c.,.,.1.H.H.H.*.,.,.1.1.1.0.0.,.,.,.1.H.H.H.u.u.u.H.H.H.H.H.u.,.*.1.1.H.H.*.,.,.1.1.1.H.1.1.1.1.1.0.0.*.*.0.u.H.H.,.,.1.,.,.*.H.H.1.1.H.H.1.1.u.u.H.H.H.H.H.1.u.u.H.H.*.0.u.u.1.1.,.,.,.,.0.u.1.1.,.,.1.1.-.-.1.1.H.H.1.1.,.0.c.c.,.,.H.H.*.*.u.H.H.H.u.u.u.u.u.u.H.H.c.c.c.c.c.c.c.c.,.c.c.c.c.c.c.c.*.*.*.*.*.*.*.*.*.*.*.*.*.*.*.*.*.*.*.*.*.*.&.&.&.&.,.,.c.c.c.$.x.G.J ` [.%X#XQ.b , , , 4 4 4 B B B m 4 , > > > o < ` |.].] ` L H J 4 4 4 B B m 4 J H H ,X0X1X&X&X&X%X$X$XOXoXXX^.S.Z.[ ! ~ B 4 5 4 5 4 5 4 4 d 4 2 2 2 & & & & & & & & & * 2 2 * * o o o . . . . o o o o o o . o o o o + + # * p # # # o o + + + + + + ; p p p ; ; # # + + + + p p p p e # # + O O O O O O O O O O O O O O O O O O O O O # p h g $.#.#.$.$.$.$.#.#.g g e e e e e e e e O O       O O O e p s g #.#.#.7.8.0.0.0.9.q.q.e.8.g g @ O O                                                                                 O e 6 t u o.4.4.4.4.4.o.i t u #.#.#.#.#.o.#.#.o.u u w w w w w w w w 6 6 e w w w w w 6 6 w t u u #.#.9.7.7.7.9.9.w.w.#.#.o.o.o.#.o.t y y y y y w 6 6 y $.0.H.c.c.*.*.H.H.H.H.1.1.1.1.u.u.H.H.H.H.,.,.,.1.1.1.,.,.,.1.1.1.0.*.,.,.1.1.H.u.u.0.0.*.H.H.H.u.u.0.c.c.c.c.,.,.,.,.,.,.,.,.,.,.,.,.,.,.,.,.,.,.,.,.,.,.,.,.,.,.,.,.",
",.,.,.,.,.,.,.,.,.,.,.,.,.,.,.,.H.H.H.1.1.1.1.1.1.1.1.1.1.1.,.L.,.J.,.J.H.1.c.c.v.v.v.v.H.H.v.v.,.1.1.1.1.1.1.1.,.,.,.,.,.,.,.,.1.1.1.1.1.1.1.1.1.1.1.1.*.*.H.1.*.H.*.*.H.H.H.H.H.H.H.H.H.H.H.H.c.c.c.c.c.c.c.c.*.*.c.H.H.1.-.*.H.H.H.u.1.1.H.H.H.H.H.H.,.,.1.1.u.0.,.,.H.H.u.u.u.u.0.*.H.H.H.u.-.u.u.u.1.1.1.1.u.H.H.H.1.H.=.=.H.H.u.u.u.H.H.H.u.u.u.H.H.H.0.0.u.u.H.H.1.,.,.,.0.0.1.1.1.,.,.*.,.,.,.0.0.u.1.1.,.,.*.0.H.H.H.1.,.,.c.c.c.c.c.c.c.c.c.c.c.c.c.$.m.F.! ].]..X.X} T b , , Y Y Y Y T Y m m m m 2 , & , { .X.X].] ' K P H J Y ~ ~ T m < P |.vX0X9X&X&X%X3X.X.XOX|.|.} { [ ! Y Y B d 2 2 2 2 2 2 2 2 2 3 3 2 & o & & & & > > * * * * 1 * o o o o o o . . o o o o o o . . . . . o + # 1 # # + o o o + + + + # ; p ; ; 1 # # # # # 1 1 f p 1 ; + # + + X X X X O O O O O O O O O O O O O @ # e e g h h f g $.0.0.8.8.#.6 6 6 6 @ @ @ @ w : @ @ O O       O O O e p s g 8.#.7.7.9.9.9.9.9.9.e.9.g u e @ O                                                                                 O @ @ 7 7 w y o.o.o.o.o.X.o.u o.o.o.o.o.o.o.o.o.o.o.o.t t y y y y y y y t w w w w w w w w t y o.o.#.#.7.7.q.q.9.q.p.p.#.o.u #.o.u y y y o.o...y w 9 6 y $.c.J.,.c.c.c.c.,.c.c.c.c.c.c.c.c.c.c.,.,.,.,.c.c.c.c.c.c.c.,.,.c.c.c.1.1.1.1.1.1.1.1.,.,.,.,.,.,.,.,.,.,.,.,.,.,.,.,.,.,.,.,.,.,.,.,.,.,.,.,.,.,.,.,.,.,.,.,.,.,.,.,.",
",.,.,.,.,.,.,.,.,.,.,.,.,.,.,.,.c.H.H.H.1.,.1.1.1.1.1.1.1.1.,.L.gX,.,.*.H.1.c.c.v.v.v.v.H.H.v.v.1.1.1.1.1.1.1.1.,.,.,.,.,.,.,.,.1.1.1.1.1.1.1.1.1.1.1.1.H.1.@.fXgX=.J.*.H.H.H.H.H.H.H.H.H.H.H.H.c.c.c.c.c.c.c.c.*.0.0.H.H.1.-.*.H.H.H.u.,.1.1.H.1.H.H.H.,.1.1.H.u.0.*.,.H.H.u.u.u.u.0.,.H.H.H.u.,.0.u.u.H.H.1.H.0.H.H.H.H.I.gXfXH.H.0.*.H.H.H.H.0.0.u.H.H.H.,.,.u.u.H.H.1.1.,.,.u.u.1.H.,.,.0.0.1.1.,.*.u.u.1.1.,.,.u.0.H.H.H.1.,.,.c.0.c.c.,.,.c.c.c.c.c.v.c.$.m.F.! ].Q.]. XQ.R M m m T T T T R R K J J m 4 4 > , { .X.X].] ' I L L K T T ~ T H < } vX0X9X8X&X*X3X3X.X|.|.|.S.{ [ ! ! Y Y B d 2 2 2 2 2 2 3 3 3 2 1 & & & * * > > 1 1 * * * * 1 * o o o o o o . . o o o o o o . . . . . o + # ; # # + o o o + + + + # # p ; ; 1 # # # 1 1 1 p p p ; # + # + + O O X X O O O O O O O O O O O + # # e p g h h h $.8.0.0.8.#.g y @ @ @ @ @ : w w w e @ @ O O       O O O # e e y g #.#.7.8.8.7.7.7.7.7.8.u e @ X                                                                                   O @ @ 7 7 7 y u o.o.o.o.u u u o.o.o.o.o.o.o.o.o.o.o.o.u y o.o.@.f #.#.g y y w w w w w w w t u o.o.#.#.7.7.q.q.9.q.p.p.#.o.u #.o.y t t o.o.#.o.u y 9 6 y $.c.H.c.c.c.c.c.,.c.c.c.c.c.,.c.c.c.c.,.,.,.,.c.c.c.,.c.c.c.c.,.c.c.c.1.1.1.1.1.1.1.1.,.,.,.,.,.,.,.,.,.,.,.,.,.,.,.,.,.,.,.,.,.,.,.,.,.,.,.,.,.,.,.,.,.,.,.,.,.,.,.,.",
",.,.,.,.,.,.,.,.,.,.,.,.,.,.,.,.c.c.H.H.1.1.1.1.1.1.1.1.1.H.,.L.GXT.*.1.H.H.c.c.v.v.v.v.H.v.v.v.1.1.1.1.1.1.1.1.,.,.,.,.,.,.,.,.1.1.1.1.1.1.1.1.1.1.1.1.1.*.=.BXBX=.H.J.H.H.H.H.H.H.H.H.H.H.H.H.c.c.c.c.c.c.c.c.*.-.H.H.H.H.*.0.H.1.u.u.,.,.H.H.1.1.u.u.,.*.H.H.u.u.1.,.H.H.0.0.H.H.,.,.H.1.u.u.1.1.c.0.H.H.u.-.u.u.H.H.H.mXGXSX1.1.,.*.,.,.H.1.,.*.1.1.H.1.1.,.1.1.H.H.H.1.H.H.u.H.H.H.H.H.u.u.1.1.H.H.u.H.H.H.H.H.u.u.u.H.0.0.,.0.0.0.c.c.1.1.0.c.0.0.c.H.c.$.m.F.^ |.Q.]  X X^ J m m R R R R { ` ^ R K J m m , < } OX3X].].} ` ` ^ R ! R R ! H { ,XvX0X9X8X&X*X}..X.X|.|.} S.[ ! T Y Y Y B d a 2 2 2 2 3 3 3 3 1 1 & * & * * * * 1 1 * * * * 1 * # # o o o o . o o o . . . .           o + # ; # # o o o o o + + + # # p ; # # # # # p p p p 1 ; # + + + + + O O X X O O O O O O O O   O + # 7 e p g h $.$.$.k.8.8.8.y e 6 6 : : : : e e w w r w e e + O O       O O O # ; ; g u u g g g g 8.8.8.8.8.e @ X O                                                                                   O O @ 7 7 7 y t u u u y y y t u o.o.o.o.o.o.o.o.o.o.o.o.o.#.#.#.#.#.#.#.o.y t w w w w w i u o.o.o.o.#.7.7.7.7.q.q.d.p.#.o.u #.#.y 6 6 o.#.7.7.#.y w 9 y @.&.c.c.c.c.c.c.c.c.c.c.c.c.,.c.c.,.c.0.0.*.0.c.c.c.c.c.c.c.c.c.c.c.c.1.1.1.1.1.1.1.1.,.,.,.,.,.,.,.,.,.,.,.,.,.,.,.,.,.,.,.,.,.,.,.,.,.,.,.,.,.,.,.,.,.,.,.,.,.,.,.,.",
",.,.,.,.,.,.,.,.,.,.,.,.,.,.,.,.0.c.H.H.1.1.1.1.1.1.1.1.1.H.,.L.BXJ.=.J.H.H.c.c.v.v.v.v.H.v.v.v.1.1.1.1.1.1.1.1.,.,.,.,.,.,.,.,.1.1.1.1.1.1.1.1.1.1.1.1.*.1.=.mXmX*.H.H.H.H.H.H.H.H.H.H.H.H.H.H.,.c.c.c.c.c.c.c.1.-.H.H.H.H.0.0.1.1.0.0.*.,.H.H.,.1.u.u.0.0.H.H.H.H.1.1.1.H.*.,.H.H.,.1.1.1.0.0.1.1.c.H.H.1.H.c.0.H.H.H.=.gXBXmX1.1.0.*.,.1.1.H.,.,.,.1.1.1.,.,.,.1.1.H.H.H.H.H.u.H.H.H.H.H.u.u.H.H.H.H.H.H.H.H.H.H.H.u.u.u.u.*.,.*.0.0.c.c.1.1.u.u.u.u.H.H.H.&.m.W.[ ^.|.] Q.^.^ T J J R R R R } { ` ^ T T Y m < b Q.$X$X{.].} } { { ` ` ` ^ ^ K <XvX0XqX9X4X&X*X.X.X|.|.S.} { [ ! T Y Y Y d d 2 2 2 2 3 3 3 3 3 1 1 & * * * * * * 1 1 * * * * 1 * # # o o o o o o . .                   o + # # # + o o   o o + + + # # p # # # # # # d d s s ; # + o + + + + X X X X O O O O O O O O   O @ e e y g g $.$.$.$.8.$.g f @ @ @ @ y y w r s r r r r r y e + O O         O O O @ @ y y r s g g g g g g g g @ O O                                                                                     O O @ 7 7 7 9 y t t t y y y y u o.o.o.o.o.o.o.o.o.o.o.#.#.#.#.#.#.%.%.#.#.o.y w w w w w t u #.o.o.o.#.7.7.7.7.q.i.d.p.#...u #.#.y 6 6 ..#.9.9.7.#.y 9 6 f &.c.c.c.c.c.c.c.c.c.c.c.c.c.c.c.,.c.c.0.0.0.c.c.c.c.c.c.c.c.c.c.c.c.1.1.1.1.1.1.1.1.,.,.,.,.,.,.,.,.,.,.,.,.,.,.,.,.,.,.,.,.,.,.,.,.,.,.,.,.,.,.,.,.,.,.,.,.,.,.,.,.",
"1.1.1.1.1.1.1.1.1.1.1.1.1.1.1.1.*.0.H.H.H.1.1.1.1.*.*.1.H.H.J.1.H.H.H.H.H.H.H.H.v.v.v.v.v.v.v.v.1.1.1.1.1.1.1.1.,.,.,.,.,.,.,.,.1.1.1.1.1.1.1.1.1.1.1.1.H.J.=.H.H.H.c.0.H.H.H.H.H.H.H.H.H.H.H.H.c.c.c.c.,.,.c.c.H.H.H.H.H.H.H.c.1.,.,.*.0.0.u.u.,.*.0.0.u.u.u.H.H.H.H.1.1.1.1.,.H.1.1.1.1.,.,.*.1.1.,.,.u.*.H.0.*.*.,.*.*.u.u.H.0.0.,.,.*.0.u.u.H.H.H.1.1.1.H.H.,.,.H.H.H.1.u.u.1.1.H.H.H.1.1.1.0.u.u.H.H.H.u.u.H.H.u.u.u.H.,.,.H.H.u.u.H.H.H.H.H.1.1.H.H.-.-.c.m.W.[ oX^.' ' Q.` T K K T / / ` oX X^.^ ^ T T T , R  X$X$X.X X|.Q.} } ' ' ' L ' $X0X0X0X0X9X&X&X3X.X|.|.S.S.{ [ _ ! ~ ~ Y d d a 2 2 2 3 3 1 1 1 1 1 * * * & * * * * * * * * * * 1 * # # o o . .                         . o # * # # o o     X o + + + # # p p p # ; 1 f E D h p + o   o X       O O O O O O O O O O @ 7 7 e p f g g g g 8.h g g # @ ; ; e e e e r r r r g g g g g s s p # O             O X X @ ; ; e s s s s s s p ; # O                                     O O O                                             O O @ @ 7 7 7 7 6 w y y y y t t u u o.o.o.o.o.o.o.#.7.7.#.#.%.%.%.%.%.%.%.%.o...y y i w t u o.#.9.9.7.o.7.%.4.4.q.i.d.p.o...u #.#.y 6 6 y %.u.K.9.#.y 6 6 f &.c.c.c.c.c.c.c.c.c.c.c.c.,.c.c.c.c.c.c.c.c.c.c.c.c.c.c.c.c.,.,.,.,.1.1.1.1.1.1.1.1.,.,.,.,.,.,.,.,.,.,.,.,.,.,.,.,.,.,.,.,.,.,.,.,.,.,.,.,.,.,.,.,.,.,.,.,.,.,.,.,.",
"1.1.1.1.1.1.1.1.1.1.1.1.1.1.1.1.0.0.1.1.H.H.1.1.J.J.H.*.=.*.=.,.H.H.H.H.H.H.H.H.H.H.v.v.v.v.v.v.1.1.1.1.1.1.1.1.,.,.,.,.,.,.,.,.1.1.1.1.1.1.1.1.1.1.1.H.H.H.1.,.*.H.H.0.H.H.H.H.H.H.H.H.H.H.H.H.c.c.c.c.,.,.c.c.H.H.H.H.H.H.H.H.,.,.0.0.,.,.u.u.,.,.u.u.0.0.u.H.H.H.1.1.1.H.,.,.H.H.,.1.1.1.,.,.1.1.H.1.H.*.=.&.*.*.1.*.*.0.u.u.u.0.,.,.*.0.u.u.H.H.H.H.1.H.H.H.*.,.H.H.1.1.u.u.1.H.H.H.H.H.,.1.0.,.u.u.H.u.u.0.1.1.u.0.H.H.,.,.H.H.H.u.H.H.H.H.1.1.1.H.H.-.-.c.k.W.Z.|.} ^ ' ^.{ T J J T R / ^ ^.|.^.` ^ R T T b { #X%X$X.X.X|.Q.} } ' ' ] U ].0X0X0X0X0X5X1X%X3X.X|.S.{ { [ / ! R Y J Y d a 2 2 2 2 3 1 1 1 1 1 1 * * * & * * # # # # # # # # * # o o .               . . . . . . .   o # 1 * # o o .       o + + + # # p p p # 1 s h D h p # o   o o   O     O O O O O O O O O @ 7 7 p f f j g g g g h h g p X X X @ e e e y r s r u g g g g g s s y ; # X             O X X o o # ; ; 1 1 1 e # + O                                     O O + + # o X X                                     O @ @ 7 7 7 7 7 9 9 y y y y y t u o.o.o.o.o.o.o.o.#.7.7.7.7.7.9.9.9.9.9.9.%.O.o.o.u u y t u o.#.9.9.7.#.7.7.7.4.q.q.p.i.o.+.u #.#.y 6 6 y #.p.K.9.#.y 9 6 y $.c.c.c.c.c.c.c.c.c.c.c.c.c.c.c.c.c.c.c.,.,.c.c.c.c.c.c.c.c.,.,.,.,.1.1.1.1.1.1.1.1.,.,.,.,.,.,.,.,.,.,.,.,.,.,.,.,.,.,.,.,.,.,.,.,.,.,.,.,.,.,.,.,.,.,.,.,.,.,.,.,.",
"1.1.1.1.1.1.1.1.1.1.1.1.1.1.,.,.1.1.1.1.1.1.1.1.H.=.,.Y.gXT.*.J.H.1.H.H.H.1.v.v.H.H.v.v.v.v.H.H.1.1.1.1.1.1.1.1.,.,.,.,.,.,.,.,.1.1.1.1.1.1.1.1.1.1.1.1.J.*.H.*.1.1.0.0.H.H.H.H.H.H.H.H.H.H.H.H.c.c.c.c.,.,.*.*.0.c.H.H.H.H.H.1.H.H.u.u.,.,.1.1.H.H.u.u.,.,.1.1.0.,.1.,.H.H.H.u.u.0.,.,.H.1.H.H.u.u.H.H.*.u.P.H.H.H.1.*.*.*.,.,.u.u.1.,.H.H.H.H.u.u.0.*.1.,.H.H.0.u.u.H.1.,.,.0.1.,.H.H.u.0.,.,.,.,.1.1.H.H.*.0.1.,.,.0.H.H.1.1.H.H.u.u.-.-.1.1.1.1.1.H.H.-.-.H.h W.Z.} ` L ' ^.S.R H m J T R ^ ^.|.^.} ^ R T J m /.<X$X@X.X X X].Q.} ] ] ] ] &X0X0X9X9X9X4X&X$X.X X^.S.Z.[ ! ! R ~ J G d a 2 2 2 2 3 2 1 1 1 1 1 1 * o & * * * # # # # # o o o # # o .   .             . . . . . .   o # 1 * * # o       X + + + + + # # p p p 1 f h h h p # o   o X X X X     X X O O       O @ 7 7 e f j j j g g g g g g p # O X o @ e e r r r r r s g g g g g g s e e # O X               O       o o o # # + X                                 O O @ 7 p p g g s s e ; O X O                               O @ # 7 7 7 7 7 7 7 e e e e y y y u o.o.#.#.#.o.o.#.7.7.9.9.y.y.y.y.i.i.y.y.%.%.o.o.u u t u o.#.9.9.7.#.7.7.7.4.5.q.i.9.o.+.u #.#.y 6 6 y #.w.K.9.#.o.y 6 y &.v.c.c.c.c.,.,.c.c.c.c.c.c.c.c.c.c.c.c.,.,.c.c.c.c.c.c.c.c.,.,.,.,.1.1.1.1.1.1.1.1.,.,.,.,.,.,.,.,.,.,.,.,.,.,.,.,.,.,.,.,.,.,.,.,.,.,.,.,.,.,.,.,.,.,.,.,.,.,.,.,.",
"1.1.1.1.1.1.1.1.1.1.1.1.1.1.1.,.1.H.H.1.1.1.1.1.H.=.Y.MXBXzX*.J.1.1.H.H.H.1.v.v.H.H.v.v.v.v.H.H.1.1.1.1.1.1.1.1.,.,.,.,.,.,.,.,.1.1.1.1.1.1.1.1.1.1.1.1.H.H.1.,.-.1.0.0.H.H.H.H.H.H.H.H.H.H.H.H.c.c.c.c.,.,.*.*.0.H.H.H.H.H.1.-.H.H.u.u.,.1.1.H.H.H.H.H.,.,.,.1.0.,.,.,.H.H.H.u.u.0.,.,.H.H.H.H.u.u.u.H.J.=.mXDXH.1.1.,.*.*.,.1.H.H.1.1.H.H.H.H.u.u.0.,.,.,.u.u.0.u.u.H.,.,.*.0.,.,.u.u.u.0.*.,.,.,.1.1.H.H.,.,.1.,.,.,.H.H.1.1.,.H.u.*.-.1.1.1.1.1.1.H.H.-.-.c.h W.Z.{ L P ' Q.S.^ b b M T T R S.|.|.} ^ L K H T |.,X#X.X[.[.|.|.Q.} ] ] ] *XqX9X9X9X9X9X1X%X$X.X|.S.S.Z.Z.! ! Y Y Y 4 d a a 2 2 2 3 2 1 1 1 1 1 1 * o & & * * # # # # o o o o o o .   . .     . . . . . . . . .   . # * * * # o o       X o o + + + # # q p p s h h h p # o       X X X X         O O         # 7 e f j j j j g g g g g p # O X X # - e e e r r r r s S r u u S g r r e ; # X                         X X X X                                   O e f h $.8.8.0.M.M.M.8.g e ; O O                             @ # 7 p 7 7 7 7 7 7 e e e e y y y u o.o.#.#.#.#.o.#.7.7.y.y.y.y.i.i.i.i.i.i.y.O.7.#.o.o.t u o.#.9.9.7.#.%.%.4.4.4.7.9.q.o.+.u #.#.y 6 6 y 7.w.p.q.#.o.o.6 @.0.v.c.,.,.c.c.c.c.c.c.c.c.c.c.c.c.,.c.c.,.,.c.c.c.c.c.c.c.c.,.,.,.,.1.1.1.1.1.1.1.1.,.,.,.,.,.,.,.,.,.,.,.,.,.,.,.,.,.,.,.,.,.,.,.,.,.,.,.,.,.,.,.,.,.,.,.,.,.,.,.,.",
"H.H.H.H.1.1.1.1.1.1.1.H.H.H.1.1.H.H.H.H.H.H.H.H.H.*.I.mXmXgXJ.&.c.v.v.v.c.H.H.H.H.H.H.H.v.v.v.v.H.H.c.c.c.c.H.H.H.H.H.H.1.1.1.1.c.c.c.c.c.c.H.c.1.,.,.1.1.1.1.1.1.1.1.H.H.H.H.H.H.H.H.H.1.H.H.H.1.1.1.1.1.1.1.1.1.1.H.H.H.H.*.-.H.H.u.u.u.H.H.H.1.1.1.,.,.*.H.1.u.u.1.,.,.*.0.0.H.H.H.H.H.1.u.u.H.H.,.,.H.=.BXHX1.1.*.,.,.,.H.H.H.H.H.1.0.0.u.u.H.H.H.H.,.,.0.u.1.1.H.H.0.*.,.,.,.,.H.1.1.,.,.,.,.,.*.u.u.u.,.,.*.,.,.1.u.u.0.0.,.,.,.,.H.H.H.H.1.,.,.,.1.-.-.c.k.x.! L ` ` { } Q.[ M , , m T ^ { S.^.{ ` ^ b b ' .X#X.X.X.X[.].].Q.} ] ] .X9XqX9X9X8X9X9X1X%X$X X|.G.Z.Z.x.! W E E Y d d a a a p 3 3 1 ; ; 1 1 1 * o o # # # # # # # # # o o o o o     . .     . . . . . . . .     X # # # # # o o         o o o o # # ; 1 1 1 s p 1 #     O O X X X X # o         X O # # # # p f f p p f j j g g g g p 7 @ X X @ ; r r s g g g g g g u g u u g S S S g p # +                                                                 O # p g 7.e.w.p.p.d.p.p.9.8.g e e @ O O                         # e e e # 7 7 7 7 7 7 7 w e f f #.#.#.#.y y y y o.#.7.9.y.y.y.y.y.y.y.y.y.y.r.5.o.o.u t y y #.#.9.9.9.9.%.%.%.%.#.%.7.%.t t o.7.#.o.9 6 y 7.i.p.9.o.o.y y #.0.v.c.c.,.c.c.c.c.c.c.c.c.,.c.c.c.c.c.c.c.c.,.,.,.,.,.,.,.,.,.,.,.,.,.,.,.,.,.,.,.,.,.,.,.,.,.,.,.,.,.,.,.,.,.,.,.,.,.,.,.,.,.,.,.,.,.,.,.,.,.,.,.,.,.,.,.,.,.,.,.,.",
"H.H.H.H.1.1.H.H.1.1.H.H.H.H.1.1.H.H.H.H.H.H.H.H.*.H.*.*.,.,.H.J.c.c.v.v.c.c.H.H.H.H.v.v.v.v.v.v.H.H.H.c.c.c.H.H.H.H.H.H.1.1.H.H.c.H.c.c.c.c.H.c.1.,.,.,.1.1.1.1.1.1.0.u.H.H.H.H.H.H.H.H.1.1.H.H.1.1.1.1.1.1.1.1.1.1.H.H.H.c.*.*.1.H.0.0.u.H.H.H.1.H.,.,.0.0.H.H.u.u.1.1.,.,.u.u.u.u.H.H.1.1.u.u.H.H.,.,.*.*.gXzXH.*.1.,.u.u.H.H.H.H.1.1.,.,.u.u.H.H.1.H.,.,.0.u.,.1.1.H.0.,.,.1.0.0.H.H.1.1.*.,.,.,.0.0.H.u.1.1.0.,.,.1.H.u.u.,.,.,.0.,.H.u.H.H.1.1.,.,.1.-.-.c.k.x.[ ^ ` ` ' { Q.' P , & , m R ` } } ` { } H H } #X#X.X.X.X X].].} ] ] .X5X0X9X9X8X4X&X1X1X$XOX|.S.A.Z.N.x.l.E E V V d d a a a 3 3 1 1 ; ; ; ; 1 * o o o # # # # # # # # o o o o       . .     . . . . . . .       + # # # # # + o         o o o o # # ; 1 1 1 p 1 # o     O O O O O O           X + # 1 1 ; e p f f p p f j j g g g p 7 O X @ @ ; e r s g g S S #.#.#.g #.S S S S S S s e # O                                               O O O             O e g g 7.q.p.d.s.d.d.d.0.0.8.g f e @ @                         e y p e 7 7 7 7 7 7 7 e w e f g #.#.#.o.y y y y o.#.7.7.9.q.q.q.y.y.y.y.y.y.r.4.o.u u t t y u o.9.9.9.9.#.#.%.%.#.#.%.#.y u #.7.#.#.y 6 y o.q.i.9.o.o.y y $.0.0.c.c.,.c.c.c.c.c.c.c.c.c.c.c.c.c.c.c.c.c.,.,.,.,.,.,.,.,.,.,.,.,.,.,.,.,.,.,.,.,.,.,.,.,.,.,.,.,.,.,.,.,.,.,.,.,.,.,.,.,.,.,.,.,.,.,.,.,.,.,.,.,.,.,.,.,.,.,.,.,.",
"H.H.H.H.H.H.H.H.H.1.H.H.H.H.H.H.H.H.H.H.H.H.H.H.*.I.H.*.c.*.*.*.,.v.v.v.c.c.c.c.v.v.v.v.v.v.v.v.H.H.c.c.c.c.H.H.H.H.H.H.H.H.H.H.H.H.H.H.c.c.H.c.1.,.,.,.1.1.1.1.H.H.u.u.H.H.H.H.H.H.H.H.1.1.H.H.1.1.1.1.1.1.1.1.1.1.H.,.H.H.c.0.1.,.,.,.,.,.H.1.H.H.H.u.u.u.H.H.H.H.H.1.H.H.u.u.u.u.,.,.,.,.,.0.H.,.,.,.*.H.=.@.*.H.H.u.u.H.H.H.0.*.1.1.,.,.1.1.,.,.1.1.1.,.H.H.,.,.H.H.u.u.1.1.u.u.H.H.H.u.0.0.1.1.H.H.H.H.H.1.0.u.1.1.H.H.,.,.H.H.0.u.u.u.,.,.u.u.*.0.u.H.,.c.k.D.G.{ U ` ' { { { ^ b , , b K R ` ` ^ { } P H |.#X#X.X.X.X X].Q.] ] ].1X0X9X9X9X9X&X&X%X$XOX X|.G.Z.Z.! ! E E V h d d a 2 a a 3 1 1 1 1 ; ; ; * * o o o o # # # # # # + o + o .       . . . .   . . . . . . .   X # # # # # + o o         o o o o # # ; 1 1 ; # # o       X O O O O O         # ; e e p p p p p f f p p f j g g g p e O O @ @ ; e r r g S S S 7.7.7.7.7.7.7.7.S S S g y ; O O                                 O   X o + # # @ O @ @ O         @ y g 8.9.w.p.d.s.d.d.p.p.0.8.8.g f e @                         p g g y e e e e e e e w w w y g #.g o.o.y y y y u o.#.7.7.7.q.q.q.q.y.y.y.y.5.4.o.u t t t t y o.9.9.9.9.#.#.#.#.....o...t o.%.7.7.#.y 6 w o.9.q.9.o.o.y #.8.&.$.c.c.c.c.c.c.c.c.c.c.c.c.c.c.c.c.c.c.c.c.,.,.,.,.,.,.,.,.,.,.,.,.,.,.,.,.,.,.,.,.,.,.,.,.,.,.,.,.,.,.,.,.,.,.,.,.,.,.,.,.,.,.,.,.,.,.,.,.,.,.,.,.,.,.,.,.,.,.,.,.",
"H.H.H.H.H.H.H.H.H.H.H.H.H.H.H.H.H.H.H.H.H.H.H.H.H.H.H.H.c.c.0.0.H.v.,.,.c.c.c.c.v.v.v.v.v.v.v.v.H.H.c.c.c.c.H.H.H.H.H.H.H.H.H.H.H.H.H.H.c.c.H.c.1.,.,.,.1.1.1.1.H.H.H.H.u.u.H.H.H.H.H.H.1.H.H.H.1.1.1.1.1.1.1.1.1.1.H.,.H.H.0.0.1.1.,.,.,.1.1.1.H.H.H.u.u.u.H.H.H.H.H.H.H.H.H.H.u.0.*.,.,.,.,.0.c.,.,.,.H.*.J.*.H.H.H.u.H.H.H.H.0.,.,.,.,.1.1.H.*.,.,.1.1.1.1.H.*.,.H.H.u.u.1.H.u.u.H.H.H.u.u.u.1.1.H.H.H.H.H.1.u.u.H.H.H.H.,.,.H.H.u.u.u.u.0.,.H.u.u.0.0.,.,.c.k.D.F.S.U ` ' { { { ^ K b , , m T ^ ^ K { } P P |..X#X.X.X.X X].] ] ] $X5X5X5X4X4X&X%X$X$XOX.X|.S.S.Z.! ! E E E h d d d d 2 a a 3 1 1 1 1 ; ; ; * * o o o o # # # # # # + o + o         . . . .         . . . .   + # # # # # + o o             o o # # # ; ; # # o         X   O O O O   O O # e e p g j j j p f f f p p f j h g p e O O O @ e e y r r S S S 8.7.9.0.0.9.9.9.7.#.S S g e #                                     + + + @ s g g g y ; O @         ; y g 8.e.w.p.i.i.i.p.w.w.0.0.8.8.g f e                         g g f y y y y y y y y y w w y u g g o.o.u y y y y o.o.#.%.4.4.4.q.q.q.9.9.q.9.4.o.u t u t y u o.9.9.9.9.#.#.#.%.y ..o...t o.%.#.7.#.y 6 w u 7.q.9.o.o.y #.8.&.$.c.c.c.c.,.c.c.c.c.c.c.c.c.c.*.c.c.c.c.c.,.,.,.,.,.,.,.,.,.,.,.,.,.,.,.,.,.,.,.,.,.,.,.,.,.,.,.,.,.,.,.,.,.,.,.,.,.,.,.,.,.,.,.,.,.,.,.,.,.,.,.,.,.,.,.,.,.,.,.,.",
"H.H.H.H.H.H.H.1.H.H.H.H.H.H.H.H.H.H.H.H.H.H.H.H.H.H.H.H.c.c.0.0.,.,.,.,.,.,.,.,.v.v.v.v.H.H.H.H.c.c.c.c.c.c.c.H.H.H.H.H.H.H.H.1.c.c.c.H.H.H.H.H.1.1.1.1.1.1.1.1.H.H.u.u.u.H.,.,.0.0.1.1.1.1.H.H.1.1.1.1.1.1.1.1.1.1.1.1.,.,.1.1.u.0.,.,.,.0.u.u.,.*.0.u.u.u.u.H.1.1.H.H.H.1.1.,.H.1.1.,.,.,.,.,.u.u.H.H.H.u.u.u.,.*.0.u.u.u.0.,.u.u.1.,.,.,.H.H.0.0.1.1.1.,.H.H.0.u.u.u.H.H.H.H.H.H.H.H.H.H.H.1.u.u.u.H.H.H.u.u.u.H.H.H.H.H.1.1.H.H.0.u.u.u.,.,.H.H.*.0.0.u.1.c.$.E A.oX} ` ' { { { ' ^ , , , , c T / T { K K ^ Q.].[. X X X X[.!.].@X5X1X1X1X1X%X@X.X[.|.|.|.|.S.{ [ ! E E E d d d d d d a a 3 1 1 1 ; # # # # # # o o # # # # # # # o o o o           . . . .     .   . . .   o # # # # # # o X                 # # # # # +                   O       e e p g g g g g g g g g g g j j e f g $.p e # O @ 7 e f g g g g #.8.8.8.8.8.0.0.9.9.9.9.8.D g p e #                           X O O # e p g h D 8.8.8.8.8.g y @ O       # p g 8.9.w.q.i.i.i.p.w.w.w.9.8.8.g e O                     @ e #.#.#.u u u u u u u u u u u u u y y y y y y y y o.o.o.o.%.7.7.7.7.9.9.9.9.9.7.7.u u u u o.o.o.u o.7.9.9.#.#.o...y y ..y o.o.4.4.7.#.y 6 t u 7.9.9.#.y y #.8.&.0.c.c.c.c.c.c.c.c.c.c.c.c.*.$.*.Y.VXzX&.c.,.,.,.,.,.,.,.,.,.,.,.,.,.,.,.,.,.,.,.,.,.,.,.,.,.,.,.,.,.,.,.,.,.,.,.,.,.,.,.,.1.1.1.1.,.,.,.,.,.,.,.,.1.1.1.1.1.1.1.1.",
"H.H.H.H.H.H.1.1.H.H.H.H.H.H.H.H.H.H.H.H.H.H.H.H.H.H.H.H.c.c.c.0.,.,.,.,.,.,.,.,.v.v.v.v.H.H.H.H.c.c.c.c.c.c.c.H.H.H.H.H.H.H.1.1.c.c.c.c.H.H.H.H.1.1.1.1.1.1.1.1.,.H.u.0.-.*.*.*.0.0.1.1.1.1.H.H.1.1.1.1.1.1.1.1.1.1.1.1.,.1.1.H.u.0.*.,.*.0.u.u.,.1.0.u.u.0.u.1.,.1.1.H.1.1.,.,.H.H.,.,.,.,.,.,.u.H.H.c.H.u.-.-.,.,.0.u.u.u.0.,.u.u.1.1.*.,.H.H.u.u.1.H.,.,.H.H.0.u.H.H.u.u.H.H.1.H.H.H.H.H.1.1.u.0.H.H.H.H.H.u.H.H.H.H.H.H.1.1.H.H.0.0.H.u.1.1.H.H.,.,.u.u.1.c.>.E A.;X|.' ^ ^ { { { ^ m m c , , m T T / m m / Q.Q.[.[. X[.[.[.Q.@X1X5X<X<X1X1X.X.X].Q.} } S.S.{ [ ! ! E E V d d d a a a 3 1 1 1 # o o # # # # o o o o o o # # + + # # o o o     . . .     .             .   . # # # # # # # o X                 o + # + + o               X     O @ ; e y g g g g g g g #.#.#.g g j j g g g $.# O O O @ 7 e y g g g g #.8.8.8.8.8.0.0.9.9.9.9.8.h p ; # . .                       X @ @ e y p g 8.8.8.8.0.0.8.8.g y @ O       # p g 8.9.9.q.q.i.i.i.q.w.e.8.8.8.g e O                   O e f 7.#.o.o.o.o.o.o.u u u u u u u u y y u y y y y y #.#.o.o.4.4.4.4.7.7.7.7.7.7.#.#.u u u u o.o.o.u o.o.7.9.#.o.....y y y y o.O.4.q.9.7.y 6 y #.7.9.7.o.y y 8.8.0.0.c.c.c.c.c.c.c.c.c.c.c.c.*.&.*.L.GXBX*.*.,.,.,.,.,.,.,.,.,.,.,.,.,.,.,.,.,.,.,.,.,.,.,.,.,.,.,.,.,.,.,.,.,.,.,.,.,.,.,.,.1.1.1.1.,.,.,.,.,.,.,.,.1.1.1.1.1.,.1.1.",
"1.1.H.H.H.H.1.1.1.H.1.1.H.H.H.H.H.H.H.H.H.H.H.H.H.H.H.H.c.c.0.0.,.,.,.,.,.,.,.,.v.H.v.v.H.H.H.H.c.c.c.c.c.c.c.c.1.1.H.H.H.H.1.1.c.c.c.c.H.H.H.H.1.1.1.1.1.1.1.1.,.,.,.0.H.H.1.1.0.H.H.H.1.H.H.H.1.1.1.1.1.1.1.1.1.1.u.u.,.,.H.H.u.u.1.,.H.H.H.H.,.,.H.H.H.H.1.1.,.,.H.H.u.u.,.*.H.H.u.u.,.*.H.1.u.u.,.c.,.H.-.1.1.,.H.H.H.H.,.,.H.H.H.1.0.u.u.H.u.H.H.H.,.0.u.u.1.1.H.H.u.u.,.,.1.1.u.u.0.*.1.,.,.0.,.1.H.H.0.u.,.,.1.1.H.H.u.u.1.1.,.*.H.H.H.1.H.1.1.,.u.H.H.c.k.E F.2X,X} ^ P { { { { R T M , & b B C C b m [ Q.Q.[. X X X X[..X%X1X1X%X%X%X%X X].} ' ' { { { [ ! T Y Y d d a p p 3 3 1 1 * * o o o o o o o o o o o o o o # # + + # # o o o     . . .                 .   . o # # # # # # # o                   o # # # + o                   X + e p p g g #.#.#.#.#.#.#.#.#.g g g g g g g f O O O O @ 7 e f g g #.#.#.#.8.8.8.8.0.0.8.8.8.8.g p ; + o . .                     X @ e r g g S 8.9.0.9.9.0.0.0.8.g w : O       # p g 8.0.e.q.q.i.i.q.q.w.e.e.8.8.g e O                 @ e s g #.#.o.o.o.o.o.o.u u u u u u u u u u u y y y y y o.o.o.o.4.4.O.4.7.#.#.#.#.#.#.u u u u u o.o.o.o.o.o.o.7.o.o.....y y y o.%.7.y.y.9.7.y 9 y u 7.9.#.y t @.0.0.0.c.H.c.c.c.c.c.c.c.c.c.c.c.c.*.c.H.zXY.H.*.,.,.,.,.,.,.,.,.,.,.,.,.,.,.,.,.,.,.,.,.,.,.,.,.,.,.,.,.,.,.,.,.,.,.,.,.,.,.,.,.1.1.1.1.,.,.,.,.,.,.,.,.1.1.1.1.,.,.1.1.",
"1.1.H.H.H.1.1.1.1.1.1.1.1.1.H.H.H.H.H.H.H.H.H.H.H.H.H.H.c.c.0.0.,.,.,.,.,.,.,.,.v.H.v.v.H.H.H.H.H.c.c.c.c.c.c.c.1.1.H.H.H.1.1.1.c.c.c.c.H.H.H.H.1.1.1.1.1.1.1.1.,.,.*.0.H.H.1.1.c.c.H.H.H.H.H.H.1.1.1.1.1.1.1.1.1.1.u.u.0.0.H.H.H.H.1.1.1.H.H.H.,.,.,.H.H.H.1.1.,.,.H.H.u.u.0.0.H.H.u.u.u.u.H.H.H.H.,.,.,.1.1.1.1.1.1.H.H.H.,.1.H.H.H.H.0.u.u.H.u.H.H.H.*.0.u.u.1.H.H.H.0.0.,.,.,.1.u.u.0.,.,.,.,.,.,.1.1.1.0.*.,.,.1.1.H.u.u.0.1.1.,.,.H.H.1.1.H.1.1.,.H.H.H.c.k.l./.2X0X|.^ K ^ { { { ^ ^ T c = 2 2 b m , m [ Q.Q.].[. X X[. X$X%X%X%X%X$X$X$X].Q.' ` ^ ^ ^ / ! T Y Y Y d a a p p 3 3 1 * * o o o o o o o o o o o o o o o # # + + # # o o     . . . .               .   . o o # # # # # # o o         X X         o o o o o               O O p p e y g g #.$.$.8.#.#.#.#.#.#.g g g g f e 7 7   O O O @ 7 e y g g #.#.#.8.8.8.8.8.0.9.8.8.8.8.p ; +     . .                   X O e e g S 8.8.0.0.0.0.0.0.0.9.8.g y ; O       + p g 8.0.e.q.q.i.i.q.q.e.e.e.8.8.g e @                 e p g 8.#.#.o.o.o.o.o.o.u u u u u u u u u u u y y y y y #.#.o.o.7.%.%.#.#.#.#.#.#.#.u u u u u o.o.o.o.o.o.o.o.o.o.......y y ..o.7.q.y.i.i.7.y 9 y y #.7.o.8 9 #.0.0.c.c.H.c.,.,.c.c.c.c.c.c.c.c.c.c.c.*.f &.c.*.,.,.,.,.,.,.,.,.,.,.,.,.,.,.,.,.,.,.,.,.,.,.,.,.,.,.,.,.,.,.,.,.,.,.,.,.,.,.,.,.1.1.1.1.,.,.,.,.,.,.,.,.1.1.1.1.,.1.1.1.",
"1.H.H.H.H.H.H.1.1.1.H.H.H.H.1.1.H.H.H.H.H.H.H.H.H.H.H.H.H.H.H.H.1.1.1.1.1.1.1.1.,.,.,.,.,.,.,.,.H.H.H.H.H.H.H.H.1.1.H.H.H.H.H.H.1.1.1.H.H.H.1.1.1.1.H.H.H.H.H.1.1.H.H.H.1.1.1.1.1.1.H.H.H.H.1.1.1.1.1.1.1.1.1.1.,.,.,.,.,.,.,.,.c.c.c.c.c.c.c.c.1.H.1.H.H.1.1.1.0.u.u.u.H.H.1.1.1.1.H.H.H.1.1.,.,.,.,.0.u.u.1.,.,.,.0.0.H.H.H.1.u.u.*.*.H.H.H.H.H.H.H.1.c.H.H.H.1.,.,.,.H.H.H.1.1.1.H.H.H.H.H.1.H.H.H.H.H.H.u.u.u.H.H.H.,.,.,.0.u.0.,.,.H.H.u.u.u.0.0.0.H.H.H.0.k.l.XXvX5X;X{ K ^ { Q.{ ` ^ T m 2 2 , , , , J ` } Q.].]. X X.X@X%X%X$X.X.X@X#X X] ' U L K K T Y ! W E Y d a p 3 1 1 1 ; # # # o o o o o o o . . o o o + o o o o # # # + o o o   . . . . . . . .           o o + # # # # # # + o .         X         o o o o             + + 7 p g g g g g $.$.$.$.$.0.K.#.#.#.#.y 7 @ @ O @       O O O @ @ e e g g g g 8.8.8.8.8.8.8.#.g g y ; # +                             X @ e s g g S S 9.0.0.0.0.0.0.9.8.g y ; O O     O e g #.8.7.9.q.q.q.q.9.7.8.8.8.7.g e @ O O O O O # p p e f g g #.#.o.o.o.o.o.u u u u u u u u u u u u #.o.o.#.#.#.#.7.7.7.7.7.9.7.7.8.8.8.#.g y u u o.7.7.9.9.9.7.#.o.o.o.o.o.y y y u o.9.9.d.R.p.%.t 9 9 9 y #.y 6 t #.0.0.c.,.,.,.,.,.,.,.,.,.,.,.,.,.,.,.,.,.,.,.,.,.,.,.,.,.,.,.,.,.,.,.,.,.,.,.,.,.,.,.,.,.,.,.,.,.,.,.,.,.,.,.,.,.1.1.1.1.1.1.1.H.H.H.1.1.1.1.H.H.H.1.1.1.H.H.H.1.1.1.H.H.",
"1.1.H.H.H.H.H.1.1.1.H.H.H.H.1.1.H.H.H.H.H.H.H.H.H.H.H.H.H.H.H.H.1.1.1.1.1.1.1.1.,.,.,.,.,.,.,.,.H.H.H.H.H.H.H.H.1.1.H.H.H.H.1.H.1.1.H.H.H.H.1.1.1.1.H.H.H.H.H.H.1.H.H.H.1.1.1.1.1.1.1.H.H.H.H.1.1.1.1.1.1.1.1.1.,.,.,.,.,.,.,.,.c.c.c.c.c.c.c.c.H.H.H.H.H.H.1.1.0.u.H.H.H.H.1.1.1.1.H.H.H.H.1.1.,.1.*.0.u.u.1.1.,.,.u.u.H.H.1.1.u.u.u.*.H.H.H.H.H.H.H.u.c.H.H.H.,.,.0.0.H.H.H.H.,.1.u.u.H.H.1.1.u.u.H.H.H.H.0.*.u.u.H.H.1.1.,.*.u.,.,.,.H.u.u.0.u.0.0.,.H.H.H.0.k.l.F.lX5X;X} K ^ { Q.Q.' ` ^ m m 4 4 , , m R { ' } Q.]. X.X$X%X%X$X.X X.X.X|.Q.' ` L P J H J Y W E E d a 2 3 1 1 1 ; o # o o o o o o o o o . . o o + + o o # o # # # o o o     . . . . . . . .         o o o o + # # # # # + o o o o o o o o X         o o X X     . . + # p g g g g g g $.$.$.#.$.0.0.7.g w 6 @ O @ @ O O       O O O O O 7 e f g g g #.$.8.8.8.$.g g p e ; @ O O         X # + # # @         O @ e s S g S 7.e.w.0.0.0.0.0.9.8.g y 7 O       O # y g 8.8.7.7.8.8.7.8.8.8.8.S S r e : e e e e p p p p p f g g #.#.o.u o.o.o.u u u u u u u u u u u o.#.o.o.#.#.#.#.#.#.7.#.#.#.#.#.#.#.#.#.g u u #.7.9.0.w.w.w.w.9.7.#.o.o.o.o.y y o.o.7.p.d.g.i.O.t t 6 9 w y y t y #.0.*.*.,.,.,.,.,.,.,.,.,.,.,.,.,.,.,.,.,.,.,.,.,.,.,.,.,.,.,.,.,.,.,.,.,.,.,.,.,.,.,.,.,.,.,.,.,.,.,.,.,.,.,.,.,.1.1.1.1.1.1.H.H.H.H.1.1.H.1.H.H.H.1.1.1.H.H.H.1.1.1.H.H.",
"H.H.H.H.H.H.H.H.1.H.H.H.H.H.1.1.H.H.H.H.H.H.H.H.H.H.H.H.H.H.H.H.1.1.1.1.1.1.1.1.,.,.,.,.,.,.,.,.H.H.H.H.H.H.H.H.1.1.H.H.H.1.1.1.H.1.H.H.H.H.H.H.H.H.H.H.H.H.H.H.1.1.H.H.H.H.H.1.1.H.H.H.H.H.1.1.1.1.1.1.1.1.1.1.,.,.,.,.,.,.,.,.c.c.c.c.c.c.c.c.u.H.H.H.c.c.0.0.1.1.H.H.c.c.0.0.1.u.0.u.0.0.1.,.1.1.H.H.H.H.H.1.H.H.u.u.H.H.u.0.H.H.,.*.H.H.u.u.H.H.*.*.c.c.H.H.H.H.u.u.u.u.0.*.,.,.0.u.0.*.1.,.,.u.,.,.H.,.,.*.,.,.H.H.1.1.H.H.u.u.1.1.H.H.0.0.H.H.1.,.H.H.0.0.k.E A.,X5X;X{ P ^ { Q.Q.] { ^ B B m 4 4 , J ` } ' } Q.]..X$X%X1X$X.X X]. XQ.} } ` ^ L K m m m B E V d a 2 3 3 3 1 ; o o o o o X o o o o o o o o X + + + # # + + # # + o o X     . .     . . . .       X o o o o + # # # # # + o # # # # + o o o             o o + + + + # a g g g g g g g h $.$.$.#.#.#.g e @ @ O O O @ @ O O O O     O O O # e e f g g g g g g g g y e # @ O O O       X # ; p p p p ; O         @ y g g g S S e.9.9.0.0.0.0.9.8.g y # O O       O e g g #.#.#.8.g 8.8.#.g g g S g e e g g g g j p p p p f g g #.#.#.#.o.u u y u u u u o.u u u o.o.o.#.o.o.#.#.#.#.#.#.9.8.#.g w w w w w w y y u u #.7.9.9.9.9.w.w.w.9.%.o.o.o.y y o.o.%.p.g.d.y.o.t ..9 6 9 9 9 y #.#.0.*.*.,.,.,.,.,.,.,.,.,.,.,.,.,.,.,.,.,.,.,.,.,.,.,.,.,.,.,.,.,.,.,.,.,.,.,.,.,.,.,.,.,.,.,.,.,.,.,.,.,.,.,.,.,.1.1.1.1.1.1.H.H.H.H.H.H.H.H.H.H.H.H.1.H.H.H.H.H.1.H.H.H.",
"H.H.H.H.H.H.H.H.H.H.H.H.H.H.H.1.H.H.H.H.H.H.H.H.H.H.H.H.H.H.H.H.1.1.1.1.1.1.1.1.,.,.,.,.,.,.,.,.1.1.1.1.H.H.H.H.1.1.H.H.H.1.1.1.H.H.H.H.H.H.H.H.H.H.H.H.H.H.H.H.1.1.H.H.H.H.H.H.H.H.H.H.H.H.1.1.1.1.1.1.1.1.1.1.,.,.,.,.,.,.,.,.c.c.c.c.c.c.c.c.u.H.H.H.0.0.0.0.1.H.H.H.0.0.0.0.H.u.0.u.u.0.*.,.1.H.H.H.H.H.H.H.H.H.H.H.u.u.u.0.H.H.,.,.1.1.u.0.H.H.*.*.0.0.H.H.H.H.u.u.u.u.0.,.,.,.0.u.0.,.,.,.,.,.,.,.1.,.*.*.,.1.1.H.H.H.H.H.H.u.1.1.1.H.*.,.H.H.1.1.1.1.u.0.k.E Z.=X5X;X{ P ^ { Q.Q.Q.} ` T B m m m b R { Q.] } Q.].$X<X1X%X.X[.].].Q.} { { ` ^ K J m m m B V d a a 3 3 3 3 ; o o o o o X X o o o o o o o o + # + + # # + + # # o           .       . . . .   X X + o X o o # # # # # # + + # # # # o o o o           o o o + # # # p j g g j j g g g h $.$.$.#.f y @ @ @ @ @ @ @ @ # @ O O O       O @ # # e p g g g g g g y e 6 @ O O     O O O O ; p p h h s p p +       O O e s g g S S e.9.9.9.e.9.0.9.8.g y # O     .   O # y g u g g g g g g g g g g g r y w g s s p p p p e e e g #.g g #.#.o.u u y u u u o.#.o.o.o.o.o.#.#.o.o.#.#.#.#.#.#.g t 6 @ O O O O O @ w t t u u 7.7.7.7.9.0.w.w.w.9.%.#.o.y y o.o.o.d.sXd.O.+.t ..y 9 9 9 y @.#.%.*.*.,.,.,.,.,.,.,.,.,.,.,.,.,.,.,.,.,.,.,.,.,.,.,.,.,.,.,.,.,.,.,.,.,.,.,.,.,.,.,.,.,.,.,.,.,.,.,.,.,.,.,.,.,.,.1.1.1.1.1.H.H.H.H.H.H.H.H.H.H.H.H.H.H.H.H.H.H.H.H.H.H.H.",
"H.H.H.H.H.H.1.H.H.H.H.H.H.H.H.H.H.H.H.H.H.H.H.H.H.H.H.H.H.H.H.H.1.1.1.1.1.1.1.1.,.,.,.,.,.,.,.,.1.1.1.1.1.1.1.1.H.H.H.H.H.H.H.H.H.H.H.H.H.H.H.H.H.H.H.H.1.1.1.1.1.H.H.H.H.H.H.H.H.H.H.H.H.H.H.1.1.1.1.1.1.1.1.1.,.,.,.,.,.,.,.,.c.c.c.c.c.c.c.c.H.H.H.H.H.H.H.H.H.H.H.H.H.H.H.H.H.H.H.H.u.H.H.H.u.u.u.H.H.H.u.u.H.1.u.u.H.H.,.*.H.H.1.1.,.,.,.*.H.1.*.*.1.1.1.1.H.H.u.u.u.u.,.,.H.u.u.0.u.u.H.H.H.H.H.c.1.1.H.H.,.,.H.H.1.1.u.H.H.H.H.H.1.1.1.,.H.1.1.1.1.1.1.c.$.h / =X2X#XQ.^ I ' Q.Q.#X#X^.T B B m m b ` ^.Q.Q.Q.]. X1X1X<X$X.X].} ' { ` ^ ! R T J J 4 d B V d d d d p 3 3 1 ; o o o o o X   . . . o . + # # # # # # # # # + o o o o .           .               o o o o + # # # # # # o o ; p 1 # # o o o o           + # # p p p f f j g g j g g g 8.h p e g f e # @ @ @ @ e e e e e e # O O       O O O + @ @ # e e e e e 7 @ O O       O O @ 7 e h h h h g g p e O         X ; p g g g S S 8.8.8.8.7.8.8.g g y # O           O e f y w w e y g g g g g g s s p p p y e e 7 7 e e @ e g #.#.#.#.#.#.u u y u u o.#.#.#.#.#.#.#.#.#.#.u t 6 6 6 6 @ O O O O O O O O O @ w t t u u u o.o.7.7.q.9.9.i.9.7.o.o.y u o.o.4.i.d.i.O.+.t ..y y 9 9 y y #.%.Y.&.,.,.zXH.*.c.v.v.c.c.c.c.H.H.H.H.H.H.,.,.,.,.,.,.,.,.,.,.,.,.,.,.,.,.,.,.,.,.,.,.,.,.,.,.,.,.,.,.,.,.1.1.1.1.1.1.1.1.H.H.H.H.H.H.H.H.H.H.H.H.H.H.H.H.1.1.1.H.H.H.1.1.",
"1.1.H.H.H.H.1.1.H.H.H.H.H.H.H.H.H.H.H.H.H.H.H.H.H.H.H.H.H.H.H.H.1.1.1.1.1.1.1.1.,.,.,.,.,.,.,.,.,.,.,.,.1.1.1.1.H.H.H.H.H.H.H.H.H.H.H.H.H.H.H.H.1.H.H.H.1.1.1.1.1.H.H.H.H.H.H.H.H.H.H.H.H.H.H.1.1.1.1.1.1.1.1.1.,.,.,.,.,.,.,.,.c.H.c.c.c.c.c.c.H.H.H.H.H.H.H.H.H.H.H.H.H.H.H.H.H.H.H.H.u.H.H.H.0.0.u.H.H.H.u.u.1.1.u.u.H.H.,.,.H.H.,.,.c.c.,.*.H.H.*.*.1.1.1.1.1.H.0.0.H.H.,.1.H.u.u.0.u.u.H.H.H.H.c.c.1.H.H.H.0.,.H.H.1.1.u.u.H.H.1.1.H.H.1.,.H.H.1.1.1.1.1.,.$.V ! XX;XoX{ ^ K ' Q.Q.,X;XXXT B m m b P ^..XQ.].].[..X1X<X$X#X[.Q.' ` ^ R K T J J m m 4 d d d d d a a 3 3 3 1 1 o o o o o X   . . . . . + # # # # # # # # # + o o o o                             o o o o + # # # # # # + # p 1 # # o                 + # # p p p p p f j g g g g g g D g y # # # O O @ @ @ @ y y y p p y e # O       O O   O O O @ @ 6 @ @ @ O O O       @ O e y g g g h h h g g p e O         X ; e r g g S S S g S S 8.g g g g y # O     O O O O O e e 6 @ @ 7 e e f y y y e e e e y y e e 7 7 e 7 7 w g #.#.#.#.#.#.u u u u u o.#.#.#.#.#.o.o.o.o.y t 6 @ O O O O O O O O O O O O @ 6 w t u u u u u u o.o.7.7.q.9.q.4.o.o.y u o.o.9.i.i.y.O.+.t ....@.y y #.$.%.$.H.*.=.T.JXgX=.*.v.v.c.c.c.c.H.H.H.H.H.H.,.,.,.,.,.,.,.,.,.,.,.,.,.,.,.,.,.,.,.,.,.,.,.,.,.,.,.,.,.,.,.,.1.1.1.1.1.1.1.1.H.H.H.H.H.H.H.H.H.H.H.H.H.H.H.H.1.1.1.1.H.1.1.1.",
"1.1.1.H.H.H.1.1.H.H.H.H.1.1.H.H.H.H.H.H.H.H.H.H.H.H.H.H.H.H.H.H.1.1.1.1.1.1.1.1.,.,.,.,.,.,.,.,.,.,.,.,.1.1.1.1.H.H.1.1.1.1.H.H.1.H.1.1.H.H.H.H.1.1.1.H.H.H.H.1.H.H.H.H.H.H.1.1.1.1.H.H.H.H.H.H.1.1.1.1.1.1.1.1.,.,.,.,.,.,.,.,.H.H.H.H.c.c.c.c.H.H.H.H.H.H.H.H.H.H.H.H.H.H.H.H.H.H.H.H.,.1.H.H.,.*.,.1.H.H.0.u.1.,.,.0.H.1.1.,.u.0.,.,.H.H.H.H.H.u.*.-.1.1.1.1.1.,.,.*.H.H.H.1.H.H.,.*.1.1.H.H.u.H.u.-.1.1.H.H.0.u.u.H.,.,.*.u.*.,.1.,.H.H.H.u.0.0.1.1.H.H.H.c.n.E ! XX^.} ^ K K ' Q.].<X<XoX^ H M b b ` #X$X].[.[..X$X%X%X#X@X].] ` L R J H m m m m 4 d d a d a a a a 3 3 3 1 1 o o o o o X   . . . . o # # * # # # # 1 # # # X o o o                     . .   o o o o o + + # # # # # ; 1 ; # # o       X   o o o o # # p p p p p p f f g g g g g g h f ; O O O @ o ; ; ; ; g g g g g g y e @ O               O O O @ @ @ O O O     @ @ e w #.8.8.8.#.g g g g g p e O         X ; y r r r g S S g S S g g S g s e # @ O + @ @ O O O e @ @ @ @ O + # # # # # # : ; ; e e e p 7 7 7 7 7 w g #.#.#.#.#.#.g y y t u o.o.o.o.o.o.o.o.o.o.y t 6 @         O O O O O O O O @ 9 w t u u u u u u u o.o.O.7.7.7.4.o.o.y o.o.o.9.y.y.O.O.+.t ..#.$.$.$.#.7.0.0.0.*.$.L.GXJ.=.H.v.v.c.c.c.c.c.H.H.H.H.H.,.,.,.,.,.,.,.,.,.,.,.,.,.,.,.,.,.,.,.,.,.,.,.,.,.,.,.,.,.,.,.,.1.1.1.1.1.1.1.1.H.H.1.1.H.H.H.H.H.H.H.H.1.1.1.1.H.H.H.H.H.H.1.1.",
"1.1.H.H.H.H.1.1.H.H.H.1.1.1.1.1.H.H.H.H.H.H.H.H.H.H.H.H.H.H.H.H.1.1.1.1.1.1.1.1.,.,.,.,.,.,.,.,.,.,.,.,.1.1.1.1.H.H.1.1.1.H.H.H.1.1.1.1.1.1.H.H.1.1.1.H.H.H.H.1.H.H.H.H.H.H.1.1.1.1.H.H.H.H.H.H.1.1.1.1.1.1.1.1.,.,.,.,.,.,.,.,.H.H.H.H.H.c.c.c.H.H.H.H.H.H.H.H.H.H.H.H.H.H.H.H.H.H.H.H.,.1.1.1.,.,.,.1.1.H.,.,.,.,.*.0.H.H.1.1.u.0.,.,.H.H.H.H.H.u.u.-.1.1.1.1.1.1.,.,.H.H.1.1.H.H.,.,.,.1.1.H.u.u.u.*.-.-.H.H.u.u.H.H.,.,.0.0.0.,.,.,.H.H.H.u.u.0.,.,.H.H.H.c.v.k.! /.{ ` I P I ' } Q.2X2XoX^ K b b b ] <X1X.X}.{..X*X%X$X.X.X} ` ^ K K m m m m 4 4 4 4 a a a a a a a 3 3 1 1 1 o o o o o X   . . . . o o # * # # # # 1 # # # X o o                         . X X o o o o o + # # # # f f ;   # o         o o # # + + # p f f p p p p f f j j f f g g s p # O X X - ; ; ; ; ; g g g g g g s y @ X O                   O O O O O O     7 e y g 8.8.8.8.#.#.g g g g p e O         X ; y y r r r g g g g g S S g g p e # 7 @ @ 7 7 + O O # @ X X   O   O O O O @ @ @ @ @ y e p e 7 7 7 7 7 e g #.#.#.#.#.#.u y y t u o.o.o.o.o.o.u u u u #.u t 6 O O O O O O O O O O O O 7 w w u u u u u u u u u o.o.o.O.4.o.o.o.y o.o.o.q.y.9.o.O.+.t ..#.#.$.#.%.7.0.0.0.,.J.@.*.=.J.L.H.v.c.c.c.c.c.c.H.H.H.H.,.,.,.,.,.,.,.,.,.,.,.,.,.,.,.,.,.,.,.,.,.,.,.,.,.,.,.,.,.,.,.,.1.1.1.1.1.1.1.1.1.1.1.1.H.H.H.H.1.1.H.H.H.1.1.1.H.H.H.H.H.H.H.H.",
"H.H.H.H.H.H.H.H.H.H.H.H.H.H.H.H.H.H.H.H.H.H.H.H.H.H.H.H.H.H.H.H.H.H.H.H.H.H.H.H.H.H.H.H.H.H.H.H.,.1.1.1.1.1.1.1.H.H.H.H.H.H.H.H.H.H.H.H.H.H.H.H.H.H.H.H.H.H.H.H.H.H.H.H.H.H.H.H.H.H.H.H.H.H.H.H.0.0.-.-.H.H.c.c.1.1.1.1.1.1.1.1.H.H.H.1.1.1.H.H.,.,.1.1.u.u.0.0.H.H.H.H.H.H.H.H.H.H.H.H.0.0.0.0.*.0.0.u.u.u.,.,.0.0.,.,.H.H.u.u.0.0.,.,.,.,.,.,.1.1.1.1.1.1.1.1.,.,.,.,.,.,.,.,.1.1.1.1.1.1.1.1.c.c.c.c.c.c.c.c.,.,.1.1.u.u.*.,.0.u.1.1.,.,.*.0.H.H.H.H.H.1.u.0.v.k.W G.^ L K P ^ { ^.OX,X#X^.^ L H b H .XvX4X&X&X*X}.[.[.[.[. X' I P b < < < 4 4 4 4 4 2 2 a a a a 3 3 1 1 1 1 1 ; o o o o o X o o o o + # # * 1 1 1 ; # # + o o o + X         . .         . . o o + o # # # # # # 1 p f 1 # o     o o + + + + # # # # f f p f p p p p p p f f f s s f s +   O X @ - ; e r s s S g g g D g g g s ; X                   O       O O O # g h h 8.8.8.8.#.g g g g g g p e O         O @ e e y s r r r r r r r r r r e ; @ 7 e f j p p p p g e @ X           O @ ; e e y e e 7 e p f p e y y y f #.#.#.#.g @.y y y y ..o.o.o.o.o.o.#.#.o.o.o.y y w O O O O O O O O O O @ 6 w y #.#.#.7.7.o.o.o.o.o.o.o.o.o.%.o.o.o.7.9.7.o.%.7.9.O.o.o.o.o.9.o.o.7.7.9.0.0.0.,.H.H.,.,.,.,.H.H.H.H.H.H.1.1.H.H.H.H.1.1.1.1.1.1.1.1.1.1.1.1.1.1.1.1.1.1.1.1.1.1.1.1.1.1.1.1.1.1.1.1.H.H.H.H.H.H.1.1.1.1.1.1.1.1.1.1.1.1.1.H.H.H.H.H.1.1.1.1.H.H.H.H.",
"H.H.H.H.H.H.H.H.H.H.H.H.H.H.H.H.H.H.H.H.H.H.H.H.H.H.H.H.H.H.H.H.H.H.H.H.H.H.H.H.H.H.H.H.H.H.H.H.,.1.1.1.1.,.,.1.H.H.H.H.H.H.H.H.H.H.H.H.H.H.H.H.H.H.H.H.H.H.H.H.H.H.H.H.H.H.H.H.H.H.H.H.H.H.H.H.0.0.-.1.H.H.c.c.1.1.1.1.1.1.1.1.H.H.H.H.1.1.u.u.0.1.1.1.H.0.0.0.H.H.H.H.H.H.H.H.H.H.H.H.0.0.c.0.,.,.0.u.H.H.,.1.0.0.,.,.H.H.u.u.c.c.,.,.,.,.,.,.1.1.1.1.1.1.1.1.,.,.,.,.,.,.,.,.1.1.1.1.1.1.1.1.c.c.c.c.c.c.c.c.,.,.1.1.u.0.0.,.u.u.1.1.,.,.u.0.u.u.H.H.1.1.u.0.n.>.l.F.^ L P P ^ { } oX;XOX^.^ L H H P %XvX4X&X*X*X{.[.].Q.Q.].' L K m < < 4 4 4 4 4 4 2 2 a a 3 3 3 1 1 1 1 ; 1 1 ; o o o o X . . o o + # # * 1 1 1 ; # # + o o o + X         . .         . . o o o o # # # # # ; 1 1 1 # o o     o + # # # # p p p p f p f f p p p p p p p p p p s f p +   X @ - ; ; e r r S S S S S 8.D g g s ; O                     O O O @ e y p h h 8.8.8.#.g g g g g g g p e e O           O ; e e e y e e e e e e e e ; ; ; e 7 p f f p p p p s p ; # X X O O # ; p g g g g g p p 7 7 e p f y f @.$.#.#.#.g y y y y y y o.o.#.#.#.#.#.7.#.o.o.o.y y w 6 @ # # O O O O O @ 6 w w u #.#.#.7.7.7.#.o.o.o.o.o.o.o.%.o.o.o.7.9.7.o.o.7.7.O.o.o.o.o.q.4.4.9.7.7.0.0.0.,.H.H.,.,.,.,.H.H.H.H.H.H.1.1.H.H.H.H.1.1.1.1.1.1.1.1.1.1.1.1.1.1.1.1.1.1.1.1.1.1.1.1.1.1.1.1.1.1.1.1.H.H.H.H.H.H.1.1.1.1.1.1.1.1.1.1.1.1.H.H.H.H.H.H.1.1.H.1.H.H.H.H.",
"H.H.H.H.H.H.H.H.H.H.H.H.H.H.H.H.H.H.H.H.H.H.H.H.H.H.H.H.H.H.H.H.H.H.H.H.H.H.H.H.H.H.H.H.H.H.H.H.,.,.H.H.H.H.H.H.H.H.H.H.H.H.H.H.H.H.H.H.H.H.H.H.H.H.H.H.H.H.H.H.H.H.H.H.H.H.H.H.H.H.H.H.H.H.H.H.u.u.1.1.H.H.c.c.1.1.1.1.1.1.1.1.0.0.c.c.1.-.0.u.0.u.1.1.H.H.H.H.H.H.H.H.H.H.H.H.H.H.H.H.1.1.H.H.1.,.H.H.H.H.1.1.u.u.1.,.H.H.*.0.c.c.c.,.,.,.,.,.1.1.1.1.1.1.1.1.,.,.,.,.,.,.,.,.1.,.,.,.1.1.1.1.c.c.c.c.c.c.,.c.,.0.H.H.u.H.,.,.u.H.H.H.H.H.u.u.u.u.*.,.1.,.,.0.v.>.l.F./ L L P ^ ` { S.oXoX^.^ L P P I 5XvX&X4X*X}.{.!.] ] ' } ` ^ P m < 4 4 4 4 4 4 4 2 2 2 2 3 3 1 1 1 ; ; ; 1 1 ; o # o o o . . . . + # * * 1 ; ; ; # # # o o o o X X       . .         o o o o o o o # # # 1 1 ; # # o o     o # # p p 1 1 f f f f f f f f f f f p p p p p p p f f ; X   # ; e y r r r g S 7.7.7.8.e.8.8.S s # O .                   O # ; p g g g h h g g g g g g g g g g s p ; ; +           O @ : ; e e - - : : - - : : - - ; y f f y y p f f f f f f f e e e y g g g g g g g g g j f p f g j #.#.#.$.#.#.g y y y y y y o.#.#.#.#.#.#.7.7.7.#.#.o.y y w e e e e @ @ @ @ @ 6 w t y o.o.#.#.#.7.7.7.#.o.o.o.o.o.o.%.o.o.o.7.9.7.o.o.%.7.7.o.O.o.o.i.4.4.q.9.7.0.0.0.,.H.H.,.,.,.,.H.H.H.H.H.H.1.1.H.H.H.H.1.1.1.1.1.1.1.1.1.1.1.1.1.1.1.1.1.1.1.1.1.1.1.1.1.1.1.1.1.1.1.1.H.H.H.H.H.H.H.H.1.1.1.1.1.1.1.1.H.H.H.H.H.H.H.H.H.H.H.H.H.H.1.1.",
"H.H.H.H.H.H.H.H.H.H.H.H.H.H.H.H.H.H.H.H.H.H.H.H.H.H.H.H.H.H.H.H.H.H.H.H.H.H.H.H.H.H.H.H.H.H.H.H.1.,.H.H.H.H.H.H.H.H.H.H.H.H.H.H.H.H.H.H.H.H.H.H.H.H.H.H.H.H.H.H.H.H.H.H.H.H.H.H.H.H.H.H.H.H.H.H.H.H.1.1.H.H.c.c.1.1.1.1.1.1.1.1.0.0.c.c.1.1.0.0.u.u.1.1.H.H.1.1.H.H.0.u.H.H.H.H.H.H.H.H.1.1.1.H.1.1.1.H.H.H.1.1.H.H.1.H.H.H.*.*.c.c.c.,.,.,.,.,.1.1.1.1.1.1.1.1.,.,.,.,.,.,.,.,.,.,.,.,.1.1.1.1.c.c.c.c.c.c.c.c.u.0.H.H.H.H.1.1.H.H.H.H.H.H.H.u.0.0.0.,.,.,.,.0.v.$.k.F./ L P P ^ ` ` { ^.|.^.^ L P L ' 5XqX4XqX*X}.{.].U U ` ` ^ L H M < 4 4 4 4 4 4 4 2 2 1 2 1 1 1 1 1 1 ; 1 1 1 1 o # o o o . . . . + # * * ; # # # # # # o o o o o o       . .         o o o o o o # # # # p 1 # + o o     o + # ; p p p p f f f f f f p f f f f p p p p p f p p s #   O # e y g g w r u S 8.8.8.e.e.e.7.8.g * +                     X ; p h g g g g g g g g g g g g g g g s p e ; +             X @ @ @ @ o X X X o o o o O # ; y g f e e e f f f f f g #.#.g #.#.#.#.$.#.#.g g g #.#.g g #.$.$.$.$.#.#.#.g y y y y y o.o.o.#.#.7.7.7.7.7.7.7.7.#.o.y y t w w e w 6 6 6 @ 6 w t y u o.#.#.o.#.7.7.7.7.#.o.o.o.o.7.o.o.o.o.7.9.7.o...o.%.7.7.4.4.4.p.q.9.q.0.%.0.0.c.H.H.H.,.,.,.,.H.H.H.H.H.1.1.1.H.H.H.H.1.1.1.1.1.1.1.1.1.1.1.1.1.1.1.1.1.1.1.1.1.1.1.1.1.1.1.1.1.1.1.1.H.H.H.H.H.H.H.H.1.1.1.1.1.1.1.1.H.H.H.H.H.H.H.1.H.H.H.H.H.H.H.1.",
"H.H.H.H.H.H.H.H.H.H.H.H.H.H.H.H.H.H.H.H.H.H.H.H.H.H.H.H.H.H.H.H.H.H.H.H.H.H.H.H.H.H.H.H.H.H.H.H.H.H.H.H.H.H.H.H.H.H.H.H.H.H.H.H.H.H.H.H.H.H.H.H.H.H.H.H.H.H.H.H.H.H.H.H.H.H.H.H.H.H.H.H.H.H.H.H.H.H.H.H.H.H.H.H.H.H.H.1.H.H.H.H.H.H.H.H.H.H.H.H.H.H.H.H.H.H.H.1.,.0.0.0.H.H.H.1.H.H.H.H.1.1.1.H.u.H.H.H.H.H.H.H.H.H.H.H.H.1.1.-.c.c.c.c.,.,.,.,.1.1.1.1.1.1.1.1.,.,.,.,.,.,.,.,.1.1.1.1.1.1.1.1.c.c.c.c.c.c.0.0.u.H.H.H.H.H.H.1.1.1.H.H.H.1.1.1.1.1.,.,.1.-.1.,.c.>.l.F./ K P P ^ { { ^ } } } } { I I $XvXqX9X&X@X}.[.].' ` ^ ^ ^ L H M < 4 4 4 4 4 4 4 2 2 2 & 1 1 1 1 1 1 1 1 1 1 1 1 # o o o o . . . o # * * # # # # # # # o o o o o o             . . . o . o o o o o o o # * # o o . o o # # # 1 p f f s d h h h d f f f f f f p p p p p f s p p ; # # # 7 e p g g S 7.S 7.e.e.e.e.e.e.7.S g * . .                   X # e f f s s d d g g g s s s s p p p p p # #     + + @ O O X O O O O X X X X         O O # e p p p e 7 7 f f f f g g $.$.$.$.#.#.#.#.g g g g f f f g u #.7.8.8.7.#.#.#.y y y y u u o.o.#.#.7.7.7.7.7.9.7.9.9.7.o.y t y y y y y y y t y u o.#.7.#.o.o.o.o.7.7.7.4.4.O.o.o.o.o.+.o.o.o.7.9.7.o.w ..%.9.7.%.%.7.p.q.7.y.o.7.0.0.c.c.v.v.c.v.v.H.H.H.H.1.1.1.1.1.1.1.1.1.1.1.1.1.1.1.1.1.1.1.1.1.1.1.1.1.1.1.1.1.1.1.1.1.1.1.1.1.1.1.1.1.1.1.H.H.H.H.H.H.1.1.1.1.1.1.1.1.H.H.H.H.H.H.1.1.H.H.H.H.H.H.1.1.",
"H.H.H.H.H.H.H.H.H.H.H.H.H.H.H.H.H.H.H.H.H.H.H.H.H.H.H.H.H.H.H.H.H.H.H.H.H.H.H.H.H.H.H.H.H.H.H.H.H.H.H.H.H.H.H.H.H.H.H.H.H.H.H.H.H.H.H.H.H.H.H.H.H.H.H.H.H.H.H.H.H.H.H.H.H.H.H.H.H.H.H.H.H.H.H.H.H.H.H.H.H.H.H.H.H.H.H.1.H.H.H.H.H.H.H.H.H.H.H.H.H.H.H.H.H.H.H.1.H.0.*.*.H.H.H.H.H.H.H.H.1.1.u.H.u.u.H.H.H.H.H.u.H.H.1.1.H.H.1.-.c.c.c.c.,.,.,.,.1.1.1.1.1.1.1.1.,.,.,.,.,.,.,.,.1.1.1.1.1.1.1.1.c.c.c.c.c.0.0.0.u.u.H.H.H.H.H.1.1.1.H.H.H.1.,.,.H.H.,.,.c.1.1.,.c.$.k.G.A.^ L P ^ { { ^ ` ` ` ` ' I U 1XvX0X&X@X}.{.[.Q.} { ` ^ ` R K M m m m 4 4 4 4 4 2 2 2 & * * * * 1 1 1 1 1 1 1 1 ; # o o o o . . o # * * # # # # # # o o o o o o X             . . . o . o o o o o o # # o .     o # * 1 1 p f s f f s d h h g d f f f f f f p p p p p p p p e # + + @ # e e g g #.7.g S 8.e.e.e.e.8.S g f * .                     O # e p f f f s s s s s p s p p e e e p ; # O X O # # # @ @ @ O X X X X X           O O O 7 7 p p 1 ; # # e p p p y f g h g h g g g f j j j j f y y u o.#.7.7.9.7.#.#.u u u u u u u u o.#.#.#.7.7.7.7.9.9.9.9.9.%...y y y y y y y y y u o.o.#.7.#.o.o.o.o.4.9.7.7.4.4.4.o.o.+.+.o.o.o.7.9.7.o.w ..%.9.7.%.%.7.d.7.o.q.o.%.0.c.c.c.v.v.c.c.v.v.H.H.H.1.1.,.,.,.1.1.1.1.1.1.1.1.1.1.1.1.1.1.1.1.1.1.1.1.1.1.1.1.1.1.1.1.1.1.1.1.1.1.1.1.1.1.H.H.H.H.H.1.1.1.1.1.1.1.1.1.H.H.H.H.H.H.1.1.H.H.H.1.H.H.1.1.",
"H.H.H.H.H.H.H.H.H.H.H.H.H.H.H.H.H.H.H.H.H.H.H.H.H.H.H.H.H.H.H.H.H.H.H.H.H.H.H.H.H.H.H.H.H.H.H.H.H.H.H.H.H.H.H.H.H.H.H.H.H.H.H.H.H.H.H.H.H.H.H.H.H.H.H.H.H.H.H.H.H.H.H.H.H.H.H.H.H.H.H.H.H.H.H.H.H.H.H.H.H.H.H.H.H.H.1.1.H.H.H.H.H.H.H.H.H.H.H.H.H.H.H.H.H.H.0.0.H.H.c.H.c.c.c.c.H.H.H.H.H.H.0.u.0.0.,.,.H.1.u.u.*.*.1.1.H.H.H.H.c.c.c.c.,.,.,.,.1.1.1.1.1.1.1.1.,.,.,.,.,.,.,.,.1.1.1.1.1.1.1.1.,.,.,.c.c.c.*.0.,.1.H.H.u.H.0.0.,.,.H.H.u.u.,.,.H.H.u.u.0.H.1.1.c.,.k.F.-X} I L ^ { { ^ ^ ^ ^ ^ ` U ] 0X0X&X@X.X[.[.Q.Q.} } { ` { ^ K K m m m 4 4 4 4 4 2 2 & & * * * * ; ; 1 p 1 1 1 1 1 # # o o o o o o # # # # # # # # # + + o + o o                 . . . . o o o o # # # o     . + # 1 1 1 1 p s d f s j j h h d d s s s s f f f f f f f f p e # + X X O O e p g g #.#.7.#.8.8.e.8.7.S g g p # .                     O # e p f f f p p p e e e e e e ; ; ; # # X X O # ; p e ; e ; @ O @ X X X   O X X X O @ 7 e f # # ; # # # ; p p p s s s s g g y e y p p p a p y y u u o.#.7.7.9.7.#.o.u u u u u u o.u o.o.#.#.%.%.7.7.9.9.9.9.u.7.o.........y y y y u o.o.o.7.7.7.o.o.o.o.4.9.9.7.4.4.4.o.o.t t o.o.o.9.y.9.o.w ..#.9.7.%.%.7.i.O.o.4.o.%.0.H.H.H.v.v.c.c.c.c.H.H.H.1.1.,.,.,.1.1.1.1.1.1.1.1.1.1.1.1.1.1.1.1.1.1.1.1.1.1.1.1.1.1.1.1.1.1.1.1.1.1.1.1.1.H.H.H.H.1.1.1.1.1.1.1.1.1.1.1.1.1.1.H.H.H.H.1.H.1.1.1.H.H.H.H.",
"H.H.H.H.H.H.H.H.H.H.H.H.H.H.H.H.H.H.H.H.H.H.H.H.H.H.H.H.H.H.H.H.H.H.H.H.H.H.H.H.H.H.H.H.H.H.H.H.1.H.H.H.H.H.H.H.H.H.H.H.H.H.H.H.H.H.H.H.H.H.H.H.H.H.H.H.H.H.H.H.H.H.H.H.H.H.H.H.H.H.H.H.H.H.H.H.H.H.H.H.H.H.H.H.H.H.1.1.H.H.H.H.H.H.H.H.H.H.H.H.H.H.H.H.H.H.0.0.H.H.H.H.c.c.c.c.H.H.H.H.H.u.u.u.0.,.,.,.1.1.u.0.0.,.1.1.H.H.H.H.c.c.c.c.,.,.,.,.1.1.1.1.1.1.1.1.,.,.,.,.,.,.,.,.1.1.1.1.1.1.1.1.,.,.,.c.c.c.,.,.,.1.1.1.u.u.u.*.,.,.H.u.u.0.0.,.H.H.H.u.u.H.H.H.H.,.k.F.:X^.` I ^ } { ^ K K K P ` ' ].qX&X@X.X[.Q.Q.Q.Q.} S.} { } ` R T m m m 4 4 2 2 4 2 2 & & # # # # * 1 1 p p p 1 1 1 ; # o o o o o o # # # # # # # # # + + + + o o                 o . . . o o o o # # # o o o # * p p 1 1 1 p s d j j j j j j d d s s s s f f f f f f f f p ; # X O O O O e e f #.#.#.8.7.8.8.8.8.S g u r e + .                     O # e p p f p p p e e e ; ; # # # @ # # o X   # # p p e e e e e # ; @ X X X o # # # # 7 7 f g # o o o o o ; 1 D D D D D d g s ; e e e e e p y y u u u o.#.7.7.9.7.#.o.u u u u y u u u o.o.o.#.o.%.7.7.0.0.0.9.u.9.%.o.........y u u u o.o.7.7.7.7.o.o.o.o.7.9.9.9.7.4.7.o.o.X.t o.o.o.9.9.9.o.w ..%.9.7.o.%.7.9.o.o.o.#.%.0.u.H.c.c.c.c.c.c.c.H.H.H.1.1.,.,.,.1.1.1.1.1.1.1.1.1.1.1.1.1.1.1.1.1.1.1.1.1.1.1.1.1.1.1.1.1.1.1.1.1.1.1.1.1.H.H.H.1.1.1.1.1.1.1.1.1.1.1.1.1.1.1.1.H.H.H.1.H.1.1.1.H.H.H.H.",
"H.H.H.H.H.H.H.H.H.H.H.H.H.H.H.H.H.H.H.H.H.H.H.H.H.H.H.H.H.H.H.H.H.H.H.H.H.H.H.H.H.H.H.H.H.H.H.H.H.H.H.H.H.H.H.H.H.H.H.H.H.H.H.H.H.H.H.H.H.H.H.H.H.H.H.H.H.H.H.H.H.H.H.H.H.H.H.H.H.H.H.H.H.H.H.H.H.H.H.H.H.H.H.H.H.1.J.J.H.H.H.H.H.H.H.H.H.H.H.H.H.H.H.H.H.H.H.H.H.H.H.H.H.H.H.H.H.H.H.H.H.H.H.H.H.H.H.H.H.H.H.H.H.H.H.H.0.0.0.0.1.1.1.1.1.1.1.1.,.,.,.,.,.,.,.,.,.,.,.,.,.,.,.,.,.,.,.,.,.,.,.,.,.,.,.,.,.,.,.,.,.,.,.,.,.,.,.,.H.H.H.H.H.1.,.,.,.*.H.H.1.,.0.0.,.,.k.E :X=X} ' ^ } |.} R K H b P ' [.4X%X@X.X.X} } } } S.S.} } } { ^ R T m m m 4 4 > & & 1 & & o . . o * * 1 1 1 1 p p p 1 # # o o o o o # # # # # # # # # o o o o o o o           . . .   o o o o # # o o o o + # * p p p a a f f d d d d h h h s ; # # # # # o o X o # # # #                 @ 7 y g g 8.8.8.8.e.8.7.g r r ; #                         X # ; e e e e p p e e # # @ O O + + O O O + e * p p e e e e e e e e 7 # # 1 p p p a s f f p p o > 5 5 A Y ! x.D.D.C.z.D g s r e e r r y y g f y u u u #.#.7.7.#.#.#.#.#.g u y y y u u u u u o.o.o.o.7.y.y.y.y.u.y.9.7.%.#.o.....o.X.o.o.%.7.9.9.7.o.o.o.o.7.q.9.9.i.i.7.o.o.t +.o.o.%.u.p.9.o.t ..#.o.o.o.7.9...o.o.t y 0.0.P.H.H.H.H.1.1.1.1.1.1.1.1.1.1.1.1.1.1.1.1.H.H.H.H.1.1.H.H.H.H.H.H.1.1.1.1.1.1.1.1.H.H.H.1.H.1.1.1.H.H.H.H.H.H.H.1.H.H.H.H.H.H.H.H.H.H.H.H.H.H.H.H.1.1.H.H.H.H.H.H.1.1.1.1.",
"H.H.H.H.H.H.H.H.H.H.H.H.H.H.H.H.H.H.H.H.H.H.H.H.H.H.H.H.H.H.H.H.H.H.H.H.H.H.H.H.H.H.H.H.H.H.H.H.H.H.H.H.H.H.H.H.H.H.H.H.H.H.H.H.H.H.H.H.H.H.H.H.H.H.H.H.H.H.H.H.H.H.H.H.H.H.H.H.H.H.H.H.H.H.H.H.H.H.H.H.H.H.H.H.,.H.*.*.H.H.H.H.H.H.H.H.H.H.H.H.H.H.H.H.H.H.H.H.H.H.H.H.H.H.H.H.H.H.H.H.H.H.H.H.H.H.H.H.H.H.H.H.H.H.H.H.0.0.c.0.1.1.1.1.1.1.1.1.,.,.,.,.,.,.,.,.,.,.,.,.,.,.,.,.,.,.,.,.,.,.,.,.,.,.,.,.,.,.,.,.,.,.,.,.,.,.,.,.H.H.H.H.H.H.,.,.0.*.H.H.1.1.0.0.1.,.>.E -XoXQ.' ^ } ^.S.^ P H b H ' [.*X}.{.[.|.{ { { { } } } ^.^.} ` / R ~ B m m 4 > & & & * & o . o o # * 1 1 1 1 p p p 1 ; # o o o o o # # # # # # # # # o o o o o o o o         . . . . o o o o # # # # # # # * p p p p a a p f d s h h h h ; # o X X X X X o o # # # # # # X X             O O e g g g 8.8.8.8.8.g r r : @                             # # ; # ; # ; # # # + X O O X O O X   O # e p p e # e 7 e ; ; ; e ; ; ; p p p p s d 1 a A E V.Z.Z.Z.G.G.G.G.W.C.Q A s s ; ; e r r r r u u u u u u u #.#.#.#.u u u g g g y t t y y u u u u u o.o.O.7.y.y.y.y.u.y.9.7.%.%.o.o.o.o.o.o.7.7.9.0.9.7.o.o.o.o.7.q.9.i.y.i.7.o.o.t o.o.%.9.p.p.7.o.t ..#.#.o.o.o.7.o.o.o.8 @.c.0.u.H.u.H.H.1.1.1.1.1.1.1.1.1.1.1.1.1.1.1.1.H.H.H.H.1.1.1.H.1.H.H.H.1.1.1.H.1.1.1.H.H.H.H.1.H.1.1.1.H.H.H.H.H.H.H.1.H.H.H.H.H.H.H.H.H.H.H.H.H.H.H.H.1.1.1.H.1.H.H.H.1.1.1.1.",
"H.H.H.H.H.H.H.H.H.H.H.H.H.H.H.H.H.H.H.H.H.H.H.H.H.H.H.H.H.H.H.H.H.H.H.H.H.H.H.H.H.H.H.H.H.H.H.H.H.H.H.H.H.H.H.H.H.H.H.H.H.H.H.H.H.H.H.H.H.H.H.H.H.H.H.H.H.H.H.H.H.H.H.H.H.H.H.H.H.H.H.H.H.H.H.H.H.H.H.H.H.H.H.H.1.J.zXL.1.H.H.H.H.H.H.H.H.H.H.H.H.H.H.H.H.H.H.H.H.H.H.H.H.H.H.H.H.H.H.H.H.H.H.H.H.H.H.H.H.H.H.H.H.H.H.H.1.1.H.H.1.1.1.1.1.1.1.1.,.,.,.,.,.,.,.,.,.,.,.,.,.,.,.,.,.,.,.,.,.,.,.,.,.,.,.,.,.,.,.,.,.,.,.,.,.,.,.,.0.H.H.H.H.H.H.H.u.u.u.H.H.H.0.0.1.1.c.E D.XX|.} ^ { ^.^.{ K H b < ' ].[.[.].Q.} { ` { { ` } ^.|.oX^.} [ / ! ~ B m 4 , & & & * o o . o * * 1 p a p p p p p p 1 # # o o o o o # # # # # # # + o o + + + o o o           .     o o o # # # * * * * * 1 p p p p p p p p s d h s p ; o X X X O O O + # # # # ; ; ; ; @ X               O ; y y g g 8.8.8.g u r w @ X       + # # # #             X # # # # # + + + O       O O O O O O @ 7 e p p p 7 ; # ; ; ; ; 1 1 1 p s d h E E E x.Z.F.`._._.F.F.G.D.D.D.l.D s p r e e e e y y y u u u u u u u u #.#.#.7.y y y y f y y y w y y y u u u u o.o.4.9.y.y.u.u.u.y.9.7.0.9.#.#.o.o.4.o.q.9.q.p.9.q.4.o.o.O.7.9.y.i.i.i.4.o.o.X.#.7.9.p.K.p.7.t t ..#.#.o.o.u o.%.%...6 $.H.$.0.u.u.H.H.1.1.1.1.1.1.1.1.1.1.1.1.1.1.1.1.H.1.H.H.1.1.H.H.1.1.H.H.H.H.H.H.H.H.H.H.H.H.1.1.H.H.1.1.H.H.1.H.H.H.1.1.H.H.H.H.H.H.1.1.H.1.H.H.H.1.H.H.1.1.H.H.1.1.H.H.H.H.H.H.",
"H.H.H.H.H.H.H.H.H.H.H.H.H.H.H.H.H.H.H.H.H.H.H.H.H.H.H.H.H.H.H.H.H.H.H.H.H.H.H.H.H.H.H.H.H.H.H.H.H.H.H.H.H.H.H.H.H.H.H.H.H.H.H.H.H.H.H.H.H.H.H.H.H.H.H.H.H.H.H.H.H.H.H.H.H.H.H.H.H.H.H.H.H.H.H.H.H.H.H.H.H.H.H.H.*.fXLXSX1.H.H.H.H.H.H.H.H.H.H.H.H.H.H.H.H.H.H.H.H.H.H.H.H.H.H.H.H.H.H.H.H.H.H.H.H.H.H.H.H.H.H.H.H.H.H.H.1.1.1.H.1.1.1.1.1.1.1.1.,.,.,.,.,.,.,.,.,.,.,.,.,.,.,.,.,.,.,.,.,.,.,.,.,.,.,.,.,.,.,.,.,.,.,.,.,.,.,.,.0.H.H.H.H.H.H.u.u.u.H.H.H.H.u.u.1.H.c.k.l.D.^.^.{ { ^.^.S.^ H b , I Q.].!.] } { ` ` ^ ^ ` { ^.|.oX^.S.A.[ / ! T m 4 , > & & & & . . o * * 1 p a p p p p p p 1 ; # o o o o # # # # # # # # + o o + + + o o X           .     o o o # # # * * * * 1 1 p p p p a p p p s d p # O   # # # # ; ; ; ; ; # # # 1 1 1 ; # @ X               @ e y y g g S g g g e @ X       # p p p p p               o + + +   .                     O O @ 7 p p p p # ; # ; ; ; * 1 1 3 a d d x.x.D.D.F.F.F._.Z.) ! Y Q E h d p ; # @ e e y w y t u y u u u u u u u u #.#.#.#.t t t y y y y w w w y y y u u u o.o.4.9.y.u.u.u.u.u.9.7.u.0.%.#.%.O.4.4.9.9.p.p.9.7.O.o.o.o.7.9.i.i.i.i.o.o.o.o.7.9.p.u.R.p.%.w t ..#.o.o.u i i 7.%...6 %.H.$.$.u.H.H.H.1.1.1.1.1.1.1.1.1.1.1.1.1.1.1.1.1.1.H.H.H.H.H.H.1.1.H.H.H.H.H.H.H.H.H.H.H.H.1.1.H.H.H.H.H.H.1.1.H.H.1.1.1.H.H.H.H.H.1.1.1.1.H.H.1.1.H.H.H.H.H.H.1.1.H.H.H.H.H.H.",
"H.H.H.H.H.H.H.H.H.H.H.H.H.H.H.H.H.H.H.H.H.H.H.H.H.H.H.H.H.H.H.H.u.H.H.gXgX*.H.J.H.H.H.H.H.H.H.H.H.H.H.H.H.H.H.H.H.H.H.H.H.H.H.H.H.H.H.H.H.H.H.H.H.H.H.H.H.H.H.H.H.H.H.H.H.H.H.H.H.H.H.H.H.H.H.H.H.H.H.H.H.H.H.H.H.Y.GXBX=.H.J.H.H.H.H.H.H.H.H.H.H.H.H.H.H.H.H.H.H.H.H.H.H.H.H.H.H.H.H.H.H.H.H.H.H.H.H.H.H.c.H.H.H.H.H.H.1.1.1.1.1.1.1.1.1.1.1.1.,.,.,.,.,.,.,.,.,.,.,.,.,.,.,.,.,.,.,.,.,.,.,.,.,.,.,.,.,.,.,.,.,.,.,.,.,.,.,.,.*.*.H.H.H.H.u.u.H.H.1.1.H.1.H.u.H.H.c.k.m.F./.S.{ { ^.^.} ^ K K > ' ] ] ] ' { { { ^ ^ ^ / { S.^.^./.} A.A.Z./ ! ~ m , & o o o o o # # * * 1 p p f p p p p 1 1 # # # o o o o # # # # # # # # # # + + o o X X     . . .   . # # # # # # * * * * * * * p p p p p p h s 1 #   o # # # # @ @ ; ; ; ; ; p s s s s p p p ; ; @ X O         O @ e y r g g r e e @ X X O # # e p s f p 1 #               X . .       .                 . + # 7 # + # * o o o o o o & > 5 d ! F.W.G.Z.Z.Z.G.G.G.Z.x.! E E d p # +   O O @ @ 7 6 w u u u #.u u u u u u u o.#.#.u y t t t t y y w w w y y y t i u o.o.o.7.9.y.y.u.u.u.y.9.%.%.%.%.%.o.4.q.q.9.9.9.9.9.7.4.o.q.q.q.q.i.i.9.4.4.4.7.7.9.9.p.dXp.9.+.8 ..#.9.9.o.t t ..K.0.....c.c.c.c.H.H.H.H.H.H.H.H.H.H.H.H.H.H.H.H.1.1.H.H.1.1.H.H.H.H.H.H.1.H.H.H.H.H.H.H.H.H.H.H.H.H.H.1.H.H.H.H.H.H.H.1.H.H.H.1.1.1.1.1.H.1.1.1.1.1.1.H.1.1.H.H.H.H.H.H.1.H.H.H.H.H.H.H.",
"H.H.H.H.H.H.H.H.H.H.H.H.H.H.H.H.H.H.H.H.H.H.H.H.H.H.H.H.H.H.H.H.J.H.=.VXVX=.H.H.H.H.H.H.H.H.H.H.H.H.H.H.H.H.H.H.H.H.H.H.H.H.H.H.H.H.H.H.H.H.H.H.H.H.H.H.H.H.H.H.H.H.H.H.H.H.H.H.H.H.H.H.H.H.H.H.H.H.H.H.H.H.H.H.1.J.*.*.*.H.H.H.H.H.H.H.H.H.H.H.H.H.H.H.H.H.H.H.H.H.H.H.H.H.H.H.H.H.H.H.H.H.H.H.H.H.H.H.H.c.H.H.H.H.H.H.1.1.u.H.1.1.1.1.1.1.1.1.,.,.,.,.,.,.,.,.,.,.,.,.,.,.,.,.,.,.,.,.,.,.,.,.,.,.,.,.,.,.,.,.,.,.,.,.,.,.,.,.*.*.H.H.H.H.u.*.H.H.1.1.H.1.u.u.u.,.c.k.l.D.G.A.[ { Q.^.^.} ^ b , } ' ' ' ' { { ` ^ ^ ^ ^ { } S.S.} { [ / / / ! ! T 4 , o o o o . # # * * 1 p p p p p p p 1 1 # * # o o o o # # # # # # # # # # + + o o o       . .   . # # # # # # * * * * * * * * p p p p p p d p * #   o # # ; ; ; ; ; ; ; e s s s s s s s s s p p e # X O         O @ ; e w y e # @   X O @ p s h g g f p 1 # +           o o o o o o o o o .         o o o # 1 p a 1 o   o o 2 J T ! ! ! ! / ! Z.! ! ! ! ! Q Y Y d 2 3 1 1 e 7 # 7 O @ @ 6 w y y y #.#.#.#.u u u u g u u #.#.#.y t t t t t y y w w w t y y t w i u #.4.7.9.y.y.u.u.y.y.9.%.%.%.%.%.o.4.q.q.y.y.9.9.9.7.4.o.4.7.7.7.q.q.q.4.7.7.7.7.9.9.p.R.u.o.t w ..#.9.9.o.t t ..p.9...o.c.c.c.c.H.H.H.H.H.H.H.H.H.H.H.H.H.H.H.H.1.1.H.H.1.1.H.H.H.H.H.H.1.H.H.H.H.H.H.H.H.H.H.H.H.H.H.H.H.H.H.H.H.H.1.1.H.H.1.1.1.H.1.1.H.H.1.1.1.1.1.H.1.1.H.H.H.H.H.H.1.H.H.H.H.H.H.H.",
"H.H.H.H.H.H.H.H.H.H.H.H.H.H.H.H.H.H.H.H.H.H.H.H.H.H.H.H.H.H.H.H.H.H.=.zXzX=.J.=.H.H.H.H.H.H.H.H.H.H.H.H.H.H.H.H.H.H.H.H.H.H.H.H.H.H.H.H.H.H.H.H.H.H.H.H.H.H.H.H.H.H.H.H.H.H.H.H.H.H.H.H.H.H.H.H.H.H.H.H.H.H.H.H.*.H.J.1.J.H.,.1.H.H.H.H.H.H.H.H.H.H.H.H.H.H.H.H.H.H.H.H.H.H.H.H.H.H.H.H.H.H.H.H.H.H.H.H.H.H.H.H.H.H.H.H.H.H.0.u.1.1.1.1.1.1.1.1.,.,.,.,.,.,.,.,.,.,.,.,.,.,.,.,.,.,.,.,.,.,.,.,.,.,.,.,.,.,.,.,.,.,.,.,.,.,.,.,.*.u.H.H.H.*.*.*.H.u.H.1.,.*.u.0.H.,.,.>.>.l.B.N.^ ^ { } oXoX{ , b XXQ.` ` ` ` ` / R K K R ^ { { { [ / / ~ R ! / / ~ J 5 & o o o o o # * 1 1 p a a p 3 1 1 1 1 ; * * # o o o # # # # # # # # # # # # # o o       . . . . * * * * * * * * * * * * * * * p p 1 p p s p # .   o # ; ; 1 ; ; s s s s s s s s g g g g s s s y e # X O         @ O @ ; ; @ O O   X ; s 8.h h h g f p p p #         # 1 * * * * * * * # # o # # # * 1 1 2 2 & & 2 2 B ! -X=X-XXXA.Z.Z./ ! ~ ~ Y Y Y G G 3 3 1 # # # q p 7 7 7 @ @ 6 6 w y g @.o.#.#.#.#.u u u u g g u u g y t y t t t t y w e e w w w w w w t u 7.7.q.y.u.u.y.u.y.y.9.%.%.%.%.%.%.7.q.q.i.i.i.i.q.7.4.4.5.4.4.4.4.4.4.q.9.9.9.9.9.9.9.p.9...8 y ..#.9.9.o.t t o.0.7.o.%.c.c.c.c.H.H.H.H.H.H.1.1.1.1.H.H.H.H.H.H.1.H.H.H.H.H.H.H.1.1.1.1.H.H.H.H.H.H.1.1.1.1.H.H.H.H.H.H.1.1.H.1.H.H.H.H.H.H.1.1.H.H.H.H.H.H.1.1.H.1.H.H.H.H.H.H.1.1.1.1.H.H.H.H.H.H.1.1.",
"H.H.H.H.H.H.H.H.H.H.H.H.H.H.H.H.H.H.H.H.H.H.H.H.H.H.H.H.H.H.H.H.J.H.H.J.*.H.H.J.H.H.H.H.H.H.H.H.H.H.H.H.H.H.H.H.H.H.H.H.H.H.H.H.H.H.H.H.H.H.H.H.H.H.H.H.H.H.H.H.H.H.H.H.H.H.H.H.H.H.H.H.H.H.H.H.H.H.H.H.H.H.H.H.*.L.H.H.J.H.*.1.H.H.H.H.H.H.H.H.H.H.H.H.H.H.H.H.H.H.H.H.H.H.H.H.H.H.H.H.H.H.H.H.H.H.H.H.H.c.c.H.H.H.H.H.H.u.u.u.1.1.1.1.1.1.1.1.,.,.,.,.,.,.,.,.,.,.,.,.,.,.,.,.,.,.,.,.,.,.,.,.,.,.,.,.,.,.,.,.,.,.,.,.,.,.,.,.*.*.H.H.H.,.*.*.0.u.H.1.1.*.0.0.c.c.,.,.>.l.l.W R ^ ' } #X#X} > R :XOX' ^ ^ ^ ^ ^ T K K R ^ / { { [ / / Y ~ T / / R ~ m > o o o o o # * 1 1 p a a p 3 1 1 1 1 ; * * # o o o o o # # # # # # # # # # # o o           . # * * * * * * * * * * * * * * * p p 1 p p p * o     o # ; 1 1 ; ; s s s s s s g g g g g g g g g s s e # X O       O O @ O @ X       @ s D 8.8.g g g s p p p # +   + # p p * p p p 1 1 1 1 * * > > 1 1 2 2 & 4 ~ Z.:XlXlXlX=XXX^.S.R T J J Y ~ Y Y Y A d 3 1 ; # @ 7 y j #.y w 6 6 6 6 w y #.#.#.#.#.#.#.#.u u u u g #.u u y y y y y t t t y w w w w w 6 6 6 6 6 y #.7.7.9.u.u.y.u.y.y.9.7.%.%.%.%.O.7.q.q.i.i.i.i.q.7.4.o.o.o.o.o.o.o.4.q.9.i.9.9.0.7.7.u.#.t 8 o.o.7.u.0.o.t t o.9.7.#.$.c.c.c.H.H.H.H.H.H.H.H.1.1.1.H.H.H.H.H.H.1.1.H.H.H.H.H.H.1.1.1.H.H.H.H.H.1.1.1.1.1.1.1.H.H.H.H.H.1.1.1.1.H.H.H.H.H.H.1.1.H.H.H.H.H.H.H.H.H.H.H.H.H.H.H.H.1.1.1.H.H.H.H.H.H.1.1.1.",
"H.H.H.H.H.H.H.H.H.H.H.H.H.H.H.H.H.H.H.H.H.H.H.H.H.H.H.H.H.H.H.H.H.H.H.H.H.H.=.Y.H.H.H.H.H.H.H.H.H.H.H.H.H.H.H.H.H.H.H.H.H.H.H.H.H.H.H.H.H.H.H.H.H.H.H.H.H.H.H.H.H.H.H.H.H.H.H.H.H.H.H.H.H.H.H.H.H.H.H.H.H.H.H.H.H.H.H.H.H.H.H.H.H.H.H.H.H.H.H.H.H.H.H.H.H.H.H.H.H.H.H.H.H.H.H.H.H.H.H.H.H.H.H.H.H.H.H.H.H.H.H.H.H.H.H.H.0.0.0.c.,.,.,.,.,.,.,.,.,.,.,.,.,.,.,.,.,.,.,.,.,.,.,.,.,.,.,.,.,.,.,.,.,.,.,.,.,.,.,.,.,.,.,.,.,.,.,.,.c.c.,.c.c.0.,.,.0.0.1.1.1.0.u.u.0.c.c.,.,.>.l.W R ^ }  X1X#XI , ^ oX,X' ^ ^ ^ ^ ^ R K K ^ ^ / / ^ R J m m Y ~ ! / ! Y 4 > & o o o o * * 1 1 a a s a p 1 1 * 1 * * * # # o o o o # # * * * # # # # + + + o .     . . o * * * * * * * * * * * * * 1 1 1 1 1 1 1 1 1 # o . o + # ; 3 1 3 a s s g g g g g g h h D D g g g g s s e -                         e s g S 8.7.S g g u r y e #     # # 7 7 7 + + q q 1 * & > 2 5 > > 4 Y ! S./.:X:X:XoXS.S.} [ R J 5 , < 5 Y Y Y E a p p e # 7 e e e w y y y y y y y y #.7.7.7.7.7.#.#.#.y y y y o.#.#.u y t t t t @ 6 w w y y y y w e e 6 6 @ @ 6 o.#.7.7.7.7.7.7.9.9.7.7.#.7.9.9.q.q.q.4.9.9.9.9.7.4.o.o.o.....t t o.4.q.9.q.q.q.y.7.O.O...8 t o.%.u.p.u...t t o.o.%.*.$.H.H.H.H.H.H.H.H.H.H.H.H.H.H.H.H.1.1.H.H.H.H.1.1.H.H.H.H.H.H.H.H.1.1.1.1.H.H.H.1.1.1.H.H.H.1.1.1.H.H.H.H.H.H.H.H.H.H.1.1.1.H.H.H.H.H.H.H.H.1.H.H.H.H.H.H.H.H.H.H.1.1.1.H.H.H.H.1.",
"H.H.H.H.H.H.H.H.H.H.H.H.H.H.H.H.H.H.H.H.H.H.H.H.H.H.H.H.H.H.H.H.H.H.H.H.,.J.*.H.H.H.H.H.H.H.H.H.H.H.H.H.H.H.H.H.H.H.H.H.H.H.H.H.H.H.H.H.H.H.H.H.H.H.H.H.H.H.H.H.H.H.H.H.H.H.H.H.H.H.H.H.H.H.H.H.H.H.H.H.H.H.H.H.H.H.H.H.H.H.H.H.H.H.H.H.H.H.H.H.H.H.H.H.H.H.H.H.H.H.H.H.H.H.H.H.H.H.H.H.H.H.H.H.H.H.H.H.H.H.H.H.H.H.H.H.0.0.c.c.,.,.,.,.,.,.,.,.,.,.,.,.,.,.,.,.,.,.,.,.,.,.,.,.,.,.,.,.,.,.,.,.,.,.,.,.,.,.,.,.,.,.,.,.,.,.,.,.c.,.,.c.c.0.0.,.H.u.1.1.1.0.u.0.0.c.c.,.,.,.l.W / ` Q..X1X.XI b ^ oX,X} ` ^ ^ ^ ^ ^ K T R / / / ^ T m 4 4 m Y ~ / ! Y 4 2 & & o # * 1 1 1 1 a a s a p 1 1 1 1 * * * # # o o o o # # * * * + # # # + + + o .     . . * * 1 1 1 1 1 1 1 1 1 1 p p 1 1 1 1 1 1 1 1 * # . . o # ; 1 3 3 3 a s g g g g g #.#.$.$.8.8.8.8.D D h s s ; X                     O g g 8.8.7.S S u u u r e ; +   + # 7 7 7 q 7 + # o o o o 4 4 4 4 ~ ! A.S.=XoXQ.' { { { { L J < 5 > 3 d A A A h h s f y e 7 7 e e w w y t y y t t y #.7.7.7.7.7.7.#.#.y t y y y o.#.o.y t t y w w 6 w w t y y y y y w e w w @ @ 6 o.o.#.#.7.%.%.7.7.9.7.7.7.q.q.i.q.q.7.7.7.7.7.7.4.o.o.....y t t t o.4.q.q.q.q.q.9.O.o.o.+.....%.9.u.u.9.+.t +.o.o.%.u.*.H.H.H.H.H.H.H.H.H.H.H.H.H.H.H.1.1.H.H.H.H.1.1.1.1.H.H.H.H.H.H.H.1.H.1.1.H.H.H.H.H.H.H.H.1.1.1.1.H.H.H.H.H.H.H.1.H.H.1.1.1.H.H.H.H.H.H.H.1.1.H.H.1.H.H.H.H.H.H.H.1.1.1.1.H.H.H.H.",
"H.H.H.H.H.H.H.H.H.H.H.H.H.H.H.H.H.H.H.H.H.H.H.H.H.H.H.H.H.H.H.H.H.H.H.H.,.J.H.,.H.H.H.H.H.H.H.H.H.H.H.H.H.H.H.H.H.H.H.H.H.H.H.H.H.H.H.H.H.H.H.H.H.H.H.H.H.H.H.H.H.H.H.H.H.H.H.H.H.H.H.H.H.H.H.H.H.H.H.H.H.H.H.H.H.H.H.H.H.H.H.H.H.H.H.H.H.H.H.H.H.H.H.H.H.H.H.H.H.H.H.H.H.H.H.H.H.H.H.H.H.H.H.H.H.H.H.H.H.H.H.H.H.H.H.H.1.1.H.H.,.,.,.,.,.,.,.,.,.,.,.,.,.,.,.,.,.,.,.,.,.,.,.,.,.,.,.,.,.,.,.,.,.,.,.,.,.,.,.,.,.,.,.,.,.,.,.,.c.c.c.c.c.c.,.,.H.1.,.1.H.H.u.0.0.c.c.,.,.,.<.W [ { |.#X<X|.L P ^ ^.#X X` ^ ^ ^ ^ ^ K T T R R R R J < , 2 4 J Y ! ! T Y 5 2 1 * 1 1 1 1 1 3 a a a a a 3 1 1 * * * * # # o o o o # # * * * * * * # # + + o o .   . . * p a p a a a a a a a a a a 1 1 1 1 1 1 1 1 # o . o + # ; 1 1 3 3 a s g g g g g 8.8.8.8.8.8.8.8.8.8.D h s s o X                 O e D 8.8.8.S g g r r r e ; #     # # # # # +   o o . & m R T T R ! [ A.S.^.` ^ ^ ` ' { { { K J G A E E z.z.d d h g g g y w e e e e w w y y y y y t #.#.7.7.7.7.7.7.#.y t t y t u u o.y t y w w w w w w y u g g u u u y t w w 6 6 w y o.o.#.#.7.7.7.7.7.7.7.9.9.i.d.y.9.7.4.%.%.%.%.o.o.....y y t t t o.4.q.9.q.q.q.4.O.o.X.+.o.%.y.u.p.u.9.+.+.o...%.u.u.*.H.H.H.H.H.H.H.H.1.H.1.1.H.1.1.1.1.1.H.H.H.H.1.1.1.1.1.H.1.1.H.1.H.H.H.H.H.H.H.H.H.H.H.H.H.H.H.H.H.H.H.H.1.1.1.1.H.H.H.1.H.H.H.H.H.H.H.1.1.1.H.H.1.1.1.H.1.1.H.1.1.1.H.H.H.H.H.H.",
"J.H.H.H.H.H.H.H.H.H.H.H.H.H.H.H.H.H.H.H.H.H.H.H.H.H.H.H.H.H.H.H.H.H.H.H.H.H.H.1.1.H.H.H.H.H.H.H.H.H.H.H.H.H.H.H.H.H.H.H.H.H.H.H.H.H.H.H.H.H.H.H.H.H.H.H.H.H.H.H.H.H.H.H.H.H.H.H.H.H.H.H.H.H.H.H.H.H.H.H.H.H.H.H.H.H.H.H.H.H.H.H.H.H.H.H.H.H.H.H.H.H.H.H.H.H.H.H.H.H.H.H.H.H.H.H.H.H.H.H.H.H.H.H.H.H.H.H.H.H.H.H.H.H.H.H.1.1.H.H.,.,.,.,.,.,.,.,.,.,.,.,.,.,.,.,.,.,.,.,.,.,.,.,.,.,.,.,.,.,.,.,.,.,.,.,.,.,.,.,.,.,.,.,.,.,.,.,.c.c.c.c.c.c.,.,.H.H.,.1.H.H.u.0.0.c.,.,.,.,.>.Y Z.} |.$X<XQ.P L ^ } ;XOX` ^ ` ^ ^ R K K T T T T T m < > , 4 4 J T ! T Y 2 2 1 1 1 1 1 1 1 3 a a a a a 3 1 1 * * * * # # o o o o # # * * * * * * # # + + o o .   . o * p a a a a a a a a a a a a 1 1 1 1 p 1 1 1 # . . # # ; 1 1 3 3 3 a s s g g g g 8.8.8.8.8.8.8.8.8.8.D h d s ; X               o p h 8.8.8.S g g s s r e ; ; +   + q # # # # o 1 d W / [ [ { ` ! ` ` ` { { } Q.]. X|.|.S.} [ V.) D.G.z.D s e g g g g g g t w e e e w w w t t t t t t #.7.7.7.7.7.7.7.y t t t y t u u y y y w 6 6 6 6 w t u u g #.#.g #.u u t t 6 6 t y y o.o.7.7.7.7.7.7.7.7.9.i.d.p.9.9.7.4.o.#.#.#.o.....y y t t t t o.4.q.9.q.q.q.O.o.+.+.o.O.9.p.u.i.9.9.+.o.o...%.u.u.*.H.H.H.H.H.H.H.H.1.1.1.1.H.1.1.1.H.1.H.H.H.H.1.1.1.1.1.H.1.1.1.1.H.H.H.H.H.H.H.H.H.H.H.H.H.H.H.H.H.1.1.1.1.1.1.1.H.H.H.H.H.H.H.H.H.H.H.1.1.1.H.H.1.1.1.H.1.1.1.1.H.H.H.H.H.H.H.H.",
"P.P.H.H.H.H.H.H.H.H.H.H.H.H.H.H.H.H.H.H.H.H.H.H.H.H.H.H.H.H.H.H.H.H.H.H.H.H.H.H.H.H.H.H.H.H.H.H.H.H.H.H.H.H.H.H.H.H.H.H.H.H.H.H.H.H.H.H.H.H.H.H.H.H.H.H.H.H.H.H.H.H.H.H.H.H.H.H.H.H.H.H.H.H.H.H.H.H.H.H.H.H.H.H.H.H.H.H.H.H.J.J.H.H.H.H.J.J.H.H.H.H.H.H.H.H.H.H.H.H.H.H.H.H.H.H.H.H.H.H.H.H.H.H.H.H.H.H.H.H.H.H.H.H.H.H.H.H.H.H.v.v.v.v.c.c.c.c.,.,.,.,.,.,.,.,.,.,.,.,.,.,.,.,.,.,.,.,.,.,.,.,.,.,.,.,.,.,.,.,.,.,.,.,.,.,.,.,.c.c.c.c.H.H.c.,.1.1.H.H.1.1.,.,.c.c.,.,.,.,.k.E Z.|.|.].].' H ^ ` { ,XvX^.^ [ { ^ R T K T T T ~ J m < , , 4 4 Y ~ ~ Y Y 5 2 1 > 1 1 1 1 1 2 2 a a a 2 2 3 3 1 1 1 1 * * # # o o # * * * * * * * # # # # o o o o . o 1 a a a a a a a a a a p p p p p p p p 1 * # o o o o # # ; 1 1 3 3 s s s g h h 8.8.8.8.8.8.8.k.k.k.k.k.D g s @ X               + p g g g g g s s r r ; - @ o + + # * 1 o . o Y G.F.{ ` { ' { ] ].].} '.+X#X$X#X.X].|.XX_.G.V.C.F D S g g #.#.7.#.8.7.7.u w w w w w w y y t t y y y u o.o.#.#.#.#.#.#.o.o.o.o.o.o.o.u u t 6 @ @ 6 6 w u #.#.#.#.#.#.#.#.o.o.o.u u u u u u u o.o.o.o.o.o.%.7.9.p.p.d.d.i.q.O.o...........y y y y y y ..o.o.4.q.9.9.q.q.9.O.o.X.7.9.p.d.sXd.y.5.8 X.O.o.u.K.I.J.H.1.1.1.H.H.H.H.H.H.H.1.1.1.1.1.H.H.H.H.H.H.H.H.H.H.H.1.H.H.H.H.H.H.H.H.H.H.H.H.H.H.H.H.H.H.H.1.1.1.1.1.1.1.1.1.1.1.H.H.H.1.1.1.H.1.1.1.1.1.1.1.H.H.H.1.H.H.H.H.H.H.H.H.H.H.H.H.",
"P.P.H.H.H.H.J.H.H.H.H.H.H.H.H.H.H.H.H.H.H.H.H.H.H.H.H.H.H.H.H.H.H.H.H.H.H.H.H.H.H.H.H.H.H.H.H.H.H.H.H.H.H.H.H.H.H.H.H.H.H.H.H.H.H.H.H.H.H.H.H.H.H.H.H.H.H.H.H.H.H.H.H.H.H.H.H.H.H.H.H.H.H.H.H.H.H.H.H.H.H.H.H.H.H.H.H.H.H.H.J.J.H.H.H.H.J.J.H.H.H.H.H.H.H.H.H.H.H.H.H.H.H.H.H.H.H.H.H.H.H.H.H.H.H.H.H.H.H.H.H.H.H.H.H.H.H.H.H.H.v.v.v.v.H.c.c.c.,.,.,.,.,.,.,.,.,.,.,.,.,.,.,.,.,.,.,.,.,.,.,.,.,.,.,.,.,.,.,.,.,.,.,.,.,.,.,.,.c.c.c.c.H.H.c.,.1.1.H.H.1.1.1.1.c.c.,.,.,.,.k.E G.|.|.].U P L { { ' ,X0XoX{ ` { ^ R T T T T T T J m 4 < , 4 m Y ~ ~ Y Y 2 2 1 1 1 1 1 1 2 3 2 a a a 2 2 a a 3 3 1 1 1 1 * * # # * 1 1 p 1 1 1 * ; # # # o o o o . . 1 d d a a a 1 1 1 * * * * * * * * * * * # o         + # ; 1 1 3 s s s s g g h 8.8.8.8.8.8.8.k.k.k.k.8.D s p X                 + p h h g g g s s s e - o o X + + * * o o > ~ XXXXS.` ` ' ] ]..X3X.X.X.X.X X].' U ` ` ! Q A D S S S g #.7.%.7.7.9.7.9.7.u w w w w w t y y y y y y o.o.o.o.o.o.o.o.o.o.o.o.o.o.#.#.#.#.#.u w 6 6 6 w t u #.#.#.#.#.#.#.o.o.o.o.o.o.o.o.o.o.o.o.o.o.o.o.o.%.7.9.p.p.i.i.y.4.o...........y y y ......o.o.4.q.y.y.O.O.7.7.9.9.O.X.5.q.i.g.g.i.9.O.t o.9.7.u.U.K.P.H.1.1.1.H.H.H.H.H.H.H.H.1.1.1.1.H.H.H.H.H.H.H.H.H.H.H.1.H.H.H.H.1.1.H.H.H.H.H.H.H.H.H.H.H.H.1.1.1.1.1.1.1.1.1.1.1.1.1.H.1.1.1.1.H.H.1.1.1.1.1.H.H.H.H.1.H.H.H.H.H.H.H.H.H.H.H.H.",
"P.P.P.H.H.H.H.H.H.H.H.H.H.H.H.H.H.H.H.H.H.H.H.H.H.H.H.H.H.H.H.H.H.H.H.H.H.H.H.H.H.H.H.H.H.H.H.H.H.H.H.H.H.H.H.H.H.H.H.H.H.H.H.H.H.H.H.H.H.H.H.H.H.H.H.H.H.H.H.H.H.H.H.H.H.H.H.H.H.H.H.H.H.H.H.H.H.H.H.H.H.H.H.H.H.H.H.H.H.H.H.H.H.H.H.H.J.H.H.H.H.H.H.H.H.H.H.H.H.H.H.H.H.H.H.H.H.H.H.H.H.H.H.H.H.H.H.H.H.H.H.H.H.H.H.H.H.H.H.H.v.v.H.H.H.H.c.c.,.,.,.,.,.,.,.,.,.,.,.,.,.,.,.,.,.,.,.,.,.,.,.,.,.,.,.,.,.,.,.,.,.,.,.,.,.,.,.,.c.c.c.c.u.H.0.0.,.,.H.H.u.u.1.H.c.c.,.,.,.,.k.E /.oX].] P H ' } { ` #X2X<X} ^ ^ ^ R T T T T T T J m 4 < , 4 B Y Y Y Y Y d 2 2 3 3 3 3 3 2 2 d d d d a 2 a a a a a 3 1 1 1 1 * * 1 p p p p p 1 1 1 1 # # # o + + . . 1 d h d a 1 o o o o o . . . o o o o o o . .         X # # ; 1 1 s s s s s g h h 8.8.8.8.8.8.k.k.k.k.D g s ; X                 + 1 d h g s s s p p ; # X X     # * o o 5 ! ^.oX} ` P U ] ].{.%X&X$X{.].]  .P K K K ~ 3 3 r r u S 4.4.o.O.O.O.i.p.u.u.7.o.w w w w t t y y o.o.o.o.o.o.o.o.o.o.u u u u o.o.o.o.7.7.7.7.7.#.u t w y g g #.#.#.#.o.o.o.o.o.o.o.o.O.%.o.o.o.o.o.o.o.o.o.o.o.%.7.9.i.i.i.i.9.O.o.t y 9 y y y y ....#.#.7.y.y.y.i.i.o.o.o.o.5.q.5.O.9.q.i.g.s.y.O.X.X.5.i.y.p.K.u.u.H.1.1.1.1.H.H.H.H.H.H.H.1.1.1.1.1.H.H.H.H.H.H.H.H.H.1.1.H.H.H.H.1.1.H.H.H.H.1.1.H.1.H.H.H.1.1.1.1.1.1.1.1.1.1.1.1.1.H.H.H.H.H.H.H.H.H.H.H.H.H.H.H.H.1.1.H.H.H.H.H.1.1.H.H.H.H.H.",
"P.P.P.H.H.H.H.H.H.H.H.H.H.H.H.H.H.H.H.H.H.H.H.H.H.H.H.H.H.H.H.H.H.H.H.H.H.H.H.H.H.H.H.H.H.H.H.H.H.H.H.H.H.H.H.H.H.H.H.H.H.H.H.H.H.H.H.H.H.H.H.H.H.H.H.H.H.H.H.H.H.H.H.H.H.H.H.H.H.H.H.H.H.H.H.H.H.H.H.H.H.H.H.H.H.H.H.H.H.H.H.H.H.H.H.H.J.H.H.H.H.H.H.H.H.H.H.H.H.H.H.H.H.H.H.H.H.H.H.H.H.H.H.H.H.H.H.H.H.H.H.H.H.H.H.H.H.H.H.H.H.H.H.H.H.H.c.c.,.,.,.,.,.,.,.,.,.,.,.,.,.,.,.,.,.,.,.,.,.,.,.,.,.,.,.,.,.,.,.,.,.,.,.,.,.,.,.,.c.c.c.c.u.u.0.0.*.,.H.H.u.0.c.c.c.c.,.,.,.,.k.E XXoX|.` I H ` |.{ ^ oX;X,X|.^ ^ ^ ^ R K T T T T J m m 4 , 4 B B Y Y Y Y Y d a 2 2 2 2 2 a a d Y V d d a a a a a a a p p 1 1 1 1 p p 1 1 p p p p 1 1 1 # # o + + o o 1 d V d a * . . . . . . . . . . . . .   .             o # ; ; 1 3 s s s s g h h 8.8.8.8.8.8.k.k.k.k.h s e ;                   O 1 s g g s s p 1 ; ; o X     + * * & 5 [ oXOX} I P P ] ]..X%X1X1X$X].| |  . .~ Y A s s r u u o.o.4.4.O.O.O.O.d.d.p.i.7.o.i w t y y y #.#.#.#.#.#.#.o.o.o.o.o.i i i u o.o.o.o.7.7.7.7.0.7.#.y y g g g #.#.#.#.o.o.o.o.o.o.o.#.%.7.7.4.4.O.o.o.o.o.o.o.o.#.7.9.q.q.q.q.9.O.+.t 9 9 9 9 y y y ..%.7.u.p.i.i.i.i.o.o.o.o.O.5.5.5.9.q.i.g.i.5.O.X.o.y.d.p.K.K.u.*.H.1.1.1.1.H.H.H.H.H.H.H.1.1.1.1.1.H.H.H.H.H.H.H.H.H.1.1.1.H.H.H.1.1.1.H.H.H.1.1.1.1.H.H.H.1.1.1.1.1.1.1.1.1.1.1.H.H.H.H.H.H.H.H.H.H.H.H.H.H.H.H.H.H.1.1.1.H.H.H.1.1.1.H.H.H.H.H.",
"H.H.H.H.J.J.H.H.H.H.H.H.H.H.H.H.H.H.H.H.H.H.H.H.H.H.H.H.H.P.H.1.1.1.H.H.H.H.H.H.H.H.H.H.H.H.H.H.H.H.H.H.J.J.H.H.H.H.H.H.J.J.H.H.H.H.H.H.J.J.H.H.H.H.H.H.J.J.H.H.H.H.H.H.J.J.J.J.H.H.H.H.H.H.H.H.H.H.H.H.H.H.H.H.H.H.H.H.J.J.H.H.H.H.H.J.H.H.H.H.J.J.H.H.H.H.H.H.H.H.H.H.J.H.H.H.H.H.H.H.H.H.H.H.H.H.H.H.H.H.H.H.H.H.H.H.H.H.H.H.H.H.H.H.H.H.H.H.H.H.H.H.H.H.H.H.u.u.H.H.,.,.*.*.c.c.c.c.c.c.c.c.,.,.,.,.,.,.,.,.,.,.,.,.1.1.1.1.1.1.1.1.1.1.1.1.1.1.,.,.,.,.c.c.c.c.,.,.,.,.,.>.D.-X^.` U ' } } { L Q.^.^.^./ K / [ ^ J T T T ~ Y m 4 < 4 4 m Y 4 4 A A d d d d d d 2 2 d d d d d d a a a a a a a a a a p p 1 1 1 1 1 1 1 1 1 3 3 1 1 1 ; # o o o o 1 d 1 * o . o o o o * * * # # # # # o o X               X o ; ; 1 1 s a s g h h 8.8.8.8.8.8.k.k.D h f p #         O             + p p p p e ; # o o .     . * * & 2 { =X,X.X^ ^ ^ ' |.{..X3X%X0XcXOX>X`.G.Q S g w w y u o.o.7.7.4.5.O.O.5.s.d.d.y.y.%.o.i w u g u #.#.#.7.7.7.7.7.7.7.7.o.X.t t t t o.o.o.o.9.9.w.p.p.w.7.#.#.#.g g #.#.#.#.y y y t o.o.o.o.o.%.7.7.7.7.%.%.4.O.o.o.O.O.9.q.9.9.5.5.9.O.+.8 9 9 9 9 ....o.%.p.p.p.i.y.y.y.y.o.o.o.o.4.5.q.5.5.q.i.y.i.O.r.O.y.i.d.d.K.p.u.u.1.1.1.1.H.H.H.H.1.1.H.H.H.H.2.2.1.1.1.1.H.H.H.H.H.H.H.1.H.1.H.1.1.1.H.H.H.H.H.H.H.H.H.H.H.H.H.H.H.u.u.u.H.H.H.H.H.H.H.H.H.H.H.H.H.H.H.H.H.H.H.H.H.H.H.H.H.H.H.H.H.H.H.H.H.H.H.H.",
"J.H.H.H.H.J.J.H.H.H.H.H.H.H.H.H.H.H.H.H.H.H.H.H.H.H.H.P.J.J.P.H.H.P.P.P.H.H.H.H.H.H.H.H.H.J.H.H.H.H.H.H.J.J.H.H.H.H.H.H.J.J.H.H.H.H.H.H.J.J.J.H.H.H.H.H.J.H.H.H.H.H.H.H.H.H.J.J.H.H.H.H.H.H.H.H.H.H.H.H.H.H.H.H.H.H.H.H.J.H.H.H.H.H.H.J.H.H.H.H.J.J.H.H.H.H.H.H.H.H.H.H.J.H.H.H.H.H.H.H.H.H.H.H.H.H.H.H.H.H.H.H.H.H.H.H.H.H.H.H.H.H.H.H.H.H.H.H.H.H.H.H.H.H.H.H.u.u.H.H.,.*.*.-.c.c.c.c.c.c.c.,.,.,.,.,.,.,.,.,.,.,.,.,.1.1.1.1.1.1.1.1.1.1.1.1.1.1.,.,.,.,.c.c.c.c.,.,.,.,.,.,.m.F./.{ ` ] } Q.' K ` { { { ^ H K [ / T T T T T Y m m 4 4 4 d d 4 4 A A d d d d d d d d Y Y Y Y d d a a a a a a a a a a a a a p p p p p 1 1 1 3 1 1 1 1 1 1 ; # o o # 1 * * # o o o o o * * * * * * * * ; # o o                 o - ; 1 p s s s g g h h h h h 8.8.8.h g p #       O O O X           O + ; ; e ; # o .       o o o & 4 [ oXOXQ.U I ^ { ^.Q.|.,X2X2XvXcX2X`.C.A S u u t t ..o.o.4.7.9.5.5.O.5.i.d.d.d.y.9.%...y t u g #.#.#.#.7.9.7.7.7.7.9.7.4.o.o.o.o.o.o.o.o.o.9.q.w.p.K.p.0.7.#.g g g #.#.y y y y y y o.o.o.o.o.o.%.7.7.7.7.7.7.7.O.o.O.O.9.q.9.9.5.5.5.O...8 y y y y ..o.O.y.d.d.p.y.q.q.5.5.5.4.4.5.5.q.i.y.5.q.i.y.O.5.y.5.y.i.d.d.p.u.u.u.1.1.1.1.H.H.H.H.1.1.H.H.H.H.1.1.1.1.1.1.H.H.H.H.H.H.1.1.H.H.H.H.1.1.H.H.H.H.1.H.H.H.H.H.H.H.H.H.H.u.u.u.H.H.H.H.H.H.H.H.H.H.H.H.H.H.H.H.H.H.H.H.H.H.H.H.H.H.H.H.H.H.H.H.H.H.H.H.",
"J.J.H.H.H.H.H.H.H.H.H.H.J.J.H.H.H.H.H.H.H.H.H.H.H.H.H.H.H.1.1.1.1.1.1.H.H.H.H.H.J.J.H.H.J.J.H.H.H.J.H.H.J.H.H.H.H.H.H.H.J.J.H.H.H.J.H.H.J.H.H.H.J.J.H.H.H.H.H.H.H.H.H.H.H.H.H.H.H.H.H.H.J.J.H.H.H.H.H.H.H.H.H.H.H.H.H.H.H.H.H.H.H.H.H.H.J.J.H.J.J.J.H.H.H.H.H.H.H.H.H.H.J.J.H.H.H.H.H.H.H.H.H.H.H.H.H.H.H.H.H.H.H.H.H.H.H.H.H.H.H.H.H.H.H.H.H.H.H.H.H.H.H.H.H.H.u.u.H.H.,.,.u.-.c.c.c.c.0.c.,.,.,.,.,.,.,.,.,.,.,.,.,.,.1.1.1.1.1.1.1.1.1.1.1.1.1.1.,.,.,.,.c.c.c.c.,.,.,.,.,.,.k.D./.S.{ { } Q.{ K ` ^ ^ ^ R b b T / ^ T T R T Y J 4 4 4 d d d d d d B d d B B V d V B E E E E d d a a a a a a a a a a a a a a a a a a p p 1 3 p p 1 1 1 1 1 1 o . . # o # * * * * * * * * 1 1 1 1 1 1 1 1 1 o X               X o ; ; ; p p p p p f f f f g g g g s p # O     O + # p #             O # # # # o         o * 2 2 4 ! XX|.{ I P ' ' } ^.{ ^.=X:X>X-XG.z.D S S u u u u u o.o.4.4.7.7.9.9.9.i.i.d.d.d.y.9.%...y u u u #.#.#.#.7.9.9.9.9.9.u.9.9.7.o.o.o.o.o.o.o.o.9.q.w.p.p.0.7.#.u u u y y y y y y y ..o.....o.o.o.o.o.%.7.7.7.7.q.q.7.O.O.4.5.5.9.9.9.4.O.o.............o.%.y.p.g.d.i.y.q.y.5.5.5.q.7.4.q.y.i.i.q.q.i.y.X.y.y.5.y.i.d.d.y.u.u.u.1.1.1.1.H.H.H.H.1.H.H.H.H.H.1.1.1.1.H.H.H.H.H.H.H.H.1.1.H.H.H.H.1.H.H.H.H.1.1.1.H.H.H.H.H.H.H.H.H.H.H.H.H.H.H.H.H.H.H.H.H.H.H.H.H.H.H.H.H.H.H.H.H.H.H.H.H.H.H.H.H.H.H.H.H.H.H.H.",
"J.J.H.H.H.H.H.H.J.J.H.H.H.H.H.H.J.H.H.H.H.H.H.H.H.H.H.H.1.1.H.T.gXgXgXgXH.H.H.H.H.J.J.H.J.J.J.H.J.J.H.H.H.H.H.H.J.J.H.H.H.H.H.H.J.J.H.H.H.H.H.H.J.J.H.H.H.H.H.H.J.H.H.H.H.H.H.H.H.H.H.H.J.J.H.H.H.H.H.H.H.H.H.H.H.H.H.H.H.H.H.H.H.J.H.H.H.H.H.H.J.J.H.H.H.H.H.H.H.H.H.H.J.J.H.H.J.H.H.H.H.H.H.H.H.H.H.H.H.H.H.H.H.H.H.H.H.H.H.H.H.H.H.H.H.H.H.H.H.H.H.H.H.H.H.H.,.*.H.H.H.,.u.u.c.c.c.c.c.c.,.,.,.,.,.,.,.,.,.,.,.,.,.,.1.1.1.1.1.1.1.1.1.1.1.1.1.1.,.,.,.,.c.c.c.c.,.,.,.,.,.,.k.l.G.S.{ { } S.XX^ ' ` ^ { T b , K ^ ^ R T T R Y J m 4 4 d d d d d d B d d B B V V Y Y E E E E d d a 2 a a 2 2 a a a a a a a a a a a a p p p 3 p p p 1 1 1 1 1 o     . . # * 1 * * 1 1 1 1 a a p p a a 3 1 1 1 o X               X o ; ; ; p ; ; e e e e e y p f p e ; O       # e p s e #             X X X X X       . o 2 d ! D.F.S.H H P U ' { { { Z.G.W.W.z.z.e.e.7.7.o.o.u u u u o.o.4.4.7.7.9.y.i.d.d.d.d.i.y.9.o...@.g u u o.#.#.%.7.9.9.0.0.0.p.u.9.9.o.o.o.o.o.o.o.4.5.q.w.p.7.7.#.y y y y y y y y y o.o.o.o.o.o.o.o.o.o.o.o.%.%.7.7.9.9.7.7.4.4.5.5.9.9.5.4.O.o.o...........%.y.i.p.g.d.i.y.y.y.i.y.q.q.q.q.y.p.p.p.q.q.i.q.O.d.5.X.y.i.d.d.u.u.u.u.-.1.1.1.H.H.H.H.1.1.H.H.H.1.1.1.1.H.H.H.H.1.H.H.H.H.1.1.H.H.H.1.1.1.H.H.H.1.1.1.H.H.H.H.H.H.H.H.H.H.H.H.H.H.H.H.H.H.H.H.H.H.H.H.H.H.H.H.H.H.H.H.H.H.H.H.H.H.H.H.H.H.H.H.H.H.H.H.",
"J.H.H.H.H.H.H.H.H.H.H.H.H.H.H.H.J.J.H.H.H.H.H.H.H.H.H.1.1.1.J.mXGXGXGXSXaXH.H.1.H.H.H.J.J.J.H.H.J.H.H.H.H.H.H.H.J.H.H.H.H.H.H.H.J.H.H.H.H.H.H.H.J.H.H.H.H.H.H.H.J.J.H.H.H.H.H.H.H.H.J.J.J.H.H.H.H.H.H.H.H.H.H.H.H.H.H.H.J.J.H.H.H.H.H.H.P.P.H.H.H.H.H.H.J.J.J.J.J.J.J.H.H.H.H.H.J.J.J.J.H.H.H.H.H.H.H.H.H.H.H.H.H.H.H.H.H.H.H.H.H.H.H.H.H.H.H.H.H.H.H.H.H.H.H.H.H.H.,.,.H.H.H.H.c.c.c.,.c.c.,.,.,.,.,.,.,.,.,.,.,.,.,.,.1.1.1.1.1.1.1.1.1.1.1.1.1.1.1.1.1.1.1.1.1.1.1.1.1.1.1.,.$.m.Z.T } S.S.} oX} ` ^.` { { K = , T / ^ T T T J J Y Y Y d d 2 5 5 2 2 d d d d E Y Y Y E E E E d d a 2 3 3 2 3 p p p p a a a a a a a a p p p p p p 3 p p 1 1 # # o   . o # 1 1 1 p p 1 p p p p d d d d s p p p ; o X                 X     X X X X O + + + + O X           + ; h h h h p #             o o X o X     o o & 2 B A.[ / T H L ` |.} ^ R ! E k.8.$.8.8.0.w.0.9.4.o.o.o.o.o.o.O.O.O.O.9.y.y.d.d.d.d.i.i.y.9.o.o.#.@.u u o.o.o.#.9.9.p.p.p.i.d.p.q.9.7.7.7.7.7.7.7.7.5.4.o.o.7.#.y w t t ..o.o.o.o.7.0.0.0.9.o.o.o.o.o.o.o.o.o.%.7.9.y.y.9.7.7.7.5.5.9.9.9.5.O.O.%.%.#.@.o.o.%.9.y.i.i.i.i.i.i.i.y.y.y.q.4.4.y.u.p.p.q.q.y.q.r.r.y.y.y.y.y.u.u.u.u.u.1.1.1.1.H.H.H.H.H.H.H.H.H.H.H.H.H.H.H.H.1.,.1.1.1.-.1.1.H.H.1.H.H.H.c.c.H.H.H.H.H.H.H.H.H.H.H.H.H.H.H.H.H.H.H.H.H.H.H.H.H.H.H.H.H.H.H.H.H.H.H.H.H.H.H.H.H.H.H.H.H.H.H.H.H.H.H.H.",
"H.H.H.H.H.H.H.H.H.H.H.H.H.H.H.H.J.J.H.H.H.H.H.H.H.H.H.1.J.,.*.jXMXNXNXMXY.H.H.H.H.H.H.H.H.J.H.H.J.H.H.H.H.H.H.H.J.J.H.H.H.H.H.H.J.H.H.H.H.H.H.H.J.J.H.H.H.J.H.H.J.J.H.H.H.H.H.H.H.H.H.J.J.H.H.H.H.H.H.H.H.H.H.H.H.H.H.H.J.J.H.H.H.H.J.J.P.H.H.H.H.H.H.H.H.H.J.J.J.J.H.H.J.J.H.H.J.J.H.H.H.J.H.H.H.H.H.H.H.H.H.H.H.H.H.H.H.H.H.H.H.H.H.H.H.H.H.H.H.H.H.H.H.H.H.H.H.H.,.,.H.H.H.H.c.c.c.c.c.c.,.,.,.,.,.,.,.,.,.,.,.,.,.,.1.1.1.1.1.1.1.1.1.1.1.1.1.1.1.1.1.1.1.1.1.1.1.1.1.1.1.,.$.m.x.! S.XXXXS.|.} R S.S.S.} R , , M ^ / R T T H J Y Y Y d d 2 5 5 2 2 d d d d Y Y Y Y V V V V d a 2 3 3 3 3 3 p p p p p a a a a a a a p p p p p p 3 3 p 1 1 # # X     o # 1 1 1 1 p 1 a a a a a a d d s p p p 1 ; o X                                 O O O             O p s h h h h p ; +         o + + o o o o o o 2 B Y ! T T J K R { |.oXXX[ ! E h $.#.#.#.8.0.p.i.y.5.5.o.X.o.o.O.O.O.O.5.y.i.s.d.d.d.d.i.y.y.%.O.o.#.#.u u o.o.o.o.4.9.i.i.i.i.p.p.9.q.7.4.7.7.7.7.4.7.5.4.4.o.u t w 6 t t ....o.7.0.u.p.u.u.9.o.o.o.o.o.o.o.o.o.%.7.9.9.y.9.q.9.7.9.9.9.9.9.4.7.%.%.%.%.%.#.o.O.7.y.y.y.y.q.q.y.y.y.y.O.7.9.9.7.9.y.i.q.q.y.q.y.y.y.y.y.y.u.u.u.u.u.1.1.1.1.1.H.H.H.H.H.H.H.H.H.H.H.H.H.H.H.H.J.H.*.H.Y.J.J.H.H.H.H.H.H.H.c.c.H.H.H.H.H.H.H.H.H.H.H.H.H.H.H.H.H.H.H.H.H.H.H.H.H.H.H.H.H.H.H.H.H.H.H.H.H.H.H.H.H.H.H.H.H.H.H.H.H.H.H.H.",
"H.H.H.H.J.H.J.J.H.H.H.H.J.J.H.H.J.H.H.H.H.H.H.H.H.H.1.1.1.P.H.1.1.1.1.H.J.H.J.J.P.H.H.H.H.H.H.H.H.H.H.H.J.J.H.H.H.H.H.H.H.H.H.H.H.H.H.H.J.H.H.H.H.H.H.H.J.J.J.J.J.H.H.H.H.J.J.H.H.H.J.J.H.H.H.H.H.H.H.H.H.H.H.H.H.H.H.H.J.J.J.H.H.H.J.J.H.H.J.J.H.H.H.H.H.H.H.H.H.H.H.H.J.J.H.H.H.H.H.H.J.J.J.J.H.H.H.H.H.H.H.H.H.H.H.H.H.H.H.H.H.H.H.H.H.H.H.H.H.H.H.H.H.H.H.H.H.H.H.H.H.H.H.H.c.c.c.c.c.c.0.0.,.,.,.,.,.,.,.,.,.,.,.,.1.1.1.1.1.1.1.1.1.1.1.1.1.1.1.1.1.1.1.1.1.1.1.1.1.1.1.,.,.n.m.Z.F.=X=X{ S.S.^ { oX/.^.{ b , b T / ^ T R H J Y Y Y B d 2 2 2 5 5 d d d d d A d d a a a a a 2 3 2 3 3 3 3 a a p p p p s s a a d a p p p p p p p 3 p 1 1 # # o     o # 1 1 1 1 1 p d d d d d d d d f p p p p 1 ; o                                             O O # f h k.h h h h h p #       X + * * # o & & & 2 Y ~ ! R T K ! { ^.XXXXXXF.! V h g g o.#.7.9.w.p.d.i.y.5.4.4.4.o.O.O.O.O.y.y.d.d.d.d.d.s.i.y.y.%.%.#.#.#.u u o.o.o.o.O.4.9.9.9.9.q.9.q.4.O.O.4.4.4.4.4.5.5.4.4.o.t i t w o.o.O.%.y.u.p.p.p.u.0.9.o.o.o.o.o.o.o.%.o.%.9.y.y.9.9.q.9.9.9.q.9.9.9.9.9.9.9.9.#.#.o.o.O.O.7.q.5.5.5.5.5.5.5.q.O.O.o.o.o.%.%.9.y.5.y.5.i.i.i.i.u.u.u.u.u.u.u.1.1.1.1.1.H.H.H.H.H.H.H.H.1.1.H.H.H.H.H.1.J.1.,.mXGXFXSXSXH.H.H.H.H.H.c.c.H.H.H.H.H.H.H.H.H.H.H.H.H.H.H.H.H.H.H.H.H.H.H.H.H.H.H.H.H.H.H.H.H.H.H.H.H.H.H.H.H.H.H.H.H.H.H.H.H.H.H.H.",
"H.H.H.H.J.J.J.J.H.H.H.H.J.J.J.H.J.H.H.H.H.H.H.H.H.H.1.1.1.H.J.1.*.=.*.J.H.H.P.J.P.H.H.H.H.H.H.H.H.H.H.H.J.J.J.H.H.H.H.H.H.H.H.H.H.H.H.H.J.J.J.H.H.H.H.H.J.J.J.J.J.H.H.H.H.J.J.H.H.H.H.H.H.H.H.H.H.H.H.H.H.H.H.H.H.H.H.H.J.J.H.H.H.H.H.H.H.H.H.J.H.H.H.H.H.H.H.H.H.H.H.H.H.H.H.H.H.H.H.H.J.J.J.J.H.H.H.H.H.H.H.H.H.H.H.H.H.H.H.H.H.H.H.H.H.H.H.H.H.H.H.H.H.H.H.H.H.H.H.H.H.H.H.H.c.c.c.c.0.0.0.0.,.,.,.,.,.,.,.,.,.,.,.,.1.1.1.1.1.1.1.1.1.1.1.1.1.1.1.1.1.1.1.1.1.1.1.1.1.1.1.1.,.n.x.G.F.:X=X{ { S.` ` oXoXXX} K , < H / / R R H J Y Y Y B d 2 2 2 5 5 d d d d 4 4 4 d 3 3 2 2 3 3 1 1 1 1 3 1 1 1 3 3 p p p a d d d a p p p p 1 1 1 1 1 1 # # # o   X o # 1 1 p p p p d d d d d d d d s f p p p p 1 ;                                             O O g h k.m.h h h h h p # +     + + 1 1 * 1 & & > m R ^ K b ` S.oX=X=X-X/.F.E d s g g #.o.o.7.9.w.p.h.d.i.q.q.4.7.4.O.O.O.O.y.i.d.d.d.d.d.s.i.y.y.7.%.%.#.#.#.u u u ..o.O.O.9.9.q.q.9.9.4.4.o.o.o.o.4.4.4.9.5.7.o.o.u u u o.9.9.i.p.p.p.p.p.p.u.u.9.o.o.o.#.o.#.%.%.o.7.9.u.9.9.q.q.9.9.9.q.y.9.q.q.9.9.9.9.o.o.o.o.o.O.4.4.5.5.5.5.5.5.5.7.9.#.t 6 t o.o.O.y.5.r.5.i.i.i.i.p.u.u.u.-.u.-.1.1.1.1.1.H.H.H.H.H.H.1.1.1.H.H.H.H.H.H.1.,.1.,.NXJXJXHXHXgXH.H.1.H.H.c.c.H.H.H.H.H.H.H.H.H.H.H.H.H.H.H.H.H.H.H.H.H.H.H.H.H.H.H.H.H.H.H.H.H.H.H.H.H.H.H.H.H.H.H.H.H.H.H.H.H.H.H.H.",
"H.J.H.H.H.H.H.H.H.H.H.J.J.J.H.H.H.H.H.H.J.H.H.H.H.H.H.H.H.H.H.H.H.H.H.H.P.H.H.J.H.H.J.J.P.P.P.P.P.P.J.J.J.J.J.J.J.J.J.J.J.J.J.J.H.H.H.H.H.H.H.H.H.H.H.H.H.H.H.H.H.H.H.H.H.H.H.H.H.H.H.H.H.H.H.H.H.H.H.H.H.H.H.H.H.H.H.H.H.H.H.H.H.H.J.J.H.H.H.H.H.H.H.H.H.H.H.H.H.H.H.H.H.H.H.H.H.H.H.H.H.H.H.H.H.H.H.H.H.H.H.H.H.H.H.H.H.H.H.H.H.H.H.H.H.H.H.H.H.H.H.H.H.H.H.H.H.H.H.H.H.H.H.H.H.H.H.H.H.H.H.H.,.,.,.,.,.,.,.,.,.,.,.,.1.1.1.1.H.H.H.H.H.H.H.H.H.H.H.H.1.1.1.1.H.H.H.H.1.1.1.1.1.n.l.Z.[ ^.=XS.R ` ` R S.=XoX{ ^ R K H ^ / ^ ^ T T Y Y B 4 2 2 2 2 5 2 d d d d Y V d a 2 3 2 1 > 1 1 > * * * * * 1 1 p a p p a p p p p p p 1 1 1 1 1 1 1 1 ; # o # # # 1 1 p p p p p p h h h h d d d d h s s p s s p #                                         O O + f h h h D h h h p h f 1 o   + + * a 1 & > 4 . m A.^ b H } ;X,X,X=X-XF.x.D S g u o.o.#.#.4.7.q.q.p.g.g.d.d.p.i.i.i.y.y.i.i.i.s.d.d.s.s.s.s.s.i.y.q.9.9.#.#.o.u u t t o.#.7.%.7.7.7.7.7.9.9.4.X.X.o.4.4.4.4.#.#.#.#.o.o.7.7.d.d.d.d.g.d.d.i.9.9.%.o.o.o.o.u o.o.7.7.7.7.9.9.9.9.4.4.7.q.q.i.9.q.q.9.9.9.u.9.#.#.o.o.%.o.4.o.i.4.X.9.p.p.q.o.t y 9 6 6 ..9.p.g.g.s.6.6.s.h.d.%.-.u.H.H.H.H.H.H.H.H.H.H.H.H.H.H.1.1.1.H.H.H.H.H.1.1.,.,.H.I.Y.jXjXjXjXH.H.H.H.H.H.H.H.H.H.H.H.H.H.H.H.H.H.H.H.H.H.1.1.H.H.H.H.H.H.H.H.H.H.H.H.H.H.H.H.H.H.H.H.H.H.H.H.H.H.H.H.H.H.H.H.H.H.H.H.",
"J.J.H.H.H.H.J.J.H.H.H.J.H.J.H.H.H.H.H.H.J.H.H.H.H.H.H.H.H.H.H.H.H.H.H.H.P.P.H.H.H.H.J.J.P.P.P.P.P.P.J.J.J.J.J.J.J.P.J.J.J.J.J.J.J.J.H.H.H.H.J.H.H.H.H.H.H.H.H.H.H.H.H.H.H.H.H.H.H.H.H.H.H.H.H.H.H.H.H.H.H.H.H.H.H.H.H.H.H.H.H.H.H.H.J.J.H.H.H.H.H.H.H.H.H.H.H.H.H.H.H.H.H.H.H.H.H.H.H.H.H.H.H.H.H.H.H.H.H.H.H.H.H.H.H.H.H.H.H.H.H.H.H.H.H.H.H.H.H.H.H.H.H.H.H.H.H.H.H.H.H.H.H.H.H.H.H.H.H.H.H.H.,.,.,.,.,.,.,.,.,.,.,.,.1.1.1.1.H.H.H.H.H.H.H.H.H.H.H.H.1.1.H.1.H.H.H.H.1.1.1.1.1.,.k.x.Z.XX=XS.L R R L { oXoX} ` ` ^ ^ ^ / / ^ R T Y Y B 4 2 2 2 2 5 4 d d d d Y V d a 2 3 2 1 o o & & o o o o o # * 1 1 1 1 p 3 3 3 3 1 1 1 1 1 1 1 1 1 1 # o # # # o # 1 1 1 1 p 3 3 d d d d d d d d s s p p s p # X                                           X p h h h h D h h s p d p # o + + * * . & & & . A.^.^ b ' #X1X2X<X;X-XF.x.D g #.4.4.4.7.7.4.4.7.q.i.d.g.d.d.d.d.d.d.p.p.p.p.d.d.d.tXtXtXrXs.s.s.s.i.i.y.9.7.#.o.o.i t i o.7.7.9.9.9.9.9.q.9.9.4.4.4.o.o.7.o.#.#.#.#.#.o.o.7.7.p.p.p.p.i.y.y.9.9.4.O.O.7.o.o.t o.o.7.7.7.7.9.9.7.%.o.o.4.q.q.i.i.q.q.7.9.9.9.%.#.#.o.o.#.4.7.7.q.9.q.E.p.9.u w y y 9 9 8 ..y.d.g.g.s.6.t.s.s.i.%.-.u.H.H.H.H.H.H.H.H.H.H.H.H.H.1.1.1.1.H.H.H.H.H.H.1.,.,.H.J.I.*.*.*.*.H.H.H.H.H.H.H.H.H.H.H.H.H.H.H.H.H.H.H.H.H.H.H.1.H.H.H.H.H.H.H.H.H.H.H.H.H.H.H.H.H.H.H.H.H.H.H.H.H.H.H.H.H.H.H.H.H.H.H.H.",
"J.H.H.H.H.H.J.J.H.H.H.H.H.H.H.H.H.H.H.H.J.J.H.H.H.H.H.H.H.H.H.H.H.H.H.H.P.P.P.P.H.H.J.J.P.P.J.J.P.P.P.J.J.J.J.J.P.P.P.P.J.J.J.J.J.H.H.H.H.H.J.J.H.H.H.H.H.H.H.H.H.H.H.H.H.H.J.J.H.J.J.J.H.H.H.H.H.H.H.H.H.H.H.H.H.H.H.H.H.H.H.H.H.H.H.J.H.H.H.H.H.H.J.J.H.J.J.H.H.J.J.H.J.J.H.H.H.H.H.H.H.H.H.H.H.H.H.H.H.H.H.H.H.H.H.H.H.H.H.H.H.H.H.H.H.H.H.H.H.H.H.H.H.H.H.H.H.H.H.H.H.H.H.H.H.H.H.H.H.H.H.H.,.,.,.,.,.,.,.,.,.,.,.,.1.1.1.1.H.H.H.H.H.H.H.H.H.H.H.H.H.H.H.H.1.H.1.1.1.1.1.1.1.,.k.l.G.XX:XS.K H H K R |.oXS.^ ^ ` ` ` ` ` ^ R R ~ T B 4 2 2 2 2 4 d Y Y Y Y Y V d a 2 3 2 1 o o o o o o o o o o # * 1 1 1 1 1 1 1 1 1 1 1 1 ; ; 1 1 1 1 # o # o o o # # 1 1 1 1 1 1 a a a a a a a a p p p p p # X                                           O ; g h h h h h h h s p p 1 o o # * * * & & & & } oX{ I ] $XvXvX2X;XXXG.E D g g #.4.9.7.4.4.4.4.y.y.d.d.d.d.d.d.d.d.d.d.d.d.d.d.d.tXtXtXtXtXrXrXs.s.s.i.i.y.7.o.o.o.o.X.o.4.9.q.i.i.i.i.i.i.q.q.9.9.4.7.7.7.7.#.@.@.o.o.o.o.7.7.9.9.9.9.4.4.5.5.4.4.5.4.i.9.X.i X.o.7.7.7.7.7.7.%.%.o.o.q.q.q.i.i.q.4.4.7.7.7.o.o.o.#.#.#.7.9.p.q.E.E.w.u i w w g y y t t o.i.d.g.tXs.6.s.s.d.y.%.-.H.H.H.H.u.u.H.H.u.u.H.H.H.H.H.H.H.H.H.H.1.1.H.H.H.1.1.,.1.1.,.,.,.,.1.1.H.H.H.H.H.H.H.H.u.u.H.H.H.H.H.H.H.H.H.H.1.1.H.H.H.H.H.H.H.H.H.H.H.H.H.H.H.H.H.H.H.H.H.H.H.H.H.H.H.H.H.H.H.H.H.H.H.H.",
"J.H.H.H.H.H.H.J.H.H.H.H.H.H.H.H.J.H.H.H.H.J.H.H.H.H.H.H.H.H.H.H.H.H.H.H.P.P.P.P.P.P.J.J.J.J.J.J.P.P.P.J.H.H.H.H.P.P.P.P.J.J.P.J.J.J.H.H.H.H.J.J.H.H.H.H.H.H.H.H.H.H.H.H.H.H.J.J.H.H.J.J.H.H.H.H.H.H.H.H.H.H.H.H.H.H.H.H.H.H.H.H.H.H.H.J.H.H.H.H.J.J.J.J.H.J.J.H.J.J.J.H.H.J.J.J.H.H.H.H.H.H.H.H.H.H.H.H.H.H.H.H.H.H.H.H.H.H.H.H.H.H.H.H.H.H.H.H.H.H.H.H.H.H.H.H.H.H.H.H.H.H.H.H.H.H.H.H.H.H.H.H.,.,.,.,.,.,.,.,.,.,.,.,.1.1.1.1.H.H.H.H.H.H.H.H.H.H.H.H.H.H.H.H.1.1.1.1.1.1.1.1.1.,.c.l.F.-X:X^.H < < H L S.oXS.H K L ^ ` ` ` ^ ^ R R ~ m 4 2 2 2 5 4 4 Y Y Y Y Y Y d 2 2 3 2 1 o o o o o o o o . . o # # * * * 1 1 1 ; ; ; ; ; ; ; 1 1 1 1 # o o o o o o # # # # ; ; # p p p p s p p p p p ; ; # X                                             # f h 8.h h h h h h f p 1 # o # * * * 1 o . & ` ,X^ `  X5X5X1X<XlX:XG.l.d h #.8.7.7.q.q.9.9.y.y.y.i.s.d.d.sXeXeXtXg.g.g.g.g.g.g.tXtXtXtXtXtXtXtXtXs.s.s.d.i.q.4.O.O.o.o.4.9.p.p.d.p.p.d.p.p.p.p.0.9.9.7.7.#.#.#.y y y u o.o.7.7.4.4.4.4.o.o.O.O.9.9.9.5.d.q.o.i X.o.7.7.7.7.7.%.%.O.o.o.7.q.q.q.q.4.4.o.4.4.4.o.o.o.o.o.o.7.p.K.R.w.u 6 6 w t y #.g y y t O.i.g.g.tXs.6.s.h.i.9.%.-.H.H.u.u.u.u.H.u.u.u.H.H.H.H.H.H.H.H.H.H.1.1.H.H.H.1.1.,.H.1.c.c.v.v.H.H.H.H.H.H.H.H.H.H.H.u.H.H.H.H.H.H.H.H.H.H.1.1.1.1.H.H.H.H.H.H.H.H.H.H.H.H.H.H.H.H.H.H.H.H.H.H.H.H.H.H.H.H.H.H.H.H.H.H.",
"H.H.H.H.H.H.H.H.J.J.J.H.H.H.J.J.J.J.H.H.H.H.H.H.H.H.H.H.H.H.H.H.H.H.H.H.P.P.H.H.H.P.P.P.H.H.H.H.Y.BXgX-.H.H.H.H.H.H.H.H.P.H.H.H.H.H.H.H.H.H.H.H.H.H.H.H.H.H.H.H.H.H.J.J.J.J.J.J.J.J.J.J.J.J.J.J.J.J.J.H.J.J.J.J.J.J.J.J.J.J.J.J.H.J.J.J.J.J.J.H.H.H.H.J.H.H.H.H.H.H.H.H.H.H.H.H.H.H.H.H.H.H.H.H.H.H.H.H.H.H.H.H.J.J.H.H.J.J.J.J.H.H.H.H.H.H.H.H.H.H.H.H.H.H.H.H.H.H.H.H.H.H.H.H.H.H.H.H.H.H.u.H.,.,.,.,.,.,.,.,.,.,.,.,.,.,.,.,.H.H.H.H.H.H.H.H.H.H.H.H.H.H.H.H.H.H.H.H.1.1.1.2.1.1.v.k.m.-XcX:X` b H b K { |.oXL < K ` ` { ` R R R R ! Y 4 2 4 4 4 4 Y Y Y Y Y Y A d 2 2 3 1 * o o o o         .   .   o # # * # # # # # # # # ; ; 1 1 1 ; ; ; o o o o X X o o o       o o o o # # # # + + + + X                                               p h h h h h h h h s p 1 # o o # 1 2 * o . B A.` L ] #X1X,X2XvXlX/.N.k.h 8.8.9.9.9.y.y.y.y.i.i.f.s.s.d.eXeXeXyXeXtXsXsXsXsXtXtXyXyXyXtXyXyXyXyXyXyXg.g.g.s.s.i.r.5.5.5.4.4.i.d.d.d.p.q.9.w.0.9.7.#.#.u u y t t y y y y y o.o.o.o.o.o.X.X.X.o.5.4.q.i.i.h.g.h.4.w X.#.7.7.7.7.7.7.%.%.o.o.4.q.q.q.y.9.4.o.4.4.o.o.X.X.X.o.%.9.p.K.9.y w w t y y g #.g y 8 t o.s.sXd.s.r.r.i.i.y.7.u.-.H.H.H.H.H.H.H.H.H.H.H.H.H.H.H.H.H.H.H.H.H.H.H.H.H.H.H.H.H.1.c.c.H.H.H.H.H.H.H.H.H.H.H.H.H.H.H.H.H.H.H.H.H.H.H.H.H.H.H.H.H.H.H.H.H.H.H.H.H.H.H.H.H.H.H.H.H.H.H.H.H.H.H.H.H.H.H.H.H.H.H.H.H.H.",
"H.H.H.H.H.H.H.H.J.H.J.H.H.J.J.J.J.J.H.H.J.J.H.H.H.H.H.H.H.H.H.H.H.H.H.H.P.P.H.H.P.P.P.P.H.H.H.H.fXSXfX=.H.H.H.H.H.H.H.H.P.H.H.H.H.H.H.H.H.H.H.H.H.H.H.H.H.H.H.H.H.H.J.J.J.J.J.J.J.J.J.J.J.J.J.J.J.J.J.J.J.J.J.J.J.J.J.J.J.J.J.J.H.J.J.H.J.J.H.H.H.H.H.H.H.H.H.H.H.H.H.H.H.H.H.H.H.H.H.H.H.H.H.H.H.H.H.H.H.H.H.H.J.H.H.H.J.J.J.J.H.H.H.H.H.H.H.H.H.H.H.H.H.H.H.H.H.H.H.H.H.H.H.H.H.H.H.H.H.H.u.H.,.,.,.,.,.,.,.,.,.,.,.,.,.,.,.,.H.H.H.H.H.H.H.H.H.H.H.H.H.H.1.1.H.H.H.H.1.2.1.1.1.1.1.n.m.D.:X=XR b L L L ^ S.|.{ H H ` ` { ` R R R R ! T m 4 B 4 B Y Y Y Y Y Y Y 4 a 2 3 1 1 * . . .           . . .   . o # # # # # # ; # # # # # ; ; ; ; ; ; o o o o       X                 O O O O O O O O                                                 ; s h h h h h s f p 1 # o o o o 3 1 & o Y -X{ < P 2X0X2X,X,X>XF.l.$.h 8.8.9.9.9.9.y.i.i.s.s.s.s.d.d.d.eXeXeXeXs.d.d.d.d.d.d.d.d.eXtXyXyXyXyXyXyXyXyXyXtXs.s.s.i.i.i.i.i.i.g.g.d.p.i.9.9.7.7.#.#.o.u t t t y y w y y y o.o.o.o.o.o.o.X.o.O.O.9.q.i.h.g.g.g.h.6.i o.o.#.#.%.%.%.%.%.%.o.O.4.q.q.q.y.9.4.o.4.4.o.o.X.X.X.o.0.9.7.7.y 6 6 t y #.#.#.g y 9 6 t O.d.d.s.i.r.r.i.i.y.%.u.-.H.H.H.H.H.H.H.H.H.H.H.H.H.H.H.H.H.H.H.H.H.H.H.H.H.H.H.H.H.H.H.H.H.H.H.H.H.H.H.H.H.H.H.H.H.H.H.H.H.H.H.H.H.H.H.H.H.H.H.H.H.H.H.H.H.H.H.H.H.H.H.H.H.H.H.H.H.H.H.H.H.H.H.H.H.H.H.H.H.H.H.H.H.H.",
"J.J.P.P.J.J.H.H.H.H.H.H.H.H.H.H.H.H.H.H.J.J.H.H.H.H.J.J.H.H.H.H.H.H.H.H.P.P.H.H.H.H.P.P.P.H.P.P.pXgX=.Y.H.H.H.H.H.H.H.H.P.P.H.H.H.H.H.H.J.J.H.H.H.H.H.H.H.H.H.H.H.H.J.J.J.J.J.J.J.J.J.J.J.J.J.J.J.J.P.P.J.J.J.J.J.J.J.J.J.J.J.J.H.H.H.H.H.H.H.H.H.H.H.H.H.P.H.H.H.H.J.J.H.H.H.H.H.H.H.H.H.H.H.H.H.H.H.H.H.H.H.H.H.H.H.H.H.H.J.H.H.H.H.H.H.H.H.H.H.H.H.H.H.H.H.H.H.H.H.H.H.H.H.H.H.H.H.H.u.u.H.H.H.H.c.H.c.c.c.c.c.c.c.c.H.H.H.H.H.H.H.H.H.H.H.H.1.1.H.H.H.H.1.1.H.H.H.H.1.1.1.1.2.1.1.v.n.E F.XXK b ` { ^ L ` } =X` H R ` { { L R R R ! W B B Y B Y Y Y Y Y Y Y A 4 2 3 1 1 * o                 . . . .   . o # # # ; ; ; ; # # # # ; ; ; ; ; 1 # # # #                                                                                         # p s f f f f p 1 1 # o o o o & 2 > & 4 /.T , ` 2X2X$X,X:XXX! 1 j $.0.0.9.8.9.9.9.y.i.i.i.i.d.d.d.d.d.d.d.d.y.5.O.5.5.5.5.5.r.r.f.rXrXtXyXyXyXyXyXyXtXyXtXg.s.s.s.s.s.s.g.g.g.d.i.q.7.7.7.#.o...t y y w w w e w y y y o.o.o.o.o.o.o.o.o.9.y.i.p.g.g.g.g.h.h.6.X.o.o.o.o.o.o.o.o.o.#.o.4.4.q.i.q.y.9.4.o.4.4.o.o.X.X.X.o.9.7.#.y 6 9 y #.#.#.#.#.u y 6 6 t 5.d.s.s.r.r.i.i.p.y.%.u.H.H.P.H.H.H.H.H.H.H.H.H.H.H.H.H.H.H.H.H.H.H.H.H.H.H.H.H.H.H.H.H.H.H.H.H.H.H.H.H.H.H.H.H.H.H.H.H.H.H.H.H.H.H.H.H.H.H.H.H.H.H.H.H.H.H.H.H.H.H.H.H.H.H.H.H.H.H.H.H.H.H.H.H.H.H.H.H.H.H.H.H.H.H.H.",
"J.J.P.P.J.J.J.H.H.H.H.H.H.H.H.H.H.H.H.H.J.J.H.H.H.H.J.J.H.H.H.H.H.H.H.H.P.P.H.H.H.H.H.H.H.P.P.P.P.=.Y.-.H.H.H.H.H.H.H.H.P.P.H.H.H.H.H.J.J.J.H.H.H.H.H.H.H.H.H.H.H.H.J.J.J.J.J.J.P.J.J.J.J.J.J.J.J.P.P.P.P.J.J.J.J.J.J.J.J.J.J.J.H.H.H.H.H.H.H.H.H.H.H.H.P.P.H.H.H.H.J.J.J.H.H.H.H.H.H.H.H.H.H.H.H.H.H.H.H.H.H.H.H.H.H.H.H.H.H.H.H.H.H.H.H.H.H.H.H.H.H.H.H.H.H.H.H.H.H.H.H.H.H.H.H.H.H.H.H.u.H.H.H.H.c.c.c.c.c.c.c.c.c.c.H.H.H.H.H.H.H.H.H.H.H.H.1.1.H.H.H.1.1.1.H.H.H.H.1.1.1.2.1.1.1.1.J.h x.G.J b ' |.] L L ` :XS.L L ` } { R R R R ! W Y B Y Y Y Y Y Y Y Y Y A 4 2 2 1 * o o . .   . . .     . . . . .   o o o # 1 1 1 ; # # # # ; ; ; ; ; 1 # # # #                                                                                         + e p p p p p p ; # o   . o o & 5 > J { R H S.2X2X} >X:X! A 3 s f $.$.8.7.7.9.9.9.y.i.i.i.i.d.d.d.d.d.d.u.9.O.o...........+.+.+.O.r.f.s.yXyXyXyXyXyXtXtXtXg.g.g.g.g.g.g.g.g.g.q.q.9.7.#.o.u y y y y w w w w w w y y y o...o.o.o.o.o.o.o.i.i.d.g.g.g.g.g.h.h.q.4.o.o.o.o.o.o.o.o.o.o.4.O.5.y.i.y.y.5.4.O.4.7.o.o.o.o.o.o.o.o.o.y w y #.#.#.#.#.#.u t 6 6 +.y.s.y.f.y.y.y.i.d.u.9.u.H.H.P.H.H.H.H.H.H.H.H.H.H.H.H.H.H.H.H.H.H.H.H.H.H.H.H.H.H.H.H.H.H.H.H.H.H.H.H.H.H.H.H.H.H.H.H.H.H.H.H.H.H.H.H.H.H.H.H.H.H.H.H.H.H.H.H.H.H.H.H.H.H.H.H.H.H.H.H.H.H.H.H.H.H.H.H.H.H.H.H.H.H.H.H.",
"J.P.P.P.P.J.J.J.J.J.P.P.P.J.J.J.J.J.J.J.P.P.J.J.J.P.P.P.J.J.J.J.J.J.J.J.J.J.J.J.P.P.J.J.J.J.J.J.H.H.H.H.H.H.H.H.H.H.H.H.P.P.H.H.P.P.P.P.J.J.J.J.J.J.P.P.J.J.J.J.J.J.J.J.J.J.J.J.J.J.J.J.J.J.J.J.J.J.J.J.J.J.J.J.J.J.J.J.J.J.J.J.P.P.P.H.H.H.J.J.J.P.P.P.P.P.P.H.H.H.H.H.H.H.H.H.H.H.H.H.H.H.H.H.H.H.H.H.H.H.J.H.H.H.H.H.J.J.J.H.H.H.H.H.H.H.H.H.J.J.H.H.H.H.P.P.H.H.H.H.H.H.J.H.P.P.u.P.H.H.H.H.H.H.H.H.H.H.H.H.H.H.H.H.H.H.H.H.H.H.H.H.H.H.H.H.H.H.H.H.H.H.H.H.H.H.H.H.H.H.H.1.v.v.H.2.J.,.k.D.~ < ` 2XOXQ.` ` { ;X^.K ` } { ` K R R ! W ~ W Y Y Y Y Y Y Y Y Y d 2 2 & o o .           . . . . . .         . o # * * 1 * * # # # # # # ; ; ; ; # # # #                                                                 o o o X                 o # p f p 1 1 # o o         o 2 > T =X{ } |.OXOXoXXXA.! 3 p y y f y #.#.#.#.#.%.%.7.9.9.i.i.d.d.d.d.p.9.o...y w 6 6 @ O 6 6 6 6 ....O.y.d.d.sXdXyXyXtXtXtXg.g.g.g.g.s.s.i.i.9.9.o.o.t t y y t t y y y y y y y y y @.@.@.o.o.o...o.o.o.o.o.%.9.y.i.i.p.p.q.i.i.i.o.o.o.o.o.o.o.o.4.4.4.4.d.s.s.i.5.i.d.d.p.7.o.u o.o.o.o.u y y t i o.9.0.#.#.#.#.g w 6 8 O.y.i.y.s.y.s.i.i.d.u.u.u.H.H.H.H.H.H.H.H.H.H.H.H.H.H.H.H.H.H.H.H.H.H.H.H.H.H.H.H.H.H.H.H.H.H.H.H.H.H.H.H.H.H.H.H.H.H.H.H.H.H.H.H.H.H.H.H.H.H.H.H.H.H.H.H.H.H.H.H.H.H.H.H.H.H.H.H.H.H.H.H.H.H.H.H.H.H.H.H.1.1.,.H.H.H.H.",
"J.J.P.P.J.J.J.J.J.J.P.P.P.P.J.J.J.J.J.J.J.P.J.J.J.J.P.P.J.P.J.J.J.J.J.J.J.J.J.J.P.P.J.J.J.J.P.P.H.H.H.H.H.H.H.H.H.H.H.H.P.P.H.H.P.P.P.P.J.J.J.J.J.J.P.J.J.J.J.J.J.J.J.J.J.J.J.J.J.J.J.J.J.J.J.J.J.J.J.J.J.J.J.J.J.J.J.J.J.J.J.J.P.P.P.H.H.H.P.P.P.P.P.P.P.P.P.P.H.H.H.H.H.H.H.H.H.H.H.H.H.H.H.H.H.H.H.H.H.H.J.J.H.H.H.H.J.H.J.H.H.H.H.H.H.H.H.H.J.J.H.H.H.H.P.P.H.H.H.H.H.H.J.H.H.H.H.H.H.H.H.H.H.H.H.H.H.H.H.H.H.H.H.H.H.H.H.H.H.H.H.H.H.H.H.H.H.H.H.H.H.H.H.H.H.H.H.H.H.H.H.1.v.v.H.2.2.1.,.n.! J ` $X$X].` ` ^ oX|.R ^ { } { K T R ! W ~ W E Y Y Y Y Y Y Y Y Y 2 2 & o o .   . .     . . . . . .     .   . o # * 1 1 1 * # # # # # # 1 1 ; ; # # # #                                                             o # 1 1 1 1 1 # o             o # p 1 # # o       X o - > 5 R S.|.XX=XOXOX|.{ T A d ; e t y y y y y y o.o.#.o.o.o.O.q.y.i.i.d.i.9.4.u i 6 @ @ O O O O O @ @ 6 w y ..4.y.s.s.tXtXtXtXd.d.g.g.g.h.i.i.4.4.o.o.u t i i y y t t y u u #.o.o.#.#.#.#.$.#.o.o.o...o...o.o.o.o.7.9.y.y.9.9.9.9.y.y.o.o.o.o.o.o.o.4.4.4.4.4.d.d.g.s.g.sXsXR.0.7.#.o.#.#.o.o.y y y t i 4.9.w.#.#.#.#.y w 8 +.y.y.s.s.s.s.s.s.d.p.u.u.u.H.H.H.H.H.H.H.H.H.H.H.H.H.H.H.H.H.H.H.H.H.H.H.H.H.H.H.H.H.H.H.H.H.H.H.H.H.H.H.H.H.H.H.H.H.H.H.H.H.H.H.H.H.H.H.H.H.H.H.H.H.H.H.H.H.H.H.H.H.H.H.H.H.H.H.H.H.H.H.H.H.H.H.H.H.H.H.H.H.1.1.H.H.H.H.",
"P.P.P.P.J.J.J.J.J.J.J.P.J.J.J.J.J.J.J.J.J.J.J.J.J.J.P.P.P.P.P.P.J.J.J.J.J.J.J.J.P.J.J.J.J.J.H.P.H.H.H.H.H.H.H.H.H.H.H.H.P.P.P.P.J.J.P.P.J.J.J.J.J.J.J.J.J.J.J.J.J.J.J.J.J.J.J.J.J.J.J.J.J.J.J.J.J.J.J.J.J.J.J.J.J.J.J.J.H.J.J.J.P.P.P.H.H.H.H.H.H.H.P.H.P.P.P.H.H.H.H.H.H.H.H.H.H.H.H.H.H.H.H.H.H.H.H.H.H.H.J.J.H.H.H.H.H.H.H.H.J.H.H.H.H.H.H.H.J.J.H.H.H.H.J.J.H.H.H.H.H.H.H.H.c.c.H.H.H.H.H.H.H.H.H.H.H.H.H.H.H.H.H.H.H.H.H.H.H.H.H.H.H.H.H.H.H.H.H.H.H.H.H.H.H.H.H.H.H.H.H.H.v.v.H.1.1.J.,.>.N.! ^ OX$X].] U K S.oX` R ` } } R T R ! W ~ W E Y Y Y Y Y Y Y Y Y 2 2 > o o .   . .     . . . . . .     .   . o # * 1 1 1 * # # # ; # # 1 1 ; ; # # # #                                                         o # p d h h d h s p 1 #             o # # o         X o 3 4 4 R S.oXoX2XXXS.! R 4 3 > ; ; e w w w w w w y y y y y o.o.o.4.7.q.i.i.q.4.o.i w @ O O O O O O O O O 6 6 6 t o.O.y.f.eXeXeXeXtXg.g.g.s.s.i.i.o.o.t t t i t t y y u u #.#.#.#.#.#.7.#.7.%.%.7.%.o.o.o.......o.o.o.O.%.9.7.7.7.9.9.y.y.o.o.o.o.o.o.4.4.7.%.4.4.i.g.tXtXdXdXR.p.7.7.#.#.#.#.o.o.y y t t o.9.9.w.#.#.#.#.t 6 w o.y.i.s.s.s.s.s.d.d.p.u.u.u.H.H.H.H.H.H.H.H.H.H.H.H.H.H.H.H.H.H.H.H.H.H.H.H.H.H.H.H.H.H.H.H.H.H.H.H.H.H.H.H.H.H.H.H.H.H.H.H.H.H.H.H.H.H.H.H.H.H.H.H.H.H.H.H.H.H.H.H.H.H.H.H.H.H.H.H.H.H.H.H.H.H.H.H.H.H.H.H.H.u.u.H.H.H.H.",
"P.P.P.P.J.J.J.J.J.J.J.J.J.J.J.J.J.J.J.J.J.J.J.J.J.J.J.P.P.P.P.P.J.J.J.J.J.J.J.J.P.J.J.J.J.J.P.P.H.H.H.H.H.H.H.H.H.H.H.H.J.P.P.P.J.J.J.J.J.J.J.J.J.J.J.J.J.J.J.J.J.J.J.J.J.J.J.J.J.J.J.J.J.J.J.J.J.J.J.J.J.J.J.J.J.J.J.J.H.J.J.J.P.P.P.H.H.H.H.H.H.H.H.H.J.J.P.H.H.H.H.H.H.H.H.H.H.H.H.H.H.H.H.H.H.H.H.H.H.H.J.J.J.H.H.H.H.H.H.H.J.H.H.H.H.H.H.H.J.J.H.H.H.H.H.H.H.H.H.H.v.v.v.v.b.c.c.v.H.H.H.H.H.H.H.H.H.H.H.H.H.H.H.H.H.H.H.H.H.H.H.H.H.H.H.H.H.H.H.H.H.H.H.H.1.H.H.H.H.H.H.H.1.v.v.H.1.n.,.>.l.D.S.OXOX].] ' K ^ S.S.^ ^ { S.^ K R R ~ ~ W E Y Y Y Y Y Y Y Y d 5 2 > o o .   . .   . . .             .   o o # * 1 1 1 * # # # ; # # 1 ; ; ; # # # #                                                         s s s s h h h h h s p ; #             o o o +       o o 5 G [ oX,X,X=XXX! ~ 4 5 - - ; ; @ @ 6 6 6 6 w w w y y y y y ..o.#.7.q.q.q.4.X.u w 6 @ O O O O O O O @ @ @ @ 6 6 y o.O.r.rXrXs.s.tXg.g.g.s.i.i.q.o.o.u t t t i t o.o.u o.7.7.7.7.7.7.9.9.9.9.9.9.7.#.o.o.........t ..o.O.4.4.4.4.i.q.q.y.o.o.o.o.o.o.o.7.7.7.7.4.p.g.sXdXtXg.y.o.%.#.#.7.#.#.o.#.y y t u X.9.9.w.#.#.#.#.t 6 t O.i.s.tXs.s.s.d.s.i.y.u.u.H.H.H.H.H.H.H.H.H.H.H.H.H.H.H.H.H.H.H.H.H.H.H.H.H.H.H.H.H.H.H.H.H.H.H.H.H.H.H.H.H.H.H.H.H.H.H.H.H.H.H.H.H.H.H.H.H.H.H.H.H.H.H.H.H.H.H.H.H.H.H.H.H.H.H.H.H.H.H.H.H.H.H.H.H.H.H.H.H.u.u.u.H.H.H.H.",
"P.J.P.P.P.P.J.J.P.P.J.J.P.P.P.P.P.P.P.P.P.P.P.P.J.J.P.J.H.H.P.P.J.J.J.J.J.J.P.P.J.J.J.J.J.J.J.J.J.J.J.J.1.H.I.mXJ.J.J.J.J.J.J.J.J.J.J.J.P.P.P.P.J.J.J.J.J.J.J.J.J.J.J.J.,.L.fXH.J.J.J.J.J.J.J.J.J.J.J.J.J.J.J.J.J.J.J.J.J.J.J.J.H.H.H.H.P.P.H.J.H.H.P.P.P.P.H.H.P.P.H.H.H.H.P.P.J.J.J.J.J.J.J.J.J.J.J.J.J.J.J.J.J.J.H.H.H.H.H.H.J.J.H.H.H.H.H.H.H.H.H.H.H.H.H.H.H.H.H.H.v.n.n.k.k.n.n.n.c.c.H.H.H.H.H.H.H.H.H.H.H.H.H.H.H.H.H.H.H.H.H.H.H.H.H.H.H.H.H.H.H.H.H.H.H.H.H.H.H.H.H.H.H.H.H.H.,.,.,.,.n.W.XXoX} ].].] { R ` XX} R ` S.` K m m ~ T Y m B Y Y Y Y Y Y Y 4 5 2 o o o   . . . . .           . . . .   o o # * 1 1 1 * # # # ; ; ; 1 1 ; ; ; ; # #                                                 # 1 p a h h h h h h d d h h d d 1 +           o o o o o o # > 5 ~ oX,XOXOXXXG.! 5 3 1 ; ; ; # O O @ @ 6 6 7 w y y y y f y y f y u o.o.7.4.u u w @ X         O O O O O O O O @ 6 y o.%.i.rXrXrXtXtXs.s.i.t.r.5.5.o.o.y t t t t y o.o.o.7.9.q.q.q.q.9.9.q.9.9.9.9.q.9.7.#.o.o.....o.o.o.o.o.o.4.q.p.9.9.9.o.o.o.o.o.o.7.7.y u o.#.d.g.g.d.y.5.O.O.%.#.#.#.y y u u y t t ..4.9.9.u.0.7.#.o.t 6 t y.y.tXtXeXr.s.eXs.p.p.p.H.H.H.H.H.H.H.H.H.H.H.H.H.H.H.H.H.H.H.H.H.H.H.H.H.H.H.H.H.H.H.H.H.H.H.H.H.H.H.H.H.H.H.H.H.H.H.H.H.H.H.H.H.H.H.H.H.H.H.H.H.H.H.H.H.H.H.H.H.H.H.H.H.H.H.H.H.H.H.H.H.H.H.H.H.H.H.H.H.H.H.H.H.H.H.H.H.",
"J.J.P.P.P.P.J.J.P.J.J.J.P.P.P.P.J.J.P.P.P.P.P.P.J.J.P.P.H.H.P.H.J.J.J.J.J.J.P.H.J.J.J.J.J.J.J.J.J.P.J.J.H.J.gXLXgX1.J.H.J.J.J.J.J.J.P.P.P.P.P.P.J.J.J.J.J.J.J.J.J.J.J.J.J.1.H.*.J.J.J.J.J.J.J.J.J.J.J.J.J.J.J.J.J.J.J.J.J.J.J.J.H.H.H.H.P.H.J.H.H.H.P.P.P.P.H.H.P.P.H.H.H.H.J.J.J.J.J.J.J.J.J.J.J.J.J.J.J.J.J.J.H.J.H.H.J.H.H.H.H.J.H.H.H.H.H.J.H.H.H.H.H.H.H.H.H.H.H.v.n.<.<.<.l.l.l.n.v.c.H.u.H.H.H.H.H.H.H.H.H.H.H.H.H.H.H.H.H.H.H.H.H.H.H.H.H.H.H.H.H.H.H.H.H.H.H.H.H.H.H.H.H.H.v.v.v.,.1.v.n.D.F.S.] ].].].} ` ^ S.^.^ ^ } { ! J J T Y m 4 d d d d d 4 4 4 4 3 > o o o   . . . . .           . . . .   o + # * 1 1 1 * # # # ; # # 1 1 ; ; ; ; # #                                               o 1 1 a d h h h h h h d d h h d d 1 +         o + o o o o o > 2 Y XXoX|.S._.A.! d 1 # # 7 e e 6 @ @ @ 0 7 7 e y y y y y f y y f y u o.#.7.4.u u w @ X                 O     O @ 6 y o.#.y.yXyXyXyXtXs.i.t.r.5.5.5.o.o.y t t t y u o.o.7.7.q.y.y.y.q.q.q.q.q.q.q.q.9.9.9.9.7.o.o.o.o.o.o.o.o.4.q.9.p.9.9.7.7.7.7.7.4.4.7.o.u u #.#.0.9.9.5.O.O.O.O.%.#.#.u y y y y t t y o.9.q.q.p.0.7.#.y w 8 o.d.d.sXtXs.f.eXeXd.p.u.u.0.J.J.H.H.J.J.H.H.H.H.H.H.H.H.H.H.H.H.H.H.H.H.H.H.H.H.H.H.H.H.H.H.H.H.H.H.H.H.H.H.H.H.H.H.H.H.H.H.H.H.H.H.H.H.H.H.H.H.H.H.H.H.H.H.H.H.H.H.H.H.H.H.H.H.H.H.H.H.H.H.H.H.H.H.H.H.H.H.H.H.H.H.H.H.H.H.",
"J.J.J.J.P.P.P.J.P.P.J.J.J.P.P.P.J.J.J.J.P.P.P.P.J.J.J.H.H.H.H.H.P.P.P.J.J.J.J.P.J.J.J.J.P.P.J.J.P.P.P.J.J.-.gXSXgX1.J.H.J.J.J.J.J.J.P.P.P.P.J.J.J.J.J.J.J.J.J.J.J.J.J.J.mXmXI.Y.J.J.J.J.J.J.J.J.J.J.J.J.J.J.J.J.J.J.J.J.J.J.J.J.H.H.P.P.P.P.H.H.H.P.P.P.H.H.H.H.P.P.P.H.H.H.H.J.J.J.J.J.J.J.J.J.P.J.J.J.J.J.J.J.H.H.H.H.J.J.J.H.H.H.H.H.H.H.H.J.H.H.H.H.J.J.H.H.H.H.H.n.n.B.3.3.B.C V m.v.H.H.u.H.H.H.H.H.H.H.H.H.H.H.H.H.H.H.H.H.H.H.H.H.H.H.H.H.H.H.H.H.H.H.H.H.H.H.H.H.H.H.H.H.H.v.v.n.v.1.1.,.m.D.Z.` } |.|.|.{ ` } |.` L { ^.{ R J J J 4 5 5 4 2 2 5 5 5 5 4 5 2 o o o           . . . . .     . . .   o # # * 1 1 1 * # # # ; ; # 1 ; ; ; ; 1 # #                                             o # p a d h h h h h h h d d d d d d 1 o X   # # # ; * * > > > 4 Y A.XX_._._.[ Q d 1 # 7 7 y y w 6 7 7 7 7 7 e y y y y y f f f f f f u u #.7.4.u u w w @ X                     O @ 6 y g #.y.yXyXyXyXg.s.t.r.6.5.5.9.o.o.y t t y u o.o.7.7.q.q.y.y.y.y.y.y.y.y.y.y.y.9.9.9.9.q.q.7.o.#.#.O.%.4.q.9.9.9.q.7.o.7.9.p.9.9.q.o.o.u g #.7.7.o.o.O.O.O.O.O.#.#.#.y y y t t t t ..%.q.q.d.p.0.7.#.t 6 t 9.sXsXdXtXr.s.tXd.p.u.u.u.0.H.H.*.*.*.*.H.H.H.H.H.H.H.H.H.H.H.H.H.H.H.H.H.H.H.H.H.H.H.H.H.H.H.H.H.H.H.H.H.H.H.H.H.H.H.H.H.H.H.H.H.H.H.H.H.H.H.H.H.H.H.H.H.H.H.H.H.H.H.H.H.H.H.H.H.H.H.H.H.H.H.H.H.H.H.H.H.H.H.H.H.H.H.H.H.H.",
"J.J.J.J.P.P.P.J.P.P.J.J.J.P.P.P.J.J.J.J.J.J.P.P.J.J.J.J.H.H.H.H.P.P.P.J.J.J.J.P.J.J.P.P.P.P.J.J.J.P.P.P.H.Y.I.H.J.J.J.J.J.J.J.J.J.J.P.P.P.P.J.J.J.J.J.J.J.J.J.J.J.J.J.J.JXLXfXH.J.J.J.J.J.J.J.J.J.J.J.J.J.J.J.J.J.J.J.J.J.J.J.J.H.H.P.P.P.P.H.H.H.H.J.P.H.H.H.H.P.P.P.P.H.H.P.P.J.J.J.J.J.J.J.J.P.P.J.J.P.P.J.J.H.H.H.H.J.J.H.H.H.H.H.H.H.H.H.H.H.H.H.H.J.J.J.J.P.H.n.n.B.(.~.~.( C C B.v.H.u.u.H.H.H.H.H.H.H.H.H.H.H.H.H.H.H.H.H.H.H.H.H.H.H.H.H.H.H.H.H.H.H.H.H.H.H.H.H.H.H.H.H.H.v.n.n.,.1.,.,.n.m.x.R ` Q.|.oXS.} } ^.{ ^ { ^.S./ T J 4 < , , 5 2 2 2 2 2 2 d 2 2 o o .             . . . .     . . .   o # # * 1 1 1 * # # # ; ; ; # # # # 1 1 # ;                                           o # # a d h D h h h h h h h d h d d a 1 o X   # # ; 1 1 1 1 > 4 T S.XXXXoX_._.A 3 ; X 7 w y y y y 9 9 e e f e y y y y y y y y f f f y u #.#.8.7.u u i w @ X                     O @ @ y g #.u.d.rXrXg.s.i.t.r.5.5.5.7.o.o.t y y y o.u #.7.7.q.q.r.y.y.y.y.y.y.y.y.y.y.q.q.q.9.9.q.q.q.7.7.7.7.q.9.9.9.q.7.o.o.7.9.d.p.d.9.O.o.u g 7.7.#.y t o.O.O.O.4.o.o.o.y y t y t t y o.9.i.p.p.R.0.%.y 6 6 t y.dXsXdXs.r.d.tXd.y.u.u.u.H.$.H.gXzXjXfXJ.*.H.H.H.H.H.H.H.H.H.H.H.H.H.H.H.H.H.H.H.H.H.H.H.H.H.H.H.H.H.H.H.H.H.H.H.H.H.H.H.H.H.H.H.H.H.H.H.H.H.H.H.H.H.H.H.H.H.H.H.H.H.H.H.H.H.H.H.H.H.H.H.H.H.H.H.H.H.H.H.H.H.H.H.H.H.H.H.H.",
"J.J.J.J.J.J.J.J.J.J.J.J.J.J.J.J.J.J.J.J.J.J.J.J.J.J.J.H.J.J.J.J.J.J.J.J.J.J.J.J.J.J.J.J.J.J.H.H.J.J.J.J.J.J.J.J.J.J.J.J.J.J.J.J.J.J.J.J.J.J.J.J.J.J.J.J.J.J.J.J.J.J.J.J.SXBXfXH.H.H.H.H.J.J.J.H.J.J.J.J.J.J.J.J.J.J.J.J.J.J.J.J.J.J.J.J.J.J.J.J.J.J.J.J.J.J.J.J.J.J.J.J.J.J.J.J.J.H.J.J.J.H.J.J.J.J.J.J.J.J.J.J.J.J.J.J.H.H.H.H.H.H.H.J.H.H.H.H.J.J.H.H.H.H.H.H.H.v.v.l.B.(.).~.~.Z = C n.H.a.a.P.H.J.J.H.H.H.H.H.H.H.J.J.J.J.H.H.H.H.H.H.H.H.H.H.H.H.H.H.H.H.H.H.H.H.H.H.H.H.H.H.H.c.v.H.H.H.1.,.c.k.E Y R { |.|.|.S.} S.S.S.S.S.} { [ J 4 < 5 > > 2 2 1 1 2 2 2 2 2 2 o o .               . .       .   . o o # * 1 1 p 1 * # # # ; ; # # # # 1 1 ; ; X                                         o 1 p p d h h E E E E h h h h h d a p 1 # o # * * * 1 . & & . , } |.,X2X=XF.d 1 1 ; ; ; e y y y t y e y f f y f y g #.#.y y y w y y g #.#.#.#.o.u u u w 6 @ O O           X O O @ 6 7 f g #.%.r.s.s.s.i.i.t.r.y.9.q.q.7.%.o.u u o.o.o.7.7.7.7.q.q.y.y.y.y.q.q.y.q.q.q.q.q.q.7.q.9.9.q.9.9.7.7.O.o.o.o.o.o.o.o.o.9.p.R.9.7.o.#.#.#.y y y t y o.7.4.4.4.X.u u y y t w 6 y o.7.9.g.R.R.R.7.o.y 6 0 %.R.sXtXd.f.s.d.d.a.y.u.u.H.H.*.=.mXJXHXT.H.H.H.H.H.H.H.H.H.H.H.H.H.H.H.H.H.H.H.H.H.H.H.H.H.H.H.H.H.H.H.H.H.H.H.H.H.H.H.H.H.H.H.H.H.H.H.H.H.H.H.H.H.H.H.H.H.H.H.H.H.H.H.H.H.H.H.H.H.H.H.H.H.H.H.H.H.H.H.H.H.H.H.H.H.H.H.H.H.H.",
"J.J.J.J.J.J.J.J.J.J.J.J.J.J.J.J.J.J.J.J.J.J.J.J.J.H.J.J.J.J.J.J.J.J.J.J.J.J.J.J.H.H.J.J.J.J.J.J.J.J.H.H.J.J.J.J.J.J.J.J.J.J.J.J.J.J.J.J.J.J.J.J.J.J.J.J.J.J.J.J.J.J.J.J.H.H.1.H.H.H.H.H.J.J.J.H.J.J.J.J.J.J.J.J.J.J.J.J.J.J.J.J.J.J.J.J.J.J.J.J.J.J.J.J.J.J.J.J.J.J.J.J.H.J.J.J.J.J.J.J.J.H.J.J.J.J.J.J.J.J.J.J.J.J.J.J.H.H.H.H.H.J.J.J.H.H.H.H.J.J.H.H.H.H.H.H.H.v.v.l.B.~.~.~.~.Z k C n.H.a.a.P.J.J.J.H.H.H.H.H.H.H.H.J.J.H.H.H.H.H.H.H.H.H.H.H.H.H.H.H.H.H.H.H.H.H.H.H.H.H.H.H.1.1.1.H.H.H.H.,.,.k.E E ! / } S.|.|.} } S.XX|.S.S.Z.{ ! J 4 5 > > > > > > 2 1 3 3 2 3 o o .               . .     . .   o o o # * 1 1 p 1 * # # # ; ; # # # # 1 1 ; ; +                                         o 1 p p d h h E D D D h h h h d p p 1 * o o * * * * * o o 1 B G.=XvXvXOX! > o p e ; @ : e e e w w y e f f f f y f g #.#.#.#...w y y g #.#.#.#.u u u u y 9 6 O O O O O O O O @ @ 6 6 9 f g #.#.O.r.i.s.i.i.s.i.y.y.9.9.7.7.7.#.o.#.7.7.7.7.7.7.7.9.9.q.y.y.q.q.q.q.q.q.7.7.q.7.7.q.q.q.7.7.%.%.o.o.o.o.o.o.o.o.4.9.p.p.7.o.#.#.#.o.y t w t y y #.7.4.4.X.u u y y t w 6 y o.7.9.d.R.R.p.#.y 9 6 8 y.g.d.d.s.y.d.d.d.u.u.u.H.H.H.Y.J.zXDXBXJ.J.1.H.H.H.H.H.H.H.H.H.H.H.H.H.H.H.H.H.H.H.H.H.H.H.H.H.H.H.H.H.H.H.H.H.H.H.H.H.H.H.H.H.H.H.H.H.H.H.H.H.H.H.H.H.H.H.H.H.H.H.H.H.H.H.H.H.H.H.H.H.H.H.H.H.H.H.H.H.H.H.H.H.H.H.H.H.H.H.H.",
"J.J.J.J.J.J.J.J.J.J.J.J.J.J.J.J.J.J.J.J.J.J.J.J.J.J.J.J.J.J.J.J.J.J.J.J.H.H.J.J.J.J.J.J.J.J.J.J.J.J.J.J.J.J.J.J.J.J.J.J.J.J.J.J.J.J.J.J.J.J.J.J.J.J.J.J.J.J.J.J.J.J.J.J.T.T.J.*.H.H.H.H.J.J.H.H.J.J.J.J.J.J.J.J.J.J.J.J.J.J.J.J.J.J.J.J.J.J.J.J.J.J.J.J.J.J.J.J.J.J.J.J.H.H.J.J.J.J.J.J.J.J.J.J.J.J.J.J.J.J.J.J.J.J.J.J.H.H.H.H.H.H.H.H.H.H.H.H.J.H.H.H.H.H.H.H.H.v.v.n.l.( ~.Z Z Z x C n.H.H.u.P.H.H.H.H.H.J.J.H.H.H.H.H.H.H.H.H.H.H.H.H.H.H.H.H.H.H.H.H.H.H.H.H.H.H.H.H.H.H.H.H.1.1.1.H.H.H.H.,.,.k.k.E W T { { S.|.|.S.S.XXXX|.S.G.S.[ ! J 4 5 > > > 1 1 1 1 3 3 3 3 1 o o .               . . . . .   o # * * * 1 1 p p 1 * # # ; ; # # # # 1 1 1 ; # o                                       o 1 p p d h h h h h h d d d d p 1 ; # o o o 1 * * * # o 2 ! _.lXvXlX{ 5 o o a p ; @ @ ; ; e e e y y y f f f y y f #.#.#.#.#.#.y y t u u u u u u y u y y e 6 @ @ @ @ @ @ @ @ @ @ 6 6 w g #.#.#.o.5.5.i.y.y.i.i.y.9.9.9.9.9.7.7.7.7.7.7.7.7.7.7.7.7.9.q.9.q.9.9.7.7.4.4.O.4.7.7.7.7.7.7.7.%.%.%.o.o.o.o.O.o.o.o.4.7.9.7.o.o.#.#.u y y t 6 6 y t #.7.4.4.4.u u u y w w 6 y o.7.9.d.K.p.7...y 9 8 %.d.tXi.d.y.y.d.d.i.y.u.H.H.H.H.I.*.*.*.,.1.1.J.H.H.H.H.H.H.H.H.H.H.H.H.H.H.H.H.H.H.H.H.H.H.H.H.H.H.H.H.H.H.H.H.H.H.H.H.H.H.H.H.H.H.H.H.H.H.H.H.H.H.H.H.H.H.H.H.H.H.H.H.H.H.H.H.H.H.H.H.H.H.H.H.H.H.H.H.H.H.H.H.H.H.H.H.H.H.H.H.",
"J.J.J.J.J.J.J.J.J.J.J.J.J.J.J.J.J.J.J.J.J.J.J.J.J.J.J.J.J.J.J.J.H.H.J.J.J.J.J.J.J.J.J.J.J.J.J.J.J.J.J.J.J.J.J.J.J.J.J.J.J.J.J.J.J.J.J.J.J.J.J.J.J.J.J.J.J.J.J.J.J.J.J.J.1.,.H.J.H.H.H.H.J.J.J.J.J.J.J.J.J.J.J.J.J.J.J.J.J.J.J.J.J.J.J.J.J.J.J.J.J.J.J.J.J.J.J.J.J.J.J.J.H.H.J.J.J.J.J.J.J.J.J.J.J.J.J.J.J.J.J.J.J.J.J.J.H.H.H.H.H.H.H.H.H.H.H.H.H.H.H.H.H.H.H.H.H.v.n.n.C ( Z z N N x C l.v.H.u.H.H.H.H.H.H.J.J.H.H.H.H.H.H.H.H.H.H.H.H.H.H.H.H.H.H.H.H.H.H.H.H.v.v.H.H.H.H.H.H.H.1.1.1.H.H.H.H.1.,.,.k.E E ! ! [ { S.^.^.S.^.XXXXXXS.G.{ [ ! ~ 5 5 > > > 1 1 1 3 3 3 3 3 # o .               . . .     . o # * * * 1 1 p p 1 * # # # ; # # # # 1 1 1 1 # +                                       o 1 p p d h h d d d d a a a p 1 1 # o o o * 1 q 7 * o > ! =XlXlX=X~ 4 & 1 o   # @ # @ : ; e e e e e y f f f y y f #.#.#.#.#.#.y t y y y y y y y y u y y w 6 @ @ @ @ @ @ @ @ @ 6 6 w t o.o.#.#.o.o.o.9.4.q.y.q.9.9.9.9.9.9.7.7.7.7.7.7.7.7.7.7.7.7.9.9.q.q.q.q.o.o.o.o.O.o.O.4.7.7.7.7.7.%.7.%.o.o.o.o.7.4.7.7.o.o.o.o.o.7.#.#.y y t 6 6 6 w y o.7.4.4.4.u u u y w w 6 y o.7.i.p.p.9...t 8 9 8 i.sXtXy.y.y.d.d.d.i.u.u.u.H.H.H.H.*.J.*.H.H.H.H.H.H.H.H.H.H.H.H.H.H.H.H.H.H.H.H.H.H.H.H.H.H.H.H.H.H.H.H.H.H.H.H.H.H.H.H.H.H.H.H.H.H.H.H.H.H.H.H.H.H.H.H.H.H.H.H.H.H.H.H.H.H.H.H.H.H.H.H.H.H.H.H.H.H.H.H.H.H.H.H.H.H.H.H.H.H.H.H.",
"J.J.J.J.J.J.J.J.J.J.J.J.P.P.P.P.J.J.J.J.J.J.J.J.J.J.J.J.J.J.J.J.J.J.J.J.H.H.J.J.J.H.J.J.J.J.J.J.J.J.J.J.J.J.J.J.J.J.J.J.J.J.J.J.J.J.J.J.J.J.J.J.J.J.J.J.P.J.J.J.J.J.J.J.jXMXMXgXH.H.H.J.J.J.J.J.J.J.J.J.J.J.J.J.J.J.J.J.J.J.J.J.J.I.0.H.P.P.J.J.J.J.J.J.J.J.J.J.J.J.J.J.J.J.J.J.J.J.J.J.J.J.J.J.J.J.J.J.J.J.J.J.J.J.J.J.J.J.J.P.P.P.P.P.J.J.J.P.H.H.H.H.H.H.H.H.H.n.n.n.<.C N z N x x = >.n.v.H.H.H.H.H.H.H.H.J.J.H.H.H.H.H.H.J.H.H.H.H.H.H.H.H.H.H.H.H.H.H.H.H.H.H.H.H.H.H.H.*.J.T.*.H.H.H.H.H.H.H.c.n.k.E E ~ < G ! S.S.XXS.{ R R Z.XXG.Z.[ ! Q d 5 o 2 2 1 2 1 1 1 3 3 1 * o .   . .     . .     . o o # * * 1 1 1 1 1 1 * * 1 # # o o # # # 1 1 1 1 p ; # X                                 o # 1 d p 3 p d d d d a a p p p 1 o o o a a a 1 h     a Z.-XlXlXG.~ 2 * # # # @ @ O @ : # e e e e e e e e e y y y y g #.#.#.#.#.y y t t w w t w t t y y g y t w w y g g y w w 6 6 w t y u u o.#.o.o.o.o.7.7.7.7.7.%.#.o.%.%.7.7.7.7.7.7.%.%.7.7.7.7.9.7.o.o.o.o.o.o.o.o.O.O.4.4.4.7.9.q.u.9.7.%.7.7.q.q.q.q.q.9.q.7.7.7.7.o.u i t t 6 6 6 6 t y o.7.4.4.4.X.u u u w 6 6 y o.o.7.9.%.o.y t 6 8 O.dXd.r.y.y.f.d.dXp.i.u.u.u.H.H.H.H.H.1.1.H.H.H.H.H.H.H.H.H.H.H.H.H.H.H.H.H.H.H.H.H.H.H.H.H.H.H.H.H.H.H.H.H.H.H.H.H.H.H.H.H.H.H.H.H.H.H.H.H.H.H.H.H.H.H.H.H.H.H.H.H.H.H.H.H.H.H.H.H.H.H.H.H.H.H.H.H.H.H.H.H.H.H.H.H.H.H.H.P.H.H.H.",
"J.J.J.J.J.J.J.J.J.J.J.J.P.P.P.P.J.J.J.J.J.J.J.J.J.J.J.J.J.J.J.J.J.J.J.J.J.J.J.J.J.H.J.J.J.J.H.H.J.J.J.J.J.J.J.J.J.J.J.J.J.J.J.J.J.J.J.J.J.J.J.J.J.J.J.J.J.J.J.J.J.J.J.J.VXLXLXBXH.H.J.J.P.P.J.J.J.J.J.J.J.J.J.J.J.J.J.J.J.J.J.J.J.Y.H.H.P.P.J.J.J.J.J.J.J.J.J.J.J.J.J.J.J.J.J.J.J.J.J.J.J.J.J.J.J.J.J.J.J.J.J.J.J.J.J.J.J.J.J.P.P.P.P.P.J.J.J.J.H.H.H.H.H.H.H.H.H.H.n.n.l.C ( Z M N % $ a >.c.,.H.H.H.H.H.H.H.H.J.H.H.H.H.H.J.J.H.H.H.H.H.H.H.H.H.H.H.H.H.H.H.H.H.H.H.H.H.H.H.*.BXBX*.1.H.H.H.H.H.H.c.c.k.E E Y 5 5 4 ! A.XXS.[ J 4 J ! A.G.Z.! x.E 2 > 2 2 2 2 1 1 1 3 3 3 1 * o o . . . o o o o o o o o * * * 1 1 1 1 1 1 * * 1 # o o X + # # 1 1 1 1 p p 1 # o X                               o # 1 3 3 p a p p p p p 1 1 1 o o X o d d 3 *   1 E F.XX2X=X[ < > ; p 7 7 e ; @ @ : : ; e e e e e e @ @ @ 9 w y y g #.#.#.#.#.y y t t w w t w t t y y y g y y y u #.#.#.g u u t y u u u u o.#.o.o.o.o.o.7.7.7.o.o.o.o.o.o.#.%.%.%.%.%.%.%.%.%.7.7.7.#.o.o.o.o.o.o.O.O.4.4.4.4.4.7.9.q.u.9.7.%.9.9.9.9.y.i.9.9.7.7.7.7.4.o.t i t t 6 6 6 w t y #.7.4.4.4.4.u u u w 6 6 y o.O.%.7.#.y y 8 8 +.i.dXi.5.5.y.s.d.d.p.p.u.u.u.H.H.H.H.1.1.1.H.H.H.H.H.H.H.H.H.H.H.H.H.H.H.H.H.H.H.H.H.H.H.H.H.H.H.H.H.H.H.H.H.H.H.H.H.H.H.H.H.H.H.H.H.H.H.H.H.H.H.H.H.H.H.H.H.H.H.H.H.H.H.H.H.H.H.H.H.H.H.H.H.H.H.H.H.H.H.H.H.H.H.H.H.H.H.H.H.H.H.H.",
"J.J.J.J.J.J.J.J.J.J.J.J.J.P.P.P.J.J.J.J.J.J.J.J.J.J.J.H.J.J.J.J.J.J.J.J.J.J.J.J.J.J.J.J.J.J.J.J.J.J.J.J.J.J.J.J.J.J.J.J.J.J.J.J.J.J.J.J.J.J.J.J.J.J.J.J.J.J.J.J.J.J.J.J.zXSXSXzXH.J.J.J.P.P.J.J.J.J.J.J.J.J.J.J.J.J.J.J.J.J.J.J.I.*.H.*.P.P.J.J.J.J.J.J.J.J.J.J.J.J.J.J.J.J.J.J.J.J.J.J.J.J.J.J.J.J.J.J.J.J.J.J.J.J.J.J.J.J.J.J.J.J.P.P.J.J.J.J.H.H.H.H.H.H.H.H.H.H.n.n.n.B.( ( M x % $ * q j $.v.H.H.H.H.H.H.H.J.J.H.H.H.H.J.J.H.H.H.H.H.H.H.H.H.H.H.H.H.H.H.H.H.H.H.H.1.H.1.*.SXSX1.*.H.H.H.H.1.H.H.v.n.l.E E Y > > Y ! S.F.Z.4 > & > Y Z.G.! Z.! Y 2 1 1 2 2 1 3 3 3 1 1 3 1 * # o o o o # # # # # # # * 1 * 1 * * 1 1 1 * * ; ; # o X + # # 1 1 1 1 p p p 1 # # o X                             o # 1 p p p p 1 1 1 1 1 1 ; o o o o d 2 2 > > V.>XlXlX_.G 5 > 1 s f f y y e e e e e e e e e e e 7 @ 6 @ 6 7 y y g #.#.#.#.#.y y t t t t t t t t y y t t u y u #.#.7.7.7.#.o.u u u u u u u o.o.o.o.o.o.o.#.7.u u u u +...o.o.o.o.o.o.O.O.%.%.#.#.#.#.o.o.o.o.7.7.7.7.7.4.4.4.4.7.9.y.u.9.7.7.7.7.7.7.q.q.q.q.7.7.7.7.X.X.t t t t t y t t y u #.7.4.4.4.4.X.u u w 6 6 y o.o.7.#.#.y 9 8 8 O.sXd.y.O.r.f.s.d.y.y.p.u.u.H.H.H.H.H.H.1.1.H.H.H.H.H.H.H.H.H.H.H.H.H.H.H.H.H.H.H.H.H.H.H.H.H.H.H.H.H.H.H.H.H.H.H.H.H.H.H.H.H.H.H.H.H.H.H.H.H.H.H.H.H.H.H.H.H.H.H.H.H.H.H.H.H.H.H.H.H.H.H.H.H.H.H.H.H.H.H.H.H.H.H.H.H.H.H.H.H.H.H.H.",
"J.J.J.J.J.J.J.J.J.J.J.J.J.P.P.P.J.J.J.J.J.J.J.J.J.J.J.H.J.J.J.J.J.J.J.J.J.J.J.J.J.J.J.J.J.J.J.J.J.J.J.J.J.J.J.J.J.J.J.J.J.J.J.J.J.J.J.J.J.J.J.J.J.J.J.J.J.J.J.J.J.J.J.J.H.H.J.H.H.J.J.J.P.P.P.J.J.J.J.J.J.J.J.J.J.J.J.J.J.J.J.J.H.gXY.H.P.P.J.J.J.J.J.J.J.J.J.J.J.J.J.J.J.J.J.J.J.J.J.J.J.J.J.J.J.J.J.J.J.J.J.J.J.J.J.J.J.J.J.J.J.J.J.P.J.J.J.J.H.H.H.H.H.H.H.H.H.H.n.n.B.l.C C l l % $ $ . * j v.H.H.H.H.H.H.H.H.J.H.H.H.H.H.H.H.H.H.H.H.H.H.H.H.H.H.H.H.H.H.H.H.H.H.H.1.H.1.*.T.fX,.H.H.H.H.H.1.1.2.H.v.n.k.E Z.5 - Y ~ [ A.Z.m > . . o B / Z.Z.x.E a 2 1 2 2 1 3 1 1 1 3 3 3 1 1 * # # * * * * * 1 * * * 1 1 1 * * 1 1 1 * * ; ; o o X + # # ; ; 1 1 p p p p 1 ; # # X                             o o 1 p p 1 1 1 1 1 ; ; # o o o 1 a 2 5 > A.2XcXlXG.5 - A d g g j @.f f y y w w e e e e e e e 7 @ 7 @ 6 6 y f g #.#.#.#.#.y y t t t t t t t t y y t t y y o.#.#.7.9.9.7.#.u u u u u u u o.o.o.o.o.#.o.#.o.t t t t t t t ..o.o.o.o.%.O.o.o.o.o.o.o.o.o.o.o.q.q.q.q.4.4.4.4.o.7.9.y.u.9.7.#.o.o.o.o.4.4.4.4.7.7.7.7.t t t t t t y o.t y y o.o.4.5.4.4.4.o.o.u w 6 6 y o.o.#.#.g y 6 8 t y.kXs.r.r.r.s.f.y.%.u.u.u.u.H.H.H.H.H.H.1.1.H.H.H.H.H.H.H.H.H.H.H.H.H.H.H.H.H.H.H.H.H.H.H.H.H.H.H.H.H.H.H.H.H.H.H.H.H.H.H.H.H.H.H.H.H.H.H.H.H.H.H.H.H.H.H.H.H.H.H.H.H.H.H.H.H.H.H.H.H.H.H.H.H.H.H.H.H.H.H.H.H.H.H.H.H.H.H.H.H.H.H.H.",
"J.J.J.J.P.P.P.P.J.J.J.P.P.P.J.J.J.J.P.P.P.P.J.J.J.J.J.J.P.P.H.H.H.H.J.J.J.H.J.J.J.J.J.J.J.J.H.H.J.J.J.J.J.J.J.J.J.J.J.J.J.J.J.J.J.J.J.J.P.J.J.J.J.J.J.J.J.J.J.J.J.J.J.J.J.J.J.J.H.J.J.P.P.P.J.J.J.J.J.J.J.J.J.J.J.J.J.J.P.P.J.J.fXVXY.H.P.P.P.P.P.P.J.J.J.J.J.J.P.P.P.P.J.J.P.P.J.J.J.J.J.J.J.J.P.P.J.J.J.J.J.J.J.J.J.J.J.J.J.J.J.J.J.J.J.J.J.J.J.H.H.H.H.H.H.H.J.n.n.l.B.l.C x l % % = = $ * + $.v.H.H.H.H.H.H.J.J.J.H.H.H.J.J.J.J.H.H.H.J.J.J.H.H.H.H.H.H.H.H.H.H.H.H.H.H.H.-.H.H.1.H.H.H.H.H.H.H.H.H.H.H.v.k.! R ~ Y Y ! ! Z.~ & . . . & B ! ! N.x.d 2 2 2 2 2 2 2 2 3 3 1 1 1 1 * o * * * * 1 1 * * * * 1 1 2 * * 1 1 1 1 1 ; # # o o o # # 1 1 1 1 p p p p p 1 1 # o                           . . . o # # # # # # o o o o o . o 2 2 o G >XnXnX=X3 d d h h h $.$.#.$.#.#.#.g g g f g g y w e 7 7 @ 6 6 6 w g g #.#.#.#.#.y y y y y y y y y y y y y y y y y #.#.#.#.#.#.u u u u y t t u u u o.o.o.o.o.o.o.o.i t u o.o.o.o.o.u o.o.o.o.o.#.o.o.o.o.o.o.o.#.7.q.q.q.7.o.o.o.o.O.O.4.O.9.7.4.o.o.o.i i t 4.q.i.g.q.o.w t i o.o.7.o...t t y u o.5.t.i.i.d.i.7.#.y w 6 6 i u #.#.#.y 6 6 0 O.dXtXr.r.r.y.i.y.y.u.u.H.H.H.H.H.H.H.H.H.H.H.H.H.H.H.H.H.H.H.H.H.H.H.H.H.H.H.H.H.H.H.H.H.H.H.H.H.H.H.H.P.P.P.H.H.H.H.H.H.H.H.H.H.H.H.H.H.H.H.P.P.P.P.P.P.H.H.H.P.H.H.H.H.H.H.H.H.H.H.H.H.H.H.H.H.H.P.H.P.H.H.H.H.P.P.H.H.H.1.H.H.H.H.",
"J.J.J.J.P.P.P.P.J.J.P.P.P.P.J.J.J.J.P.P.P.P.J.J.J.J.J.J.H.P.H.H.J.J.J.J.J.H.J.J.J.J.J.J.J.J.J.J.J.J.J.J.J.J.J.J.J.J.J.J.J.J.J.J.J.J.J.J.P.J.J.J.J.J.J.J.J.J.J.J.J.J.J.J.J.J.J.J.J.J.J.J.J.P.J.J.J.J.J.J.J.J.J.J.J.J.J.J.P.P.P.P.Y.mXJ.pXP.P.P.P.P.P.J.J.J.J.J.J.P.P.P.P.J.J.P.P.J.J.J.J.J.J.J.J.P.P.J.J.J.J.J.J.J.J.J.J.J.J.J.J.J.J.J.J.J.J.J.J.J.H.H.H.H.H.H.H.J.n.n.l.B.C x % % l = = = * * * $.v.H.H.H.H.H.H.J.H.J.H.H.H.H.H.H.J.H.H.H.H.J.J.H.H.H.H.J.H.H.H.H.H.H.H.H.H.H.-.H.H.H.H.H.H.H.H.H.H.H.P.2.2.H.n.! T ~ ~ ~ Y Y ! ! , o . . . & B W N.x.d a 2 2 2 3 3 3 3 3 3 1 1 1 1 * o * * * * 1 * o o o * 1 1 2 * * 1 1 1 1 1 ; ; # o o o # # 1 1 1 1 p p p p p 1 1 ; +                             .   .   o o o o o o o o o .   o 5 > ! lXnXlXR 5 - d h h $.$.$.$.8.$.$.$.$.8.#.g g g g y w e 7 6 @ 6 6 6 w g g #.#.#.#.y t y y y y y w y y y y y y y y y y u u u g y y t t t t i i t y u u o.o.o.o.o.o.o.o.t t o.o.%.o.o.o.u o.o.o.o.o.o.o.o.o.o.o.o.#.7.7.q.q.7.7.o.o.o.o.O.O.4.O.7.4.o.o.t i i i 4.d.R.g.i.q.o.t o.o.7.7.9.%.o...y y o.O.r.s.s.g.d.i.9.#.y w w 6 t u #.#.#.t 6 6 i i.dXtXr.r.y.y.y.y.y.u.H.H.H.H.H.H.H.H.H.H.H.H.H.H.H.H.H.H.H.H.H.H.H.H.H.H.H.H.H.H.H.H.H.H.H.H.H.H.H.H.P.P.P.H.H.H.H.H.H.H.H.u.u.H.H.H.H.H.H.H.H.H.P.P.H.H.H.H.H.P.H.H.H.H.H.H.H.H.H.H.H.H.H.H.H.H.H.P.H.P.P.H.H.H.H.P.H.H.H.1.H.1.H.H.",
"J.J.J.J.J.P.P.P.J.J.J.P.P.P.P.J.J.P.P.P.J.J.J.J.J.J.J.J.H.H.H.H.J.J.J.J.J.J.J.J.J.J.J.J.J.J.J.J.J.J.J.J.J.J.J.J.J.J.J.J.J.J.J.J.J.J.J.J.J.J.J.J.J.J.J.J.J.J.J.J.J.J.J.J.J.J.J.J.J.J.J.J.J.J.J.J.J.J.J.J.J.J.J.J.J.J.J.J.P.P.P.J.H.P.P.P.P.P.P.P.P.P.L.L.J.J.J.J.P.P.P.P.J.J.J.J.J.J.J.J.J.J.J.J.I.I.I.I.J.J.J.J.J.J.J.J.J.J.J.J.J.J.J.J.J.J.J.J.J.H.H.H.H.H.H.H.J.n.l.W ( C x % l x x x = = = q $.c.H.H.H.H.H.H.H.H.H.H.H.H.H.H.H.H.H.H.H.H.H.H.H.H.J.J.J.J.H.H.H.H.H.H.H.H.H.1.H.H.H.H.H.H.H.H.H.H.P.P.2.2.H.n.E Y ! ! ! Y Y Y / m & o . . . & B N.x.Y d a 2 2 3 2 2 2 a 3 1 1 1 1 * o * & * * * o o o o * 1 1 1 o o 1 p p p 1 1 ; # o o + # # 1 1 1 1 p p f p p p 1 1 #               . . . .     . .   .   . o o o o o o o o o o > 2 Y lXnX:X~ 4 G d d h $.$.$.$.#.#.8.8.8.8.8.8.8.g g g f y e 7 @ @ 6 6 w y #.#.#.#.#.y t y y y f y y y y y y y y y y y y y y y y y y y w w y y w y t y u u o.o.#.u o.o.o.o.u o.o.7.7.%.%.o.o.o.o.o.o.o.o.o.o.o.o.o.#.7.q.q.q.q.7.4.t t t +.4.o.O.o.%.o.o.o.X.o.o.o.d.R.R.d.7.o.o.t 7.q.9.p.u.9.#...y u o.7.s.rXtXtXd.i.9.#.y w w w i u u #.u w 6 w 4.sXdXg.r.r.y.y.y.i.p.u.H.H.H.H.H.H.H.H.H.H.H.H.H.H.H.H.H.H.H.H.H.H.H.H.H.H.H.H.H.H.H.H.H.H.H.H.H.H.H.H.H.H.H.H.H.H.H.H.H.H.u.u.u.u.H.H.H.H.H.H.H.H.H.H.H.H.H.u.H.H.H.H.P.P.H.H.H.H.P.P.H.H.H.H.H.H.H.H.H.H.H.H.H.H.H.H.H.P.H.H.H.-.1.1.",
"J.J.J.J.J.P.P.P.J.J.J.P.P.P.P.P.J.P.P.P.P.J.J.J.J.J.J.J.H.H.H.H.J.J.J.J.J.J.J.J.J.J.J.J.J.J.J.J.J.J.J.J.J.J.J.J.J.J.J.J.J.J.J.J.J.J.J.J.J.J.J.J.J.J.J.J.J.J.J.J.J.J.J.J.J.J.J.J.J.J.J.J.J.J.J.J.J.J.J.J.J.J.J.J.J.J.J.J.P.P.P.P.J.J.Y.I.P.P.P.P.P.P.J.L.J.J.J.J.P.P.P.P.J.J.J.J.J.J.J.J.J.J.J.J.I.I.I.I.J.J.J.J.J.J.J.J.J.J.J.J.J.J.J.J.J.J.J.J.J.H.H.H.H.H.H.H.J.n.l.W N.( N x x x x x = a a a $.c.H.H.H.H.H.H.H.H.H.H.H.H.H.H.H.H.H.H.H.H.H.H.H.H.H.J.J.J.H.H.H.H.H.H.H.H.H.H.H.H.H.H.H.H.H.H.H.1.P.P.2.2.H.n.E E ! x./ T Y m ! ~ 2 > o . . . 5 ! x.E d a 2 2 2 2 a a a a p p 1 1 * o * * * * o o o o o * 1 3 1 o o 1 p p 3 1 1 ; # o + + # # ; 1 1 1 p p p p p p 1 1 #       o o o o     . . . . . .   o # #       X o o o o 3 2 2 Y CXlXG.- 5 Y d D h h $.$.$.$.#.#.9.9.0.0.8.8.8.#.g g f y e 7 @ @ 6 7 w g #.#.#.g y t t t f y y y y y y y y y y y y y y y y y y t 6 6 w w w w w y t t y u o.o.#.u o.o.o.o.o.o.7.7.9.7.7.%.o.o.o.o.o.o.o.o.o.o.o.o.7.q.q.q.q.7.7.4.t t t t 4.o.o.o.o.o.o.o.o.7.0.p.p.p.i.4.o.o.X.t 9.i.p.p.p.9.%.o.y o.#.9.s.yXyXdXd.i.7.7.u w w w i y u #.u w 6 4.g.sXtXtXr.y.y.i.i.p.u.u.H.H.H.H.H.H.H.H.H.H.H.H.H.H.H.H.H.H.H.H.H.H.H.H.H.H.H.H.H.H.H.H.H.H.H.H.H.H.H.H.H.H.H.H.H.H.H.H.H.H.u.H.u.u.H.u.P.H.H.H.H.H.H.H.H.H.u.u.H.P.H.H.P.P.H.H.H.1.H.H.H.P.H.H.H.H.H.H.H.H.H.H.H.H.H.H.P.P.H.H.H.-.1.1.",
"J.J.P.P.J.J.J.J.P.P.P.P.P.P.P.P.P.P.J.J.P.P.P.P.P.P.P.P.P.P.P.P.J.J.J.J.J.J.J.J.J.J.J.J.J.J.J.J.J.J.J.J.J.J.J.J.J.J.J.J.J.J.J.J.J.J.J.J.J.J.J.J.J.J.J.J.J.J.J.J.P.P.P.P.J.J.J.J.J.J.J.J.J.J.J.J.J.J.J.J.J.J.J.J.J.J.J.J.J.J.P.P.J.J.P.P.P.J.J.J.P.P.P.J.J.J.J.P.P.P.P.P.P.P.P.P.J.J.J.J.J.J.J.J.J.J.J.J.J.J.J.J.J.J.J.J.J.J.J.J.J.J.J.J.J.J.J.J.J.J.J.J.J.J.J.H.v.n.l./ =X( M ( x x = = 2 * p h c.c.H.H.H.H.H.H.H.H.H.H.H.H.H.H.H.H.H.H.H.H.H.H.H.H.H.J.J.J.H.H.H.H.H.H.H.H.H.H.H.H.H.H.H.H.H.H.H.-.1.zXBXMXgXv.k.l.E Y x./ T Y ~ W E 4 & . . . & Y ! E d d 2 2 2 2 d d d d a a 3 1 1 * * * & * * o o o & 1 3 3 1 & & 1 p p p p 1 1 # # # # # # ; ; 1 1 1 1 p p p p 1 ; # +     o o X X # # # #         * * * * # o X       # 3 o > G.lX-XY > 3 d a p p s g g g f f f f #.8.9.0.8.8.#.#.g g y y y y y y w e t g g g u u g f g g f f y y y y y y y y y y y y y y y y y w w w w w y y t y t t y y u u #.#.#.#.#.#.o.o.#.#.9.7.7.7.#.o.o.o.o.o.o.o.O.O.O.4.9.q.i.p.i.y.9.4.4.4.4.4.4.o.o.o.7.9.u.p.p.p.0.9.%.o.o.o.t +.X.4.R.R.g.p.p.9.4.o.o.o.9.d.tXyXdXtXi.5.o.u w t w w y t w 6 i 6 w 4.g.g.tXtX5.r.i.p.u.u.H.H.H.H.H.H.H.H.H.H.H.H.H.H.H.H.H.H.H.H.H.H.H.H.H.H.H.H.H.H.H.H.H.H.H.H.H.H.H.H.H.H.u.u.u.u.H.H.H.H.H.H.H.H.H.H.H.P.P.P.H.u.H.H.H.H.H.H.H.H.H.H.H.H.H.H.H.1.H.H.H.H.u.H.H.H.H.H.H.H.H.H.H.H.H.H.H.H.P.H.H.H.H.H.H.H.",
"J.P.P.P.J.J.J.J.P.P.P.P.P.P.P.P.P.P.J.J.P.P.P.P.J.J.P.P.P.P.P.P.J.J.J.J.J.J.J.J.J.J.J.J.J.J.J.J.J.J.J.J.J.J.J.J.J.J.J.J.J.J.J.J.J.J.J.J.J.J.J.J.J.J.J.J.J.J.J.J.P.P.P.P.J.J.J.J.J.J.J.J.J.J.J.J.J.J.J.J.J.J.J.J.J.J.J.J.J.P.P.P.J.J.P.P.P.J.J.J.P.P.P.P.J.J.J.P.P.P.P.P.P.P.P.P.J.J.J.J.J.J.J.J.J.J.J.J.J.J.J.J.J.J.J.J.J.J.J.J.J.J.J.J.J.J.J.J.J.J.J.J.J.J.J.H.n.n.N.T n c M { N c = & d * # p c.c.H.H.H.H.H.H.H.J.H.H.H.H.H.H.H.H.H.H.H.H.H.H.H.H.H.H.J.J.H.H.H.H.H.H.H.H.H.H.H.H.H.H.H.H.H.H.H.-.-.hXBXDXzXc.n.k.k.E Y ! ! T T ~ T d & & . . o 2 Y E Y d d 2 2 2 d d d d d a a a 1 1 * * * & * * * o & 1 a 1 1 * * 1 p p p p 1 1 ; # # # # # # # 1 1 1 1 1 p p p 1 ; # +     o o o o # # # # # # * * * * * * * # o X   3 1 - 2 G.F.! 2 > 1 a p p ; p e e e e e e w w y g #.#.#.#.g y y y y y y y y e e y y g g g u u y y y y y f y y y y y y y y y y y y y y y t y w w w w w y y t y t t y t u u #.#.#.#.#.#.o.#.#.#.7.7.9.9.#.#.o.o.o.o.o.o.O.O.5.y.i.d.g.R.d.d.i.y.9.7.7.7.q.7.o.o.%.7.7.9.9.%.o.o.o.....+.t t o.q.R.R.p.p.i.9.o.o.o.o.9.d.yXyXtXs.y.4.o.X.i t t t o.y i w @ w 4.g.h.h.g.g.r.y.p.u.P.H.H.H.H.H.H.H.H.H.H.H.H.H.H.H.H.H.H.H.H.H.H.H.H.H.H.H.H.H.H.H.H.H.H.H.H.H.H.H.H.H.H.H.u.u.u.u.H.H.H.H.H.H.H.H.H.H.H.H.P.P.H.H.H.H.H.H.H.H.H.H.H.H.H.H.H.H.H.H.H.-.-.1.u.u.H.H.H.H.H.u.H.H.H.H.H.H.H.H.P.H.H.H.H.H.H.H.",
"J.J.P.P.P.P.J.J.P.P.J.J.J.J.P.P.P.P.J.J.J.J.P.P.J.J.J.J.P.P.P.P.J.J.J.J.J.J.J.J.J.J.J.J.J.J.J.J.J.J.J.J.J.J.J.J.J.J.J.J.J.J.J.J.J.J.J.J.J.J.J.J.J.J.J.J.J.J.P.P.J.J.J.J.J.J.J.J.J.J.J.J.J.J.J.J.J.J.J.J.J.J.J.J.J.J.J.J.J.J.P.P.J.J.P.P.P.P.P.P.P.P.P.P.J.J.P.P.P.P.J.J.J.J.P.P.J.J.J.J.J.J.J.J.J.J.J.J.J.I.J.I.J.J.J.J.J.J.J.J.J.J.J.J.J.J.J.J.J.J.J.J.J.J.J.J.J.m.W M c n n c c c = * 2 o   + c.c.H.H.H.H.H.H.J.J.H.H.H.H.J.J.H.J.H.H.H.H.J.J.H.H.H.H.J.J.H.H.H.H.H.H.H.H.H.H.H.H.H.H.H.H.H.H.H.1.-.aXI.Y.*.&.J.n.k.E 2 4 T / J Y W B 2 & . . . o d Q Y Y V d a 2 d d d d a a d a a 1 1 1 * * * * * * * 3 a 1 1 * * 1 p p p p p p p 1 # # # # # # 1 1 1 1 1 p p p 1 ; # + o X o o o X # # # # 3 3 1 1 1 1 1 1 1 * # o # ; - E F.G.A o 2 2 p + p p p e e 7 7 7 @ @ @ @ w w y y g y y w w y w w t t t t y f g g g g u u y y y y y y y y g g f y y w y y w y y y y t y w t y t t t y t t t t y t u u #.#.7.7.7.7.7.#.#.#.o.%.9.u.7.#.o.o.........O.O.5.y.d.g.g.sXd.d.i.y.y.y.q.q.q.q.7.4.o.o.o.o.y y y y y y y y t t 4.p.g.p.d.i.i.9.o.o.o.o.9.d.tXrXg.i.5.4.o.o.u t t t o.o.u i w i d.dXj.j.j.j.d.d.a.a.H.H.H.H.H.H.H.H.H.H.H.H.H.H.H.H.H.H.H.H.H.H.H.H.H.H.H.H.H.H.H.H.H.H.H.H.H.H.H.H.H.H.H.H.H.H.u.u.H.H.u.u.H.H.H.H.H.H.H.H.P.H.H.H.H.P.P.H.P.P.H.H.H.H.H.H.H.H.P.H.H.-.1.1.u.H.H.H.u.u.u.u.H.H.H.H.H.H.P.H.H.H.H.H.H.H.H.H.",
"J.J.P.P.P.P.P.P.P.P.J.J.J.J.P.P.P.P.J.J.J.P.P.P.J.J.J.J.J.J.P.P.J.J.J.J.J.J.J.J.J.J.J.J.J.J.J.J.J.J.J.J.J.J.J.J.J.J.J.J.J.J.J.J.J.J.J.J.J.J.J.J.J.J.J.J.J.J.P.P.J.J.J.J.J.J.J.J.J.J.J.J.J.J.J.J.J.J.J.J.J.J.J.J.J.J.J.J.J.J.P.P.P.J.P.P.P.P.P.P.P.P.P.P.P.J.P.P.P.P.J.J.J.J.P.P.J.J.J.J.J.J.J.J.I.I.J.J.J.I.I.I.J.J.J.J.J.J.J.J.J.J.J.J.J.J.J.J.J.J.J.J.J.J.J.J.m.l.B c , M n $ $ = 2 V d p s k.k.c.c.H.H.H.H.H.J.J.H.H.H.H.J.H.J.J.H.H.H.J.J.J.H.H.H.H.H.J.H.H.H.H.H.H.H.H.H.H.H.H.H.H.H.H.H.H.1.H.-.I.-.1.,.T.H.v.c.k.* 2 Y / ~ m B m 4 2 o . . o > Y Y Y Y d a 2 d d d d a d d d a a 3 1 1 1 * 1 * * 1 3 3 1 1 * * 1 p p 1 1 p p 1 ; # # # # # # 1 1 1 1 1 1 p p 1 ; # + o X o o o X # # # # 1 1 1 1 1 1 1 1 1 1 # o #   d D.E 2 2 d   # 1 # p p e e 7 @ @ @ O O O O @ 7 e e g y w e e e w w w w t t f f #.g g g u u w w w w y y y g g g g y e w 9 9 w y y y y t y w y y y y w w t t t t y y u u #.#.#.#.#.#.7.o.7.#.o.4.9.p.0.%.o.o.y y y +.O.r.r.y.i.i.d.d.i.y.9.5.i.i.i.i.i.y.q.7.o.o.y t t t t t y y y y t o.q.g.p.d.i.9.9.q.o.o.o.o.9.d.s.i.i.i.5.o.o.o.o.o.o.o.7.o.o.i o.q.g.tXt.t.t.t.sXU.a.u.H.H.H.H.H.H.H.H.H.H.H.H.H.H.H.H.H.H.H.H.H.H.H.H.H.H.H.H.H.H.H.H.H.H.H.H.H.H.H.H.H.H.H.H.H.H.H.H.u.u.u.u.H.H.H.H.H.H.H.H.P.P.H.H.H.H.P.P.P.P.H.H.H.H.H.H.H.H.P.H.H.1.1.1.H.H.H.H.u.u.u.u.H.P.P.P.H.H.P.H.H.H.H.H.H.H.H.H.",
"J.J.P.P.P.P.J.J.J.P.J.J.P.P.P.P.J.J.J.J.J.J.J.J.J.J.J.J.J.J.J.J.J.J.J.J.J.J.J.J.J.J.J.J.J.J.J.J.J.J.J.J.J.J.J.J.J.J.J.J.P.P.P.P.P.P.P.P.P.P.P.J.J.P.J.J.P.P.P.P.J.J.J.J.J.J.J.J.J.J.J.J.J.J.J.J.J.J.J.J.J.J.J.J.J.J.J.J.P.P.P.P.P.P.P.P.I.P.P.P.P.P.P.P.P.P.P.P.J.J.J.J.J.J.J.J.P.P.P.P.J.J.J.J.I.J.J.J.I.I.I.J.J.J.J.J.J.J.J.J.J.J.J.J.J.J.J.J.J.J.J.J.J.J.J.J.B.4 m M ^ ^ , , & . 2 E k.k.k.k.h k.c.H.J.J.H.H.H.H.H.H.-.-.P.-.J.H.H.H.H.H.H.H.H.H.H.H.H.H.H.H.H.H.H.H.J.J.J.H.H.H.H.H.H.H.H.H.H.H.H.H.H.H.H.H.H.H.c.k.h 3 d ! ) Y d 4 d 2 d 2 1 o o 2 d B Y B d 2 2 d d d d d d d a a 2 2 2 2 1 1 * * 1 p p p 1 ; ; 1 1 1 1 1 1 1 1 1 1 ; # # ; ; ; ; 1 1 1 1 1 # # o o o X X o o o o # # # # ; ; 1 1 1 1 1 1 o o o # o h E d a 1 o o * * 1 p p 7 # O O O O O O O O O # # # # e e e e g g g g g g y y g g g g y y y w 6 6 w w w t y y f f y y 6 e w w w w t y t w w t u u u o.#.u u t t y y y y u u #.#.#.#.#.7.7.7.7.4.q.y.i.d.i.7.%.t t o.o.O.r.r.i.s.y.r.5.O.O.5.O.9.y.y.i.d.i.y.9.o.y y t t t t t O 0 6 @ w X.q.p.9.9.9.9.9.q.7.O.7.9.9.i.d.i.q.5.q.q.9.9.4.7.4.4.o.o.o.5.y.d.d.i.y.i.s.sXU.P.P.u.H.H.H.H.H.H.H.H.H.H.H.H.H.H.H.H.H.H.H.H.H.H.H.H.H.H.H.H.H.H.H.H.H.H.H.H.H.H.H.H.H.H.H.H.H.H.H.H.H.H.H.H.H.H.H.H.H.H.u.u.H.H.H.H.H.H.H.H.H.H.H.H.P.H.u.u.H.H.H.H.H.u.H.H.H.H.H.H.H.H.H.H.H.H.P.P.H.H.H.H.H.H.H.H.H.H.H.H.",
"J.J.P.P.P.P.J.J.J.J.J.J.P.P.P.P.J.J.J.J.J.J.J.J.J.J.J.J.J.J.J.J.J.J.J.J.J.J.J.J.J.J.J.J.J.J.J.J.J.J.J.J.J.J.J.J.J.J.J.J.J.J.P.P.P.P.P.P.P.P.J.J.J.J.J.J.P.P.P.P.J.J.J.J.J.J.J.J.J.J.J.J.J.J.J.J.J.J.J.J.J.J.J.J.J.J.J.J.J.J.P.P.P.P.P.P.I.I.P.P.P.P.P.P.P.P.P.P.J.J.J.J.J.J.J.J.P.P.P.P.P.P.J.J.J.J.J.J.I.J.J.J.J.J.J.J.J.J.J.J.J.J.J.J.J.J.J.J.J.J.J.J.J.J.J.n.Y , T / R M = m b & & a k.k.k.k.h k.c.H.J.J.H.H.H.H.H.H.H.P.*.Y.J.H.H.H.H.H.H.H.H.H.J.H.H.H.H.H.H.H.H.H.H.H.J.J.H.H.H.H.H.H.H.H.H.H.H.H.H.H.H.H.H.H.H.c.$.s a E Z.! d 2 a a d d a 2 2 2 2 d B B d 2 2 2 a d d d d d a a a 2 2 2 1 1 1 1 1 p a p 1 ; ; 1 1 1 1 1 1 1 1 1 1 ; # # ; ; ; ; ; ; ; ; ; # # o o o o o o o o o # # # # ; ; 1 1 1 1 ; ; # # # # 1 d d 1 # # o # * * p p 7 # + O   O             # # # # e e e e g g g g g g f f g g g g y y w 6 6 6 6 6 w t y y f y w 9 w 9 w w t y y y t t u u #.#.#.#.#.#.#.u y t y t t y u u #.#.#.#.#.#.7.4.O.4.y.y.s.i.q.4.X.X.4.4.r.f.s.d.s.y.r.5.O.X.X.X.O.5.y.y.d.i.y.9.7.#.o.y y t t t 0 0 @ 6 u 7.q.q.9.9.9.9.9.q.7.o.7.9.9.i.p.i.q.q.q.q.q.q.7.7.7.7.y.y.i.d.d.d.s.y.r.d.sXdXP.P.u.u.H.H.H.H.H.H.H.H.H.H.H.H.H.H.H.H.H.H.H.H.H.H.H.H.H.H.H.H.H.H.H.H.H.H.H.H.H.H.H.H.H.H.H.H.H.H.H.H.H.H.H.H.u.u.H.H.H.H.u.u.H.H.H.H.H.H.H.H.H.H.H.H.P.P.u.u.H.H.H.H.u.u.H.H.H.H.H.H.H.H.H.H.H.H.P.H.H.H.H.H.H.H.H.H.H.H.H.H.",
"P.P.P.P.P.P.P.P.P.P.J.J.J.J.J.J.J.J.J.J.J.J.J.J.J.J.J.J.J.J.J.J.J.J.J.J.J.J.J.J.J.J.J.J.J.J.J.J.J.J.J.J.J.J.J.J.J.J.J.J.J.J.J.J.P.P.P.P.P.P.P.P.P.P.J.J.J.J.J.J.J.J.J.J.J.J.J.J.J.J.J.J.J.J.J.J.J.J.J.J.J.J.J.J.J.J.J.J.J.J.J.J.P.P.P.P.I.I.I.I.P.P.P.P.P.P.P.P.J.J.J.J.J.J.J.J.J.J.P.P.P.P.P.P.J.J.J.J.J.J.J.J.J.J.J.J.J.J.J.J.J.J.J.J.J.J.J.J.J.J.J.J.J.J.J.n.2 m /.S.m , & T Q.K 2 1 k.c.c.c.g 8.v.H.H.J.H.H.J.P.H.H.fXMXpXH.P.P.P.P.P.P.P.P.H.H.J.J.J.J.H.H.H.H.H.H.H.H.H.H.H.H.H.H.H.H.H.H.H.H.H.H.H.H.H.H.H.H.H.c.n.h p d V.! A 2 d d a 2 a d V d 2 2 4 B d 2 2 1 2 2 d d d d a a a a 2 2 3 1 1 1 p p a p 1 ; ; 1 1 1 1 1 1 1 1 1 1 1 ; ; ; ; 1 1 ; ; ; ; ; # # o o o o o o + o o # # # # ; ; 1 1 ; ; ; ; 1 1 1 1 p p ; o o # # # * * 7 p # # +                   # # # # e e e e g g g g u u u u g g g g y w 6 6 6 6 6 6 w y y y y w w w w w w y y u u u u u o.o.7.7.7.7.7.7.#.#.u y t t t t u u #.#.#.#.#.#.o.o.o.O.5.r.i.i.q.5.4.5.5.i.i.d.d.d.i.y.y.5.O.O.4.4.9.y.i.i.s.i.y.9.0.7.#.#.w y y w 6 6 6 u 7.p.i.4.9.9.9.9.9.q.7.o.7.9.y.i.9.9.i.i.9.9.q.q.q.q.i.i.d.d.sXdXd.s.y.y.y.sXdXsXa.H.H.H.H.H.H.H.P.P.H.H.H.H.H.H.H.H.H.H.H.H.H.H.H.H.H.H.H.H.H.H.H.H.H.H.H.H.H.H.H.H.H.H.H.H.H.H.H.H.H.H.H.H.H.H.u.u.H.H.H.H.H.u.H.H.H.H.H.P.H.H.H.H.H.H.H.H.u.u.H.H.H.H.u.H.H.H.H.H.H.H.H.H.H.H.H.H.H.H.H.H.H.H.H.H.H.H.H.H.H.H.",
"P.P.P.P.P.P.P.P.P.P.J.J.J.J.J.J.J.J.J.J.J.J.J.J.J.J.J.J.J.J.J.J.J.J.J.J.J.J.J.J.J.J.J.J.J.J.J.J.J.J.J.J.J.J.J.J.J.J.J.J.J.J.J.J.J.P.P.P.P.P.P.P.P.P.J.J.J.J.J.J.J.J.J.J.J.J.J.J.J.J.J.J.J.J.J.J.J.J.J.J.J.J.J.J.J.J.J.J.J.J.J.J.J.P.P.P.I.I.I.I.P.P.J.P.P.P.P.P.J.J.J.J.J.J.J.J.J.P.P.P.P.P.P.P.J.J.J.J.J.J.J.J.J.J.J.J.J.J.J.J.J.J.J.J.J.J.J.J.J.J.J.J.J.J.J.n.> T XXA.m b , / 2X} m d n.v.H.c.g 8.v.H.H.H.H.H.J.P.H.H.Y.DXpXH.P.P.P.P.P.P.P.P.H.H.J.J.J.H.H.H.J.H.H.H.H.H.H.H.H.H.H.H.H.H.H.H.H.H.H.H.H.H.H.H.H.H.H.H.J.>.j d l.x.E d d d a a a d V Y 4 2 2 4 2 3 1 & 2 2 2 d d d a a a a a 2 3 3 3 1 p p a p 1 ; ; 1 1 1 1 1 1 1 1 1 1 1 ; ; ; ; ; ; ; ; ; ; ; # # o o o o o + + o o # # # # ; ; 1 1 1 ; 1 ; 1 1 1 1 # o o # # # # # * * 7 p # # +                   # # # # e e e e g g g g u u y y y g g g w 6 6 6 6 6 6 6 w y y y y w w w w w y y y y u u u #.#.#.7.7.7.9.9.7.7.#.#.u t t t t t y o.o.o.u u u o.X.o.o.5.5.i.h.i.6.q.i.i.h.d.d.d.d.i.y.9.5.y.y.y.y.i.d.d.g.i.i.y.9.7.#.o.y y y y t 6 6 y 7.p.p.q.o.9.9.9.9.9.q.4.o.7.9.i.i.7.9.i.d.5.9.q.y.q.q.i.i.tXsXsXsXs.y.y.y.sXdXdXa.u.H.H.H.H.H.H.H.P.P.H.H.H.H.H.H.H.H.H.H.H.H.H.H.H.H.H.H.H.H.H.H.H.H.H.H.H.H.H.H.H.H.H.H.H.H.H.H.H.H.H.H.H.H.H.H.H.H.H.H.H.H.u.u.H.H.H.P.P.P.H.H.H.H.H.H.H.H.u.u.H.H.H.u.u.H.H.H.H.H.H.H.H.H.H.H.H.H.H.H.H.H.H.H.H.H.H.H.H.H.H.H.",
"P.P.P.P.P.P.P.P.P.P.J.J.J.J.J.J.J.J.J.J.J.J.J.J.J.J.J.J.J.J.J.J.J.J.J.J.J.J.J.J.J.J.J.J.J.J.J.J.J.J.J.J.J.J.J.J.J.J.J.J.P.P.J.J.J.J.P.P.P.P.P.P.P.P.J.J.J.J.J.J.J.J.J.J.J.J.J.J.J.J.J.J.*.J.I.H.I.H.Y.J.J.J.J.J.J.J.J.J.P.P.J.J.J.J.P.P.P.P.P.P.P.P.J.P.P.I.P.P.J.J.J.J.J.J.J.J.J.J.P.P.P.P.P.P.J.I.J.J.J.J.J.J.J.J.J.J.J.J.J.J.J.J.J.J.J.J.J.J.J.J.J.J.J.J.J.n.Y XXXX[ H R < < Q.,   E n.J.H.&.g 8.H.H.H.H.H.H.J.P.H.H.P.gXu.aXH.H.u.u.P.I.u.u.P.P.H.H.J.J.H.H.J.J.H.H.H.H.H.H.H.H.H.H.H.H.H.H.H.H.H.H.H.H.H.H.H.H.H.H.H.c.n.k.l.z.E Y V d d 2 2 2 2 2 4 2 2 2 1 * & o 2 2 2 2 d d d d a a a 3 1 3 3 3 p a a a p 1 ; 1 1 1 1 1 ; ; ; # 1 1 1 ; ; 1 1 1 1 1 ; ; 1 # # # # + o o + + + + # # # # ; 1 ; ; p p 1 p # # # # # # # # # # # # # # # e # # X   O O O O O O O O # # # # e e e y y y y y w w y y t t t t 6 6 6 6 9 9 9 9 w y y y y y y y t t y y y t t t #.#.#.#.w.9.9.7.#.#.#.#.t t t t y t t t o.o.o.u u u o.4.4.4.5.q.6.i.i.h.g.g.h.i.g.p.p.d.y.y.y.y.i.i.i.i.i.i.d.h.q.9.4.O.o.o.u u ..y y t 6 t #.u.i.9.9.4.o.4.7.9.O.O.4.o.9.9.q.q.7.7.7.7.5.5.5.4.9.q.i.p.sXsXd.y.i.y.y.d.kXdXd.y.a.P.P.P.H.P.P.H.H.H.H.H.H.H.H.H.H.H.H.H.H.H.H.H.H.H.H.H.H.H.H.H.H.H.H.H.H.H.H.H.H.H.H.H.H.H.H.H.u.u.u.u.u.u.u.u.H.H.H.H.P.P.P.P.H.P.H.H.H.H.H.H.P.P.H.H.P.P.P.P.u.u.u.u.H.H.H.H.H.H.H.H.H.H.H.H.H.H.H.P.P.H.H.H.H.H.H.H.H.H.H.H.",
"P.P.P.P.P.P.P.J.P.P.J.J.J.J.J.J.J.J.J.J.J.J.J.J.J.J.J.J.J.J.J.J.J.J.J.J.J.J.J.J.J.J.J.J.J.J.J.J.J.J.J.J.J.J.J.J.J.J.J.J.P.P.P.P.J.J.P.P.P.P.J.J.P.P.J.J.J.J.J.J.J.J.J.J.J.J.J.J.J.J.J.J.H.zXVXSXzXY.J.H.J.J.J.J.J.J.J.J.P.P.P.P.J.J.P.P.P.P.P.P.P.P.J.J.I.I.I.I.J.J.J.J.J.J.J.J.J.J.P.P.P.P.P.P.I.I.J.J.J.J.J.J.J.J.J.J.J.J.J.J.J.J.J.J.J.J.J.J.J.J.J.J.J.J.J.v.a Z.F.Z.J ! m < R < > V n.J.c.j g 8.H.H.H.H.H.H.H.P.H.H.P.P.H.P.H.H.u.u.P.u.u.P.P.-.J.P.J.J.H.H.J.J.H.H.H.H.H.H.H.H.H.H.H.H.H.H.H.H.H.H.H.H.H.H.H.H.H.H.H.H.v.n.k.l.E E Y d 4 2 2 2 2 2 2 2 2 2 2 2 & & & 2 2 2 d d d d a a a 3 1 1 3 3 p a a a p p 1 ; 1 1 1 1 ; ; # # # # # # # ; 1 1 1 1 ; ; 1 # # # # # # o + + # + # # # # ; 1 1 1 1 1 1 1 # # # # # # # # # # # # # # # e # # X   O O O O O O X + # # # # e e e e y y w w w w y y t t t t 6 6 6 w 9 9 9 9 w y y y y y y y t t y y t t t t o.#.#.#.9.7.#.o.y y u u t t t t t t u u o.o.u u u o.4.4.5.5.i.i.h.h.h.g.g.h.i.i.9.9.9.9.7.7.7.7.7.7.7.7.q.q.q.i.9.5.O.o.o.o.y u ..y y t 6 t o.9.7.4.4.4.o.o.o.O.O.O.4.4.%.%.7.7.4.4.4.4.4.4.4.5.4.q.i.p.sXg.i.5.i.y.i.sXdXd.i.y.a.P.P.P.H.P.H.H.H.H.H.H.H.H.H.H.H.H.H.H.H.H.H.H.H.H.H.H.H.H.H.H.H.H.H.H.H.H.H.H.H.H.H.H.H.H.H.H.u.u.u.H.u.u.H.H.H.H.H.H.P.P.P.P.P.P.H.H.H.H.H.H.P.P.H.H.P.P.P.P.u.u.u.u.H.H.H.H.H.H.H.H.H.H.H.H.H.H.H.P.P.P.H.H.H.H.H.H.H.H.H.H.",
"P.P.P.P.P.P.J.J.P.P.J.J.J.J.J.J.J.J.J.J.J.J.J.J.J.J.J.J.J.J.J.J.J.J.J.J.J.J.J.J.J.J.J.J.J.J.J.J.J.J.J.J.J.J.J.J.J.J.J.J.P.P.P.P.J.J.J.P.P.P.P.J.P.P.J.J.J.J.J.J.J.J.J.J.J.J.J.J.J.J.J.J.J.zXSXFXzXY.J.H.J.J.J.J.J.J.J.J.P.P.P.P.J.P.P.P.P.J.J.J.P.J.J.P.I.I.I.I.J.J.J.J.I.I.I.I.J.P.P.P.P.J.J.P.I.J.J.J.J.I.I.J.J.J.J.J.J.J.J.J.J.J.J.J.J.J.J.J.J.J.J.J.J.H.H.H.# h h h k.m.E B Y 2 E k.n.n.h e g 8.H.H.H.J.H.H.H.H.H.H.H.u.P.u.H.H.u.u.u.u.u.aXY.J.Y.-.J.H.H.H.J.H.H.H.H.J.J.H.H.H.H.H.H.H.H.H.H.H.H.H.H.H.H.H.H.H.H.H.H.H.H.H.n.l.k.E Y Y 4 5 5 2 2 2 2 2 > 2 1 2 1 2 2 2 1 2 d d d d a a 2 3 1 1 3 3 p a a a p p p 1 1 1 1 1 # # # # # o # # # # 1 1 1 1 ; ; 1 1 # # # # # # # # # # # # ; ; ; ; ; ; ; ; ; # ; # # # # # # # # # # # # # ; ; # # X   O O O O O O O # # # # # e e e e e e e e w w y y y y y y 7 7 7 7 9 9 9 9 w w y y y y y y t t y y t t t t u #.#.#.o.o.u t w w i i i i t t o.o.o.o.o.o.u u 4.4.9.9.q.q.i.d.g.g.p.p.q.9.9.7.o.o.o.o.o.o.o.o.u u u u 7.9.q.q.q.5.O.O.o.o.o.o.o.y y t t y o.o.4.o.o.4.o.o.O.o.o.o.#.#.#.#.o.o.o.o.o.o.5.5.4.5.4.5.i.i.R.d.9.O.y.y.d.dXd.i.y.i.a.u.P.P.H.H.H.H.H.H.H.P.H.H.H.H.H.H.H.H.H.H.H.H.H.H.H.H.H.H.H.H.H.H.H.H.H.H.H.H.H.H.H.H.H.H.H.H.H.H.H.H.H.H.H.H.H.H.u.u.P.P.P.P.H.H.H.H.H.H.H.H.P.P.H.H.P.P.P.P.H.H.H.H.H.H.H.H.H.H.H.H.H.H.H.H.H.H.H.P.H.H.H.H.H.H.H.H.H.H.H.H.",
"P.P.P.P.P.P.J.J.P.P.J.J.J.J.J.J.J.J.J.J.J.J.J.J.J.J.J.J.J.J.J.J.J.J.J.J.J.J.J.J.J.J.J.J.J.J.J.J.J.J.J.J.J.J.J.J.J.J.J.J.P.P.P.P.J.J.J.P.P.P.J.J.P.P.J.J.J.J.J.J.J.J.J.J.J.J.J.J.J.J.J.J.J.aXgXgXI.H.Y.J.J.J.J.J.J.J.J.J.P.P.P.P.P.P.P.P.J.J.J.J.J.J.P.P.I.I.I.I.J.J.J.J.I.I.I.I.J.P.P.P.P.J.J.J.P.J.J.J.J.I.J.J.J.J.J.J.J.J.J.J.J.J.J.J.J.J.J.J.J.J.H.H.J.J.M.n.k.k.$.f k.D.l.E W 2 l.m.n.k.h + j 8.v.H.J.J.H.H.H.P.H.H.P.I.P.P.H.H.u.u.U.SXSXGXDXfXH.H.H.H.H.H.H.H.H.H.J.J.J.H.H.H.H.H.H.H.H.H.H.H.H.H.H.H.H.H.H.H.H.H.H.H.H.H.n.k.l.E V Y 4 5 5 3 2 2 2 > & > 2 2 2 2 2 2 3 3 2 d a d a a 2 1 1 1 1 3 p a a a p p p p 1 1 1 1 # # # # o o o # # # 1 ; 1 1 ; ; ; ; # # # # ; # # # # # # # ; ; ; ; ; # # # # # o o # # # # # # # # # # # # ; ; # # X   O O O O O X # # # # # # e e e e w e w w y y y y y y y y 7 7 7 w w 9 9 9 w y y y y y y y t t y y t t y y u o.#.#.u u i w 6 6 6 6 t y y y o.o.o.o.o.o.X.u 4.4.q.q.q.i.d.p.p.p.0.9.#.o.u y y y y y y y y y t t t i u o.7.9.9.5.O.o.o.#.#.#.o.y y t y ..o.o.o.o.o.4.o.o.o.o.o.o.#.o.o.o.o.o.o.o.o.o.5.5.5.q.4.5.i.i.d.y.5.O.i.a.sXdXy.;.y.p.a.P.P.P.H.H.H.H.H.H.H.H.H.H.H.H.H.H.H.H.H.H.H.H.H.H.H.H.H.H.H.H.H.H.H.H.H.H.H.H.H.H.H.H.H.H.H.H.H.H.H.H.H.H.H.H.u.u.u.u.a.a.P.P.H.H.H.H.H.H.H.H.P.P.u.u.P.P.P.P.H.H.H.H.H.H.H.H.H.H.H.H.H.H.H.H.1.H.H.H.H.H.H.H.H.H.H.H.H.H.H.H.",
"P.P.P.P.J.J.P.P.J.J.P.P.P.P.J.J.P.J.J.J.P.P.P.P.P.P.P.P.J.J.J.J.P.P.P.P.J.J.J.P.J.J.J.J.P.P.P.J.P.P.J.J.P.P.P.P.P.P.P.P.J.J.J.J.P.P.P.P.J.J.J.J.pXaXJ.H.J.J.J.J.J.J.J.J.J.J.J.J.J.J.J.J.J.J.H.1.J.J.J.J.J.J.J.J.J.J.J.J.J.J.J.J.J.J.J.J.J.J.J.J.J.J.J.J.I.I.I.J.I.I.I.I.I.J.J.J.I.I.I.I.J.J.J.J.J.J.J.J.Y.Y.I.J.I.I.L.Y.J.J.J.J.J.J.Y.Y.L.L.L.Y.L.L.L.L.m.m.m.m.1 h E E l.E 2 1 o 2 d E s k.$.j 8.c.v.J.J.J.J.J.J.J.J.J.J.J.P.J.P.H.H.H.gXGXHXHXGXgX=.J.H.H.H.H.H.J.J.H.H.H.H.J.H.H.H.H.H.H.H.H.H.H.H.H.H.H.H.H.H.H.H.H.H.H.H.H.c.k.l.k.V 5 5 Y d 2 1 3 > > > > > 2 3 3 2 2 2 2 > 1 2 a a a a 3 1 1 1 1 p p p p p p p 1 1 ; # # # # # + o X + + # # ; ; ; ; ; ; ; ; 1 ; ; ; 1 ; # # # # ; ; ; ; # # # # # # # # + # # ; ; ; ; ; # # + + + # e p p e e ; # # # # + + + + @ @ @ @ e e e e e e e e t t w w y y y y y y y w w w 9 9 w 9 9 6 f f f f u u y t t i i i o.o.o.o.i i i t y y y o.o.#.7.7.7.7.7.4.o.o.o.o.X.4.5.q.h.p.9.9.7.%.#.o.y y 6 6 6 6 6 6 6 6 6 6 @ @ @ 6 t u o.o.9.9.7.O.o.o.o.o.o.......o.%.u.p.y.4.o.O.o.X.u u u u u o.y y o.o...o.o.o.o.O.5.5.q.i.i.i.d.O.O.%.%.u.u.U.u.u.u.u.H.H.H.H.H.P.H.P.H.H.H.H.H.H.H.H.H.H.H.H.H.H.H.H.H.H.H.H.H.H.H.H.H.P.P.H.H.H.P.P.P.H.H.H.H.H.H.H.H.H.H.H.H.H.H.H.H.H.H.H.H.H.H.H.H.H.H.H.H.H.H.P.P.P.H.H.H.P.P.H.H.H.H.H.H.H.H.H.H.H.H.H.H.H.H.H.1.J.Y.1.1.J.P.J.H.H.J.H.P.P.H.H.",
"P.P.P.P.J.P.P.P.J.J.J.P.P.J.J.J.P.J.J.J.P.P.P.P.P.P.P.P.J.J.J.J.P.P.P.P.J.J.J.P.J.J.J.J.P.P.P.J.P.P.P.J.P.P.P.P.P.P.P.P.J.J.J.J.P.P.P.P.J.J.J.J.H.-.1.P.J.J.J.J.J.J.J.J.J.J.J.J.J.J.J.J.J.J.J.J.J.J.J.J.J.J.J.J.J.J.J.J.J.J.J.J.J.J.J.J.J.J.J.J.J.J.J.J.I.I.I.J.I.I.I.I.I.J.J.J.I.I.I.I.J.J.J.J.J.J.J.J.J.J.L.L.L.J.J.H.H.H.H.H.,.*.*.$.=.=.=.$.$.$.$.h h h h d o a d a A d 2 2 & o   . p k.n.>.v.v.H.J.J.J.J.J.J.J.J.J.J.J.J.J.H.H.H.H.u.gXfXfXfX-.H.H.H.H.H.H.H.J.J.H.H.H.H.J.H.H.H.H.H.H.H.H.H.H.H.H.H.H.H.H.H.H.H.H.H.H.H.H.v.c.k.l.V 2 2 4 4 2 2 3 > > > > > > 2 3 2 2 2 2 1 2 2 2 a a a 3 1 1 1 1 p p p p p p 1 1 1 ; # # # # # # o o + o + + # # # ; ; ; ; ; # # ; ; 1 # # # # # ; ; ; ; # # # # # # # # # # 1 1 1 1 1 1 p # # + # ; p p p p e e ; ; ; ; # # # # 7 7 e e e e e e w w e e t t w t y y y y y y y y y w 9 w y y y y #.#.#.#.#.#.u u u u u u o.o.o.o.t t t y y #.#.#.#.%.7.9.9.9.9.7.7.7.4.4.q.q.i.h.p.p.w.9.#.#.y 9 6 6 6 6 6 O O O @ @ @ @ @ @ @ 6 t y o.o.9.y.y.9.7.7.%.%.#.#.#.#.9.p.R.dXi.4.o.4.o.X.u u u u u u t y o.o.o.o.o.o.4.9.q.q.i.i.i.y.9.o.O.%.%.*.u.P.u.u.u.u.H.H.H.H.H.H.H.H.H.H.H.H.H.H.H.H.H.H.H.H.H.H.H.H.H.H.H.H.H.H.P.H.H.H.P.H.H.H.H.H.H.H.H.H.P.P.H.H.H.H.H.P.H.H.H.H.H.H.H.H.P.H.H.H.H.H.P.P.H.H.H.H.H.H.H.H.H.P.H.H.H.H.H.H.H.H.H.H.H.H.H.H.H.H.H.H.1.1.*.=.*.*.1.H.H.H.J.J.P.P.H.H.",
"P.P.J.J.J.J.P.P.J.J.P.P.P.P.J.J.P.P.J.J.P.P.P.P.P.J.P.P.J.J.P.P.P.P.P.P.J.J.P.P.J.J.P.P.P.P.J.J.P.P.J.J.J.J.P.P.J.J.P.P.J.J.P.J.P.P.P.P.J.J.J.J.H.fXH.J.J.J.J.J.J.J.J.J.J.J.J.J.J.J.J.P.P.H.P.P.P.P.J.J.J.J.J.J.J.J.J.J.J.J.J.J.J.J.J.J.J.J.J.J.J.J.J.J.J.J.J.J.J.J.J.J.J.J.J.J.J.J.J.J.J.J.J.J.J.J.J.L.L.L.L.J.,.$.=.j j j j j f q 7 7 + + @ @ 7 @ @ @ + # # # o > 1 o & 3 B ! E d 3 p k.k.k.n.v.J.H.J.H.H.H.H.H.J.J.J.J.J.J.J.H.H.H.c.u.H.H.J.*.H.Y.H.H.H.H.H.H.H.H.H.H.H.J.J.H.H.H.H.H.H.H.H.H.H.H.H.H.H.H.H.H.H.H.H.H.H.H.H.v.c.k.k.V 2 2 2 2 2 2 1 > > > > > > > 2 2 2 2 2 2 2 2 1 a a 2 1 1 1 1 p p f f p p 1 1 1 1 ; # # # # # # o o o o o o + # # ; ; ; 1 1 # # # # # # # # # # ; ; ; ; ; ; # # 1 1 ; # # 1 p p p p p p f p # # e e p g s f s p e e e e p p p p p p e e p p r r w w w w t w t w y y y y y y y y y y y y t u #.7.9.9.9.9.9.7.#.o.u u u o.o.o.o.#.o.o.o.o.#.#.#.#.#.%.7.9.9.9.9.9.9.9.q.q.h.h.h.p.w.9.7.#.y 9 6 6 6 O O O O O O O O O @ @ + O @ 6 w t ..o.9.y.p.p.y.y.y.y.9.9.9.9.K.R.R.R.i.4.o.4.o.o.o.X.X.X.X.o.o.o.%.7.%.%.O.O.i.y.y.5.i.i.i.9.o.o.o.o...=.u.u.u.u.u.u.H.H.H.H.H.H.H.H.P.P.H.H.H.H.P.H.H.P.H.H.H.H.P.P.P.H.H.H.H.H.P.P.H.H.H.H.H.H.H.H.H.H.H.H.H.P.H.H.H.H.H.P.P.P.H.H.H.H.P.P.P.H.H.H.H.H.P.H.H.H.H.H.H.H.H.H.H.H.H.H.H.H.H.H.H.H.H.H.H.H.H.H.H.H.H.H.1.J.MXBXzX*.P.1.H.H.H.H.P.P.P.H.",
"P.P.J.J.J.J.P.P.J.J.P.P.P.P.J.J.P.P.J.J.J.P.P.J.J.J.P.P.P.J.P.P.J.P.P.J.J.J.P.P.P.J.P.P.P.P.J.J.P.P.J.J.J.J.P.P.J.J.P.P.P.P.P.P.P.P.P.P.J.J.J.J.NXJXNXH.J.J.J.J.J.J.J.J.J.J.J.J.J.J.J.J.J.J.P.H.J.J.J.J.J.J.J.J.J.J.J.J.J.J.J.J.J.J.J.J.J.J.J.J.J.J.J.J.J.J.J.J.J.J.J.J.J.J.J.J.J.J.J.J.L.J.J.J.L.L.J.J.v.$.j 7 f 7 O   O O O O   O + +     + + + + @ + # # # o   o o .   o o o & 2 d a l.k.k.n.v.M.J.H.H.H.H.H.H.H.H.H.H.J.J.H.H.H.H.H.H.P.I.J.J.H.I.-.H.H.H.H.H.H.H.H.H.H.J.J.H.H.H.H.H.H.H.H.H.H.H.H.H.H.H.H.H.H.H.H.H.H.H.H.H.c.c.c.V a 1 2 2 d a > 2 > > > > > > > 2 2 2 2 2 2 > > a a 2 1 1 1 1 p p f f p 1 1 1 1 1 1 # # # # # # o o o o o o + # 1 1 ; ; 1 1 # # # # # # # # # # ; ; ; ; ; ; 1 1 1 1 1 1 1 1 p p p p p p f f p # e p g h h g g s p p p p p p p p p p p p g g g g w w w w t w t t y y y y t y y t t y y y y #.8.w.w.w.w.w.w.0.9.7.o.o.#.#.7.7.7.7.7.7.7.#.#.#.#.#.#.%.%.9.7.7.9.q.9.i.i.q.g.p.q.9.o.u t 6 6 6 6 6 O O O O O O @ @ @ @ @ @ @ + @ 6 6 t t +.9.y.y.p.u.u.u.u.p.p.p.p.dXR.p.q.i.4.o.4.o.o.o.X.X.X.X.X.y.y.p.p.%.%.%.4.d.i.i.5.i.i.7.4.o.O.o.8 8 *.u.-.u.u.u.u.H.H.H.H.H.H.H.H.P.H.H.H.H.H.P.P.H.P.P.H.H.H.P.H.P.P.H.H.H.H.H.H.H.H.H.H.H.H.H.H.H.H.H.H.H.H.H.H.H.H.H.P.P.H.H.H.H.H.H.H.P.H.H.H.H.H.H.H.H.H.H.H.H.H.H.H.H.H.H.H.H.H.H.H.H.H.H.H.H.H.H.H.H.H.H.H.H.fXLXPXDX=.H.Y.H.H.H.H.P.P.H.H.",
"P.J.J.J.J.P.P.P.J.P.P.P.P.P.P.J.P.P.P.P.J.J.J.J.J.J.J.J.P.P.P.P.J.J.J.J.P.P.P.P.P.P.P.P.P.J.J.J.P.P.P.J.J.J.J.P.J.J.P.P.P.P.P.P.P.P.P.P.J.J.J.J.BXLXBXH.J.J.J.J.J.J.J.J.J.J.J.J.J.J.J.J.I.J.J.J.J.J.J.J.J.J.J.J.J.J.J.J.J.J.J.J.J.J.J.J.J.J.J.J.J.J.J.J.J.J.J.J.J.J.J.J.J.J.J.J.J.J.L.L.m.m.L.n.n.$.p p p # @ + + + + + + + o o . . . .   . . . + + O . o o o o o o o     o o o         ; # 7 q h $.$.$.v.v.v.v.v.H.H.H.H.H.H.H.H.H.H.H.H.H.H.H.H.H.H.H.H.H.H.H.H.H.H.H.H.H.H.J.H.H.H.H.H.H.H.H.H.H.H.H.H.H.H.H.H.H.H.H.H.H.H.H.H.H.H.v.k.V s 3 3 2 a 2 2 2 2 2 d a 2 2 1 2 2 2 2 2 1 > * 1 3 3 1 1 1 p f f f p 1 1 1 1 1 ; ; # + + # o o o o + + # # # 1 1 1 1 1 1 ; # # # # # # # # 1 1 1 ; # # # # # 1 ; 1 1 1 p p p p p p p p p p p p p s s g s s s p p e e e e e ; e e p f f y y y w w y y t t t t y o.#.#.y y y u y y o.o.u #.7.9.w.w.p.w.w.9.7.o.7.7.7.7.0.9.7.7.7.4.4.o.#.#.#.#.o.o.4.O.7.7.7.7.i.i.i.d.p.q.7.o.t y w 6 6 6 6 6 0 O O O @ @ 0 0 0 0 + + @ @ @ 6 6 6 8 o.i.p.u.y.7.y.p.R.R.g.sXg.d.y.9.4.q.q.y.5.O.o.X.X.X.O.y.p.g.sXsXK.%.%.%.y.p.y.5.5.5.y.O.O.9.#.9 9 =.u.u.u.u.u.u.u.P.H.H.H.H.H.H.H.H.H.H.H.H.H.H.H.H.H.P.P.P.H.H.H.H.H.H.H.H.H.H.H.P.H.H.H.H.H.P.P.H.P.H.H.H.H.H.H.H.H.H.H.H.H.H.H.H.H.H.H.H.H.H.H.H.H.H.H.H.H.P.H.P.P.H.H.H.H.H.P.H.H.H.H.H.H.H.H.H.P.H.H.H.H.H.H.H.aXSXHXMX,.H.H.H.H.H.H.H.H.P.P.",
"P.J.J.J.J.J.P.P.J.P.P.P.P.P.P.J.P.P.P.P.J.J.J.J.J.J.J.J.P.P.P.P.J.J.J.J.P.P.P.P.P.P.P.P.P.P.J.J.P.P.J.J.J.J.J.P.J.J.P.P.P.P.P.P.P.P.P.P.J.J.J.J.gXjXgXY.J.J.J.J.J.J.J.J.J.J.J.J.J.J.J.J.J.J.J.J.J.J.J.J.J.J.J.J.J.J.J.J.J.J.J.J.J.J.J.J.J.J.J.J.J.J.J.J.J.J.J.J.J.J.J.J.L.L.L.L.L.m.n.n.m.>.f q 7 # # p # # # o         # o o o # # o o o o o o + + + o o o o o o o o   . o o           # + + # e p p p h $.$.$.>.c.v.v.v.H.H.H.v.H.H.H.H.H.H.H.H.H.H.H.H.H.H.H.H.H.H.H.H.H.H.H.H.H.H.H.H.H.H.H.H.H.H.H.H.H.H.H.H.H.H.H.H.H.H.H.H.H.H.H.v.k.>.s 3 3 2 a 2 2 2 2 d d 2 2 > 1 2 2 2 2 2 1 # * 1 3 p 1 1 1 p f p p 1 1 ; 1 ; ; # # o o o o o o o o # # ; ; 1 1 1 1 1 1 ; # # # # + # # 1 1 1 1 ; ; # # # # # # 1 1 1 1 p p p p p p p p p p p p s s s s s p p p e e e e e e e e y g g g g g y y y y t t t t y o.#.#.u u u u o.o.o.#.7.7.9.9.q.q.q.9.9.7.#.o.7.7.7.7.p.w.0.9.7.o.X.o.#.#.#.#.o.o.O.O.o.o.o.o.i.i.p.p.9.7.o.y w 6 6 6 6 6 6 6 6 6 6 6 6 6 7 9 7 7 7 7 @ @ @ @ 6 6 t #.p.p.y.9.y.p.d.R.d.d.d.i.i.y.4.5.4.4.q.q.O.o.X.X.X.5.i.d.sXtXd.y.o.o.%.y.y.4.q.i.5.9.9.%...9 0 P.u.u.u.u.u.u.u.u.P.H.H.H.H.H.P.P.H.H.H.H.H.H.H.H.H.H.H.H.H.H.H.H.H.H.H.H.H.H.H.H.P.P.H.H.H.H.P.H.P.P.H.H.H.H.H.H.H.H.H.H.H.H.H.H.H.H.H.H.H.H.H.H.H.H.H.H.H.H.P.P.H.P.H.H.H.H.P.P.H.H.H.H.H.H.H.H.H.H.H.H.H.H.H.H.J.P.@.@.1.1.H.H.H.H.H.H.H.P.P.P.",
"P.P.J.J.J.J.J.J.P.P.P.P.P.P.P.P.J.J.J.J.J.J.P.P.P.P.P.P.P.P.J.J.P.P.J.J.J.J.J.J.J.J.P.P.P.P.P.P.J.J.J.J.J.J.P.P.P.P.P.P.P.P.I.I.P.P.P.P.J.J.J.J.J.-.H.Y.J.J.J.J.J.J.J.J.J.J.J.J.J.J.J.J.J.J.J.J.J.J.J.J.J.J.J.J.J.J.J.J.J.J.J.J.J.J.J.J.J.J.J.J.J.J.J.J.J.J.J.J.J.J.J.J.J.J.J.J.k.$.h j + + + # 1 p 1 1 ; # # o o o o o o o o o o * * * o o o o # # + # # o o o o o o   o o o o .       o     + + @ # + # 7 q 7 j h k.c.n.v.v.v.v.v.v.v.c.H.H.H.H.H.H.H.H.H.H.H.J.J.H.H.H.H.H.H.H.H.H.H.H.H.H.H.H.H.H.H.H.H.H.H.H.H.H.H.H.H.H.H.P.P.H.H.v.v.k.h a 3 3 2 2 2 3 2 d d 2 2 > > > 1 2 2 2 3 1 # * 1 p 1 1 1 p d d d p 1 ; ; ; # o o o o o o o + # # # # ; ; p 1 p p p 1 ; # # # # # # 1 1 1 1 ; ; ; # # # # # # ; ; 1 1 1 ; e p p p p p f p p s s s p e e e e p e e e p e e e y f g g g g g y y y y y y y y y o.#.#.o.o.o.o.o.o.4.7.9.9.9.9.9.9.9.4.7.4.o.o.o.o.7.7.0.0.7.7.o.o.t u #.#.#.#.o.o.o.O.o.o.o.o.i.i.p.p.9.7.o.6 6 6 6 6 6 6 6 6 6 6 6 6 9 9 w w w y 9 9 7 7 @ @ 6 6 o.0.p.y.9.7.i.p.p.d.y.q.y.i.y.r.4.5.5.5.4.5.O.O.X.X.O.y.d.tXsXd.r.5.o.o.%.9.4.9.q.i.4.9.9.%...8 ..H.u.u.u.u.u.u.u.u.P.H.H.H.H.H.P.P.H.H.P.H.H.H.H.H.H.H.H.H.H.H.H.H.H.P.H.H.H.H.H.H.H.H.H.H.H.H.H.H.H.H.H.H.P.H.H.H.H.H.P.H.H.H.H.H.H.H.H.H.P.P.H.H.H.H.H.P.H.H.H.H.H.H.H.H.H.H.H.H.H.H.H.H.H.H.H.H.H.H.H.H.H.H.H.H.H.J.H.H.J.J.H.H.H.H.H.H.H.H.P.P.",
"P.J.J.J.J.J.J.J.P.P.P.P.P.P.P.P.J.J.J.J.P.P.P.P.P.P.P.P.J.J.J.J.P.P.P.P.J.J.J.J.J.P.P.P.P.P.P.P.J.J.J.J.J.J.J.P.P.P.P.P.P.P.I.I.J.P.P.P.J.J.J.J.Y.J.H.J.J.J.J.J.J.J.J.J.J.J.J.J.J.J.J.J.J.J.J.J.J.J.J.J.J.J.J.J.J.J.J.J.J.J.J.J.J.J.J.J.J.J.J.J.J.J.J.J.J.J.J.J.J.J.J.J.>.>.>.k.f 1 #   # * p a d a 3 1 1 - o o o o o o o o o o 1 1 1 1 o o o o # # * * * & > > o o o   . o o o                     o o . + + + # p f h $.c.n.v.v.v.v.v.c.c.H.H.H.H.H.H.H.H.H.H.J.J.J.J.H.H.H.H.H.H.H.H.H.H.H.H.H.H.H.H.H.H.H.H.H.H.H.H.H.H.H.H.P.P.H.H.H.v.v.k.h d 3 3 2 2 2 2 d d 5 3 1 > > > > 1 2 3 1 1 * 1 1 1 1 1 p p d d p 1 ; # # o o o o o o o o + # # # # ; ; p 1 p p p 1 ; # # # # # # 1 1 1 1 ; ; ; # # # # # # ; ; ; ; # ; ; e p p p p p p p p s s e e e ; p p e e e e e e e y p g g g g g g g g y y y y y y o.#.#.#.#.#.o.o.o.7.9.9.9.9.9.7.7.o.X.7.o.o.o.o.#.#.#.#.#.o.o.u u y y #.#.#.#.o.o.o.o.4.4.o.o.i.p.p.w.7.o.t 6 6 6 6 6 6 6 6 6 6 6 w w y y y t y y y y w e w 6 6 w #.p.0.9.7.o.9.9.5.5.4.5.y.i.y.r.4.5.5.5.O.O.O.O.X.X.r.s.g.sXg.i.5.o...o.%.%.o.q.i.5.5.4.9.9.6 9 I.*.u.u.u.u.u.u.u.u.H.H.H.H.H.H.H.H.H.P.P.H.H.H.P.P.H.H.H.H.H.H.H.H.P.P.H.H.H.P.P.P.H.H.H.H.H.H.H.H.H.H.H.H.P.P.H.H.H.H.P.P.H.H.H.H.H.H.H.P.P.P.H.H.H.H.P.P.H.H.H.H.H.H.H.H.H.H.H.H.H.H.H.H.H.H.H.H.H.H.H.H.H.H.H.H.H.1.H.H.Y.J.H.H.H.H.H.H.H.H.P.P.",
"P.P.J.J.J.J.J.J.P.P.P.P.P.P.J.J.J.J.P.P.P.J.J.J.J.J.J.P.P.P.J.J.P.P.J.J.J.P.P.P.P.P.P.P.P.P.P.P.P.P.J.J.J.J.J.J.J.P.P.P.P.P.P.P.J.J.P.P.P.P.P.P.P.P.P.P.J.J.J.J.J.J.J.J.J.J.J.J.J.J.J.J.J.J.J.J.J.J.J.J.J.J.J.I.I.iXiXiXI.I.J.I.I.I.I.J.J.J.J.J.T.L.L.J.L.L.m.k.k.h h D E h p 1 * * > 1 a a a a 3 2 1 1 1 o o   .   . o # # # # o * 1 1 > > > > 1 1 > > 2 2 > o o o o o o o o o           . .   . .                   O e q 7 7 g $.0.c.c.H.L.I.I.J.H.H.H.H.H.H.H.H.H.H.H.J.J.J.H.H.H.H.H.H.H.H.H.H.H.H.H.H.H.H.H.H.H.H.H.H.H.H.H.H.H.H.H.H.H.H.c.h p 1 5 5 2 > 5 5 > > & > > > & & 1 1 3 2 3 1 1 1 3 1 1 p a d a p 1 # o o o o o o # # o o # # # # # 1 1 p 1 1 1 1 1 # # # # # ; ; ; ; ; ; ; ; 1 1 1 1 ; ; ; ; ; # # # ; ; p p p p p s s s s s e e ; e y y e e e e e e e y g g 8.8.8.8.g g g g y y y y t y #.7.o.o.o.o.4.4.4.4.q.q.q.q.4.4.4.4.%.%.#.#.#.#.#.#.y t t w 9 t t y y y o.o.o.o.o.o.o.o.o.o.p.u.7.7.o.y i 6 6 6 y y t t t t y u u #.#.#.#.u u u u u u y y w 6 w #.8.o.o.o.i +.o.o.O.4.4.5.y.y.y.5.5.5.i.i.5.o.O.5.9.s.g.g.d.5.4.5.o.o.#.o.o.y.y.y.y.i.y.%.8 0 u.I.P.u.u.u.u.u.u.u.u.H.H.H.H.H.H.H.H.H.H.H.H.H.H.H.P.H.H.H.H.H.H.H.H.H.H.H.H.P.H.H.H.H.H.H.H.H.H.H.H.H.H.P.P.H.H.H.H.H.P.P.P.H.H.H.H.H.H.H.H.H.H.H.H.H.H.H.P.H.H.H.H.H.H.H.H.H.H.H.H.H.H.H.P.P.P.H.H.P.P.P.P.H.H.H.H.P.P.H.H.H.P.P.P.P.P.P.P.H.H.H.P.",
"P.P.J.J.J.J.P.P.P.P.P.P.P.P.J.J.P.J.P.P.J.J.J.J.J.J.P.P.P.P.J.J.P.P.J.J.J.J.P.P.P.P.P.P.J.J.P.J.P.P.P.P.J.J.J.J.J.J.P.P.P.P.P.P.J.J.P.P.P.P.J.P.J.J.P.P.J.J.J.J.J.J.J.J.J.J.J.J.J.J.J.J.J.J.J.J.J.J.J.J.J.J.J.I.iXiXiXiXI.I.J.J.J.J.J.J.L.L.L.L.L.L.n.n.n.h h h d a d A d a 3 1 1 2 2 d 2 2 2 2 2 1 > > > o o o o # * 1 1 1 1 1 * 1 3 a 3 3 2 2 2 2 2 5 2 2 1 > o o o o o o o o o o . . .                               O O O + @ 7 7 7 f j $.$.H.H.J.H.H.H.H.H.H.H.H.H.H.H.H.H.H.H.H.H.H.H.H.H.H.H.H.H.H.H.H.H.H.H.H.H.H.H.H.H.H.H.H.H.H.H.H.H.H.>.h 3 2 Y V 2 4 < 5 > > > > > & & 1 1 2 3 3 2 a 3 3 1 1 1 p d d a p 1 o + o o o o # + + o # # # # 1 1 1 p 1 1 1 1 ; ; ; ; ; ; ; ; ; ; ; ; ; ; 1 1 1 1 # # # # # # # # # ; e p p p p s s s s s e e e e y y y y e e e e e y g g 8.8.8.8.g g g f f y y y y o.%.9.9.9.q.q.q.q.q.q.q.q.q.q.4.4.4.7.%.#.#.#.#.o.o.o.t w w 9 9 y y y y y o.#.#.#.#.o.o.o.o.o.y.9.7.o.o.y i w 6 w t y y y y y #.#.7.7.7.9.7.#.o.#.o.o.u u y w 6 y #.7.o.u u t o.o.O.4.O.4.4.4.5.5.5.5.r.y.q.5.O.4.9.y.s.g.g.i.4.4.o.X.o.o.O.%.y.y.y.y.i.9.t ..u.u.u.-.u.u.u.u.u.u.u.u.H.H.H.H.H.H.H.H.H.H.P.P.H.H.H.H.H.H.H.H.H.H.H.H.H.H.H.H.P.P.H.H.H.H.H.H.P.P.H.H.H.P.P.H.H.H.H.P.H.H.H.H.H.H.H.H.H.H.H.H.H.H.H.H.H.H.H.P.H.H.H.H.H.H.P.P.H.H.H.H.H.H.H.H.P.P.H.H.H.P.P.P.H.H.H.H.P.P.H.H.H.H.P.P.P.P.H.P.H.H.P.P.",
"P.P.P.J.P.P.P.P.J.P.J.J.P.J.J.J.P.P.P.P.P.P.J.J.J.J.J.P.P.P.P.J.P.P.J.J.P.P.P.P.P.P.J.J.J.J.J.J.P.P.P.P.P.P.J.P.J.J.J.J.P.P.P.P.J.P.P.P.P.P.J.J.J.J.J.J.P.P.P.J.J.J.J.J.J.J.J.J.J.J.J.J.J.J.J.J.J.J.J.J.J.J.I.I.I.I.I.J.J.J.J.J.J.J.J.J.J.n.n.n.k.V h d * * a W Q ! Q Y 2 2 2 2 a 2 d d 2 2 2 2 1 1 > > o o o - 1 3 p 1 3 3 3 3 1 3 a a d d d d d d 4 4 d 2 2 2 & & & & o o o o o o o o o o o o                               O O O O O O @ 7 9 9 @.&.0.H.H.H.H.H.H.H.H.H.H.H.H.H.H.H.H.H.H.H.H.H.H.H.H.H.H.H.H.H.H.H.H.H.H.H.H.H.H.H.H.H.H.H.H.H.c.$.d A E ! Y 4 4 5 2 > & > > & & 1 2 1 1 2 3 d d d a p 1 p s d a p 1 # o + o o o + + + + # # # # 1 1 p p p p 1 1 ; ; p p p 1 ; ; ; ; ; ; ; ; ; ; 1 # # # # # # # # # # # # e p p s s s s s s e e e e y y y y y y y y w y g g 8.8.8.8.y y y y y y y y y o.9.y.i.i.i.i.i.i.p.p.i.y.y.9.7.4.7.7.#.#.o.y y y y y 6 6 6 6 9 y y y o.#.7.7.7.7.#.#.#.7.o.7.7.7.o.u y y i w w w t u u o.#.o.0.w.9.9.9.9.7.#.o.o.o.o.u t w w w y u #.u u u i o.o.4.q.4.O.4.4.5.y.y.y.i.y.4.4.4.9.y.i.s.g.i.5.O.o.X.i t ..9.p.y.y.y.y.9.+...9.I.u.-.-.u.u.u.u.u.u.u.u.P.P.H.H.H.H.H.H.H.H.P.H.H.H.H.H.H.H.H.H.P.P.H.H.H.H.H.H.H.H.H.H.H.H.H.P.P.H.H.H.H.H.H.H.H.H.P.H.H.H.H.H.H.H.H.H.H.H.P.P.H.H.H.H.H.H.P.P.H.H.H.H.H.H.H.P.P.H.H.H.H.H.H.H.P.P.P.H.H.H.P.P.H.H.H.H.H.H.H.P.H.H.P.H.P.P.P.P.H.H.H.H.",
"P.P.P.P.P.P.P.P.J.J.J.J.J.J.J.J.P.P.P.P.P.P.J.J.J.J.J.P.P.P.P.P.P.P.J.J.P.P.P.P.P.P.J.J.J.J.J.J.P.P.P.P.P.P.P.P.J.J.J.J.P.P.P.P.J.J.P.P.P.J.J.J.J.J.J.P.P.P.P.J.J.J.J.J.J.J.J.J.J.J.J.J.J.J.J.J.J.J.J.J.J.J.I.I.J.J.J.J.J.J.J.J.J.J.L.m.>.k.k.E 2 > & o Y x.G.G.! ! Y > 5 5 5 2 Y 4 2 > 2 2 > > > > > > o o > 1 2 a a 3 2 2 2 2 3 2 d d V Y Y Y V V Y Y d 2 2 2 > > > > o o o o o o o o o o o o .                               # O         O @ O @ 9 j $.&.c.c.H.H.H.H.H.H.H.H.H.H.H.H.H.H.H.H.H.H.H.H.H.H.H.H.H.H.H.H.H.H.H.H.H.H.H.H.H.H.H.H.H.c.8.h E l.x.! J 4 4 5 & & > > & & 2 2 1 3 3 2 a a d d p 1 p p p p p 1 # # + o o o + + + + # # # # 1 1 p p p p 1 1 p p p p p 1 1 ; ; ; ; ; # # ; ; 1 # # + + + + + + + + + # # p p s s s s s s e e e e e y p p p p g g w y g g 8.8.8.8.y t y y y y y t o.4.9.i.d.d.d.d.d.d.d.d.d.d.i.y.5.4.4.7.o.o.o.y y t t t w 6 6 6 9 y y y #.#.7.7.7.7.7.7.7.o.o.7.7.o.u u t y i w w w t t #.#.#.#.w.w.w.w.9.9.7.7.o.o.o.u t t w w w y y y u y u u o.4.q.q.q.4.5.4.i.i.d.d.g.y.o.O.9.y.i.p.s.s.y.+.o.X.i i w O.u.p.y.y.y.y.o.o.u.u.P.u.-.P.u.u.u.u.u.u.u.u.P.H.H.H.P.P.P.H.H.H.H.H.H.H.H.H.P.H.H.H.H.P.H.H.H.H.H.H.H.H.H.H.H.H.H.P.H.H.H.H.H.H.H.H.H.H.H.H.H.H.H.H.H.H.H.H.H.H.P.P.H.H.H.H.H.H.P.H.H.H.H.H.H.H.H.H.P.H.H.H.H.H.H.H.P.P.P.P.H.H.P.P.P.H.H.H.H.H.P.P.H.H.H.P.P.P.P.P.H.H.H.P.",
"P.P.P.P.P.P.J.J.P.P.J.J.J.J.J.J.P.P.P.P.P.P.P.P.P.P.P.P.J.J.P.P.J.P.P.P.P.J.J.J.J.J.J.J.J.J.J.J.P.P.P.P.P.P.P.P.P.P.P.P.P.P.P.P.P.P.P.P.P.P.P.P.P.P.P.P.J.J.J.J.J.J.J.J.I.I.I.I.I.I.J.J.J.J.J.J.J.J.I.J.J.J.J.J.J.J.J.L.L.L.n.n.n.k.h a a a 2 o 5 5 Y G.XXZ.! ~ 4 4 4 4 2 2 4 d 2 > & o > > > > > > > > o > 5 2 a a a a 4 2 2 2 2 2 2 2 V E E W W W W Y d 4 2 2 2 2 2 2 * * * * * * * * * # o o . . o . o o o o . . . o + + + +   O     O O O O O O O O @ 0 7 7 f =.&.&.c.H.H.H.H.H.H.H.H.H.H.H.H.H.H.H.H.H.H.H.H.H.H.H.H.H.H.H.H.H.H.H.H.H.H.H.H.c.c.k.k.x.V.G.Y 4 4 Y d 2 3 3 3 2 2 2 1 1 3 2 p a d d 1 1 1 1 1 p p 1 1 # o + o o o o + # # o # # # 1 p p p p p p p p p p p 1 ; ; ; ; # # # # # # ; # # # + + + + + # # + O O # e y p p p p y e e e e s g g g g g g g w y g #.t t t t w w y y w y u o.9.q.i.d.d.d.d.d.d.d.R.sXd.d.i.i.y.9.7.o.o.o.o...y y y y y y y t t t t t o.o.o.o.o.o.o.o.o.o.o.o.#.o.u y y w 6 @ w w i i u #.#.7.9.9.9.9.9.9.7.7.9.7.#.t 6 6 6 y y y t t t y y u o.o.7.7.4.i.d.i.i.i.d.g.i.y.5.5.y.y.d.d.y.5.X.O.X.X.X.X.q.p.R.d.y.y.9.O.O.y.u.u.u.u.u.H.H.H.H.H.H.H.H.H.H.H.H.H.P.P.H.H.H.H.H.H.H.H.P.H.P.H.H.H.P.P.H.H.H.H.P.H.H.P.P.P.H.H.H.P.H.H.H.H.H.H.H.H.H.H.H.H.H.H.H.H.H.H.P.P.P.P.H.H.H.H.P.P.H.H.P.P.H.H.H.H.P.P.H.H.P.P.P.P.P.P.P.P.P.P.P.P.P.P.P.P.P.P.P.P.P.P.P.P.H.pXP.H.P.P.P.P.H.H.J.J.",
"P.P.P.P.P.P.J.J.P.P.J.J.J.J.J.J.P.P.P.J.P.P.P.P.P.P.P.P.J.P.P.P.J.P.P.P.J.J.J.J.J.P.J.J.P.J.J.J.P.P.P.P.P.P.J.P.P.P.P.P.J.P.P.P.P.P.P.P.P.P.P.P.P.P.P.P.J.J.J.J.J.J.J.J.I.I.I.I.I.I.J.J.J.J.J.J.J.J.J.I.J.J.J.J.L.L.L.L.n.$.h j p 3 3 3 > 5 d J ! S._.A.T Y 4 Y 4 2 2 2 d d d 4 > > > & 5 5 > > > > > > > 5 2 5 2 2 2 2 2 2 2 2 2 2 2 2 V V E W W E E Y d 4 2 2 2 2 2 3 1 1 1 1 1 1 1 1 * # # o o o o . o o o o o o o o + + + +         O O     O O O O O O O O O 7 f $.&.c.c.v.H.H.H.H.H.H.H.H.H.H.H.H.H.H.H.H.H.H.H.H.H.H.H.H.H.H.H.H.H.H.H.H.H.c.c.c.k.k.x.V.Y 4 4 A d d a 3 2 2 2 2 1 1 3 3 p a d a 1 ; # ; 1 1 p 1 1 ; # o o o + o # # # o # # # 1 p p p p p p 1 p 1 1 1 ; ; # # # # ; ; ; ; # ; ; # # # # # # # # # @ O O O @ e e e e e e e e e e s s g s s s s g t y f g w w w w w y y g y u o.4.q.i.d.d.d.d.d.d.i.d.d.g.g.d.d.i.9.9.7.o.o.o.o...y y y y y y y t y y y y y y t t o.o.o...o.o.o.o.#.o.u y t w 6 @ w w w i t u o.#.7.7.7.7.7.7.7.7.7.#.t w 6 6 y y y y y y y y y y o.#.7.7.5.5.5.5.i.s.d.d.y.r.5.5.y.y.y.i.5.X.O.5.X.X.X.4.g.R.d.y.O.9.y.p.y.p.u.u.u.u.H.H.H.H.H.H.H.H.H.H.H.H.H.H.H.P.H.H.H.H.H.H.H.H.P.P.P.H.H.H.P.H.H.H.H.P.P.H.H.H.H.H.H.H.H.H.H.H.H.H.H.H.H.H.H.H.H.H.H.H.H.H.H.H.P.P.P.P.H.P.H.H.P.P.H.H.P.P.H.H.H.H.P.P.H.H.P.P.P.P.P.P.P.P.P.P.P.P.P.P.P.P.P.P.P.P.P.P.P.P.fXBXpXH.P.P.P.P.J.J.J.J.",
"P.J.P.P.J.J.J.J.P.P.P.P.J.J.P.J.P.P.J.J.J.J.P.P.P.P.J.J.J.J.P.P.J.J.P.P.P.P.J.J.P.P.P.P.P.P.J.J.P.P.P.P.J.J.J.J.P.P.P.J.J.J.P.P.P.P.J.J.J.J.P.P.P.P.P.J.J.J.J.J.J.J.J.J.I.I.I.I.I.I.I.I.J.J.J.J.J.J.I.I.Y.Y.J.J.Y.L.n.k.h h f p 1 2 2 5 Y 4 T _.XXXXZ.4 5 2 d V a a a a d a 3 > & & > 5 5 5 3 3 > > > > 5 2 5 5 2 2 2 2 2 5 2 2 2 2 2 2 d V V E E V d d 2 2 4 d a a a a 3 3 3 3 3 3 3 3 * * # o o o o . o o o o o o o o o o o               O O         O O O O   O @ 7 g &.c.c.H.H.H.H.H.H.H.H.H.H.H.H.H.H.H.H.H.H.H.H.H.H.H.H.P.P.H.H.H.H.H.H.H.H.H.c.v.k.l.! Y 4 4 d Y V a a 3 3 3 3 3 3 3 3 p a d a 1 # o o # 1 1 1 1 1 ; # + o + o # # + + # # ; 1 1 1 1 1 1 1 1 1 1 ; ; # # # # # # ; 1 1 p f f p p ; # # # # # # # # @ O O @ # e ; e ; ; e e e e g s s s p p p f y y w w 6 6 6 6 y y u #.u g 7.7.q.q.q.q.5.5.q.q.4.q.y.i.d.R.d.d.9.9.O.o.o.o.o.....y y y y y t y y y u u w w w w o.o.o.o.o.o.o.#.#.#.u y t 6 6 @ w w w t w t u u #.#.#.#.#.#.#.#.#.y w 6 6 y y #.g g u y y y y y o.#.7.7.4.5.5.r.d.d.s.i.5.5.O.X.4.5.O.O.O.O.5.5.o.O.5.s.g.R.i.O.o.%.u.a.u.a.u.u.u.u.H.H.H.H.H.H.H.H.H.H.H.H.H.H.H.H.H.H.H.H.H.P.H.H.H.H.H.H.H.H.H.H.H.H.H.H.H.H.H.H.H.H.H.H.H.H.P.P.H.H.H.H.H.P.H.H.H.H.P.P.P.P.H.H.H.P.P.H.P.P.H.H.H.P.P.P.P.P.H.H.P.P.P.P.H.H.H.H.P.P.P.P.P.P.P.P.P.P.P.P.P.P.P.P.P.P.P.P.P.P.fXBXpXH.P.P.P.P.J.J.J.J.",
"J.J.P.P.P.J.J.J.P.P.P.P.P.P.P.P.P.P.J.J.J.J.J.J.P.P.J.J.J.J.P.P.J.J.P.P.P.P.J.J.P.P.P.P.P.P.J.J.P.P.J.J.J.J.J.J.P.P.P.J.J.J.P.P.P.P.J.J.J.P.P.P.P.P.P.J.J.J.J.J.Y.I.J.J.I.I.I.I.I.I.I.I.I.I.I.J.J.J.I.I.I.I.J.L.L.k.h h h d d d 5 5 4 4 T G.-XXXZ.4 > > 5 V V a d d d d 2 * o   o o > 2 5 5 5 5 > > > > 2 5 5 5 5 5 5 5 > > 2 2 2 2 2 2 4 d V V d d 2 2 2 2 d d a a a a 2 2 2 2 3 3 3 3 * * # o o o o . o o o o o o o o o o o             O               O O O O O O @ e g $.c.H.H.H.H.H.H.H.H.H.H.H.H.H.H.H.H.H.H.H.H.H.H.H.H.P.P.P.H.H.H.H.H.H.H.H.H.v.n.l.E E 4 2 A E Y d a 3 3 3 3 3 3 3 3 p a d a 1 o o X o # 1 1 1 1 1 ; # # # + # + + + + # # ; ; 1 1 1 1 1 1 1 ; # # # # o o # # ; p p s h h g f p p ; e e ; ; e 7 # @ O @ ; e ; ; ; ; ; ; e e g s s s e e y y y y 6 6 6 6 6 6 y g #.#.g #.7.9.9.9.X.X.i t t t u X.o.4.q.p.R.p.9.9.o.o.o.#.o.....y y y y y y y o.o.o.o.t t t t o.o...o.o.o.o.#.#.#.u y t 6 6 @ w t w w 6 w t u u o.o.o.u u u u u w 6 @ y y #.#.#.#.#.#.y y y y o.#.7.7.O.O.i.sXg.d.i.i.5.O.o.X.4.O.X.+.O.O.5.O.5.5.h.g.y.y.%.O.%.9.u.u.a.u.u.u.u.u.H.H.H.H.H.H.H.H.H.H.H.H.H.H.H.H.H.H.H.H.P.P.H.H.H.H.H.H.H.H.H.H.H.H.H.H.H.H.H.H.H.H.H.H.H.H.H.P.H.H.H.H.P.P.H.H.H.H.P.P.P.P.H.H.H.P.P.H.P.P.H.P.H.H.P.P.P.P.H.H.P.P.P.P.H.H.H.H.H.H.P.P.P.P.P.P.P.P.P.P.P.P.P.P.P.P.P.P.P.P.H.pXP.P.P.P.P.J.J.J.J.J.",
"J.J.J.J.J.J.J.J.J.J.P.P.P.P.P.J.J.J.J.J.P.P.J.J.J.J.J.J.J.J.P.P.P.P.P.P.P.P.P.P.P.P.P.P.P.P.P.P.P.P.P.P.P.P.P.P.P.P.P.P.J.P.P.P.P.P.J.J.J.J.J.J.J.J.J.J.P.P.P.P.P.P.P.P.I.I.I.I.I.J.J.J.I.I.I.J.J.J.J.J.L.L.J.n.f a d E x.Y 4 4 4 4 T A.:X-XF.4 > 2 d B a 2 a 2 d 2 3 1 o o & & 2 2 4 B W W W E Y Y Y Y Y B 4 4 2 > > 2 > > > > 2 2 2 2 2 2 2 2 2 > & & 2 3 3 2 2 2 2 2 2 2 3 3 3 3 a 3 * * # * o o o o o o o o o o o o + + +                                 O       O 7 j $.v.H.H.H.H.H.v.v.v.H.H.H.H.H.H.H.H.H.H.H.H.H.H.H.H.H.H.H.H.H.H.H.H.H.H.H.H.H.c.v.n.l.E E A 3 3 4 3 3 3 3 1 1 3 3 3 3 p a d 1 o       X o # 1 1 1 1 # # # # + + + o + + # # # # # # 1 1 1 1 # # # # # # # # # e p p h h g f p p e 7 e e e e p p p p p p e e e p e e e e e e g g r r y y y y f u u y y t t t #.#.#.#.#.#.7.7.7.#.u t 6 6 @ @ 6 6 w t #.9.w.9.9.7.o.o.#.#.#.#.y y y y t y y y o.o.o.o.o.o.o.t y y o.o.o.o.o.o.#.o.o.u y y t 9 6 6 7 7 6 6 w w i t t t u t w 6 6 w w t u #.8.0.7.#.g w y #.#.7.0.9.%.o.O.5.g.R.d.s.i.5.O.o.o.o.X.X.X.o.O.O.4.O.5.i.g.s.y.9.%.%.;.u.u.u.u.u.u.u.u.H.H.H.H.H.H.H.H.H.P.H.H.H.P.H.H.H.H.P.H.H.H.H.H.H.H.H.P.P.P.P.P.P.P.P.P.P.P.P.P.P.H.H.H.H.H.H.P.P.P.P.H.H.H.P.P.P.H.H.H.H.H.H.H.H.P.P.P.P.P.P.P.P.P.P.P.P.P.P.P.P.P.P.P.P.P.P.P.P.P.P.P.P.P.P.P.P.P.P.P.P.P.P.P.P.P.P.P.P.P.P.P.P.P.P.I.I.J.J.J.J.L.L.",
"J.J.J.J.P.P.J.J.J.J.P.P.P.P.J.J.J.J.J.J.P.P.P.P.J.J.J.J.P.J.P.P.P.P.P.P.P.P.P.P.P.P.P.P.P.P.P.P.P.P.P.P.J.P.J.J.P.P.P.P.J.J.P.P.P.P.J.J.J.J.J.J.J.J.J.J.P.P.P.P.P.P.P.P.Y.I.I.Y.I.J.I.I.I.I.I.Y.L.L.L.L.n.n.k.k.E E ! ! 4 5 > 5 J { -X=XG.4 > Y 2 2 2 2 1 1 1 2 2 2 > & & 1 3 2 4 B Y E ! x.! ! ! ! ! ! ! W Y Y 4 5 5 4 2 2 2 2 2 2 2 2 1 1 > > & & & & & 2 2 3 2 3 2 2 3 3 p a a 3 1 1 * * * * # # o o o X o o o o o o + +                                             + + j $.H.H.H.H.v.v.v.v.H.H.H.H.H.H.H.H.H.H.H.H.H.H.H.H.H.H.H.H.H.H.H.H.H.H.H.H.H.H.H.c.k.l.l.E a 3 2 3 3 1 ; ; 1 3 3 3 3 3 p a 1 # X       X o # 1 1 1 # # # # # # # # o o + # # # # # # # # # # # 1 ; ; ; ; ; p p p s s g f p p e 7 7 e e e e e e p p e e e e p p e e e e e e s s r r y y y y g u u u u u u u #.#.#.#.u #.#.7.#.#.y w O O O O O @ 6 6 u 7.9.7.7.o.o.o.o.o.#.#.y y y t y y y o.#.#.o.o.7.7.o.o.y y y y o.o.o.o.7.o.o.u o...y y 7 7 7 9 w w w w w w w w t w w w w t u u 7.8.9.0.#.y y y #.8.0.u.7.7.%.o.4.i.g.g.s.i.5.O.o.o.o.X.X.X.O.q.O.O.O.4.y.s.d.i.9.%.%.%.u.u.a.u.u.u.u.u.H.H.H.H.H.H.H.H.H.H.P.P.H.P.P.H.H.H.H.P.H.H.H.H.H.H.H.H.P.P.P.P.P.P.P.P.P.H.P.P.P.P.H.H.H.H.H.H.P.P.P.P.H.H.H.P.P.P.H.H.H.H.H.H.H.H.P.P.P.P.P.P.P.P.P.P.P.P.P.P.P.P.P.P.P.P.P.P.P.P.P.P.P.P.P.P.P.P.P.P.P.P.P.P.P.P.P.P.P.P.P.P.P.P.P.P.I.I.J.J.L.L.<.,.",
"P.P.P.P.P.P.P.P.J.P.P.P.J.J.J.J.J.J.P.P.P.P.P.P.P.P.J.P.J.J.J.J.P.P.P.P.P.P.P.P.P.P.P.P.P.P.P.P.P.P.J.J.J.J.J.J.J.J.P.P.J.J.P.P.P.P.J.J.J.J.J.J.J.J.J.J.P.P.P.P.P.P.I.I.Y.Y.Y.Y.I.Y.I.I.I.I.Y.Y.L.L.L.L.>.k.k.E x.! Y Y 5 > < ~ -XXX[ 4 > 5 5 2 2 2 > > & & & & & & > > 2 d B B Y Y ~ ~ x.x.x.x.! ! ! ! ! ! ! Y 4 , 2 4 4 4 4 4 2 2 2 2 & & & & & & > > * & & 2 1 1 1 1 1 1 3 3 1 1 1 1 1 * * * # # o o . . o o . . . . . .             O O                             O O + q c.H.H.H.v.v.v.v.H.H.H.H.H.H.H.H.H.H.H.H.H.H.H.H.H.H.H.H.H.H.H.H.H.H.H.H.H.H.H.c.n.k.k.l.E d 3 3 - - o o ; 1 3 3 3 3 3 p p # o o       X + # 1 1 # # # # # # # # + o o o # # # # # # # # 1 1 1 1 p p p p p f f s f f p p p e 7 7 e e e 7 7 e e e e e e e p p e e e e e e s r r r y y y y #.#.#.#.#.#.#.#.#.#.#.#.y y #.#.#.o.y 6 O O     O O + 6 y u o.o.o.o.o.o.o.o.o.o.y y t t ....#.#.7.7.7.7.9.9.7.#.y y u u u o.o.7.7.#.7.o.#.#...y y y y y w w w w w w w w i i y y u u u u 7.7.7.#.t t f #.#.#.8.0.o.o.o.o.q.g.g.d.i.5.5.O.......o.X.O.q.i.O.O.O.y.i.g.s.y.%.=.*.u.u.P.H.H.H.u.u.u.H.H.H.H.H.H.H.H.H.H.H.H.H.H.H.H.H.H.H.P.P.P.H.H.H.H.H.H.P.P.P.P.P.P.P.P.H.H.H.H.P.H.H.H.H.H.H.H.H.H.P.P.H.H.H.H.P.P.P.P.P.P.P.P.P.P.P.P.P.P.P.P.P.P.P.P.P.P.P.P.P.P.P.P.P.P.P.P.P.P.P.P.P.P.P.P.P.P.P.P.P.P.P.P.P.P.P.P.P.P.P.P.P.P.P.P.I.I.J.J.L.L.T.T.",
"P.P.P.P.P.P.P.P.J.P.P.P.J.J.J.J.J.P.P.P.P.P.P.P.P.P.P.P.J.J.J.P.P.P.P.P.P.P.P.P.P.P.P.P.P.P.P.P.P.J.J.J.J.J.J.J.J.J.P.P.J.J.P.P.P.P.J.J.J.J.J.J.J.J.J.J.P.P.P.P.P.I.I.I.Y.Y.Y.Y.I.I.I.I.J.J.J.J.J.J.n.n.k.l.x.x.! Y 2 > 4 4 ! F.! 4 5 > 5 4 4 4 2 > & o o & & & > 2 5 4 B Y Y ~ ~ ~ ~ ~ x.N.! ! ! ! ! ! ! ! ! Y m 4 4 m B B B B 2 2 2 2 > > > > > > > > * 1 1 & 1 1 1 1 * * 1 1 1 1 1 1 1 * * * # # o o       o .                       O O                                   + $.H.H.H.v.v.v.H.H.H.H.H.H.H.H.H.H.H.H.H.H.H.H.H.H.H.H.H.H.H.H.H.H.H.H.H.H.H.H.c.n.n.k.k.k.D p ; o o o o o ; 1 3 3 3 3 3 p 1 # o           + # 1 # # ; ; ; ; 1 1 # o o o o o # # # # # # 1 1 p p p p p p p p p p p p p p e e 7 7 e e e # # # 7 7 e e e e p p e e e e e e r s r r y y y y 8.8.8.8.8.8.8.8.#.#.#.#.t y u #.#.y w 6 O O     O O + @ 6 u u u o.o.o.o.y y y y y t t t o.o.#.#.7.7.7.7.9.9.7.7.y y y y u o.o.7.7.#.7.o.7.#.#.o.y y y y y w w w w w w w i y o.#.u u u o.#.u t w 6 t #.8.y y y y y ..o.4.i.g.g.i.5.5.O.o.%.%.O.O.O.y.i.i.5.O.5.d.d.d.i.9.=.*.u.H.P.H.H.P.H.H.H.H.H.H.H.H.H.H.H.H.H.H.H.H.H.H.H.H.H.H.H.H.P.P.H.H.H.H.H.H.P.P.P.P.P.P.P.P.H.H.H.H.H.H.H.H.H.H.H.H.H.P.P.P.H.H.H.H.P.P.P.P.P.P.P.P.P.P.P.P.P.P.P.P.P.P.P.P.P.P.P.P.P.P.P.P.P.P.P.P.P.P.P.P.P.P.P.P.P.P.P.P.P.P.P.P.P.P.P.P.P.P.P.P.P.P.P.P.I.I.J.J.,.>.>.=.",
"P.P.P.P.P.P.P.P.P.P.J.J.P.P.P.P.P.P.P.P.J.P.P.P.P.P.J.J.J.J.P.P.P.P.P.P.P.P.P.P.P.P.P.P.P.P.P.P.J.J.J.J.J.J.J.J.J.J.P.P.P.P.P.P.P.P.P.P.J.J.J.J.J.J.J.J.J.J.J.J.P.P.P.I.Y.I.Y.Y.I.Y.I.I.T.L.L.J.n.n.l.l.l.E Y 4 5 5 4 4 ~ Z.Z.Y & & > > 5 5 & o & & o o o > 5 m Y ! Z.! Y Y Y Y ! ! ! ! x.x.N.N.! ! ! ! W W Y d 4 B E ! W Y Y B d 4 2 2 > 2 2 2 Y Y Y Y a a a a a a 3 1 * o o * o o o o * * * * # # o o     X   . . . .                 O                               O O O O + j v.J.H.H.H.H.H.H.H.H.H.H.H.H.H.H.H.H.H.H.H.H.H.H.H.H.H.H.H.H.H.H.H.H.H.H.H.H.v.v.n.n.n.k.h f p 3 1 ; # o ; 1 1 3 p p 1 1 # o                 1 1 1 1 ; 1 ; ; ; # o o o # # # # # # # ; p f f p p p p p p p p p p p p p p e e e 7 7 # # # # 7 # # e e e p e e e e p g e e y y y y y y 8.0.8.#.8.8.8.8.g g g f y y y t t w 6 @ O O     @ + + @ w i u u #.#.#.7.o.y y t t t u o.#.7.9.0.#.7.9.9.g.p.w.7.y y y y o.o.7.7.7.7.9.9.p.y.#.o.y y y y w w w w t t t t u 7.p.w.#.o.o.u o.o.o.o.#.#.g y y y t t w i o.7.d.i.i.q.5.5.5.9.p.p.y.5.y.y.i.i.i.d.d.d.dXd.i.%.-.H.H.H.H.J.P.H.H.H.H.H.H.H.H.H.H.H.H.H.H.H.H.H.H.H.H.H.H.H.H.H.P.H.H.H.P.P.P.P.P.P.P.P.P.P.P.P.P.H.H.H.H.H.H.H.H.H.H.H.P.P.P.P.P.P.P.P.P.P.P.P.P.P.P.P.P.P.P.P.P.P.P.P.P.P.P.P.P.P.P.P.P.P.P.P.P.P.P.P.P.P.P.P.P.P.P.P.I.I.P.P.P.P.P.P.P.P.P.P.P.P.P.P.P.P.P.P.I.I.J.J.T.NXVXVX",
"P.P.P.P.P.P.P.P.P.J.J.J.P.P.P.P.P.P.P.P.J.P.P.P.P.P.J.J.P.P.P.P.P.P.P.P.P.P.P.P.P.P.P.P.P.P.P.P.P.P.J.J.J.J.J.J.J.J.P.P.P.P.P.P.P.P.P.P.J.J.J.J.J.J.J.J.J.J.J.J.P.P.P.I.Y.Y.Y.Y.iXiXI.J.L.L.n.n.>.k.E E E 4 5 > 5 4 ~ ! ! Y 2 > > > > > 5 > > & o & & > 5 m ~ ! / / ! ~ Y Y Y Y ~ ! ! ! ! ! ! ! ! ! ! ! W Y d 5 4 B E W E Y B B d 2 2 2 2 2 2 d Y Y Y Y V V V V V d d a 1 * o o o o o o # # # # o o X           .       . .             O O                             O O O O   @ $.H.J.H.H.H.H.H.H.H.H.H.H.H.H.H.H.H.H.H.H.H.H.H.H.H.H.H.H.H.H.H.H.H.H.H.H.H.H.H.v.n.n.n.n.$.d 3 1 1 ; # # 1 1 1 1 p 1 1 1 #                 + 1 1 1 1 1 ; ; 1 ; # o o # # 1 1 ; # # ; p p f p p p p p p p p p p p p p p e e 7 7 7 7 # # # # # # e e e e e e e e p g e e y y y y y y #.8.8.g #.#.#.#.f f y y y y t t t w 6 @ O O O O + @ 7 7 w i u u #.#.#.#.o.y y t t t u o.#.7.7.9.#.7.9.9.p.w.9.7.y y y y o.o.7.7.7.9.9.p.d.p.9.%.u y y y w w w w y y y y o.q.i.9.#.o.o.u o.o.o.o.y w 6 @ O O @ 6 6 w 4.q.d.i.i.q.q.y.y.y.d.d.i.y.y.s.s.s.s.g.tXdXsXd.y.y.-.1.J.H.H.1.P.I.P.H.H.H.H.H.H.H.H.P.H.H.H.H.H.H.H.H.H.H.H.H.H.H.H.H.H.H.P.H.P.P.P.P.P.P.P.P.P.P.P.P.H.H.H.H.H.H.H.H.H.H.P.P.P.P.P.P.P.P.P.P.P.P.P.P.P.P.P.P.P.P.P.P.P.P.P.P.P.P.P.P.P.P.P.P.P.P.P.P.P.P.P.P.P.P.P.P.P.P.I.I.P.P.P.P.P.P.P.P.P.P.P.P.P.P.P.P.P.P.I.I.P.J.zXPXPXPX",
"P.P.P.P.P.P.J.J.P.P.J.J.J.P.P.P.P.P.J.J.J.J.P.P.P.J.J.J.P.P.P.P.P.P.P.P.P.P.P.P.P.P.P.P.P.P.P.P.P.P.P.P.P.P.J.J.J.P.P.P.P.P.P.P.P.P.P.P.J.J.J.J.J.J.J.J.I.I.I.I.I.I.I.I.Y.Y.I.I.iXiXI.J.v.n.>.V V V d d 2 5 5 5 ~ ~ T ! > o o > , , , 5 > > > > 5 < 4 J ~ ! [ [ Z.T J m J J J J Y Y ~ Y Y W W W W W W ! Y B 5 5 4 B Y Y Y B 4 4 2 2 > & 2 2 d B d d d d V V d V V d d a 3 1 * o o o o o o o o o o o       X o   .                       O O                             O O O O   O 7 $.H.J.H.H.H.H.H.H.H.H.H.H.H.H.H.H.J.H.H.H.H.H.H.H.H.H.H.H.H.H.H.H.H.H.H.H.H.H.H.H.v.v.v.n.h d 3 3 1 ; # # ; # 1 1 1 1 1 1 o o o o o o o o o # 1 1 ; 1 ; ; 1 1 ; # + # ; 1 1 1 1 # # # p p p p p p p e e e e e e e p p p p e e 7 7 # # # # e e e e e e e e e y p s e e y y y y y y g #.g w y y y y y y y y y y t t w w 6 6 O O @ @ @ 6 6 6 w w y u #.#.#.#.o.y y t t t u o.#.7.7.7.7.7.9.9.q.9.o.o.y u y y o.o.7.7.9.0.p.p.p.p.9.%.u y y t t y y y u u u u o.q.9.7.o.o.o.o.o.o.o.o.6 @ O O O O O O @ w o.7.d.i.i.y.i.i.i.i.s.s.s.s.g.tXyXyXg.tXtXsXd.p.p.u.aXI.fXJ.Y.pXI.P.H.H.H.H.H.H.H.H.H.P.H.H.H.H.P.P.H.H.H.P.H.H.P.P.H.H.H.H.H.H.H.H.P.P.P.P.P.P.P.P.P.P.P.P.H.H.H.H.H.H.H.H.P.P.P.P.P.P.P.P.P.P.P.P.P.P.P.P.P.P.P.P.P.P.P.P.P.P.P.P.P.P.P.P.P.P.P.P.P.P.P.P.P.P.P.P.P.P.P.P.I.I.P.P.P.P.P.P.P.P.P.P.P.P.P.P.P.P.P.P.P.P.P.J.fXGXGXHX",
"P.P.P.P.P.P.J.J.P.P.J.J.J.P.P.P.J.J.J.J.J.J.P.P.P.P.J.J.P.P.P.P.P.P.P.P.P.P.P.P.P.P.P.P.P.P.P.P.P.P.P.P.P.P.J.P.J.J.P.P.P.P.P.P.P.P.P.P.J.J.J.J.J.J.J.I.I.I.I.I.I.I.I.I.I.Y.I.I.I.I.J.L.k.V h d E B 5 o o 5 Y ! T 4 > X , 2 5 4 4 4 < < & > 5 < m ~ ! Z.[ Z.[ [ ~ 4 , 4 4 4 4 4 4 m B B B B B B E W W W B 2 5 4 4 d Y Y B d 4 5 2 > & & 2 d B Y d 4 2 4 V V V V V d d a a 3 1 * o o o o # # # o o o X   o X     .               .       O                               O O O O     + 9 $.H.J.H.H.H.H.H.H.H.H.H.H.H.H.H.J.H.H.H.H.H.H.H.H.H.H.H.H.H.H.H.H.H.H.H.H.H.H.H.H.v.v.n.h d a a 3 1 ; # o # # # ; 1 1 1 o o o o # # + + # o + 1 1 ; ; ; 1 1 1 ; # # 1 1 1 1 1 ; # # # ; e e e ; e ; ; ; e e e e e e p p e e e e # # # # 7 e e e e e e e e y p s e e y y y y g u y g y 6 t t t t y y w y y y y t w 6 6 @ @ @ @ @ @ @ 6 6 w w y u #.#.#.#.o.y y t t y u o.#.7.7.7.7.7.9.0.9.4.o.u y y y y o.o.7.7.0.w.p.K.p.q.o.X.u y u t y y y f #.#.#.o.7.y.y.o.o.o.o.....o.#.g 6 @ O O @ @ @ @ @ w X.4.d.i.i.y.i.i.i.s.s.s.rXyXyXyXyXyXyXg.i.9.d.a.u.u.H.fXSXGXGXFXMX1.H.H.H.H.H.H.H.H.H.H.H.H.H.H.P.P.H.H.P.P.H.H.H.H.H.H.H.H.H.H.H.H.P.P.P.P.P.P.P.P.P.P.P.P.P.H.H.H.P.P.H.H.P.P.P.P.P.P.P.P.P.P.P.P.P.P.P.P.P.P.P.P.P.P.P.P.P.P.P.P.P.P.P.P.P.P.P.P.P.P.P.P.P.P.P.P.P.P.P.P.I.I.P.P.P.P.P.P.P.P.P.P.P.P.P.P.P.P.P.P.P.P.P.J.H.L.<.n.",
"P.P.P.P.P.P.P.P.P.P.J.P.P.P.P.P.J.J.J.J.P.P.P.P.P.P.P.P.P.P.P.P.P.P.P.P.P.P.P.P.P.P.P.P.P.P.P.P.J.J.J.J.J.J.P.P.P.P.P.P.J.J.P.P.P.P.P.P.J.J.J.J.J.J.P.I.I.I.uXuXuXuXuXI.I.P.I.L.L.J.n.V h d 4 5 > > o 5 Y B B 4 < < 4 4 4 4 4 4 4 4 < 5 > , 4 Y ! ! ! ! ! E Y B 4 4 4 5 4 d B B B B B B B B B Y Y B B 4 4 4 4 4 4 4 4 4 4 4 2 2 > > > > d d a a a a a a d d d d d d a a 3 3 1 1 d a 3 3 1 * o o o o * * # o . . o                                                       O O     O O O O 9 $.J.L.H.H.H.H.H.H.H.H.H.H.P.P.H.H.H.H.H.H.H.H.J.J.H.H.H.H.H.H.H.H.H.J.H.H.H.H.H.H.H.v.k.$.h h p p 1 1 # o o # # # 1 1 1 # + + # # # # + + + + 1 ; ; ; 1 1 1 1 + # # p p p p p # + # # # # # # # # # # # # 7 7 e e e e e e e e e e e e 7 e e e e e e e y y y y y e e e g g g g g y y y w y y w w w w y g g u u t w @ @ @ @ @ @ @ @ 6 6 w y u #.#.#.#.#.y y y t t y y ..........#.#.#.#.#.u y y y y u o.7.7.7.7.p.p.p.p.q.4.o.o.o.o.u u g g g #...y ..+.o.O.7.q.7.7.#.#.f f f 7 O O O X @ @ @ @ 6 i 6.g.s.h.g.g.g.d.p.y.s.rXyXyXyXyXdXtX;.;.;.;.a.a.u.u.1.gXSXHXHXGXMXH.H.H.H.H.H.H.P.H.H.H.H.H.H.H.H.H.P.P.H.H.P.P.P.P.P.P.P.P.P.P.P.P.P.P.P.P.P.P.P.P.P.P.P.P.P.P.P.P.P.P.P.P.P.P.P.P.P.P.P.P.P.P.P.P.P.P.P.P.P.P.P.P.P.P.P.P.P.P.P.P.I.I.I.I.J.J.P.P.P.P.J.J.I.I.I.I.I.I.I.I.I.I.I.I.I.I.P.P.I.I.I.I.P.P.I.I.I.I.I.I.I.I.I.I.Y.Y.I.I.",
"P.P.P.P.P.P.P.P.P.P.J.J.P.P.P.P.H.H.J.P.P.P.P.P.P.P.P.P.P.P.P.P.P.P.P.P.P.P.P.P.P.P.P.P.P.P.P.P.J.J.J.J.P.J.P.P.P.P.P.P.J.P.P.P.P.P.P.P.J.J.J.J.J.J.P.I.I.I.uXuXuXuXuXI.Y.I.J.M.k.V d 2 5 5 > > 5 4 Y Y B 4 , > 4 4 Y Y 4 4 4 4 2 5 5 > , 4 Y ! ! ! ! E Y B 4 4 4 2 2 2 2 2 2 4 d d d d 4 4 4 4 4 4 5 5 2 2 2 5 5 5 4 4 4 2 2 > > > > > 2 2 2 2 2 2 2 2 a a a a a 2 3 3 1 1 1 1 d a a a 3 1 1 & * 1 1 1 1 * # o o + + + + + + + + +                                     O O     O O O O O f ,.L.H.H.H.H.H.H.H.H.H.H.P.P.H.H.H.H.H.H.H.H.H.H.H.H.H.H.H.H.H.H.H.H.H.H.H.H.H.H.H.H.v.n.$.h f 1 # o # # # # # # # # 1 1 # + # # # # # # # # # # ; ; # # # # + + # # p p p # # + + + + + + + + + # # @ @ 7 7 7 7 e e e e e e e e e e 7 e e e e e e e y y y y y e y y f f f f g y y y w y w w w w y y u u u u w w w 6 @ @ @ @ 6 7 9 w y g #.#.#.#.#.#.y y y t t y y ..........o.o.o.#.y y y y y u o.#.#.7.7.7.0.0.w.w.4.O.o.o.o.o.u u g g g #.y ....o.5.9.9.9.7.#.#.f f 9 7 O O   O   X X @ @ i 5.g.yXg.h.i.i.i.y.%.O.f.yXkXkXyXyXs.r.-.-.-.-.-.-.H.u.I.P.fXgXgXgXpX*.H.H.H.H.H.H.P.P.H.H.H.P.H.H.H.H.P.P.H.P.P.P.P.P.P.P.P.P.P.P.P.P.P.P.P.P.P.P.P.P.P.P.P.P.P.P.P.P.P.P.P.P.P.P.P.P.P.P.P.P.P.P.P.P.P.P.P.P.P.P.P.P.P.P.P.P.P.P.P.P.I.I.I.I.J.J.P.P.P.P.P.P.I.I.I.I.I.I.I.I.I.I.I.I.I.I.P.P.I.I.I.I.P.P.I.I.I.I.I.I.I.I.I.I.Y.Y.Y.Y.",
"P.P.P.P.P.P.P.P.P.P.P.P.P.P.P.P.P.P.P.P.P.P.P.P.P.P.P.P.P.P.P.P.I.I.I.I.P.P.P.P.P.P.P.P.P.P.P.P.P.P.P.P.P.P.P.P.P.P.J.J.J.J.P.P.P.P.P.P.J.J.J.J.J.J.J.I.I.I.I.iXI.I.J.J.L.H.c.h d 2 2 > - > 5 < ~ Y ! Y > , 4 B Y Y Y Y 4 4 4 5 5 5 5 < 4 Y ! ! ! Y Y B d 4 2 2 2 2 2 2 2 2 2 2 2 2 2 2 5 5 2 2 2 2 5 5 2 2 2 2 2 2 2 2 2 2 > > > > > > 3 3 3 3 3 3 3 3 3 3 3 3 3 3 1 1 1 1 1 1 3 3 a 3 3 3 3 2 1 2 2 1 p p 1 * # # # # # # # # # # + o o                               O O O   O O O O O 0 j ,.c.H.H.H.H.H.J.J.J.J.P.P.J.J.P.P.H.H.H.H.H.H.H.H.J.J.H.H.H.H.H.H.H.H.H.H.H.H.H.H.v.v.n.$.$.j q + # ; 1 1 # # # # ; 1 1 # # # # # # ; ; 1 1 1 ; ; # # # #   + + # # # # # + + + + + + + + + + # # @ # 7 7 # 7 e e e e e e e e e e e e e e e e e e y y y y y e e e y y y y g y y y w w w 9 w w y y y y y t w w y y w 9 6 6 w w y y g #.#.#.#.#.o.#.y y y t t y y ......o.o.u u y y y y y y u o.#.#.#.#.#.#.7.7.7.7.o.o.o.o.#.#.#.o.g g #.#...o.O.9.d.s.i.u.#.#.y y y 7 @   O O O @ X @ w i h.g.g.g.i.y.4.4.4.O.o.o.f.dXkXkXyXrXr.:.-.1.1.1.2.2.H.H.P.P.P.P.P.P.P.P.P.P.H.H.H.H.H.P.H.H.P.P.H.H.H.H.P.H.H.H.P.P.P.P.P.P.P.P.P.P.P.P.P.P.P.P.P.P.P.P.P.P.P.P.P.P.P.P.H.H.P.P.P.P.P.P.P.P.P.P.P.P.P.P.P.P.P.P.P.P.P.P.P.P.P.P.P.P.P.P.I.I.I.I.J.J.P.P.P.P.P.P.I.I.I.I.I.I.I.I.I.I.I.I.I.I.P.P.I.I.I.I.P.I.I.I.I.I.I.I.I.I.I.I.Y.Y.Y.Y.",
"P.P.P.P.P.P.I.I.P.P.P.P.P.P.P.P.P.P.P.P.P.P.P.P.P.P.P.P.P.P.P.P.I.I.I.I.P.P.P.P.P.P.P.P.P.P.P.P.P.P.P.P.P.P.P.P.P.P.J.J.P.J.P.P.J.J.P.P.J.J.J.J.J.J.J.J.J.I.J.I.J.J.J.J.c.$.s 1 2 > 5 5 5 J ` S.! Y 4 5 4 4 B Y Y Y Y Y 4 4 4 5 < 4 J J Y ~ ! ! Y B 4 4 4 2 2 2 2 2 2 2 > > > > 2 2 2 2 2 2 2 2 > > > > > > > > > > 2 2 2 > > & & > > > 2 2 2 2 2 2 1 1 1 1 1 1 1 1 1 1 1 * * * 1 1 1 1 1 3 2 3 2 2 2 1 p p 1 1 1 1 1 1 ; 1 1 ; # # # # # + + X                         O O O     O O O O O 7 j c.H.H.H.H.H.J.J.J.J.P.P.J.J.P.P.J.H.H.H.H.H.H.H.J.J.H.H.H.H.H.H.H.H.H.H.H.H.H.H.H.H.v.v.v.$.j 7 # ; 1 3 1 1 # # # ; 1 1 # + + + 1 1 1 1 1 1 # # + o o o     + + + # # + + + + + + + + + + + # # @ @ # # e e p p e e e e e e e e e e e e e e e e p y y y e e e e e e e e g y y y w w w w w w y y t w w w w w u g u y y w y y y y #.#.#.#.....o.o.y y y t t y y ..o.o.o.o.y y y y y t y y o.o.o.o.o.o.o.o.o.o.#.#.o.o.o.o.o.7.#.#.#.#.#.#.%.y.d.d.tXd.p.i.o.u y t 6 O     O O O O @ w X.p.dXR.d.y.O.o.X.+.o.o.o.o.f.dXkXdXf.r.:.;.H.2.2.2.2.2.1.H.H.H.u.H.H.P.P.u.H.H.H.H.H.H.H.H.H.H.P.H.H.H.H.P.P.P.H.H.P.P.P.P.P.P.P.P.P.P.P.P.P.P.P.P.P.P.P.P.P.P.P.P.P.P.P.P.H.H.H.H.P.P.P.P.P.P.P.P.P.P.P.P.P.P.P.P.P.P.P.P.P.P.P.P.P.P.P.P.I.I.P.P.J.J.P.P.P.P.P.P.I.I.I.I.I.I.I.I.I.I.I.I.I.I.P.P.I.I.I.I.P.I.I.I.I.I.I.I.I.I.I.I.Y.Y.Y.Y.",
"I.I.I.I.I.I.I.I.P.P.I.I.P.P.P.P.P.P.P.P.P.P.P.P.P.P.P.P.P.P.P.P.I.I.I.I.P.P.P.P.P.P.P.P.P.P.P.P.P.P.P.P.P.P.P.P.P.J.J.J.P.P.P.P.P.P.P.P.J.J.J.J.J.J.J.J.I.I.I.J.J.v.n.>.s 1 > 5 , > < [ XXS.} R < 5 4 4 Y Y Y Y J J J J 4 4 m m 4 J Y Y Y 4 4 4 4 4 4 4 4 4 4 4 d B B d 2 2 2 4 2 2 2 2 2 > & o o o & > > > > > 2 > & & > > > > 2 2 2 > 2 2 1 > > & - - 3 3 3 1 1 1 1 1 * * * * * * * * 1 1 3 3 3 1 1 1 1 1 1 1 1 1 1 1 ; ; ; ; ; ; ; ; ; # # + o o     X X X X         O O                   7 H.I.J.P.J.J.J.J.J.P.P.J.J.H.H.H.J.J.H.H.P.P.H.H.P.P.H.H.H.H.P.H.H.H.H.H.H.H.H.H.H.H.H.H.H.v.$.j # + # # p p f f 1 # 1 1 # # # # # 1 p p 1 # # # # + o o   O   + + + + + + + + + @ @ @ @ @ @ + + # # # # p p p p e e p p p p p p p e e # @ @ @ @ ; ; e e e w e e y y e y f g #.$.f f y f w w w y 6 6 6 6 w u g g #.o...y y o.#.#.#.#.#.#.#.#.#.#.y y y y o.o.o.#.#.#.o.y y y y y t t t t o.o.#.#.#.o.o...o.t w w w t u t o.o.#.#.#.o.#.%.y.i.s.d.g.d.i.9.o.u y w @ O X @ O O O 6 X.5.g.dXR.p.4.o.o.t t o.t t 8 +.dXdXtXs.r.y.;.-.1.2.2.2.2.2.1.1.H.H.H.H.H.H.H.H.1.P.P.H.P.P.H.H.H.H.H.P.H.H.H.P.H.H.H.H.H.P.P.P.P.P.P.P.P.P.P.P.P.P.P.P.P.P.P.P.P.P.P.P.P.P.P.P.P.P.P.P.P.P.P.P.P.P.P.P.P.P.P.P.P.P.P.P.P.P.P.P.P.P.P.P.P.P.P.P.P.P.P.P.P.P.P.P.I.I.I.I.I.I.I.I.I.I.I.I.I.I.I.I.I.I.P.P.I.I.I.I.I.I.I.I.I.I.I.I.I.I.I.I.Y.Y.Y.Y.",
"I.I.I.I.I.I.I.I.P.P.I.I.P.P.P.P.P.P.P.P.P.P.P.P.P.P.P.P.P.P.P.P.I.I.I.I.P.P.P.P.P.P.P.P.P.P.P.P.J.J.P.P.P.P.P.P.P.P.J.J.P.P.P.P.P.P.P.P.J.J.J.J.J.J.J.J.J.J.L.L.n.>.h p 2 > 5 4 m [ XXXXS.! J < < 5 4 4 m m m m 4 4 4 4 4 m m m m J J J m 4 4 5 5 2 5 4 d d B B Y Y V B 4 4 2 4 2 2 2 2 2 2 2 2 > 2 2 2 & & & & 2 2 > & > > > > > > > & > & > > & & - - 1 1 1 1 1 1 1 * * * * * * * * * & 1 1 1 1 1 1 1 1 * * * # # # # # # # # # # 1 ; ; 1 1 ; # # + o + o + +         O O                   O @.*.H.J.J.J.J.J.J.J.P.J.J.H.H.H.J.J.H.H.P.P.H.H.P.P.H.H.H.H.P.P.H.H.H.H.H.H.H.H.H.H.H.H.H.H.H.$.f # # # p p f f p 1 # ; ; # + o + # # # 1 1 # # # # + o   X X + + + + + @ + + + @ @ @ @ @ @ + + # # # # e 7 7 7 e e e e p p p p e e # @ @ @ @ @ ; ; e e w w e e y y y y g $.8.8.$.#.$.#.y w w w 6 6 w w w u g g #.%.%.#.#.#.7.7.8.8.7.7.#.$.#.#.o.o.o.o.#.#.#.#.o.o.y y y y y y y y y y o.o.o.#.%.#.o.o.o...i w 6 6 w t u o.o.o.o.%.%.y.s.s.eXd.g.d.i.9.#.o.u y @ O X @ O @ w y y.tXsXg.d.q.o.t 6 y o...w 6 o.dXdXd.y.y.y.y.u.u.1.1.2.2.2.2.1.H.H.H.H.H.H.H.H.H.H.H.P.H.H.P.H.H.H.H.P.P.H.H.H.H.H.H.H.H.H.H.P.P.P.P.P.P.P.P.P.P.P.P.P.P.P.P.P.P.P.P.P.P.P.P.P.P.P.P.P.P.P.P.P.P.P.P.P.P.P.P.P.P.P.P.P.P.P.P.P.P.P.P.P.P.P.P.P.P.P.P.P.P.P.P.P.P.I.I.I.I.I.I.I.I.I.I.I.I.I.I.I.I.I.I.P.P.I.I.I.I.I.I.I.I.I.I.I.I.I.I.I.I.Y.Y.Y.Y.",
"I.I.I.I.I.I.P.P.P.P.I.I.I.I.I.I.P.P.P.P.uXuXuXuXP.P.P.P.P.P.P.P.P.P.I.I.P.P.P.P.P.P.P.P.P.P.P.P.J.J.J.J.P.P.P.P.J.J.J.J.P.P.P.P.P.P.P.P.J.J.J.J.J.J.J.J.J.L.J.n.V j a 2 5 5 ~ [ /.-XF.! < < 5 5 5 2 4 d 5 5 5 , < < 4 4 m m m m 4 4 m m m m 4 4 4 4 d B B B Y Y E E Y V 2 2 2 2 2 2 2 2 2 2 d d B B d d 2 2 2 2 d 2 2 2 > > > > & & & & & o o o o o - - ; ; ; ; 1 1 1 * * * * * & * * * * * * 1 * * * * * # # # # # # # o # # # # # # # 1 1 1 1 1 1 # # + + + + + + + + O O                     0 9 =.H.P.P.P.J.P.P.P.P.J.H.H.H.J.H.H.H.P.P.P.H.P.P.P.H.H.P.P.P.H.H.H.H.H.H.H.P.P.P.P.H.H.H.H.v.>.s 1 1 1 f d d a p ; ; # # # o o o o o # 1 ; # # # # + + X X + + + + + @ @ + + @ @ @ @ @ @ @ @ @ @ # @ # # # # 7 7 7 7 p p p p e # O O @ ; ; ; ; ; ; e w w e e y y y y f g $.8.$.8.b.8.#.u w w w w w w y u g #.7.9.9.9.9.7.9.7.7.%.%.%.$.$.$.$.%.%.%.%.%.%.%.%.#.#.o.y y ..y y y y y y o.o.o.#.9.7.#.o.o.o.u t 6 6 6 6 t u u o.o.%.y.p.d.s.d.s.d.p.y.9.7.7.u u @ @ @ : w u 7.y.s.yXtXs.y.o.t t y y t 6 8 7.R.dXy.r.i.d.u.u.u.u.a.P.P.P.P.P.H.H.P.P.H.H.H.H.H.H.H.H.H.H.H.H.H.H.H.H.H.H.H.H.H.H.H.H.H.H.P.P.P.P.P.P.H.H.P.P.P.P.P.P.P.P.P.P.P.P.P.P.P.P.P.P.P.P.P.P.P.P.P.P.P.P.P.P.P.P.P.P.P.P.P.P.P.P.P.P.P.P.P.P.P.P.P.P.P.P.P.P.P.P.P.P.P.P.I.P.I.I.I.I.I.I.I.I.I.I.I.I.I.I.I.I.I.I.I.I.I.I.P.P.I.I.I.I.I.I.I.I.I.I.Y.Y.Y.Y.",
"I.I.I.I.I.P.P.P.P.P.I.I.I.I.I.I.P.P.P.P.P.P.uXuXuXP.P.P.P.P.P.P.P.P.I.I.P.P.P.P.P.P.P.P.P.P.P.P.P.J.J.J.J.J.P.P.P.J.J.J.P.P.P.P.J.P.P.J.J.J.J.J.J.J.J.J.T.m.k.V * 2 4 J J ~ { oXXXG.~ , o & 5 5 5 2 4 d 5 5 5 5 5 , 4 4 m m m m 4 4 4 4 m B B m d 4 B B Y Y E E E E Y V 2 2 2 2 > > > > 2 4 d V E E V d Y Y Y V Y V d d > > > > o o o o o o o o o o - - # o ; ; * & * * * * & & o o o o * * * * * o o o # # # # # # + + o o o # # # # # 1 1 1 1 1 1 1 # + + + + + + + + O                         0 9 =.J.P.P.J.J.P.P.J.J.H.H.H.H.H.H.H.P.P.P.H.P.P.H.H.H.H.P.P.H.H.H.H.H.H.H.P.P.P.P.P.H.H.H.H.v.k.h p # f h d a p p ; ; # # # o       X # 1 1 # # # # o + X + + + + + @ @ + + + @ @ @ @ @ @ @ @ @ # @ @ @ @ @ # # # # y y p p # # O O @ e ; ; ; ; e e w w e e y y y y e e f f #.8.b.b.8.#.y w w y t t w u g #.9.9.9.9.0.0.u.u.......f #.#.#.#.8.0.9.9.%.%.7.7.0.8.%.#.o.o.o.o.u u u u u o.o.#.9.9.7.#.o.o.o.o.w w 6 6 w w t ..O.7.p.d.d.s.s.s.i.y.9.7.7.7.#.u u u u u 7.9.p.sXs.rXg.g.O.+.8 o.9 6 6 t y.dXdXp.5.i.a.p.a.a.u.u.a.a.a.a.P.P.H.H.P.P.H.H.H.H.H.H.H.H.H.H.H.H.H.H.H.H.H.H.H.H.H.H.H.H.H.H.P.P.P.P.H.H.H.H.P.P.P.P.P.P.P.P.P.P.P.P.P.P.P.P.P.P.P.P.P.P.P.P.P.P.P.P.P.P.P.P.P.P.P.P.P.P.P.P.P.P.P.P.P.P.P.P.P.P.P.P.P.P.P.P.P.P.P.P.P.P.I.I.I.I.I.I.I.I.I.I.I.I.I.I.I.I.P.I.I.I.I.I.P.P.I.I.I.I.I.I.I.I.I.I.Y.Y.Y.Y.",
"P.P.P.P.P.P.P.P.P.P.P.P.P.P.P.P.P.P.P.P.P.P.P.P.P.P.uXuXP.P.P.P.I.I.I.P.P.P.I.I.I.I.I.I.I.I.I.P.P.P.P.P.P.P.P.P.P.P.P.P.P.P.P.P.J.J.I.I.I.I.I.J.J.J.n.n.V d d Y Y < 4 R A.S.XX{ J < > > 5 4 4 4 5 2 > & 5 > > > 5 < m Y T ! ! ! ! ! ! Y ! Y 4 5 m m m Y Y Y Y d E Y d 2 > > > > > & > 2 d d V Y Y Y V d d Y Y Y E E Y d d d d d d d 2 2 3 2 > & o o o - o o o o # # # # # # # # # # # # # # o o o o o o # # # # o o o o o o o o # # # # # ; 1 p 1 1 1 1 p # # # + + + + O O X X                 O O 0 f L.I.J.H.J.J.J.J.P.P.P.P.P.P.P.P.P.P.P.P.P.P.P.P.P.P.P.P.J.J.J.P.J.J.J.H.P.P.P.P.H.H.H.H.H.v.v.k.p 7 p p s s a p ; ; 1 1 ; # o       o # # # # #   + + + X O + # # # + + @ @ @ @ @ @ # + # # # @ @ # # # @ @ # # e e e e e 6 @ @ 7 7 7 7 e e e e e w w w e e y e e e e e #.g f y e e w e w t y g y g g #.7.7.#.o.o.t w 6 @ @ O O O e s g #.7.0.u.0.0.9.9.9.9.9.9.o.o.o.#.g g u u u o.o.#.7.9.9.u.0.9.7.o.o.t t t w w t t o.O.O.O.i.i.i.i.y.q.4.O.O.4.o.o.7.9.w.p.g.g.g.g.tXtXtXi.O.X.+.t t t o.R.R.y.9.y.i.i.i.p.a.a.a.a.P.u.u.u.H.H.H.H.P.P.H.H.H.H.H.H.P.P.P.P.P.P.P.P.P.P.P.P.P.P.P.P.P.P.P.P.P.P.P.P.P.P.P.P.P.P.P.P.P.P.H.H.P.P.P.P.P.P.P.P.P.P.P.P.P.P.P.P.P.P.P.P.P.P.P.P.P.P.P.P.P.P.P.P.P.P.P.J.J.J.I.I.I.I.I.I.P.I.I.I.I.I.P.P.P.P.P.P.P.P.P.P.P.P.J.J.I.I.P.P.P.P.J.P.I.I.I.I.I.I.I.I.I.I.I.I.iXiXiXiXY.Y.Y.Y.",
"P.P.P.P.P.P.P.P.P.P.P.P.P.P.P.P.P.P.P.P.P.P.P.P.uXuXuXuXP.P.P.P.I.I.I.I.P.P.I.I.I.I.I.I.I.I.I.I.P.P.P.P.P.P.P.P.P.P.P.P.P.P.P.P.J.J.I.I.I.I.I.J.n.n.l.l.x.Y Y T J K [ S.XX{ ! H < < , < 4 4 4 5 > & & o o & , < Y ! [ Z.A.Z.Z.Z.! ! ! Y ~ Y m 4 ~ Y Y Y Y d 4 2 Y d 2 2 > > > o > > 2 2 d d B Y Y d d d d B Y Y Y Y d d d d d d d d d d d a 2 3 1 - o o o o - o ; ; # ; # # # # # # # # # o o o o o o o # # # # o o o o o o o o # # # # o # # ; 1 p 1 1 p # # # # # # + + O   X                 X O O 0 &.H.H.H.J.J.J.J.P.P.P.P.P.P.P.P.P.P.P.P.P.P.P.P.P.P.P.P.J.J.J.P.J.J.J.H.P.P.P.P.H.H.H.H.H.H.H.v.$.f e p p p f p ; ; # ; 1 1 ; # + + + + + + + +   + + + X O + # # # # # # # # # # @ + + @ @ # # # # # # # 7 e e e e e e e e 6 6 7 7 7 7 e e e e e w w y e e e e e e e e w 9 6 @ @ 6 6 6 6 w y y g g #.7.#.#.u y t 6 6 O O O       X @ e u o.7.7.7.7.7.7.7.7.7.7.o.o.o.o.u u u t u o.o.#.%.7.9.u.u.9.7.o.o.t t i w t +.o.o.O.7.y.y.y.y.y.y.5.O.O.o.4.7.7.p.d.g.g.d.i.s.i.s.g.s.r.O.X.+.t 9.9.p.d.y.y.p.U.p.p.p.p.a.a.a.a.P.P.u.u.H.H.H.H.P.P.H.H.H.H.H.H.P.P.P.P.P.P.P.P.P.P.P.P.P.P.P.P.P.P.P.P.P.P.P.P.P.P.P.P.P.P.P.P.P.H.H.H.H.P.P.P.P.P.P.P.P.P.P.P.P.P.P.P.P.P.P.I.P.P.P.P.P.P.P.P.P.P.P.P.P.P.J.J.J.J.I.I.I.I.P.P.J.J.I.I.I.I.P.P.P.P.P.P.P.P.P.P.P.P.J.J.I.I.P.P.P.P.J.J.I.I.I.I.I.I.I.I.I.I.Y.Y.iXiXY.iXY.Y.Y.Y.",
"P.P.P.P.P.P.P.P.P.P.P.P.P.P.P.P.P.P.P.P.P.P.uXuXuXuXuXuXP.P.P.P.I.I.P.I.P.P.P.P.P.P.I.P.I.I.I.P.P.P.P.P.P.P.P.P.P.P.P.P.J.J.J.J.J.J.J.J.J.J.J.J.n.k.l.l.E B Y T { S.^.S.! J < , < < 4 < , 5 > > o & & > 5 4 T ! A.A.G.G.A.A.Z.Z.! ! ! Y Y Y B B ! ~ Y m 4 2 5 5 d 2 2 2 > > o o > 2 2 d d d d d d d d d d d Y Y Y d d a d d d d d d d d d d a 2 3 3 1 - o o ; ; 1 1 1 1 1 1 1 1 1 1 ; ; # # o o o o o o o # # # o o o o o o o o o o o # o o o # # ; 1 1 p 7 # # # # # + + + X X o + .           X X O O 9 $.H.H.J.J.J.J.P.P.P.P.P.P.P.P.P.P.P.P.P.P.P.P.P.P.P.P.J.J.P.P.J.J.P.H.P.H.H.H.H.H.H.H.H.H.H.H.H.&.j p p p p p p # # # # # p p * # + + + + + + + + + + X O # # ; ; ; ; q e q q # # + + @ @ + # 7 e e e e e e e e e y y e e e 6 e e e e w w e e e w g g g f e e e e e w 6 6 @ O @ @ @ @ 6 6 w f g #.$.8.#.y w 6 O O O O O   O O O O X @ t y u o.u u u u o.o.o.o.o.o.o.o.u r w w u o.o.#.%.7.9.u.u.9.7.o...+.t i t u o.o.4.7.9.9.9.9.9.9.7.O.o.X.o.7.y.p.g.d.d.d.r.r.r.r.y.i.y.O.8 +.y.d.g.d.i.O.O.u.U.sXp.p.p.u.a.a.a.P.P.P.H.H.H.H.P.P.P.P.P.H.P.P.H.P.P.P.P.P.P.P.P.P.P.P.P.P.P.P.P.P.P.P.P.P.P.P.P.P.P.P.P.P.P.P.P.P.P.P.H.H.H.H.P.P.P.P.P.P.P.P.P.P.P.P.P.P.P.P.I.I.P.P.P.P.P.P.P.P.J.P.P.P.P.P.P.P.J.I.I.I.P.P.P.P.J.J.J.J.I.I.I.P.P.P.P.P.P.P.P.P.I.P.J.J.I.I.P.P.I.P.P.P.I.I.I.I.I.I.I.I.I.I.iXiXY.Y.Y.Y.Y.Y.Y.Y.",
"P.P.P.P.P.P.P.P.P.P.P.P.P.P.P.P.P.P.P.P.P.P.uXuXuXuXuXuXP.P.P.P.P.P.P.I.P.P.P.P.P.P.P.P.I.I.I.P.P.P.P.P.P.P.P.P.P.P.P.P.J.J.J.J.J.J.J.J.J.J.n.n.k.E E E Y Y ! G./.S.R 5 < < < , , , < > > > > > > > , < / { S.XX/.F.G.A.Z.Z.! ! ! ! ! Y B Y Y Y T Y 4 < 5 5 5 5 2 2 2 2 > & o o 2 2 d d d d d d d d d d d d Y Y d d 2 2 d d d d a 2 2 d d d d a 3 3 3 1 ; o ; ; 1 1 1 1 3 3 3 p 1 1 1 1 1 1 1 1 ; ; ; o # # # # o o o o o o o o o o o o o o o o # # # ; # 7 7 7 1 1 ; ; + + + + + + .           X X O O   f &.H.J.J.J.J.P.P.P.P.P.P.P.P.P.P.P.P.P.P.P.P.P.P.P.P.P.J.J.J.J.J.P.H.P.H.H.H.H.H.H.H.H.H.H.H.J.H.c.$.e 7 e p p # + + # # # # p * * # # # # # + + + + X O # # ; e e e p p p p e # @ + + @ O + 7 7 e e e e e e y y s p y y w e e e e e w e w e e y g #.g g g y w w w w e 9 6 @ O O O O @ 6 w g #.#.#.#.#.y @     O O O O O O O @ @ X @ w t y y y y y y y y y y o.o.o.o.u t w w o.o.o.%.%.7.9.u.0.9.7.o...+.t t u o.o.#.7.q.9.i.7.4.4.4.o.o.X.+.O.9.p.g.d.i.q.4.5.5.5.5.5.r.5.+.O.y.d.dXy.d.i.O.%.u.U.a.u.u.u.u.a.P.P.P.u.H.H.H.H.H.P.P.P.P.P.P.P.P.P.P.P.P.P.P.P.P.P.P.P.P.P.P.P.P.P.P.P.P.P.P.P.P.P.P.P.P.P.P.P.P.P.P.P.P.H.H.H.H.P.P.P.P.P.P.P.P.P.P.P.P.P.P.P.P.I.I.P.P.P.P.P.P.P.P.J.P.P.P.P.P.P.P.J.P.I.I.P.P.P.P.J.J.J.P.I.I.I.P.P.P.P.P.P.P.P.P.I.J.J.J.I.I.P.P.P.P.P.P.I.I.I.I.I.I.I.I.I.I.iXiXY.Y.Y.Y.Y.Y.Y.Y.",
"P.P.P.P.P.P.P.P.P.P.P.P.P.P.P.P.P.P.P.P.P.P.uXuXP.P.P.P.P.P.P.P.P.I.P.P.P.P.P.P.P.P.I.I.I.I.P.P.P.P.P.P.P.P.P.P.P.P.P.P.J.J.J.J.H.H.J.m.k.k.k.V E a 2 2 E Z.F.[ J < > > 5 5 5 5 < 4 4 m 4 , > > > 5 ~ ! [ { S.S.A.Z.Z.! ! ! ! ! N.! Y B Y Y B m 4 , 5 > 2 2 5 5 5 > > o o & > 2 2 d d d a a 2 2 2 2 2 2 d a d d a a 2 d d 4 2 2 2 2 2 2 a a 2 2 3 3 p 3 1 # # ; 1 1 1 1 3 1 p p p p p p p p p p p 3 1 1 1 1 1 ; # # o o o o o o o o o o + + # o # # # # # # # # # # ; ; # # # # + + +             X X O O O f &.H.H.J.J.P.P.P.P.P.P.P.P.P.P.P.P.P.P.P.P.P.P.P.P.P.P.P.P.P.P.P.P.P.H.H.H.H.H.P.P.P.H.H.J.J.H.H.v.$.h 7 # 7 # @ O + # 7 q a f f f p # # # + + + + + + # # # ; e e p p p p 7 # @ O O O @ @ # 7 e e e e e e e y g g #.g g y e w w w w w t t y y g g f f f f 9 9 e e 7 7 7 7 O O O O O O 6 w y g #.#.g y 6 @ O       O O O       O @ w t u u 7.7.#.#.#.#.o.o.o.o.#.#.u u i i o.o.o.O.O.4.O.4.%.O.o.t t t o.o.o.o.o.#.4.7.7.7.4.o.X.o.i t t o.9.p.R.p.O.O.O.O.5.X.X.O.r.y.y.y.d.d.d.d.d.y.O.:.u.a.a.u.u.u.P.P.a.P.P.P.H.H.H.H.H.H.P.P.P.P.P.P.P.P.P.P.P.P.P.P.P.P.P.P.P.P.P.P.P.P.P.P.P.P.P.P.P.P.P.P.P.P.P.P.P.P.P.P.P.P.P.H.H.H.H.P.P.P.P.P.P.P.P.P.P.P.P.P.I.I.I.I.P.P.P.P.P.P.P.P.J.J.I.I.I.I.P.P.I.I.J.J.P.P.P.P.P.P.P.P.P.P.I.I.P.P.I.I.I.I.P.P.I.I.P.P.P.P.P.P.I.I.I.I.I.I.I.I.I.I.I.I.iXiXiXiXiXiXiXiXiXiXiXiX",
"P.P.P.P.P.P.P.P.P.P.P.P.P.P.P.P.P.P.P.P.P.P.uXuXP.P.P.P.P.P.P.P.P.P.iXpXP.P.P.P.P.P.I.I.I.I.P.P.P.P.P.P.P.P.P.P.P.P.P.P.J.J.J.J.J.m.n.k.E E d d 5 5 d E N.! Y 4 5 5 < 4 4 4 < < 4 B Y Y Y 4 4 5 4 Y ! [ { { { { ! ! T ! ! ! ! ! ! Y B 4 m 4 4 5 5 > > > > > > > 5 > & o o & > 2 2 d d d a a 2 2 2 2 2 2 a a d d d a a d d 4 2 2 2 2 3 2 2 2 2 2 3 3 p 3 1 # # ; 1 ; 1 1 1 1 1 1 1 1 p p p p p p a a a p p p p p 1 1 # # # # o o o o o o # + # # # # # # # # # # # # # # # # # # # + +             X X X O O O f *.J.P.P.P.P.P.P.P.P.P.P.P.P.P.P.P.P.P.P.P.P.P.P.P.P.P.P.P.P.P.P.H.H.H.H.H.H.P.P.P.P.P.J.J.J.J.H.b.8.$.h e # O O + # 7 q * p p f f p p ; # + + + + # ; ; ; ; e e q q 7 7 7 # + O O O O O O @ # e e # # # e y g g g g g y y e w w w w t t f f y y e e e w 9 7 e e 7 7 6 @ @ @ @ O O @ 6 7 w w y g f e 6 @ @ O     O O O O     X O w u u u #.#.#.#.7.7.#.#.0.9.7.7.4.X.X.o.o.O.O.9.y.y.y.y.y.9.%.o.o.o.o.o.o.o.#.#.4.4.7.7.4.u i i t t o.9.y.d.d.y.O.O.O.O.5.X.X.r.y.g.g.y.s.d.d.d.i.%.O.;.u.u.u.P.u.H.H.H.P.P.P.P.P.P.H.H.H.H.P.P.P.P.P.P.P.P.P.P.P.P.P.P.P.P.P.P.P.P.P.P.P.P.P.P.P.P.P.P.P.P.P.P.P.P.P.P.P.P.P.P.P.P.H.H.H.H.H.H.P.P.P.P.P.P.P.P.P.P.P.P.I.I.I.I.P.P.P.P.P.P.P.P.J.J.I.I.I.I.P.P.I.P.P.J.P.P.P.P.P.P.P.P.P.P.I.I.J.P.I.P.I.I.P.P.I.I.P.I.P.P.P.P.I.I.I.I.I.I.I.I.I.I.I.I.iXiXiXiXiXiXiXiXiXiXiXiX",
"P.P.P.P.P.P.P.P.P.P.P.P.P.P.P.P.P.P.P.P.P.P.uXuXP.P.P.P.P.P.P.P.1.hXP.1.P.P.P.P.P.I.I.I.P.P.P.P.P.P.P.P.P.P.P.P.P.P.P.P.J.J.J.J.J.k.k.h d 4 5 < 4 Y ! ! ~ 4 > > 4 m Y Y Y Y Y Y Y Y Y Y Y m 4 4 Y T [ [ ` R L L T T R ! ! ! ! ! Y B 4 4 5 5 5 5 > > - o & & > > > > o o o o 5 2 2 2 2 2 2 2 2 2 2 2 2 2 a a d d 2 2 a d d d 2 2 2 2 3 2 3 3 2 2 3 3 p 3 1 ; ; ; # # # # # # 1 1 1 1 1 1 1 1 p p p p p p a a a a p p 1 1 ; # # # o o o o # # # # # # # # # # # # + + + + + + + # # # + X             X X O O O @ @.H.I.I.P.P.P.P.P.P.P.P.P.P.P.P.P.P.P.P.P.P.P.P.P.P.P.P.P.P.P.P.P.P.H.H.H.H.P.P.P.P.P.J.P.J.J.H.c.b.b.8.$.f 7 @ 7 7 7 7 7 7 * p p p p p ; # o o # # # # ; ; e ; 7 # + + 7 # @ O O O O O O @ # e e # : : e y g g h g g f y y y y w w w w y y w w w w w w w 9 e e e e e e 6 6 6 6 7 7 9 e w w e w e e 7 7 @ O     O O O O O O @ # r u S 7.u u u u 7.7.9.7.u.0.0.7.4.4.4.o.9.y.y.i.d.d.p.p.y.y.9.4.%.7.7.7.#.o.#.#.4.4.7.7.u i w w t o.4.i.i.g.i.O.O.O.O.O.5.X.5.s.i.d.d.d.d.d.d.d.%.%.u.u.u.P.P.H.H.H.H.H.P.P.P.P.P.P.P.H.H.H.P.P.P.P.P.P.P.P.P.P.P.P.P.P.P.P.P.P.P.P.P.P.P.P.P.P.P.P.P.P.P.P.P.P.P.P.P.P.P.P.P.P.H.H.H.H.H.H.H.H.P.P.P.P.P.P.P.P.P.P.P.P.I.I.P.P.P.P.P.P.P.P.P.P.J.P.P.I.I.P.P.P.I.I.J.J.P.P.P.P.P.P.P.P.P.P.I.I.J.J.J.P.I.I.I.P.I.I.I.I.P.P.P.P.I.P.I.I.I.I.I.I.I.I.Y.Y.I.I.iXY.Y.Y.Y.Y.Y.Y.Y.Y.",
"P.P.P.P.P.P.P.P.P.P.P.P.P.P.P.P.P.P.P.P.P.P.uXuXuXP.P.P.P.P.P.P.BXPXDX=.P.P.P.P.P.P.I.I.P.P.P.P.P.P.P.P.P.I.P.P.I.I.P.J.J.J.J.J.k.h 3 > 2 < < < Y Y J 5 5 > , m Y Y Y Y Y Y Y Y Y Y Y Y B m 4 4 Y T ! ! R R K J ~ T ! ! T T T ! B 4 4 5 2 5 > > o o o o o o > > > o o o o o > 2 2 2 2 2 d a 2 2 2 2 2 2 a a d d d 4 d d d d 2 2 2 1 2 2 3 3 3 3 3 3 3 3 1 ; # # # o # # # # # # 1 1 1 1 1 1 1 1 3 p p p p p p p a p p p 1 1 ; # o o o o # # # # # # # # # # + + + + + + + + + + # # + X                 X O O O 9 =.H.I.P.J.P.P.P.P.P.P.P.P.P.P.P.P.P.P.P.P.P.P.P.P.P.P.P.P.P.P.P.P.H.H.H.H.P.P.P.P.P.P.P.P.J.H.H.c.c.c.c.$.j 7 7 7 7 q @ @ # # ; 1 p p p ; # # # # # # # ; e # # + + + 7 7 @ O O @ O O @ @ # e e # : 6 e y g g $.g g f f f f y w w 6 6 6 w w y w w w w w w e e e e e e e e e e e y y f y w e e e e e e 7 @ O   O O O O @ @ e e u u 7.7.u u u u #.7.7.7.9.9.7.7.4.5.4.4.d.d.d.g.R.d.p.p.i.y.9.4.7.9.7.7.7.#.#.#.4.4.7.7.i i w w o.9.i.d.d.d.y.O.O.O.O.O.O.O.y.g.i.O.O.d.dXsXi.O.-.H.H.u.P.P.P.P.H.H.H.H.P.P.P.P.P.P.P.H.H.H.P.P.P.P.P.P.P.P.P.P.P.P.P.P.P.P.P.P.P.P.P.P.P.P.P.P.P.P.P.P.P.P.P.P.P.P.P.P.P.P.P.P.H.H.H.H.H.H.H.H.P.P.P.P.P.P.P.P.P.P.P.P.I.P.P.P.P.P.P.P.P.P.P.P.J.P.I.I.P.P.P.P.I.I.J.J.J.P.P.P.P.P.P.P.P.P.I.I.J.J.J.J.I.I.I.I.I.I.I.I.P.P.P.P.P.P.I.I.I.I.I.I.I.I.Y.Y.Y.I.iXiXY.Y.Y.Y.Y.Y.Y.Y.",
"P.P.P.P.P.P.P.P.P.P.P.P.P.P.P.P.P.P.P.P.P.P.P.P.P.P.P.P.P.iXP.@.SXPXSX@.P.P.P.P.P.P.I.I.P.P.P.P.P.P.I.I.I.I.I.I.iXI.I.J.L.J.v.k.a 5 > 5 > < J ~ 4 4 < 4 Y Y Y Y Y Y ~ Y Y Y Y ! ! ! ! ! 4 m m B J J J J J J J J ! T Y Y 4 4 5 5 2 3 3 3 > > 1 1 1 1 2 2 1 & o o o o o o & & 1 1 3 3 2 2 3 3 3 3 3 3 3 3 2 2 3 3 a a d d a a 2 2 2 1 1 1 1 3 2 2 1 1 1 1 1 1 1 ; o o o o o o # # * * 1 1 1 1 p p 3 p p p p p a a a a a a p p 1 1 # o o o + # ; p 1 1 1 1 e 7 # # # # # + + + # # + + + + o                     O @ 9 $.H.J.J.P.P.P.P.P.P.P.P.P.P.P.P.P.P.P.P.P.P.P.P.P.P.P.P.P.P.P.P.P.P.P.P.P.P.P.P.P.P.P.P.P.J.H.H.H.H.J.J.H.&.@.f 7 7 p 7 7 e ; ; ; ; # # # # # # ; # 7 7 7 7 7 # # # # # e e e # # # 7 7 e e w e e e w y g #.#.#.#.$.#.g y w w 6 @ @ @ 6 w w t t y y w w w w 7 7 7 7 e e e e f g g #.g g y y y y y y p y e 7 7 e y f w w w t u #.7.9.o.o.u t 7.7.7.7.o.o.o.o.5.y.p.p.g.R.K.p.y.9.9.O.O.O.9.y.y.y.y.y.0.0.0.9.q.7.o.u w t X.O.i.i.i.p.d.i.y.r.X.O.5.5.r.tXdXg.i.y.y.i.a.O.O.%.H.H.H.H.P.P.P.P.P.P.P.P.P.P.P.P.P.P.P.P.P.P.P.P.P.P.P.P.P.P.P.P.P.P.P.P.P.P.P.P.P.P.P.P.P.P.P.P.P.P.P.P.P.P.P.P.P.P.P.P.P.P.P.P.P.P.P.P.P.P.P.P.P.P.P.P.P.P.P.P.P.P.P.P.P.P.P.P.P.P.P.P.P.P.P.P.P.P.P.I.I.P.J.J.I.I.P.P.P.P.P.P.P.P.P.J.J.J.I.I.I.I.J.J.P.P.P.P.J.J.P.P.P.P.P.P.P.P.P.P.P.P.P.P.I.I.Y.I.I.I.Y.Y.I.I.Y.Y.Y.Y.iXiX",
"P.P.P.P.P.P.P.P.P.P.P.P.P.P.P.P.P.P.P.P.P.P.P.P.P.P.P.P.P.P.P.-.I.zXfXI.P.P.P.P.P.P.I.I.P.P.P.P.P.I.I.I.I.I.I.I.I.I.P.H.n.>.j 1 > > 5 < J ~ Y , 4 J Y Y Y Y Y Y Y Y Y Y Y Y ! ! ! ! ! ! 4 m m m m m B B B B B J Y ~ J m 5 5 5 5 2 1 1 1 & & * 1 1 1 1 1 1 * o o o o o o & & 1 1 3 3 2 2 3 3 3 3 3 3 3 3 2 2 3 3 2 2 3 3 2 2 2 2 2 2 2 1 1 1 2 1 1 1 1 1 1 1 ; ; # # # # o # # # * * 1 1 1 1 p p p p p p a a a a a a a a a a p p 1 # # o + # ; 1 1 1 1 1 e 7 7 7 # # # # # # # # + + + + + + + X X   O         O O @ 7 $.J.J.H.H.P.P.P.P.P.P.P.P.P.P.P.P.P.P.P.P.P.P.P.P.P.P.P.P.P.P.P.P.P.P.P.P.P.P.P.P.P.P.P.P.H.H.J.J.J.J.P.J.1.*.@.f f p 7 7 ; ; ; ; # # # # # # # # 7 # 7 7 # # # # # # e p e e e e 7 e e y y w w e w y g #.#.#.#.8.#.g y w 6 6 6 @ 6 w w t t t y y w w w w 7 7 7 7 e e e e #.#.#.$.g g y t y y y y f f f e e e e e y t u u 7.7.0.w.7.%.o.o.o.O.O.O...o.9.i.s.s.d.p.u.9.7.#.o.o.O.%.9.y.p.p.p.p.p.p.0.9.%.o.o.o.o.o.X.O.9.y.d.d.d.d.d.i.y.5.5.5.r.y.d.dXsXO.y.i.i.y.O.%.p.U.H.H.P.P.P.P.P.P.P.P.P.P.P.P.P.P.P.P.P.P.P.P.P.P.P.P.P.P.P.P.P.P.P.P.P.P.P.P.P.P.P.P.P.P.P.P.P.P.P.P.P.P.P.P.P.P.P.P.P.P.P.P.P.P.P.P.P.P.P.P.P.P.P.P.P.P.P.P.P.P.P.P.P.P.P.P.P.P.P.P.P.P.P.P.P.P.P.P.P.I.I.P.P.J.I.I.P.P.P.P.P.P.P.P.P.P.J.J.I.I.I.P.J.J.P.P.P.P.J.J.P.P.P.P.P.P.P.P.P.P.P.P.P.P.I.I.Y.I.I.I.I.I.I.I.Y.Y.Y.Y.iXiX",
"P.P.P.P.P.P.P.P.P.P.P.P.P.P.P.P.P.P.P.P.P.P.P.P.P.P.P.P.P.P.P.I.I.P.H.I.P.I.I.I.P.P.I.I.I.I.P.uXI.I.I.I.I.I.I.I.J.H.,.$.j f p 1 4 G J J ~ Y m , ~ ~ ~ Y Y Y Y Y Y Y Y Y Y ! ! / Z.! ~ Y m 4 4 4 m d B B B B B B J m 4 < 5 > > > 1 1 1 1 o o o o o o # ; 1 * o o o o o . & & 1 2 2 2 2 2 3 3 3 3 3 3 3 3 2 2 3 3 3 3 3 3 3 3 2 3 3 3 2 2 1 1 1 1 1 1 1 1 1 1 1 1 1 ; ; # # # ; ; * * 1 1 1 1 1 1 p p p p p p p p a a a a a a a p p 1 1 # + # ; 1 1 1 1 1 p # 7 7 e ; e # # # # # + + + + + + + + # # + + @ O O O O O @ 7 c.J.H.P.P.P.P.P.P.P.P.P.P.P.P.P.P.P.P.P.P.P.P.P.P.P.P.P.P.P.P.P.P.P.P.P.P.P.P.P.P.P.P.P.H.H.J.J.J.J.J.J.J.H.c.$.j f p 7 7 7 e e e e e e # @ @ # # # # # # @ @ + + @ # 7 7 # # # 7 7 e e y y y w w w y g #.#.#.#.g f w 6 6 6 w w w w y y y t t t w w w w w w e e e e e e f g g #.g g y t t y y y y y f f f f y y g o.#.#.9.y.p.p.9.9.4.O.O.O.o.o.o.7.i.d.d.i.i.p.%.o.y t y ..o.#.7.0.u.p.u.u.u.u.%.o.o.o.o.O.4.7.9.y.i.i.d.d.g.d.d.i.i.r.o.y.g.dXd.d.d.sXi.p.p.p.u.a.a.u.u.P.P.P.P.P.P.P.P.P.P.P.P.P.P.P.P.P.P.P.P.P.P.P.P.P.P.P.P.P.P.P.P.P.P.P.P.P.P.P.P.P.P.P.P.P.P.P.P.P.P.P.P.P.P.P.P.P.P.P.P.P.P.P.P.P.P.P.P.P.P.P.P.P.P.P.P.P.P.P.P.P.P.P.I.I.I.I.P.P.P.P.P.P.P.P.P.P.I.I.I.I.J.J.I.P.P.P.P.P.P.P.P.P.P.P.J.J.P.I.I.I.J.J.P.P.P.P.J.J.P.P.P.P.I.I.P.P.P.P.J.J.J.J.I.I.I.I.I.I.I.I.I.I.Y.Y.Y.Y.Y.Y.",
"P.P.P.P.P.P.P.P.P.P.P.P.P.P.P.P.P.P.P.P.P.P.P.P.P.P.P.P.P.pXP.P.I.-.H.P.I.I.I.I.P.P.I.I.I.I.I.P.I.I.I.I.I.J.J.J.J.v.$.h * p d V ! ! ! ! J , < T ! Y m 4 Y Y B B B 4 B Y Y ! ! Z.! Y 4 5 4 4 4 4 4 4 4 4 B V V B 4 4 , 5 > > > > & * * * o o o o o o o o 1 * o o o o . . & & 1 2 2 2 2 2 3 3 3 3 3 3 3 3 2 2 3 3 2 2 2 1 1 1 2 2 2 2 2 2 1 1 1 1 1 1 1 1 1 1 1 1 1 1 ; # # # ; ; * * 1 1 1 1 1 1 1 1 1 3 p p p p a a a a p p p p p p p 1 + # ; 1 1 1 1 1 p # p p e e e e # # # # + + + + + + + + p e e e e 7 # @ O O O @ @.J.J.H.P.P.P.P.P.P.P.P.P.P.P.P.P.P.P.P.P.P.P.P.P.P.P.P.P.P.P.P.P.P.P.P.P.P.P.P.P.P.P.P.P.H.J.J.J.J.J.J.J.J.J.H.&.j f p 7 7 7 7 y y y e e # + + @ # # # # # + O O O @ # @ + + + @ @ 7 e e e e w w w w g #.#.8.$.y t w 6 6 w w t t y y y y t t t w w w w w 7 7 7 e e e e w e y y g g y t t y y y y y f f $.$.#.#.#.#.#.#.9.y.p.d.y.9.O.O.o.o.o.o.p.i.i.i.i.i.i.p.o.u y t y y #.#.#.#.7.0.%.O.o.o.o.o.o.o.4.y.p.p.d.i.i.i.g.g.g.g.d.i.i.y.g.g.d.d.a.d.U.U.p.p.u.u.u.I.I.-.a.P.P.P.P.P.P.P.P.P.P.P.P.P.P.P.P.P.P.P.P.P.P.P.P.P.P.P.P.P.P.P.P.P.P.P.P.P.P.P.P.P.P.P.P.P.P.P.P.P.P.P.P.P.P.P.P.P.P.P.P.P.P.P.P.P.P.P.P.P.P.P.P.P.P.P.P.P.P.P.P.P.P.P.I.I.I.I.P.P.P.P.P.P.P.P.P.P.I.I.I.I.J.J.I.I.P.P.P.P.P.P.P.P.P.P.J.J.P.I.I.I.J.J.J.P.P.P.P.P.P.P.P.P.I.I.P.P.P.P.J.J.J.J.I.I.I.I.I.I.I.I.I.I.Y.Y.Y.Y.Y.Y.",
"P.P.P.P.P.P.P.P.P.P.P.P.P.P.P.P.P.P.P.P.P.P.P.P.P.P.P.P.P.P.P.P.P.P.P.P.P.P.P.P.P.P.I.I.pX-.I.2.I.I.I.J.H.J.L.L.>.k.V a 2 E Z.F.! ~ 4 , 4 m ~ ! Y J 4 B B B B B > 4 Y ! / ! ! ! m m m 4 d d 4 4 d d 4 4 2 2 2 2 > & o o 5 5 5 2 & & o o - - ; ; ; ; - - & & & & & & & & & & & & o o - - 1 2 2 2 2 1 2 2 2 2 1 1 1 1 1 > 1 1 1 1 2 2 2 2 1 1 1 1 1 1 1 1 1 1 1 1 1 1 ; ; # # # ; * * * * 1 1 1 1 1 1 1 1 1 1 p p p p p p p p p p f s f p 1 1 1 1 1 1 1 1 p p p p e e e ; # # # # + + + + + + + + # p p j p p p p # @ O O @ j c.H.1.P.iXP.P.P.P.P.P.P.P.P.P.P.P.P.P.P.P.P.P.P.P.P.P.P.P.P.P.P.P.P.P.P.P.P.P.P.P.P.P.P.P.P.P.P.P.P.P.H.H.H.H.v.&.j f 7 7 @ 7 7 e f f j f e + + + + # 7 e y @ O O O O @ # # @ 7 7 e e e e e 9 7 7 7 y y y y y w w w w y y y y f #.#.t t t t y y e e 9 9 e e e e e e 9 9 7 7 w w w w w 6 6 6 w w w w y y #.#.7.7.7.#.9.9.9.%.9.%.o.+.X.o.O.O.9.9.q.9.y.4.o.t w w w 6 9 6 6 6 6 9 y y t t ..o.O.9.y.p.p.d.g.p.i.d.g.R.g.d.i.y.y.i.i.d.d.d.d.d.a.a.u.u.u.u.u.u.H.H.H.H.P.P.P.P.P.P.P.P.P.P.P.P.P.P.P.P.P.P.P.P.P.P.P.P.P.P.P.P.P.P.P.P.P.P.P.P.P.P.P.P.P.P.P.P.P.P.P.P.P.P.P.P.P.P.P.P.P.P.P.P.P.P.P.P.P.P.P.P.P.P.P.P.P.P.P.P.P.P.P.P.P.P.P.P.I.I.I.P.P.P.P.P.P.P.P.P.P.P.P.P.P.P.P.P.P.P.P.I.J.J.J.J.P.P.P.P.P.P.P.P.I.I.I.I.P.P.P.P.P.I.Y.Y.I.I.I.I.I.I.I.I.Y.Y.Y.Y.Y.Y.I.I.I.I.I.I.I.I.Y.Y.Y.Y.Y.Y.",
"P.P.P.P.P.P.P.P.P.P.P.P.P.P.P.P.P.P.P.P.P.P.P.P.P.P.P.P.P.P.P.P.P.P.P.P.P.P.P.P.P.P.I.I.pX1.1.2.I.P.J.J.n.n.k.l.l.d 2 d Z.A.G.! m 4 < < m ~ ! ! J 4 B Y 4 4 m 4 4 Y ~ ! ! ! Y m 4 4 4 4 4 4 2 2 2 2 2 2 2 2 2 > > > > > 2 2 2 2 & > > > - - ; 1 1 ; 1 1 1 2 2 2 2 2 2 2 3 3 3 1 1 1 > > 1 1 1 1 2 * & * * * 1 1 1 1 1 1 1 ; - - > > > * * * * * # # # # # # # # # # # # # # ; ; * * * * * * 1 1 1 1 1 1 1 1 1 1 1 1 1 1 ; 1 p p p p s s 1 1 1 1 1 1 1 1 p p p 1 e e e ; # # # # + + + + + + + + + 7 p p p p p p e # + O O 7 @.H.Y.P.2.P.P.P.P.P.P.P.P.P.P.P.P.P.P.P.P.P.P.P.P.P.P.P.P.P.P.P.P.P.P.P.P.P.P.P.P.P.P.P.P.P.P.P.P.P.P.P.P.H.J.H.H.v.c.$.e 6 6 7 7 e f j j j 7 + O + # 7 e e e e # O O O @ @ @ 7 e e e 7 7 7 7 6 7 7 9 9 9 9 w w w w y y y y f g #.#.#.#.#.#.g y y e w 9 7 7 7 e e e 7 7 7 7 6 6 w w @ @ @ @ @ @ @ @ 6 9 y y u #.7.7.9.7.%.o.O.O.O.+.+.o.O.9.9.9.q.q.9.4.X.i i t w w 9 6 @ O 0 6 6 t 8 w t X.O.9.i.p.R.R.g.d.d.d.i.y.5.O.5.5.y.y.i.d.d.U.U.U.U.P.u.u.u.u.H.H.P.H.H.H.P.P.P.P.P.P.P.P.P.P.P.P.P.P.P.P.P.P.P.P.P.P.P.P.P.P.P.P.P.P.P.P.P.P.P.P.P.P.P.P.P.P.P.P.P.P.P.P.P.P.P.P.P.P.P.P.P.P.P.P.P.P.P.P.P.P.P.P.P.P.P.P.P.P.P.P.P.P.P.P.P.P.P.P.I.I.P.P.P.P.P.P.P.P.P.P.P.P.P.P.P.P.P.P.P.P.P.I.J.J.J.J.P.P.P.P.P.P.P.P.I.I.I.I.P.P.P.P.P.P.Y.Y.I.I.I.I.I.I.I.I.Y.Y.Y.Y.Y.Y.I.I.I.I.I.I.I.I.Y.Y.Y.Y.Y.Y.",
"P.P.P.P.P.P.P.P.P.P.P.P.P.P.P.P.P.P.P.P.P.P.P.P.P.P.P.P.P.P.P.P.P.P.P.P.P.P.P.P.I.I.I.I.pXfXY.H.P.J.H.n.l.x.x.D.d J ! G.G.Z.Y < < 4 J Y ~ ! ! Y 4 J J Y 4 4 4 4 Y Y Y Y Y d 4 5 5 2 2 2 2 2 2 2 1 1 1 1 2 2 1 2 > 5 2 d 2 2 2 2 > > 1 1 ; - # ; 3 3 3 3 a a a a 2 2 2 2 d d a 2 3 3 3 3 3 1 1 1 1 1 & & & & * * 1 1 - - o o o o o o o # # # # # # # # # # # # # # o # # # # # ; * * * * * * * * 1 ; 1 1 1 1 1 1 1 1 1 ; ; ; 1 1 p p p p 1 1 p p p p 1 1 # * q q ; ; # # # # # # + + + + + + + o O @ e p p p p p p ; # + # # e $.Y.P.2.P.P.P.P.P.P.P.P.P.P.P.P.P.P.P.P.P.P.P.P.P.P.P.P.P.P.P.P.P.P.P.P.P.P.P.P.P.P.P.P.P.P.P.P.P.P.P.P.H.H.J.H.H.J.c.0.#.y 9 7 7 e f f j p 7 + O + @ 7 e e e p e # O @ @ 7 e e e e e e 7 9 7 9 9 9 6 9 9 w w w w y y y y f g #.#.7.7.7.7.$.#.g y w 9 e 6 7 6 7 7 6 6 7 7 6 6 6 6 6 6 6 6 6 6 6 @ 6 6 6 6 6 t #.9.7.o.o.u o.%.7.%.o.o.#.7.9.9.q.q.4.o.o.X.u u w e e 7 @ O @ 6 9 y t t o.o.O.9.y.p.R.R.d.i.y.9.4.O.O.O.O.O.y.y.p.d.a.a.a.U.U.P.u.u.P.H.P.P.P.P.H.H.P.P.P.P.P.P.P.P.P.P.P.P.P.P.P.P.P.P.P.P.P.P.P.P.P.P.P.P.P.P.P.P.P.P.P.P.P.P.P.P.P.P.P.P.P.P.P.P.P.P.P.P.P.P.P.P.P.P.P.P.P.P.P.P.P.P.P.P.P.P.P.P.P.P.P.P.P.P.P.P.P.P.P.P.P.P.P.P.P.P.P.P.P.P.P.P.J.P.P.P.P.P.P.P.I.I.I.I.Y.Y.Y.Y.Y.I.Y.Y.Y.Y.I.I.I.I.I.I.Y.Y.Y.Y.Y.Y.Y.Y.I.I.Y.Y.I.I.I.I.I.I.I.I.I.I.I.I.I.I.I.I.I.I.Y.Y.Y.Y.Y.Y.",
"P.P.P.P.P.P.P.P.P.P.P.P.P.P.P.P.P.P.P.P.P.P.P.P.P.P.P.P.P.P.P.P.P.P.P.P.P.P.P.P.I.I.I.I.DXSXzX*.v.v.n.m.D.! Y 4 T { F.F.! 5 > < < 4 ~ ! ! ! Y 4 B Y Y Y 5 2 2 4 d d 4 4 2 2 2 2 2 2 2 2 > > > 2 2 2 * * * * 1 2 > 2 d Y 4 4 d d 2 3 2 2 - o o ; 3 3 3 3 d d d d d d d d d d d d d a d a 2 2 3 2 1 1 & * * & & * o o o o o o o o o o # # # # # # + o o o + + o + o o # # # # # # * * * * * * * * # # ; ; 1 1 1 1 1 1 1 ; ; ; ; ; 1 1 p p p p p 1 1 1 ; ; # q q q ; ; # # # # # # + + + + + + + X O O # e p p p p p p # # ; 7 7 f H.P.I.P.P.P.P.P.P.P.P.P.P.P.P.P.P.P.P.P.P.P.P.P.P.P.P.P.P.P.P.P.P.P.P.P.P.P.P.P.P.P.P.P.P.P.P.P.P.P.P.P.H.H.H.J.c.H.L.L.c.$.y 7 f f f f f f 7 @ @ @ # 7 e e p p e @ O @ 7 e e e e e e e e 9 9 9 9 9 9 9 w w w y y y y f g g #.#.#.#.#.#.#.#.$.#.y w e e e 6 6 @ 6 6 7 7 6 6 6 6 y y y y w w e e 6 6 6 6 @ 6 u 7.o.u u i 7.9.0.p.p.9.9.9.9.9.9.q.o.X.o.o.u u w w e 9 @ O 6 7 y y ..o.o.4.O.7.9.y.p.i.9.O.+.X.X.O.y.y.y.y.y.i.p.p.y.y.y.-.U.P.u.H.P.P.P.P.P.P.H.H.P.P.P.P.P.P.P.P.P.P.P.P.P.P.P.P.P.P.P.P.P.P.P.P.P.P.P.P.P.P.P.P.P.P.P.P.P.P.P.P.P.P.P.P.P.P.P.P.P.P.P.P.P.P.P.P.P.P.P.P.P.P.P.P.P.P.P.P.P.P.P.P.P.P.P.P.P.P.P.P.P.P.P.P.P.P.P.P.P.P.P.P.P.P.P.P.J.P.P.P.P.P.P.P.I.I.I.I.Y.Y.Y.Y.Y.Y.Y.Y.Y.Y.I.I.I.I.I.I.Y.Y.Y.Y.Y.Y.Y.Y.I.I.Y.Y.I.I.I.I.I.I.I.I.I.I.I.I.I.I.I.I.I.I.Y.Y.Y.Y.Y.Y.",
"P.P.P.P.P.P.P.P.P.P.P.P.P.P.P.P.P.P.P.P.P.P.P.P.P.P.P.P.P.P.P.P.P.P.P.P.P.P.P.P.I.I.iXiXDXFXmXn.n.x.x.x.! ! T ! G.A.G.! Y < , , m Y Y Y Y Y 4 4 V d a 2 2 2 2 2 B d 2 2 & & > 2 2 2 2 2 4 d d d d 4 2 2 2 3 3 1 2 2 2 2 d 2 a 3 2 3 2 1 * o o * 2 2 a a d V Y Y V d E Y V Y Y Y d d d V E V a 3 1 1 * * # # * & o o * o o o * * ; ; ; ; ; # # o o o o o o o o o o o o o # # # # # # ; # # # ; ; ; ; ; ; ; ; ; ; ; ; ; ; ; ; ; ; # # # # e ; ; e e ; # # ; e e ; # # ; # # # # # + + + + + o o X O O O O # e y p p p p p ; e e e @.*.J.P.I.P.P.uXP.P.P.P.P.P.P.P.P.P.P.P.P.P.P.P.P.P.P.P.P.P.P.P.P.P.P.P.P.P.P.P.P.P.P.P.P.P.P.P.P.P.P.P.P.P.J.J.J.J.P.P.P.J.1.=.f f y f f f 9 7 6 6 7 # f s s s e e e e e e e e p p p p w w 7 7 6 6 6 6 w w w w y y y y y y y y y g g #.#.#.g g y w e e e 7 @ @ @ @ 6 w t y g #.g g g g g u y t w w w w w w @ @ w w w w y #.8.0.9.9.0.9.9.7.%.#.o.o.o.o.u t t t y 9 9 9 y ..@...o.o.O.4.y.y.9.9.O.X.i +.5.6.t.i.i.i.i.i.i.i.a.a.a.a.a.P.P.P.P.P.P.P.P.P.P.P.P.P.P.P.P.P.P.P.P.P.P.P.P.P.P.P.P.P.P.P.P.P.P.P.P.P.P.P.P.P.P.P.P.P.P.P.P.P.P.P.P.P.P.P.P.P.P.P.P.P.P.P.P.P.P.P.P.P.P.P.P.P.P.P.P.P.P.P.P.P.P.P.P.P.P.P.P.P.P.P.P.P.P.P.P.I.I.I.I.I.I.I.I.I.I.I.I.I.Y.Y.I.I.I.I.I.I.I.I.I.I.I.I.Y.I.Y.Y.I.I.I.I.I.I.I.I.I.I.I.I.Y.Y.I.I.Y.Y.Y.Y.Y.Y.Y.Y.Y.Y.Y.Y.Y.Y.Y.Y.Y.Y.Y.Y.Y.Y.Y.Y.Y.Y.iXiXpXpX",
"P.P.P.P.P.P.P.P.P.P.P.P.P.P.P.P.P.P.P.P.P.P.P.P.P.P.P.P.P.P.P.P.P.P.P.P.P.P.P.P.J.I.iXiXgXfXL.n.m.x.Z.! ! ! Z.G.G.[ Y 4 & > 4 Y Y Y Y Y Y m 4 4 d d a 2 2 2 2 2 2 2 2 2 2 2 4 d d d d d Y Y E Y B d 4 5 2 2 2 2 2 2 2 2 d 3 a 3 2 3 3 2 * o o * 3 3 a d d V Y Y V d E Y Y Y Y Y Y Y Y E E E d a 1 1 * * # # * * & & * * * * 1 1 p p p p 1 ; # # o o o o # # # # o o o o # # # # # ; ; ; # # # # ; ; ; ; # # # # ; # # # ; ; ; ; # # # # # ; # # # # # # # ; ; ; # # ; # # # # # + + + + + o X X O O O O @ # e y p p p p p e e e 9 @.*.J.I.P.P.P.P.P.P.P.P.P.P.P.P.P.P.P.P.P.P.P.P.P.P.P.P.P.P.P.P.P.P.P.P.P.P.P.P.P.P.P.P.P.P.P.P.P.P.P.P.P.P.P.P.P.P.P.P.P.I.P.*.$.@.f f f 9 9 9 9 7 7 p p p p p p f f e e e e 7 7 7 7 w w 9 9 6 6 6 6 6 6 6 6 6 9 w y y y y y t y g g #.g g g y y e e e 7 @ @ @ @ 6 e t y g #.#.#.#.#.#.g g y t t y y y t w w 6 6 6 6 6 t o.#.7.7.7.7.7.%.#.o.t t t t t t t t t y y ..y @.$.0.p.i.i.i.9.9.O.o.o.O.9.y.h.h.g.tXd.U.d.d.d.d.a.a.d.P.P.P.P.P.P.P.P.P.P.P.P.P.P.P.P.P.P.P.P.P.P.P.P.P.P.P.P.P.P.P.P.P.P.P.P.P.P.P.P.P.P.P.P.P.P.P.P.P.P.P.P.P.P.P.P.P.P.P.P.P.P.P.P.P.P.P.P.P.P.P.P.P.P.P.P.P.P.P.P.P.P.P.P.P.P.P.P.P.P.P.P.P.P.P.P.P.I.I.I.I.I.I.I.I.I.I.I.I.I.I.Y.Y.I.I.I.I.I.I.I.Y.I.I.I.I.Y.I.Y.Y.I.I.I.I.I.I.I.I.I.I.I.I.I.I.I.I.Y.Y.Y.Y.Y.Y.Y.Y.Y.Y.Y.Y.Y.Y.Y.Y.Y.Y.Y.Y.Y.Y.Y.Y.Y.Y.iXiXiXiX",
"P.P.P.P.P.P.P.P.P.P.P.P.P.P.P.P.P.P.P.P.P.P.P.P.P.P.P.P.P.P.P.P.P.P.P.P.P.P.H.H.J.J.I.J.J.$.n.W.N.x.! ! ! [ Z.Z.! J 5 5 & > 4 Y Y Y B B 4 4 5 2 2 3 2 2 2 2 2 2 2 > 2 2 d d B B Y Y Y E W E Y Y Y B 4 4 2 2 2 2 4 4 2 2 d 3 a 3 2 3 3 1 * o o * 3 2 a d d d d d V d Y d Y Y Y Y Y E Y Y V d a 3 1 1 * * # # * * * * * * * 1 p a a a a a a 3 1 ; # # # # # # # # # # ; ; # # # # # # 1 1 # ; # # # # # # # # # # # # # # # # ; ; ; # # # # # ; # # # # # # # # ; # # # # # # # # # # + + + o + + O O O O O @ # e p p p p p p p y y 9 @.*.P.I.P.P.P.P.P.P.P.P.P.P.P.P.P.P.P.P.P.P.P.P.P.P.P.P.P.P.P.P.P.P.P.P.P.P.P.P.P.P.P.P.P.P.P.P.J.J.P.P.P.P.P.P.P.P.P.H.H.P.P.H.-.=.=.@.9 9 9 9 9 9 e e e e e e e e e e e e e e e e w w w w w w w w w w w w w w w y w w w w w w y g g g g g y y w e e 7 @ @ @ @ w e w y g #.8.8.8.8.8.#.#.g y f y y y t w w 6 6 6 6 6 6 t o.#.#.#.#.%.#.o...o.o.o.o...t w 8 t y o.#.%.u.K.K.R.d.p.y.9.O.O.O.y.d.g.g.dXtXtXtXd.U.d.d.a.U.a.P.d.P.P.P.P.P.P.P.P.P.P.P.P.P.P.P.P.P.P.P.P.P.P.P.P.P.P.P.P.P.P.P.P.P.P.P.P.P.P.P.P.P.P.P.P.P.P.P.P.P.P.P.P.P.P.P.P.P.P.P.P.P.P.P.P.P.P.P.P.P.P.P.P.P.P.P.P.P.P.P.P.P.P.P.P.P.P.P.P.P.P.P.I.I.P.P.P.P.P.P.I.I.I.I.I.I.I.I.Y.Y.Y.I.Y.Y.Y.Y.iXiXiXiXY.Y.Y.Y.Y.iXiXiXY.Y.Y.Y.iXiXiXiXY.Y.Y.Y.iXiXiXiXY.Y.Y.Y.Y.Y.Y.Y.Y.Y.Y.Y.Y.Y.Y.Y.Y.Y.Y.Y.Y.Y.Y.Y.Y.Y.Y.Y.iXiXiXiX",
"P.P.P.P.P.P.P.P.P.P.P.P.P.P.P.P.P.P.P.P.P.P.P.P.P.P.P.P.P.P.P.P.P.P.P.P.P.P.H.H.H.J.H.n.$.n.W.m.x.! ! ! Z.! Y J 4 5 5 5 , 5 4 4 B B B B 4 4 , 2 & > 2 2 2 2 2 2 2 5 4 B Y Y Y Y W W W W W W Y Y Y B 4 4 2 2 2 2 4 2 a 2 d d a a 3 2 1 * o o o * 2 3 a a d d d d d d d d d d Y Y V V Y Y V d a 3 1 1 & o # # * * * * * 1 2 1 p a d d d d d a p 3 1 1 1 1 p p p p p 1 1 1 1 ; # # # # 1 1 ; ; # # # # # o # X o o o o # # # # ; # ; # # # # # # # # # + + # # # # # # # # # # # # # # # + + + + O O O O O O O @ # p p p p p p p p f y 9 @.H.P.P.P.P.P.P.P.P.P.P.P.P.P.P.P.P.P.P.P.P.P.P.P.P.P.P.P.P.P.P.P.P.P.P.P.P.P.P.P.P.P.P.P.P.P.J.J.P.P.P.P.P.P.P.P.P.H.H.H.P.J.P.H.-.=...9 9 9 9 9 e e e e O O @ @ e e e e e y y y w w e e w w w w g g g y y f f g w w w 6 6 w t y g g g g y y e e e 7 @ @ @ @ e e w y g #.8.8.8.8.8.#.#.g g g g g w w @ @ @ @ @ 6 6 w w y #.#.#.#.#.o...+.7.7.7.7...t w w w ..%.9.K.K.K.K.d.y.7.o.O.9.i.d.g.sXdXdXg.d.s.y.i.u.p.p.u.u.a.P.a.P.P.P.P.P.P.P.P.P.P.P.P.P.P.P.P.P.P.P.P.P.P.P.P.P.P.P.P.P.P.P.P.P.P.P.P.P.P.P.P.P.P.P.P.P.P.P.P.P.P.P.P.P.P.P.P.P.P.P.P.P.P.P.P.P.P.P.P.P.P.P.P.P.P.P.P.P.P.P.P.P.P.P.P.P.P.P.P.P.P.P.I.I.P.P.P.P.P.P.I.I.I.I.I.I.I.I.Y.Y.Y.I.Y.Y.Y.Y.iXiXiXiXY.Y.Y.Y.Y.iXiXiXY.Y.Y.Y.iXiXiXiXY.Y.Y.Y.iXiXiXiXY.Y.Y.Y.Y.Y.Y.Y.Y.Y.Y.Y.Y.Y.Y.Y.Y.Y.Y.Y.Y.Y.Y.Y.Y.Y.Y.Y.iXiXiXiX",
"P.P.P.P.P.P.P.P.P.P.P.P.P.P.P.P.P.P.P.P.P.P.P.P.P.P.P.P.P.P.P.P.P.P.P.P.J.J.J.H.H.n.l.l.l.W W W ! ! ! ! Y Y B 4 2 , 5 5 4 4 4 4 d 4 2 > & o & 2 4 B Y E E B 4 4 4 4 m Y ~ ~ W W ! ! ! ! ! ~ Y Y Y B 4 4 > > > > 4 4 4 d d d a 2 1 1 * o o o o * 2 3 2 a 2 a a d a d d d d d V V h d d d d a 2 3 1 1 * # # * * * * * 1 1 3 3 3 a d d d d d d a 3 3 3 p a d d d d a a p 1 1 ; # o # # 1 1 1 1 1 1 ; ; ; o # # # # # o o o + + + + # # + + + # # # # # # # O O + + # # # # # + + + # # # + + O O O O O O O O O O O @ @ @ @ ; e y y p p 7 9 *.J.P.H.P.P.P.P.P.P.P.P.P.P.P.P.P.P.P.P.P.P.P.P.P.P.P.P.P.P.P.P.P.P.P.P.P.P.P.P.P.P.P.P.P.P.P.P.P.P.P.P.P.P.P.P.P.P.P.P.P.P.P.P.H.H.-.=.....y y y e 7 e 7 7 @ O O O @ 7 e y f f g f w 6 w y y y #.#.#.#.#.#.#.8.#.g y w w e w w w w y y y y y y 6 6 @ @ @ @ @ 6 w t y g #.#.8.#.#.#.g u w w w w w 6 6 @ @ @ @ 6 6 t t u u o.7.w.u.9.%.O.u.9.7.%.t t ..o.u.u.u.u.o.%.9.y.q.y.i.p.d.d.sXsXdXsXd.f.i.y.y.y.a.a.a.a.P.P.a.a.P.P.P.P.P.P.P.P.P.P.P.P.P.P.P.P.P.P.P.P.P.P.P.P.P.P.P.P.P.P.P.P.P.P.P.P.P.P.P.P.P.P.P.P.P.P.P.P.P.P.P.P.P.P.P.P.P.P.P.P.P.P.P.P.P.P.P.P.P.P.P.P.P.P.P.P.P.P.P.P.P.P.P.P.P.P.P.P.P.P.P.P.I.I.I.I.I.I.I.I.I.I.I.I.I.I.I.I.I.Y.iXY.Y.Y.Y.Y.iXiXiXY.pXpXpXpXpXpXpXpXY.Y.Y.Y.iXiXiXY.Y.Y.Y.Y.Y.Y.Y.Y.Y.Y.Y.Y.Y.Y.Y.Y.Y.Y.Y.Y.Y.Y.Y.Y.Y.Y.Y.Y.Y.Y.Y.Y.Y.Y.Y.Y.iXpXpXpX",
"P.P.P.P.P.P.P.P.P.P.P.P.P.P.P.P.P.P.P.P.P.P.P.P.P.P.P.P.P.P.P.P.P.P.P.P.H.H.H.H.,.>.E Y ~ ~ W W T T T ! ~ B 2 > 2 , 2 2 5 4 4 4 5 2 2 > 2 > 2 B ! ! / ! Y 4 , 2 4 m J Y ~ ~ ~ ~ T T T T ! ~ Y Y B 4 4 5 > > > > 2 2 3 3 2 2 3 2 1 * * o o o o * 2 3 2 2 2 2 2 2 a a a d a a d d d d d d a a 3 1 1 * # o # * * * * * 1 p 3 3 3 3 a d d d d d a 3 3 3 a a d d d d d a p 1 1 ; # o o # 1 1 1 p p p a a a s p p p 1 ; ; ; # # # # # # # # # + + # # + + + + O O + + # # # + # + + + # # + O + O O O O O O O O O O O @ @ @ @ @ # e e p p p f @.$.H.P.P.P.P.P.P.P.P.P.P.P.P.P.P.P.P.P.P.P.P.P.P.P.P.P.P.P.I.P.P.P.P.P.P.P.I.P.P.P.P.P.P.P.P.P.P.P.P.P.P.P.P.P.P.P.P.P.P.P.P.P.P.P.H.H.-.=.=.@.@.f y y e e e e O O   O @ @ 7 e y y y e w w w y g g g g #.#.8.8.8.#.#.g y w w e y w y y y y y y w w 6 6 @ @ 6 6 6 w t y g g g g u y t w 6 6 6 6 6 @ @ @ O @ @ @ 6 w t y 7.7.w.p.p.i.y.y.9.9.7.%.o.o.%.%.7.7.7.7.O.4.9.9.q.y.i.p.d.d.d.tXd.d.i.y.y.u.a.a.a.P.P.P.P.P.P.P.P.P.P.P.P.P.P.P.P.P.P.P.P.P.P.P.P.P.P.P.P.P.P.P.P.P.P.P.P.P.P.P.P.P.P.P.P.P.P.P.P.P.P.P.P.P.P.P.P.P.P.P.P.P.P.P.P.P.P.P.P.P.P.P.P.P.P.P.P.P.P.P.P.P.P.P.P.P.P.P.P.P.P.P.P.P.P.P.P.P.P.P.I.I.I.I.I.I.I.I.I.I.I.I.I.I.I.I.Y.Y.iXiXY.Y.Y.Y.iXiXY.Y.iXiXpXpXpXpXpXpXY.Y.Y.Y.iXiXY.Y.Y.Y.Y.Y.Y.Y.Y.Y.Y.Y.Y.Y.Y.Y.Y.Y.Y.Y.Y.Y.Y.Y.Y.Y.Y.Y.Y.Y.Y.Y.Y.Y.Y.Y.Y.Y.iXpXpXpX",
"P.P.P.P.P.P.P.P.P.P.P.P.uXuXuXuXP.P.P.P.P.P.P.P.P.P.P.P.P.P.P.P.P.P.P.H.2.1.1.,.>.E Y J K K R T R R T T Y 4 2 > > 2 2 2 2 2 2 2 2 2 4 4 Y B Y ! A.Z.! T m , 5 4 4 J Y ~ T T T T T T T T ! ~ Y Y 4 4 2 2 > 2 5 5 2 2 3 3 3 1 > 1 * * o o o o o 1 2 3 2 2 2 2 2 2 a a a a a a a a a a a a 2 3 1 1 1 * # # # * * * * * 1 p 3 3 3 3 3 d d d d d a 3 3 p a a d d d d d a p 1 1 ; # # o # 1 3 p p p p d d D D h h h s s s s f f p p p p p p p ; # + + + + + + O O + + # # # # # + + + O O O O O O O O O O O O O O O O @ @ @ @ @ @ @ # # 7 e p f f $.P.P.P.P.P.P.P.P.P.I.I.I.I.I.I.I.I.P.P.P.P.I.I.I.P.I.I.I.I.P.P.I.I.I.I.I.I.P.P.P.P.P.P.P.P.P.P.P.P.P.P.P.P.P.P.P.P.P.P.P.P.P.P.P.P.H.H.H.*.=.#.f f f f e e e 7 7 @ O @ @ @ @ w y y f y w w w y y y y g #.7.#.#.#.#.g g y e w e y y y y y y u y w w w w w w w w w t t t w w w w w 6 @ @ @ @ @ @ @ @ @ @ 6 w i i u o.7.9.9.9.y.y.i.i.i.9.7.o.o.4.7.q.q.7.7.7.9.4.4.4.q.y.i.p.d.d.d.s.f.f.f.y.a.a.P.P.P.P.P.P.P.P.P.P.P.P.P.P.P.P.P.P.P.P.P.P.P.P.P.P.P.P.P.P.P.P.P.P.P.P.P.P.P.P.P.P.P.P.P.P.P.P.P.P.P.P.P.P.P.P.P.P.P.P.P.P.P.P.P.P.P.P.P.P.P.P.P.P.P.P.P.P.P.P.P.P.P.P.P.P.P.P.P.P.P.P.P.P.P.P.P.P.I.I.P.P.P.P.I.P.I.I.I.I.I.I.I.I.I.I.iXiXiXiXY.iXpXpXiXiXiXiXiXiXiXiXiXiXpXiXpXpXY.Y.Y.Y.Y.Y.Y.Y.Y.Y.Y.Y.Y.Y.Y.Y.Y.Y.Y.Y.Y.Y.Y.Y.Y.Y.Y.Y.Y.Y.Y.Y.Y.Y.Y.Y.Y.Y.Y.Y.Y.Y.Y.Y.iXiXpXpX",
"P.P.P.P.P.P.P.P.P.P.P.P.uXuXuXuXP.P.P.P.P.P.P.P.P.P.P.P.P.H.P.P.P.H.H.H.v.,.,.>.V Y Y J P P T T ~ ~ T T 5 2 2 2 2 2 2 > > > 5 2 4 m Y Y ! ! ! Z.A./ Y 4 < 5 < J m J Y ~ T T T ~ T T T T ! ~ Y Y 4 5 2 > > 2 5 5 2 2 1 1 > o > & * o o o o o o 1 3 3 a 2 2 2 2 a d d a a a a a a a a a a 3 3 1 1 * * # # # * * * * 1 p p 3 1 3 3 3 3 a d d d a 3 3 p a a d d d d a p 1 1 ; # # # # ; 1 3 p p p p a d d D h h h h h h D h h h g h s s s s p e ; # + + + + O O + + # # # # # + + O X X X X X X O O O O O O O O O O @ @ O O @ @ @ @ + @ @ 7 7 f j *.H.P.P.P.P.P.P.P.I.I.I.I.I.I.I.I.P.P.P.P.I.I.I.I.I.I.I.I.P.I.I.I.I.I.I.I.P.P.P.P.P.P.P.P.P.P.P.P.P.P.P.P.P.P.P.P.P.P.P.P.P.P.P.P.H.P.I.P.H.*.=.#.f y e e #.#.$.g y w 6 6 @ @ w y g u u y w w w w w t u #.u g #.#.g g g f e e e w y y y y u u u u u t w w w w w w w w 6 6 6 @ @ O O @ @ O @ @ @ @ t u u #.7.7.9.w.7.4.4.o.O.4.q.y.q.q.4.4.o.o.O.7.i.i.i.i.y.9.O.O.y.y.p.p.d.s.f.y.f.a.a.a.a.P.P.P.P.P.P.P.P.P.P.P.P.P.P.P.P.P.P.P.P.P.P.P.P.P.P.P.P.P.P.P.P.P.P.P.P.P.P.P.P.P.P.P.P.P.P.P.P.P.P.P.P.P.P.P.P.P.P.P.P.P.P.P.P.P.P.P.P.P.P.P.P.P.P.P.P.P.P.P.P.P.P.P.P.P.P.P.P.P.P.P.P.P.P.P.P.P.P.P.I.I.P.P.P.P.P.P.I.I.I.I.I.I.I.I.I.I.iXiXiXiXY.iXpXpXiXiXiXiXiXiXiXiXiXiXiXiXpXpXY.Y.Y.Y.Y.Y.Y.Y.Y.Y.Y.Y.Y.Y.Y.Y.Y.Y.Y.Y.Y.Y.Y.Y.Y.Y.Y.Y.Y.Y.Y.Y.Y.Y.Y.Y.Y.Y.Y.Y.Y.Y.Y.Y.iXiXpXpX",
"P.P.P.P.uXuXuXuXuXuXuXuXP.P.P.P.P.P.P.P.P.P.P.P.P.P.P.H.H.H.H.J.J.H.c.c.>.E E Y B m J J J J T J J J J 4 4 4 Y E Y 2 > & & 2 2 5 m J ~ T T / Z.[ Z.! J < , < 4 J J J m m ~ ~ ~ ~ ! T ! ! ~ Y Y Y 5 2 5 > 2 2 2 2 2 2 > & & > > & o o o o o o o 1 1 p 3 3 2 p a a d A A d d d d a a a a 3 3 3 1 # 1 # # # ; ; ; ; 1 1 p p p 1 1 1 1 3 a a a a a a a a a a a a a a p p 1 ; # # # # o # 1 1 p p p p a s h D D h h h D D D D h h h h h h h h s p 1 # # # # # # # # # # # # # # # + X X O X       X X O O O O O O O O X X O O O O @ @ + + + O # 7 p j J.P.J.H.P.P.P.P.I.I.I.P.P.P.P.P.I.I.I.I.P.P.P.P.I.I.P.P.P.I.I.I.I.I.I.I.P.P.P.P.P.P.P.P.P.P.P.P.P.P.P.P.I.I.I.I.I.I.P.P.P.P.I.I.I.I.P.P.P.P.P.P.0.0.0.0.f f f y y o.#.#.#.#.7.7.7.7.8.8.7.#.u t w w w w w e e e w e e e e e e w w w w w u u g g u u g g #.u t w w 6 6 @ 6 6 6 6 w w w t o.o.#.7.7.9.p.E.e.e.q.q.o.9.y.y.d.p.i.9.O.O.O.4.4.5.9.9.q.y.y.y.4.9.y.y.p.p.p.p.a.a.a.a.a.a.a.a.P.P.P.P.P.P.P.P.P.P.P.P.P.P.P.P.P.P.P.P.P.P.P.P.P.P.P.P.P.P.P.P.P.P.P.P.P.P.P.P.P.P.P.P.P.P.P.P.P.P.P.P.P.P.P.P.P.P.P.P.P.P.P.P.P.P.P.P.P.P.P.P.P.P.P.P.P.P.P.P.P.P.P.P.P.P.P.P.P.P.P.P.P.P.P.P.P.P.P.P.I.I.P.P.I.I.I.I.I.I.I.I.I.I.I.I.I.I.Y.Y.Y.Y.Y.Y.pXiXiXiXiXiXiXiXiXpXpXpXiXiXiXpXiXiXiXiXiXiXiXiXiXpXpXpXpXpXpXpXY.Y.Y.Y.iXiXiXiXiXiXiXiXiXiXpXpXY.Y.Y.Y.iXiXiXiXiXiXiXiXiXiXpXpX",
"P.P.P.P.uXuXuXuXuXP.uXuXP.P.P.P.P.P.P.P.P.P.P.P.P.P.J.J.J.J.J.H.v.,.$.h d 4 < 5 < < < 4 m J T T J J Y Y Y Y W W d 2 > & & > 2 4 J J R R T [ [ ! / T 4 , , 4 m m J m m m ~ ~ ~ ~ T T T T Y Y Y 4 5 5 5 2 2 2 2 2 2 2 > & o o o o o o o o o o o 1 1 3 3 3 3 3 a d d A A d d d d d a a 3 3 1 1 1 ; # # # # ; ; ; ; 1 1 p 1 1 1 1 1 1 3 p a a a a a a a a a a a a p p 1 1 # # # # # o # 1 1 p p p p a s h h h d d d h h h h h h h h h h h h h s s p - - ; ; # # ; # ; ; ; ; ; # # O X X X   X X X X O O O O O @ @ @ @ @ O O O O @ @ + O + O O # 7 p $.c.J.H.P.P.P.P.I.I.P.P.P.P.P.P.I.I.I.I.P.P.P.I.I.I.P.P.P.I.I.I.P.P.I.I.P.P.P.P.P.P.P.P.P.P.P.P.P.P.P.P.I.I.I.I.I.I.P.P.P.P.I.I.I.I.P.P.I.I.P.P.P.H.H.c.c.0.0.0.....y y #.#.8.0.0.0.p.w.w.7.#.u u u t w @ w w e e 7 e e e e w w u u u u u u u u u u g g 8.7.7.7.7.7.#.#.#.#.7.7.7.7.7.7.0.w.p.K.0.9.9.9.9.9.9.9.9.i.d.d.d.i.y.5.O.5.9.y.9.9.9.9.5.5.5.9.9.y.u.p.u.a.a.a.a.a.a.a.P.P.P.P.P.P.P.P.P.P.P.P.P.P.P.P.P.P.P.P.P.P.P.P.P.P.P.P.P.P.P.P.P.P.P.P.P.P.P.P.P.P.P.P.P.P.P.P.P.P.P.P.P.P.P.P.P.P.P.P.P.P.P.P.P.P.P.P.P.P.P.P.P.P.P.P.P.P.P.P.P.P.P.P.P.P.P.P.P.P.P.P.P.P.P.P.P.P.P.P.P.P.P.P.P.I.P.P.I.I.I.I.I.I.I.I.I.I.I.I.I.I.Y.Y.Y.Y.Y.Y.pXiXiXiXiXiXiXiXiXiXpXpXiXiXiXiXiXiXiXiXiXiXiXiXiXiXpXpXpXiXpXpXY.Y.Y.Y.iXpXiXiXiXiXpXpXiXiXpXpXY.Y.Y.Y.iXpXiXiXiXiXpXpXiXiXpXpX",
"P.P.P.P.P.P.P.P.P.P.P.P.P.P.P.P.P.P.P.P.P.P.P.P.P.P.H.J.J.J.n.>.$.h h d 2 5 5 5 m m m m m Y T T ~ ~ Y ~ ~ ~ Y Y 5 2 5 > > 5 2 4 Y T R ! ! [ [ T R ~ < > < 4 J 4 B B B B Y Y Y Y Y Y Y Y Y Y 4 4 2 2 5 5 2 2 2 2 2 2 > & o o o o o o o o o o o 1 1 1 2 2 3 3 a d d d d d d a a a a 3 3 1 1 1 ; ; ; ; # # ; # ; ; 1 p p 1 1 1 1 1 1 3 p a a a a a a a a a a a a p p 1 1 # o o # # o # 1 1 3 1 1 1 p a s s s s s s s s s s d d s d d d d d s d h s ; ; ; ; e ; ; ; e e p p p e # # + + O O X O X X O O O O O O O O X @ X X O X @ @ + + @ O O O # 7 f #.c.J.P.P.P.P.I.I.P.P.P.P.P.P.I.I.P.I.P.P.I.I.P.P.P.P.I.I.I.I.P.P.P.P.P.P.P.P.P.P.P.P.P.P.I.P.P.P.P.P.I.I.I.I.I.I.I.I.P.P.P.I.I.I.P.P.P.P.P.P.P.J.P.P.P.P.J.P.u.u.%.#.y ....o.o.o.#.#.7.8.9.7.7.#.#.g t w w w w w w w w w w w #.#.#.#.u u u u u u u u 7.9.0.0.w.0.0.0.0.0.0.0.0.u.0.u.p.p.K.K.9.7.#.o.o.o.o.o.9.y.p.d.y.y.9.9.y.y.y.y.y.;.;.y.%.%.%.%.y.u.a.U.a.a.a.a.a.a.a.a.P.P.P.P.P.P.P.P.P.P.P.P.P.P.P.P.P.P.P.P.P.P.P.P.P.P.P.P.P.P.P.P.P.P.P.P.P.P.P.P.P.P.P.P.P.P.P.P.P.P.P.P.P.P.P.P.P.P.P.P.P.P.P.P.P.P.P.P.P.P.P.P.P.P.P.P.P.P.P.P.P.P.P.P.P.P.P.P.P.P.P.P.P.P.P.P.P.P.P.P.I.I.P.P.I.I.I.I.P.P.I.I.I.I.I.I.I.I.I.I.I.I.Y.Y.Y.Y.Y.Y.pXiXiXiXpXiXpXpXpXpXpXpXiXiXiXiXpXiXiXiXiXiXpXpXpXpXpXpXiXiXiXiXiXiXY.iXpXpXpXpXpXpXpXpXiXiXiXiXiXiXY.iXpXpXpXpXpXpXpXpXiXiXiXiX",
"P.P.P.P.P.P.P.P.P.P.P.P.P.P.P.P.P.P.P.P.P.P.P.J.H.J.H.v.n.k.$.h s a a 3 5 5 G ~ R T T ~ T T ~ ~ ~ T T ! Y Y 4 5 5 5 , 5 > 5 < 4 Y T ! / [ [ / T T J , & 4 m m 4 B B B B Y Y Y Y Y Y Y Y Y 4 4 5 2 5 5 5 2 2 2 2 2 2 > & o o o o o o o o o o o 1 1 1 1 1 3 3 a a a a a a a a a a 3 3 1 1 ; 1 ; ; ; # # # # # ; # 1 p p 1 1 1 1 1 1 3 p a a a a a d d a a a a a p p 1 1 ; # # # # o # 1 1 1 1 1 1 1 p a a a a a a s s s a d d s s s s s s s s s h p p p p ; ; ; e e e p p p e e # # # + + O O X X O O @ @ O @ @ @ X X O X O O @ @ + + @ O O O O # 7 y $.J.H.P.P.I.P.P.P.P.P.P.P.P.I.I.P.P.P.P.I.I.P.P.P.P.P.I.I.I.P.P.P.P.P.P.P.P.P.P.P.P.P.P.I.I.P.P.P.P.I.I.I.I.I.I.I.I.P.P.P.I.I.I.P.P.P.P.P.P.P.J.P.P.H.H.H.H.u.u.I.P.u.*.$.......@.@...#.#.7.0.9.8.7.#.g y y y y y y y y y y g f o...o.o.o.#.u u u o.o.#.9.0.7.7.7.#.7.7.7.7.%.%.%.%.%.7.9.u.7.#.o...o.o.o...o.O.%.9.%.9.u.p.y.y.y.y.y.;.;.y.y.y.u.y.a.a.U.uXa.a.a.a.P.P.a.P.P.P.P.P.P.P.P.P.P.P.P.P.P.P.P.P.P.P.P.P.P.P.P.P.P.P.P.P.P.P.P.P.P.P.P.P.P.P.P.P.P.P.P.P.P.P.P.P.P.P.P.P.P.P.P.P.P.P.P.P.P.P.P.P.P.P.P.P.P.P.P.P.P.P.P.P.P.P.P.P.P.P.P.P.P.P.P.P.P.P.P.P.P.P.P.P.P.P.P.P.I.I.P.P.I.I.I.I.P.I.I.I.I.I.I.I.I.I.I.I.I.I.Y.Y.Y.Y.Y.Y.pXiXiXiXpXpXpXpXpXY.Y.Y.Y.iXiXiXpXiXiXiXpXpXpXpXpXpXpXpXiXiXiXiXiXiXiXiXpXpXpXpXpXpXpXpXiXiXiXiXiXiXiXiXpXpXpXpXpXpXpXpXiXiXiXiX",
"P.P.P.P.P.P.P.P.P.P.P.P.P.P.P.P.P.P.P.P.P.H.H.J.J.v.n.k.h h d a 2 4 d B ~ ! [ { [ R R T ~ ~ W W W ! ! ! Y 4 5 5 > > , 5 5 5 < m T ! ! [ Z.Z./ ! ~ J < 5 4 J m J B B Y Y Y B B B Y Y m 4 4 4 5 5 5 5 5 5 1 1 2 > > > > > o o o o o o o o o o * 1 1 1 2 2 3 3 a a 3 3 a a a p 1 1 1 1 1 1 1 ; ; ; # # o o # # # # ; 1 p 1 1 1 1 ; 1 p p p a d d a d a a a p p p p p 1 1 1 # o o o # # ; 1 ; ; 1 1 1 1 p a a s a a a a a s s s s s s s s s s s s s p p p ; # # # # ; ; e e ; ; ; ; ; # + + # O X X O O O O @ # e y ; ; ; ; ; ; # # # @ @ @ O O O @ + @ e $.H.J.P.P.P.P.P.P.P.P.P.P.P.P.P.P.I.I.I.I.P.I.I.I.P.P.P.P.I.I.I.P.P.P.P.P.I.I.I.I.I.I.I.I.I.I.P.P.P.P.P.P.P.P.P.I.I.I.I.I.I.I.I.I.P.P.P.P.P.P.P.P.P.H.H.H.H.H.H.H.P.P.P.P.-.=.@.@.y y 9 9 o.o.o.y #.#.#.#.#.#.....y y y y #.#.#.#.o.o.o...u u u u o.o.o.o.#.o.o.o.o.o.o.o.#.#.#.#.%.7.0.u.0.0.%.%.O.O.o.o.O.O.O.O.%.%.%.%.;.y.a.a.a.a.a.a.a.a.a.a.a.P.P.P.P.P.P.P.P.P.P.P.P.P.P.P.P.P.P.P.P.P.P.P.P.P.P.P.P.P.P.P.P.P.P.P.P.P.P.P.P.P.P.P.P.P.P.P.uXuXP.P.P.P.P.P.P.P.P.P.P.P.P.P.P.P.P.P.uXuXuXuXP.P.P.P.P.P.P.P.P.P.P.P.P.P.P.P.P.P.P.P.P.P.P.P.P.P.P.P.P.P.P.P.P.P.P.P.P.P.P.P.I.I.I.P.I.I.I.I.P.P.I.I.I.I.I.I.Y.Y.Y.Y.Y.iXiXiXY.Y.Y.Y.pXpXiXiXiXiXpXY.Y.Y.Y.Y.Y.iXY.iXpXpXiXiXiXiXpXpXpXiXpXpXpXpXiXiXpXpXiXiXiXiXpXpXpXpXiXiXiXpXpXiXpXpXiXiXiXiXpXpXpXpXiXiXiXpXpXiX",
"P.P.P.P.P.P.P.P.P.P.P.P.P.P.P.P.P.P.P.P.P.J.J.H.v.c.k.k.E E Y d m J T ! ` { S././ R T Y T T ~ T ~ ~ ~ ~ Y d 2 > > > , , 5 < 4 ~ ! [ { Z.Z./ ! ! ~ m < , m m m m m m B B m B B B Y m 4 4 4 5 5 > > > > > 1 2 2 2 o o o o o o o o o o o o o o * 1 1 1 2 2 3 3 3 3 3 3 3 3 p 1 ; # # # ; # # ; # # o o o o o o # # # 1 1 1 1 1 ; ; 1 1 1 p p s a a a a p p p p p p 1 1 1 1 # o o o # # # 1 ; ; 1 1 1 1 p s s p s s a a a a a a s s s s s s s f f f p 1 ; # # # # # # # ; ; # # ; ; ; ; # # # O X X O O O O # # e e ; ; ; ; ; ; # # # # @ @ + O O O O + @ e &.H.J.P.P.P.P.P.P.P.P.P.P.P.P.P.I.I.I.I.P.I.I.I.P.P.P.P.I.I.P.P.P.P.P.P.I.I.I.I.I.I.I.I.I.I.P.P.P.P.P.P.P.P.P.P.I.I.I.I.I.I.I.I.I.P.P.P.P.P.P.P.P.P.P.P.P.P.P.H.H.P.H.P.P.H.-.=.=.=.=.#.y 9 8 9 9 y @.#.0.9.%.%.$.$.#.#.#.#.#.#.o.o.o.....u u u o.o.o.o.o.o.u y u u o...%.%.%.7.o.#.%.7.%.%.%.%.%.%.%.%.%.%.;.;.;.%.y.u.a.a.a.a.a.a.a.a.P.P.P.P.P.P.P.P.P.P.P.P.P.P.P.P.P.P.P.P.P.P.P.P.P.P.P.P.P.P.P.P.P.P.P.P.P.P.P.P.P.P.P.P.P.P.P.P.P.P.P.P.uXuXP.P.P.P.P.P.P.P.P.P.P.P.P.P.P.P.P.P.uXuXuXuXP.P.P.P.P.P.P.P.P.P.P.P.P.P.P.P.P.P.P.P.P.P.P.P.P.P.P.P.P.P.P.P.P.P.P.P.P.P.P.P.I.I.I.P.I.I.I.I.P.P.I.I.I.I.I.I.I.Y.Y.Y.iXiXiXiXY.Y.Y.Y.pXpXiXiXiXiXpXY.Y.I.I.I.I.I.iXiXY.Y.iXiXiXiXpXpXiXiXiXiXpXpXiXiXpXpXpXpXiXiXpXpXpXpXiXiXpXpXpXpXpXpXpXpXiXiXpXpXpXpXiXiXpXpXpXpX",
"P.P.P.P.P.P.P.P.P.P.P.P.P.P.P.P.uXuXP.P.H.J.H.v.n.k.k.x.m.! ! ~ J L ` } ^.^.|.XX{ J J m B B B B B B Y B d 5 5 > > > , < , < J R [ Z.Z.Z./ ! T T J 4 4 4 J 4 4 4 4 4 m m B B B B B 4 4 5 5 > > > > > > > 1 1 2 1 o o o o & & & & & & & & * * 2 3 3 1 2 1 1 1 1 1 1 1 1 1 # # # # # # o # # # # # # # o o o o # # # # ; 1 ; # # # ; ; 1 1 1 1 1 1 1 1 1 1 1 1 1 1 1 1 1 ; # # o o # # # ; ; 1 ; ; 1 1 p p s p s p s p s s s s a a f f f p p p p p 1 ; # # # # # # # # # # # # ; e p e # # # + X X O O O @ # e e e e ; e e ; ; # # 7 7 # # @ O O O X O + @ f &.H.J.P.P.P.I.I.I.I.I.I.P.P.P.P.P.P.P.P.P.I.I.I.I.P.P.I.I.I.I.P.P.P.P.I.I.I.I.I.I.I.I.I.I.P.P.P.P.P.P.P.P.P.P.I.I.P.P.P.P.P.P.I.P.I.I.P.P.P.P.P.P.P.P.P.P.P.P.P.P.P.P.I.I.I.H.P.P.P.H.%.@.y y y ....@...o.@.o.........9 9 y y o.o.o.....u u y y y y y u u t t t t y y #.#.#.#.#.#.%.*.%.%.-.u.u.u.u.u.u.u.u.u.a.u.u.a.P.uXuXuXa.a.a.a.uXuXuXuXP.P.uXuXP.P.P.P.P.P.P.P.P.P.P.P.P.P.P.P.P.P.P.P.P.P.P.P.P.P.P.P.P.P.P.P.P.P.P.P.P.P.P.P.P.P.P.P.uXuXP.P.P.P.P.P.P.P.P.P.P.P.P.P.P.P.P.P.P.P.uXuXP.P.P.P.P.P.P.P.P.P.P.P.P.P.P.P.P.P.P.P.P.P.P.P.P.P.P.P.P.P.P.P.P.P.P.P.P.P.P.P.I.I.I.I.I.I.I.I.I.I.I.I.I.I.I.I.Y.Y.Y.Y.Y.Y.iXiXY.Y.Y.Y.pXpXpXpXiXiXiXY.Y.I.I.I.I.I.iXiXY.Y.pXpXiXiXpXpXiXiXiXiXpXpXpXpXpXpXpXpXiXiXiXpXiXiXiXiXpXpXpXpXpXpXpXpXiXiXiXpXiXiXiXiXpXpXpXpX",
"P.P.P.P.P.P.P.P.P.P.P.P.P.P.P.P.uXP.P.P.J.H.v.n.m.x.x.D.Z.! T K H L ] ].|.|.|.XXS.J m m m m m m m m 4 4 5 2 > & & > , < , 4 R ! Z.Z.Z.Z.! ! T Y 4 4 4 4 4 4 4 4 4 4 4 4 B B B B 4 4 5 2 5 > > > > o o o > > 2 > > > > > > > 1 > > > 1 1 1 1 3 a 3 1 2 1 * * o o o o o o # # # # o o o o o o o o o o o o o o # # # # # # # # # # # # ; ; ; ; ; ; ; 1 1 1 ; ; ; 1 1 1 1 ; # # # # # # # # 1 1 ; ; 1 1 p 1 p 1 p 1 p 1 p p 1 1 p p p p p p p p p 1 ; # # # # # # # # # # # # # ; e p p e # # + X X O O O @ # e e e e e e e e e # # 7 # # # # O O O O O O @ @ $.c.H.P.P.I.I.I.P.I.I.I.P.P.P.P.P.P.P.P.P.I.I.I.P.P.P.I.I.I.I.I.I.I.I.I.I.I.I.I.I.I.I.I.I.P.I.P.P.P.P.P.P.P.I.I.I.P.P.P.P.P.P.I.I.I.I.P.P.P.P.P.P.P.P.P.P.P.P.P.P.P.P.P.P.I.I.P.P.P.H.I.P.P.-.u.*.=.=.=.%.@.@.@.@.@.@.@.@.@.@.o.@.@.o.....@...y y y y y t w w w y t y y y y #.#.$.0.u.u.u.P.I.U.U.U.U.P.P.P.P.I.I.P.P.P.uXuXuXa.P.P.P.uXuXuXuXP.P.uXuXP.P.P.P.P.P.P.P.P.P.P.P.P.P.P.P.P.P.P.P.P.P.P.P.P.P.P.P.P.P.P.P.P.P.P.P.P.P.P.P.P.P.P.P.P.uXP.P.P.P.P.P.P.P.P.P.P.P.P.P.P.P.P.P.P.P.uXuXP.P.P.P.P.P.P.P.P.P.P.P.P.P.P.P.P.P.P.P.P.P.P.P.P.P.P.P.P.P.P.P.P.P.P.P.P.P.P.P.I.I.I.I.I.I.I.I.I.I.I.I.I.I.I.I.Y.Y.Y.Y.Y.iXiXiXY.Y.Y.Y.pXpXpXpXiXiXpXY.Y.I.I.I.I.I.iXiXY.Y.pXpXiXiXpXpXiXiXiXiXpXpXpXpXpXpXpXpXiXiXiXiXiXiXiXiXpXpXpXpXpXpXpXpXiXiXiXiXiXiXiXiXpXpXpXpX",
"P.P.P.P.P.P.P.P.P.P.P.P.P.P.P.P.P.P.P.J.J.n.n.l.l.! x.Z.Z.[ ! L P U ]..X.X$XOX} T m 4 4 4 4 4 4 4 4 4 5 , > & & & > 5 < J ~ ! / Z.Z.! ! T Y Y m 4 4 4 4 4 4 4 4 5 5 2 4 4 4 4 4 2 2 > & > > > > > > & & > > > 2 2 2 4 d d d 4 4 a a 2 2 d d a a 2 3 2 1 o o o o # # # o # o o o # # o o o o o o o o o o o o # # # o o o # o # # o o # # # # ; ; 1 ; 1 1 1 1 1 1 ; ; ; # # + # # # # # # ; ; 1 1 1 1 p p p p p p ; 1 1 1 1 1 p p p p p p p p p # # # # # # # # # # # # # # # ; e p p e # # + O X O O @ @ # e e e e e 7 7 e e e 7 e e 7 7 @ @ O O O O @ O 7 7 $.L.P.P.P.P.I.I.I.I.I.I.P.P.P.I.I.I.I.I.I.I.I.I.P.P.P.I.I.I.I.I.I.I.P.P.P.P.I.P.P.P.P.P.P.P.P.P.P.P.P.P.P.P.P.P.P.P.P.P.P.P.P.P.P.P.P.P.P.P.P.P.P.P.uX2.2.I.P.P.P.P.P.P.P.P.P.P.P.P.a.a.a.a.P.P.P.H.P.P.u.P.P.P.P.u.u.u.u.u.u.-.-.u.-.-.-.-.-.-.-.*.$.@.y 9 7 7 9 6 9 ..%.%.0.u.K.U.a.a.a.a.P.P.P.P.P.P.P.P.P.P.P.P.P.P.P.P.P.P.P.P.P.P.P.uXuXuXP.P.P.P.P.P.P.P.P.P.P.P.P.P.P.P.I.I.I.I.P.I.I.I.I.I.I.I.I.I.I.I.P.I.I.I.I.I.I.I.I.I.P.P.I.I.P.P.P.P.P.P.P.P.P.P.P.P.P.P.P.P.P.P.P.P.P.P.P.P.P.P.P.P.P.P.P.P.P.P.P.P.P.P.P.P.P.P.P.P.P.P.P.P.P.P.P.P.P.P.P.P.P.P.P.P.P.P.P.P.P.P.P.P.I.I.I.I.I.I.I.I.I.I.I.I.iXiXY.Y.Y.Y.Y.Y.iXiXY.Y.pXpXpXpXiXiXiXiXY.Y.Y.Y.iXiXY.I.iXiXiXiXpXpXiXiXpXpXpXpXiXiXiXiXY.Y.Y.Y.Y.Y.Y.Y.pXpXpXpXiXiXiXiXpXpXiXiXiXpXpXpXiXiXiXiXpXpXpXiX",
"P.P.P.P.P.P.P.P.P.P.P.P.P.P.P.P.P.P.P.H.n.n.l.W ! ! ) Z.[ ! R J K U ].}.%X1X.X^ m 4 4 4 4 4 4 4 4 4 5 5 > & & & & > 5 < m J T ! ! ! ~ Y Y J 4 4 4 4 4 4 4 4 4 5 > > 2 2 2 2 2 2 > > > > > > > > 2 2 > > > 2 2 4 d d B V V V V V d d d d d d a a 2 3 2 1 o o o o # # # # # o o o # # # o o o o o o o o o o o # # # # o # # # # # o o # # # # ; ; ; ; ; ; # # # # # # # # # + # # # # # # ; ; ; ; ; ; ; ; ; 1 1 1 1 1 e 1 ; ; ; ; 1 1 1 ; p # # # # # # # # # # # # # # # # # ; p p p ; # # + O X O O @ # # e e e 7 e 7 7 e e e e e e 7 7 @ @ O O O O O O 7 @ e c.P.P.P.P.I.I.I.I.I.I.P.P.P.P.I.I.I.I.I.I.I.I.P.P.P.P.I.I.I.P.I.I.P.P.P.P.P.P.I.I.P.P.P.P.P.P.P.P.P.P.P.P.P.P.P.P.P.P.P.P.P.P.P.P.P.P.P.P.P.P.2.-.2.P.I.P.P.P.P.P.P.P.P.P.P.P.P.P.P.a.a.a.P.P.P.P.P.P.H.P.P.P.P.P.P.P.P.P.H.H.H.H.P.P.P.P.P.P.P.P.J.H.*.&.*.*.*.*.u.u.K.K.U.U.P.a.a.a.a.P.P.P.P.P.P.P.P.P.P.P.P.P.P.P.P.P.P.P.P.P.P.P.P.uXuXuXP.P.P.P.P.P.P.P.P.P.P.P.P.P.P.P.I.I.P.P.P.P.I.I.I.I.I.I.I.I.I.I.P.P.I.I.I.I.I.I.I.I.P.P.I.P.P.P.P.P.P.P.P.P.P.P.P.P.P.P.P.P.P.P.P.P.P.P.P.P.P.P.P.P.P.P.P.P.P.P.P.P.P.P.P.P.P.P.P.P.P.P.P.P.P.P.P.P.P.P.P.P.P.P.P.P.P.P.P.P.P.P.P.P.I.I.I.I.I.I.I.I.I.I.I.I.iXiXiXiXY.Y.Y.Y.iXiXY.Y.pXpXpXpXiXiXiXiXY.Y.Y.Y.iXiXiXI.iXiXiXpXpXpXpXiXpXpXpXpXiXiXiXiXY.Y.Y.Y.Y.Y.Y.Y.pXpXpXpXiXiXiXiXpXpXpXiXiXpXpXpXiXiXiXiXpXpXpXiX",
"P.P.P.P.P.P.P.P.P.P.P.P.P.P.P.P.P.P.J.H.n.l.l.! ! ! ) ) ! R ~ K L ] {.3X&X$X' J 4 4 4 4 4 4 4 4 4 5 , > o o o o & > 5 , 4 m Y ! ~ Y Y m 4 4 4 4 4 4 4 4 4 4 4 5 > > , 2 5 5 5 5 2 2 4 4 4 4 4 4 4 4 2 2 5 4 d B V V Y Y E E E E Y E V d d d a a 2 3 2 1 o o * o # # # # o o o o # # # # o o o o # # # # # # # # # # # ; ; # # # # # # # # # ; ; # # # # # # # # # # # # + # # # ; ; ; ; ; ; ; ; ; ; ; ; ; ; 1 ; ; ; e 1 ; ; ; ; ; ; ; # # # # # # # # # # # # # # # # # # # ; ; e e # # # + O X O @ @ e e e e e e e 7 7 e e e e e e e 7 @ @ O O @ @ @ @ 7 @ 7 #.J.P.P.P.I.I.I.I.I.P.P.P.I.I.I.I.P.P.P.P.I.P.P.P.I.I.I.I.P.P.P.P.P.P.P.P.P.P.P.P.P.P.P.P.P.P.P.P.P.P.P.P.P.P.P.P.P.P.P.P.P.P.P.P.P.P.P.P.uXiXpXpXiXP.2.P.P.P.P.P.P.P.P.P.P.P.P.P.P.P.P.P.P.P.P.P.P.P.P.P.P.P.P.P.P.P.P.P.P.P.P.P.P.P.P.P.P.P.P.P.P.P.P.P.I.I.I.I.I.I.I.I.P.P.a.a.P.P.P.P.P.P.P.P.P.P.P.P.P.P.P.P.P.P.P.P.P.P.P.P.P.P.P.P.P.P.P.P.P.P.P.P.P.P.P.P.P.P.P.P.P.P.P.P.P.P.I.I.P.P.I.I.I.I.I.I.I.I.I.I.P.P.I.I.I.I.I.I.P.P.P.P.P.P.P.P.P.P.P.P.P.P.P.P.P.P.P.P.P.P.P.P.P.P.P.P.P.P.P.P.P.P.P.P.P.P.P.P.P.P.P.P.P.P.P.P.P.P.P.P.P.P.P.P.P.P.P.P.P.P.P.P.P.P.P.P.P.P.I.I.I.I.I.I.I.I.I.I.I.I.I.I.iXiXiXiXY.Y.Y.Y.iXiXiXiXiXiXpXpXiXiXiXiXY.Y.iXiXiXiXI.I.iXiXpXpXpXpXiXiXpXpXpXpXiXiXpXpXY.Y.Y.Y.Y.Y.Y.Y.pXpXpXpXiXiXpXpXpXpXiXiXiXiXpXpXiXiXpXpXpXpXiXiX",
"P.P.P.P.P.P.P.P.P.P.P.P.P.P.P.P.P.P.J.v.n.l.l.! ! ! ) Z.R T J H ` ] .X%X.X] K 5 4 4 4 4 4 4 4 4 5 2 > & o o o o & > 5 , 5 4 Y ~ Y m 4 4 4 4 4 4 4 4 4 4 4 4 5 5 5 4 4 m 4 4 4 4 B Y W ! E E E Y B d 4 4 4 d B B Y V Y Y E E E E E E Y Y d d a a 2 3 2 1 o o * o # # # # o o o o # # o # # # # # ; ; ; ; ; ; 1 1 1 1 1 1 1 1 # # # # # # # # ; # o o o o o o o o + + + + + # # # ; ; # ; ; ; ; # # # # # ; ; ; ; ; ; e ; ; ; ; ; ; ; # # # # # # # # # # # # # # # # # # # # ; # e ; # + # + O X O @ # e e e e e e e e e e e e e e e 7 7 @ @ O O @ @ @ O 7 @ 7 f J.P.P.P.P.P.P.P.I.P.P.P.I.I.I.I.P.P.P.P.P.P.P.P.I.I.I.I.P.P.P.P.P.P.P.P.P.P.P.P.P.P.P.P.P.P.P.P.P.P.P.P.P.P.P.P.P.P.P.P.P.P.P.P.P.P.P.P.2.hXNXSXMXaX-.pXP.P.P.P.P.P.P.P.P.P.P.P.P.P.P.P.P.P.P.P.P.P.P.P.P.P.P.P.P.P.P.P.P.P.P.P.P.P.P.P.P.P.P.P.2.2.P.P.P.P.P.P.P.a.P.P.P.P.a.a.P.P.P.P.P.P.P.P.P.P.P.P.P.P.P.P.P.P.H.H.P.P.P.P.P.P.P.P.P.P.P.P.P.P.P.P.P.P.P.P.P.P.P.P.P.P.I.P.P.P.I.I.P.P.I.I.I.I.I.I.I.I.I.I.P.P.I.I.I.I.I.I.P.P.P.P.P.P.P.P.P.P.P.P.P.P.P.P.P.P.P.P.P.P.P.P.P.P.P.P.P.P.P.P.P.P.P.P.P.P.P.P.P.P.P.P.P.P.P.P.P.P.P.P.P.P.P.P.P.P.P.P.P.P.P.P.P.P.P.P.P.I.I.I.I.I.I.I.I.I.I.I.I.I.I.I.iXiXiXiXY.Y.Y.Y.iXiXiXiXiXiXpXpXY.Y.iXiXY.Y.iXiXiXiXI.I.iXiXpXpXpXpXiXiXiXpXpXiXiXiXpXpXY.Y.Y.Y.Y.Y.Y.Y.iXpXpXiXiXiXpXpXpXpXiXiXiXiXpXpXiXiXpXpXpXpXiXiX",
"P.P.P.P.P.P.P.P.P.P.P.P.P.P.P.P.P.H.H.v.l.l.! ! ! ! ~ ~ ~ J J R } } |..X] L b < m B d d 4 4 4 2 2 > & o o o o o > > 2 5 m B Y Y m 5 5 5 5 5 4 4 m m 4 4 < 4 Y ~ J Y ~ ! ~ ~ ~ ~ ! ! ! ! W Y Y B B B 4 4 d B B B Y V Y Y Y Y Y Y Y Y Y d Y V V d d d a a 3 2 * o # # # o o o # # # # ; ; ; ; 1 1 1 p p a d d d d d d d d p p 1 1 1 1 1 1 1 1 # # o o o + o o o o o o # # # # # # # # ; # # # # # # # # # # # # # ; ; ; ; ; ; ; e ; ; # # # + + + + + + + # # # # # # # # 7 7 7 7 # # # # # # O O O @ @ e # # # # # # 7 e e e 7 7 7 7 7 7 7 @ @ @ @ @ @ 7 7 7 0 0 &.H.J.J.J.J.J.P.P.pXpXP.P.P.P.P.P.P.P.P.P.P.P.P.P.P.P.P.P.P.P.P.P.P.P.P.uXuXP.P.P.P.P.P.P.P.P.P.P.P.P.P.uXuXP.P.P.P.P.P.P.P.P.P.P.P.P.P.-.pXBXSXDXaXP.-.P.P.P.P.P.P.P.P.P.P.P.P.P.P.P.P.P.P.P.P.P.P.P.P.P.P.P.P.P.P.P.P.P.P.P.P.P.P.P.P.P.P.P.P.P.P.P.P.P.P.P.P.P.P.P.P.P.P.P.P.P.P.P.P.P.P.P.P.P.P.P.P.P.P.P.P.P.P.P.P.P.P.P.P.P.P.P.P.I.I.I.I.P.P.P.P.I.I.I.I.P.P.I.I.I.I.P.P.I.I.I.I.I.I.I.I.I.I.I.I.I.I.I.I.I.I.I.I.I.I.I.I.uXuXuXuXI.P.P.P.P.P.P.P.I.I.I.I.P.P.I.P.P.P.P.P.P.P.P.P.P.P.P.P.P.P.P.P.P.P.P.P.P.P.P.P.P.P.P.P.P.P.P.P.P.P.P.P.P.P.P.P.P.P.P.P.P.P.P.P.P.P.I.I.I.I.I.I.I.I.I.I.I.I.I.I.I.I.I.I.I.I.I.I.I.I.Y.Y.Y.Y.Y.Y.iXiXiXiXY.Y.Y.Y.Y.Y.Y.Y.iXpXpXpXiXiXiXiXiXiXiXiXpXpXpXpXiXiXiXiXiXiXiXiXiXiXiXiXpXpXpXpXpXpXpXiXiXiXpXpXiXpXpXpXiXiXiXiX",
"P.P.P.P.P.P.P.P.P.P.P.P.P.P.P.P.P.J.H.n.l.! ! T T T ~ Y m m T [ S.} ].].U H < 4 m B d 4 2 2 2 2 > & & o o o o o 2 2 5 4 4 4 5 2 5 5 5 5 4 4 m m m m m m m Y T ! ! / / Z.~ ~ ~ ~ ! ! ! ! W Y Y B B B 4 4 B B B B B B V V B B V V Y Y Y d Y V V d d d a 2 3 1 * o # # # # # # ; ; 1 1 1 1 1 1 p p p p s s h h h h h h h h h d p p p p p p p 1 # # + + o o o o + o + # # # # # # # # ; ; # # # # # # # # # # # # # # # # # # # # # # # # # + + + + + + + + + + # # # # # # 7 7 7 7 # # # # # # O O O O @ # 7 # # # # # 7 7 e e 7 7 7 7 7 7 7 @ 6 @ @ @ @ 6 7 7 0 0 f c.H.H.H.H.H.H.pXSXfX-.P.P.P.P.P.P.P.P.P.P.P.P.P.P.P.P.P.P.P.P.P.P.P.P.uXuXP.P.P.P.P.P.P.P.P.P.P.P.P.P.uXuXP.P.P.P.P.P.P.P.P.P.P.P.P.P.P.2.pXpXpX-.P.2.P.P.P.P.P.P.P.P.P.P.P.P.P.P.P.P.P.P.P.P.P.P.P.P.P.P.P.P.P.P.P.P.P.P.P.P.P.P.P.P.P.P.P.P.P.P.P.P.P.P.P.P.P.P.P.P.P.P.P.P.P.P.P.P.P.P.P.P.P.P.P.P.P.P.P.P.P.P.P.P.P.P.P.P.P.P.P.P.I.I.I.I.P.P.P.P.I.I.I.I.P.P.I.I.I.I.P.P.I.I.I.I.I.I.I.I.I.I.I.I.I.I.I.I.I.I.I.I.I.I.I.I.uXuXuXuXI.I.P.P.P.P.P.P.I.I.I.I.P.P.I.P.P.P.P.P.P.P.P.P.P.P.P.P.P.P.P.P.P.P.P.P.P.P.P.P.P.P.P.P.P.P.P.P.P.P.P.P.P.P.P.P.P.P.P.P.P.P.P.P.P.P.I.I.I.I.I.I.I.I.I.I.I.I.I.I.I.I.I.I.I.I.I.I.I.I.Y.I.Y.Y.Y.Y.I.I.I.I.Y.Y.Y.Y.Y.Y.Y.Y.iXpXpXpXpXpXiXiXiXiXiXiXpXpXpXpXiXiXiXiXpXpXiXiXiXiXiXiXpXpXpXpXpXpXiXiXiXiXpXpXpXpXpXpXiXpXiXiX",
"P.P.P.P.P.P.P.P.P.P.uXuXP.P.P.P.H.H.v.n.l.! T T Y Y Y m m J / S.S.} } ] L < , 4 4 4 2 2 2 2 > > & o o o o o o o 2 5 4 Y Y 4 , > 5 5 , , B Y Y Y Y Y ~ Y ~ T ! / [ [ / ! ~ J J ~ ! W W W W Y Y B B B 4 4 B B B B B d d d d d B B d d Y Y Y V d d d d a 2 3 1 1 o # # ; ; ; # 1 1 1 1 1 1 p p p p p a a d h d h h h h h h h h h d f f f f p 1 # # o o o o o + o # # # # # 1 ; ; ; ; ; ; ; # # # # # # # # # # # # # ; ; # # + + # + + + + + + + + + + + + + + # # # # # # 7 7 7 # # # @ # @ + O O O O @ @ 7 7 # # # # # 7 e e 7 7 7 7 7 7 7 6 6 6 @ @ @ 6 6 6 6 O 6 $.H.H.v.H.H.J.pXSXfX-.P.P.P.P.P.P.P.P.P.P.P.P.P.P.P.P.P.P.P.P.P.P.P.P.P.uXP.P.P.P.P.P.P.P.P.P.P.P.P.P.uXuXP.P.P.P.P.P.P.P.P.P.P.P.P.P.P.P.P.2.-.P.I.P.P.P.P.P.P.P.P.P.P.P.P.P.P.P.P.P.P.P.P.P.P.P.P.P.P.P.P.P.P.P.P.P.P.P.P.P.P.P.P.P.P.P.I.I.P.P.P.P.P.P.P.P.P.P.P.P.P.P.P.P.P.P.P.P.P.P.P.P.uXuXP.P.P.P.P.P.P.P.P.P.P.P.P.P.I.I.uXuXuXuXuXuXI.I.I.I.I.I.I.I.P.P.I.I.I.P.I.I.I.I.I.I.I.I.I.I.iXiXY.Y.Y.Y.Y.Y.I.I.I.I.I.I.I.I.uXuXuXuXP.P.P.P.P.P.P.P.I.I.I.I.P.P.P.I.P.P.P.P.P.P.P.P.P.P.P.P.P.P.P.P.P.P.P.P.P.P.P.P.P.P.P.P.P.P.P.P.P.P.P.P.P.P.P.P.P.P.P.P.P.P.P.P.P.P.I.I.I.I.I.I.I.I.I.I.I.I.I.I.I.I.I.I.I.I.I.I.I.I.I.I.Y.Y.Y.Y.I.I.I.I.Y.Y.Y.Y.Y.Y.Y.Y.pXpXpXpXpXpXpXpXpXpXiXiXpXpXiXiXpXiXiXiXpXpXpXpXpXpXiXiXpXpXiXiXiXiXiXiXiXiXiXiXpXpXpXpXpXpXpXpX",
"P.P.P.P.P.P.P.P.P.P.uXuXP.P.P.P.J.H.v.k.E ! ~ R Y Y d 4 m R S.XXS.} { ` H , < 4 2 2 2 > & & & & o o o o o o o o 5 4 Y Y ! Y 4 , , , , , Y Y Y Y ~ ~ Y Y T ! / [ [ ! T T ~ ~ ~ ~ Y E E E E Y Y B B B d d B B B 4 d 4 d d d d B B B V Y Y Y V d d d d a 2 3 1 1 # # # ; ; 1 1 1 1 1 1 p p p p p p p p d d d d h h d d h h h h h d d s s s 1 1 # # o o o o o + o # # # ; 1 1 1 ; ; ; ; ; ; 1 1 1 1 p p p p p 1 1 1 ; ; ; ; # # # + + + + + + + + + O + + O + + + + # # # # @ @ # @ @ O + + O O O O O O O @ 7 7 # # # # # # e e 7 7 7 7 7 7 7 7 7 7 @ @ 6 6 6 @ O O O f 0.H.v.H.H.J.P.pXpXP.P.P.P.P.P.P.P.P.P.P.P.P.P.P.P.P.P.P.P.P.P.P.P.P.P.uXP.P.P.P.P.P.P.P.P.P.P.P.P.P.P.uXP.P.P.P.P.P.P.P.P.P.P.P.P.P.P.P.P.P.iXP.-.P.P.P.P.P.P.P.P.P.P.P.P.P.P.P.P.P.P.P.P.P.P.P.P.P.P.P.P.P.P.P.P.P.P.P.P.P.P.P.P.P.P.P.I.I.P.P.P.P.P.P.P.P.P.P.P.P.P.P.P.P.P.P.P.P.P.P.P.P.uXuXP.P.P.P.P.P.P.P.P.P.P.P.P.P.I.I.uXuXuXuXuXI.I.I.I.I.I.I.I.I.P.P.I.I.P.P.I.I.I.I.I.I.I.I.I.I.iXiXiXY.Y.Y.Y.Y.I.I.I.I.I.I.I.I.I.I.uXuXP.P.P.P.P.P.P.P.P.I.I.I.P.P.I.I.P.P.P.P.P.P.P.P.P.P.P.P.P.P.P.P.P.P.P.P.P.P.P.P.P.P.P.P.P.P.P.P.P.P.P.P.P.P.P.P.P.P.P.P.P.P.P.P.P.P.I.I.I.I.I.I.I.I.I.I.I.I.I.I.Y.I.I.I.I.I.I.I.I.I.I.I.I.Y.Y.Y.I.I.I.I.Y.Y.Y.Y.Y.Y.Y.Y.pXpXpXpXpXpXpXpXpXpXiXiXiXiXiXiXpXiXiXiXpXpXpXpXpXpXiXiXiXiXiXiXiXiXiXiXiXiXiXiXiXpXpXpXpXpXpXpX",
"P.P.P.P.I.I.P.P.P.P.uXuXI.I.J.J.J.H.n.M.Q Y J J m d 4 4 ! [ S.S.{ ^ R H m , 4 2 & & & & o & & & o o . . o > 4 B ! ! ! ! ! 4 5 , 5 4 4 m Y Y Y Y Y Y Y Y ! ! ! ! ! T T T Y ~ ~ Y ! ! ~ Y B B Y B Y B B B B d 4 4 4 4 d d d d d d B Y Y Y Y V d d d d a 2 3 1 * o # # # # ; 1 1 1 1 1 p p p p p p p p a a a a d d d d d d h h d d a p p 1 1 ; # + + + + + o # # # # ; ; 1 ; ; ; ; ; ; 1 1 p p p p s s s s f f p p p p p p p ; # # # # # # # + + O O O O O + + + + + @ O @ @ O O O O O O O O O O O O O # # 7 7 7 7 7 7 7 7 7 7 7 7 7 7 7 7 7 7 6 7 @ @ 6 6 @ @ @ O e @ g J.H.H.H.P.P.P.P.P.P.P.P.P.P.P.P.P.P.P.P.P.P.P.P.P.P.P.P.P.P.P.P.P.uXuXP.P.P.P.P.P.P.P.P.P.P.P.P.P.P.P.P.P.P.P.P.P.P.P.P.P.P.P.P.P.P.P.P.P.P.P.P.P.P.P.P.P.P.P.P.P.P.P.P.P.P.P.P.P.P.P.P.P.P.P.P.P.P.P.P.P.P.P.P.P.P.P.P.P.P.P.I.I.I.I.I.I.I.I.I.P.P.P.I.I.I.I.I.P.P.P.P.P.I.I.I.P.P.P.I.I.P.P.I.P.P.K.p.K.P.I.I.I.I.I.I.I.I.I.I.I.I.I.I.I.I.I.I.I.I.I.I.I.I.I.I.I.I.I.I.I.I.I.I.I.iXiXiXiXY.Y.Y.Y.Y.Y.Y.Y.I.I.I.I.I.I.I.I.I.I.I.I.I.I.I.I.I.I.I.I.I.I.I.I.I.I.I.I.I.P.P.P.P.P.I.I.I.I.I.P.P.P.P.P.P.P.P.P.P.P.P.P.P.P.P.P.P.P.P.P.P.P.P.I.I.I.I.I.I.I.I.I.I.I.I.I.P.P.P.P.I.I.I.I.I.I.I.I.I.I.I.I.I.I.Y.I.I.I.I.I.I.I.I.I.I.I.I.I.I.I.I.I.iXiXiXY.Y.Y.Y.Y.iXiXpXpXpXpXpXpXiXpXpXpXpXpXiXiXpXpXpXpXpXpXpXpXiXpXpXpXpXpXiXiXiXiXpXpXiXiXiXiXpXpXpXiXiXiXpXpX",
"P.P.P.P.I.I.I.P.P.P.uXuXI.I.J.J.J.n.n.x.E ~ J 4 4 4 4 4 R / ` ` ` R H m 4 4 4 2 & & & & o o o o o o * & 2 4 Y ! D.D.D./ ~ 4 , 4 4 m Y Y Y Y Y Y Y Y Y Y ! ! ! ! ! ! T T Y Y Y ~ W ~ Y Y B B B B B B B B d 4 4 2 2 4 4 4 d d d d d d Y Y Y Y d d d a 2 3 2 1 o o # # # # ; 1 1 1 1 1 p 1 p p p p p p a a a a d d d d d d h d d d a p p 1 1 ; # + + + + + o # # # # # # ; ; 1 ; ; ; ; 1 1 p p p p p f s s g h s s g h h g f p p 1 e e e e e ; # # # # # + @ + O + O O O @ @ @ @ O O O O O O O @ @ O O # # 7 7 7 7 7 7 7 7 7 7 7 7 7 7 @ @ @ @ @ @ @ @ @ @ @ @ O O # @ 9 $.H.H.H.P.P.P.P.P.P.P.P.P.P.P.P.P.P.P.P.P.P.P.P.P.P.P.P.P.P.P.P.P.uXuXP.P.P.P.P.P.P.P.P.P.P.P.P.P.P.P.P.P.P.P.P.P.P.P.P.P.P.P.P.P.P.P.P.P.P.P.P.P.P.P.P.P.P.P.P.P.P.P.P.P.P.P.P.P.P.P.P.P.P.P.P.P.P.P.P.P.P.P.P.P.P.P.P.P.P.P.I.I.I.I.I.I.I.I.I.I.P.P.I.I.I.I.I.I.P.P.P.P.I.I.I.I.P.P.I.P.P.P.P.P.J.K.p.K.P.I.I.I.I.I.I.I.I.I.I.I.I.I.I.I.I.I.I.I.I.I.I.I.I.I.I.I.I.I.I.I.I.I.I.I.iXiXY.iXY.Y.Y.Y.Y.Y.Y.Y.I.I.I.I.I.I.I.I.I.I.I.I.I.I.I.I.I.I.I.I.I.I.I.I.I.I.I.I.I.P.P.P.P.P.I.I.I.I.P.P.P.P.P.P.P.P.P.P.P.P.P.P.P.P.P.P.P.P.P.P.P.P.I.I.I.I.I.I.I.I.I.I.P.I.I.I.P.P.P.P.I.I.I.I.I.I.I.I.I.I.I.I.I.I.Y.Y.I.I.I.I.I.I.I.I.I.I.I.I.I.I.I.I.iXiXiXI.Y.Y.Y.Y.iXiXpXiXpXpXpXpXiXiXpXpXpXpXiXiXpXpXpXpXpXpXpXpXiXiXpXpXpXpXiXiXpXpXpXpXiXiXiXiXpXpXpXiXiXiXpXpX",
"P.P.I.I.I.I.P.P.P.P.uXuXI.J.J.J.n.m.x.l.Y J 4 < 4 4 4 4 T R R R L J m 4 4 4 4 2 > > & o o o o o & 2 2 d Y ! / Z.F.A.Z.! Y 4 5 m Y Y Y Y Y Y Y Y Y Y Y Y ! ! ! ! ! ! T T Y Y Y Y Y Y B m B B B B B B d d d 4 2 2 2 2 2 2 4 d d d d d d Y V V V d d a 2 2 1 * o o # # # # ; 1 1 1 1 1 1 1 3 3 p p p p a a a a d d d d d d h h d d a p p 1 1 ; # # o o + # # # # # # # # # ; ; 1 1 1 1 1 p p p p p p f p s h h h h h h h h h s f p p p p p p p p ; ; ; ; ; 7 # O O @ @ @ @ # # # # @ @ @ @ @ O @ @ O O # # 7 7 7 7 7 7 7 7 6 6 @ @ @ @ @ @ @ @ @ @ @ @ @ @ @ @ @ O @ 7 e 9 H.H.H.P.P.P.P.P.P.P.P.P.P.P.P.P.P.P.P.P.P.P.P.P.P.P.P.P.P.P.P.P.uXuXP.P.P.P.P.P.P.P.P.P.P.P.P.P.P.P.P.P.P.P.P.P.P.P.P.P.P.P.P.P.P.P.P.P.P.P.P.P.P.P.P.P.P.P.P.P.P.P.P.P.P.P.P.P.P.P.P.P.P.P.P.P.I.I.I.I.P.P.P.P.I.I.I.I.P.P.P.P.P.P.I.I.I.I.I.I.P.P.P.P.I.I.I.I.I.I.P.P.I.I.I.I.P.P.P.I.I.I.I.J.J.J.H.J.P.I.I.I.I.I.I.I.I.I.Y.iXiXiXY.Y.Y.Y.Y.Y.Y.iXI.I.I.I.I.I.I.I.Y.Y.I.I.iXiXiXiXiXiXiXiXiXiXpXiXiXiXY.Y.iXiXY.Y.Y.Y.I.I.I.I.I.I.I.I.I.I.I.I.I.I.I.I.I.I.I.I.I.I.I.I.P.P.I.I.P.P.P.P.P.P.P.P.P.P.P.P.P.P.P.P.P.P.P.P.I.I.I.I.P.P.P.P.P.P.I.I.I.I.P.P.P.P.I.I.P.P.P.P.I.I.I.I.I.I.I.I.I.I.I.I.I.I.I.I.I.I.I.I.Y.Y.I.I.I.I.I.I.I.I.I.I.iXiXiXiXY.Y.Y.Y.iXiXiXiXiXiXpXpXiXiXiXiXpXpXpXiXpXpXpXpXpXpXpXpXiXiXiXiXpXpXpXiXpXpXpXpXpXpXiXiXpXpXpXpXiXiXiXpX",
"P.P.I.I.P.I.P.I.P.P.uXP.P.H.J.J.m.x.l.! Y 4 < < 4 4 4 m R R L P P J J 4 4 4 2 2 > & & o o o o o & 2 V E ! [ A.F.F.A./ ! m 5 4 Y Y Y Y Y Y Y Y Y Y Y Y Y ! ! ! ! ! ! T ! Y Y Y Y Y Y m 4 B B B B d d d d 2 2 2 2 2 2 2 2 2 2 4 d d d d d V V d d a 2 3 > 1 o o o o # # # ; 1 1 1 1 1 1 1 1 1 p p p p a a a a d d d d d d h h d d d p 3 1 1 ; # # o o o o # # # # # # # # # ; 1 1 ; ; p p ; p p p p p p s h h h h g g h h h s h f s s s s s s f p p e e e e e e # # # # # 7 7 e e 7 7 7 e # # # # # # 7 7 e 7 7 7 7 @ @ 7 @ @ @ @ O O O O O O O O O O O O @ @ O O O e w @ $.K.H.P.P.P.P.P.P.P.P.P.P.P.P.P.P.P.P.P.P.P.P.P.P.P.P.P.P.P.P.P.uXuXP.P.P.P.P.P.P.P.P.P.P.P.P.P.P.P.P.P.P.P.P.P.P.P.P.P.P.P.P.P.P.P.P.P.P.P.P.P.P.P.P.P.P.P.P.P.P.P.P.P.P.P.P.P.P.P.P.P.P.P.P.P.I.I.I.I.P.P.P.P.I.I.I.I.P.P.P.P.P.P.I.I.I.I.I.I.P.P.P.P.I.I.I.I.I.I.I.I.I.I.I.I.P.P.P.I.I.I.I.I.J.J.J.J.J.I.I.I.I.I.I.I.I.I.Y.iXiXiXiXiXY.Y.Y.Y.Y.iXI.I.I.I.I.I.I.I.Y.Y.I.I.iXiXiXiXiXiXiXiXiXiXpXiXiXiXiXY.Y.Y.Y.Y.Y.Y.I.I.I.I.I.I.I.I.I.I.I.I.I.I.I.I.I.I.I.I.P.I.I.I.P.P.I.I.P.P.P.P.P.P.P.P.P.P.P.P.P.P.P.P.P.P.P.P.I.I.I.I.P.P.P.P.P.P.P.P.I.I.I.P.P.P.I.I.I.I.P.P.I.I.I.I.I.I.I.I.I.I.I.I.I.I.I.I.Y.Y.I.I.I.I.I.I.I.I.I.I.I.I.iXI.iXiXiXiXY.Y.Y.Y.iXiXiXiXiXiXiXpXiXiXiXiXpXpXiXiXpXpXpXpXpXpXpXpXiXiXiXiXpXpXiXiXpXpXpXpXpXiXiXiXpXpXpXpXiXiXiXiX",
"P.I.uXI.P.P.P.I.uXuXuXP.P.J.J.n.E Y 4 < , 5 5 5 , < b H K I ' } ` L J m 4 2 2 2 2 & & o o o o & 1 2 B Y ! Z.S.F.F.Z.! Y 5 2 4 B Y Y Y Y Y Y Y Y Y Y Y ~ ~ ! ! ! ! ! ! ! Y Y B Y 4 4 4 4 4 4 4 4 4 4 2 2 2 2 2 2 2 2 2 2 2 2 2 2 a a d d d d a a a a 1 1 * o o o # # # # # ; 1 1 1 1 1 1 1 1 p p p p a a a a d d d d h h h h d d d p p 1 # + o   X o o o + + + + + + # # # # ; ; ; ; ; ; ; 1 p p p p p p g g h h g g g g g g g j s g s s s s f f p p p e e e e e e e e e e e e e e e e e e e e e e e e e e 7 7 7 @ @ @ @ @ @ @ @ O O @ @ O O O O O O O @ @ @ @ O @ 7 y w 6 $.0.H.H.H.H.H.P.P.P.P.P.P.P.P.P.P.P.P.P.P.P.P.P.P.P.P.P.P.P.P.P.P.P.P.P.P.P.P.P.P.P.P.P.P.P.P.P.P.P.P.P.P.P.P.P.P.P.P.P.P.P.P.P.P.P.P.P.P.P.P.P.P.P.P.P.P.P.P.P.P.P.P.P.P.P.P.P.P.I.I.I.I.P.P.P.I.I.I.P.P.I.I.I.I.P.P.I.I.I.I.I.I.I.I.I.I.I.I.I.I.I.I.I.I.I.I.I.I.I.I.I.I.I.I.I.I.I.Y.Y.T.T.aXaXaXjXT.Y.I.Y.Y.I.I.I.I.Y.Y.Y.Y.iXiXY.Y.Y.Y.Y.Y.Y.Y.Y.Y.iXiXI.I.Y.Y.Y.Y.Y.Y.Y.Y.iXiXpXpXpXpXpXiXpXpXpXpXiXiXiXiXpXpXpXpXiXiXY.Y.Y.Y.I.I.I.I.I.I.I.I.I.I.I.I.I.I.I.I.I.I.I.I.I.I.uXuXuXuXI.I.I.I.P.P.P.P.P.P.P.P.I.I.P.P.I.I.P.P.P.P.I.I.P.P.I.I.I.I.P.P.P.P.P.P.I.I.I.I.P.P.P.P.I.I.I.I.I.I.I.I.I.I.I.I.Y.I.I.I.Y.Y.I.I.I.I.I.I.I.I.pXaXfXaXgXaXY.Y.pXpXpXpXpXpXpXpXpXpXpXpXpXpXpXpXpXpXpXpXpXpXpXpXpXpXpXpXpXpXpXpXpXpXpXpXiXiXpXpXpXpXiXiXiXiXpXpXpXiX",
"P.uXI.I.P.I.P.P.uXuXuXI.P.H.c.D d 4 < 5 , 5 5 5 H H K L ` }  X.X` R J m 4 2 3 2 & & o o & & & & 2 4 Y T [ S.S.S.Z./ ! m 5 2 4 m Y Y Y Y B Y Y Y Y Y Y Y Y Y ~ ~ Y Y Y Y B B B B 4 4 5 5 2 2 2 2 2 2 2 3 1 2 2 2 3 2 2 2 2 2 2 2 2 2 a a a a a 2 a 3 1 1 o o o o o o o o # # ; ; ; ; 1 1 1 1 1 1 p p p p p p a a s s s d h d d a p p 1 ; # + o   X o o o + + + + + + # # # # # # ; ; ; ; ; ; p p p p p p f f s s f s f f g g g g f f p p f s f p p e e e e e e e e e e e e e e e e e e e e e e e e e e e e e 7 7 @ @ @ @ @ @ @ @ @ @ @ @ @ O @ @ @ @ @ @ 6 6 @ O @ @ w e O y 0.H.P.H.H.H.P.P.P.P.P.P.P.P.P.P.P.P.P.P.P.P.P.P.P.P.P.P.P.P.P.P.P.P.P.P.P.P.P.P.P.P.P.P.P.P.P.P.P.P.P.P.P.P.P.P.P.P.P.P.P.P.P.P.P.P.P.P.P.P.P.P.P.P.P.P.P.P.P.P.P.P.P.P.P.P.P.P.I.I.I.I.P.P.I.I.I.I.I.I.I.I.I.I.P.P.I.I.I.I.I.I.I.I.I.I.I.I.I.I.I.I.I.I.I.I.I.I.I.I.I.I.I.I.I.I.I.I.J.2.jXHXJXJXJXVXY.I.Y.Y.I.I.I.I.Y.Y.Y.Y.iXiXY.Y.Y.Y.Y.Y.Y.Y.Y.Y.iXiXI.I.Y.Y.Y.Y.Y.Y.Y.Y.iXiXpXpXpXiXpXiXiXpXpXpXiXiXiXiXpXpXpXpXiXiXiXiXY.Y.I.I.I.I.I.I.I.I.I.I.I.I.I.I.I.I.I.I.uXI.I.I.uXuXuXuXI.I.I.I.P.P.P.I.P.P.P.P.I.I.P.P.I.I.P.P.I.P.I.I.P.P.I.I.I.I.P.P.P.P.P.P.I.I.I.I.P.P.P.P.I.I.I.I.I.I.I.I.I.I.I.I.I.I.I.I.Y.I.I.I.I.I.I.I.pXpXpXNXKXHXKXNXY.pXpXpXpXpXpXpXpXpXpXpXpXpXpXpXpXpXpXpXpXpXpXpXpXpXpXpXpXpXpXpXpXpXpXpXpXpXiXiXpXpXpXpXiXiXiXiXpXpXpXiX",
"I.I.I.I.I.I.P.P.uXuXI.I.J.J.k.E 4 < H J J H J H ` ` { }  X.X.X.X` R K m 4 2 2 & & & & & 2 2 2 2 5 m T ! { S.S.{ ! ! m , , 2 4 4 B B B B B B Y Y Y Y Y Y Y Y Y Y Y Y Y Y 4 4 4 4 5 5 2 2 2 2 2 2 2 2 3 1 1 1 1 1 3 3 2 2 2 2 2 2 2 2 2 2 a a a 2 a 1 1 o o o o o o o o o # # # # ; ; 1 1 1 1 1 1 1 1 1 1 1 1 p p p p p s d d p p p 1 ; # # o o   o o o o + + + + o # + + # # # # ; ; ; ; ; ; p p p p f f f f s s s s f s g g g g p f p p p f f p p e e e e e e e e e e e e e e e e e e e e e e e e e e e e 7 e 7 6 6 @ @ @ @ @ @ @ @ @ @ @ @ @ @ @ @ @ @ 6 t w O @ @ 7 y O 6 &.H.P.H.H.H.P.P.P.P.P.P.P.P.P.P.P.P.P.P.P.P.P.P.P.P.P.P.P.P.P.P.P.P.P.P.P.P.P.P.P.P.P.P.P.P.P.P.P.P.P.P.P.P.P.P.P.P.P.P.P.P.I.I.I.I.I.I.P.P.P.P.P.P.I.I.P.P.I.I.I.I.P.P.P.P.I.I.I.I.I.I.I.I.I.I.I.I.I.I.I.I.I.I.I.I.I.I.I.I.I.I.I.I.I.I.I.I.I.I.I.I.I.I.I.I.I.I.I.I.I.I.I.I.I.I.I.I.aX-.fXKXLXLXIXDXY.iXiXiXI.I.Y.Y.Y.Y.iXiXiXiXiXiXiXiXiXpXpXpXiXiXiXiXiXiXiXiXiXiXiXiXiXiXpXpXpXpXpXpXpXpXiXiXpXpXpXpXiXiXpXpXiXiXiXiXiXiXY.Y.Y.I.I.I.I.I.I.I.I.I.I.I.I.I.I.I.I.I.uXuXI.I.I.uXuXuXI.I.P.P.P.P.I.I.I.I.I.I.I.I.I.I.I.P.P.P.uXI.I.I.P.P.I.I.I.P.P.P.I.I.P.I.I.I.P.P.P.P.I.I.I.I.I.I.I.I.I.I.I.I.Y.I.I.I.I.I.I.I.I.I.I.I.I.I.pXpXpXNXJXKXJXBXY.pXpXpXpXpXpXpXpXpXpXpXpXpXpXpXpXpXpXpXpXpXpXpXpXpXpXpXpXpXpXpXpXpXpXpXpXpXiXiXiXiXpXpXiXiXpXpXpXpXiXiX",
"I.I.I.I.I.I.I.P.uXI.I.J.L.L.m.Z.J P R _ ` ` ` ` } } ].|.<X$X[.} ` ! K m 4 2 > & o o o & 2 2 2 2 4 J R ! } S.} [ ! Y 5 5 , 2 4 4 4 4 d d B B Y Y B Y Y Y Y Y Y Y Y Y Y Y 4 4 4 5 5 2 2 2 2 2 2 a 2 2 1 1 1 1 1 1 1 1 2 2 2 2 2 2 2 2 2 2 a 3 3 3 3 1 * o o # # # o o o o # # # # # ; 1 1 1 ; 1 1 1 1 1 1 1 1 p p p p p p a p p p 1 1 # # # o o   o o o o + + + + o # + # + + # # # ; ; ; ; ; p p p p f f f f s s s s s s g g g g p p p p p f f p p e e e e e e e y y y y f e e e e e e e e e e e e e e e e e e e 7 @ @ @ @ @ @ @ @ @ 6 6 7 7 7 7 e e 6 6 w g y O @ @ @ w O 0 @.H.P.P.H.H.P.P.P.P.P.P.P.P.P.P.P.P.P.P.P.P.P.P.P.P.P.P.P.P.P.P.P.P.P.P.P.P.P.P.P.P.P.P.P.P.P.P.P.P.P.P.P.P.P.P.P.P.P.P.P.P.I.I.I.I.I.I.P.P.I.P.P.P.I.I.P.P.P.P.I.I.P.P.P.P.I.I.uXI.I.I.I.I.I.I.I.I.I.I.I.I.I.I.I.I.I.I.I.I.I.I.I.I.I.I.I.I.I.I.I.I.I.I.I.I.I.I.I.I.I.I.I.I.I.I.I.I.I.pXaXY.aXaXjXT.Y.iXiXiXI.I.Y.Y.Y.Y.iXiXiXiXiXiXiXiXiXpXpXpXiXiXY.iXiXiXiXiXiXiXiXiXpXpXpXpXpXpXpXpXpXpXiXiXpXpXpXiXiXiXpXpXpXiXiXiXiXiXY.Y.Y.Y.I.I.I.I.I.I.I.I.I.I.I.I.I.I.I.I.uXuXI.I.I.uXuXuXI.I.I.P.P.P.I.I.I.I.I.I.I.I.I.I.P.P.P.P.uXI.I.I.P.P.I.I.P.P.P.P.I.I.I.I.I.I.I.P.P.P.I.I.I.I.I.I.I.I.I.I.I.I.Y.I.I.I.I.I.I.I.I.I.I.I.I.I.I.iXpXaXaXpXaXaXpXpXpXpXpXpXpXpXpXpXpXpXpXpXpXpXpXpXpXpXpXpXpXpXpXpXpXpXpXpXpXpXpXpXpXpXpXpXiXiXiXiXiXpXiXiXpXpXpXpXiXiX",
"P.P.I.I.I.iXI.iXiXI.J.J.n.D.W.G._ ! _ _ ! ` ` ` ].].Q. X$X.X} ' K H J m 4 2 > o o . o & 3 2 2 5 < J R ! S.|.S.{ Y 4 2 5 2 5 4 2 5 4 4 d B B Y Y Y Y Y Y Y Y V A Y Y Y Y d d 4 d 2 2 2 2 2 2 2 a p p p p 1 p p 1 3 3 3 3 3 3 1 1 3 3 3 3 3 1 1 1 1 ; ; o # # + + # # o o + + # # # # ; ; ; ; ; ; 1 1 1 1 1 1 p p p p p p p p p p 1 ; # # + + o o O + + + o + + + + + + + # # # # ; # e e e e p p p p p p p p f f s s s s s p p p p e p p p p p y y e p p e e e e e e p p p e e e e e e e e e f f e e y y y e e e 7 7 @ @ @ @ 6 6 @ @ 7 7 7 9 e w t y g g y 8.g @ @ @ @ 6 6 O 9 =.P.P.H.u.P.P.P.P.P.P.P.P.P.P.P.P.P.P.P.P.P.P.P.P.P.P.P.P.P.P.P.P.P.P.P.P.P.P.P.P.P.P.P.P.I.I.I.I.P.P.P.P.I.I.I.I.I.I.I.I.I.I.I.I.I.I.P.I.I.I.I.I.I.I.I.I.I.I.I.I.I.I.I.I.I.I.I.I.I.I.I.I.I.I.I.I.I.I.I.I.I.I.I.I.I.I.I.I.Y.Y.Y.Y.Y.Y.Y.Y.Y.Y.Y.Y.Y.Y.Y.Y.Y.Y.Y.Y.Y.Y.Y.Y.Y.Y.Y.Y.I.I.I.Y.I.I.L.L.Y.Y.pXpXiXiXiXiXiXpXpXpXpXpXiXiXiXiXiXiXiXiXiXiXiXiXpXpXpXpXpXpXiXiXiXiXpXpXpXpXpXpXpXpXpXpXpXpXpXpXpXpXpXpXiXiXY.Y.Y.Y.Y.Y.Y.Y.Y.Y.Y.Y.Y.Y.Y.Y.I.I.I.I.I.I.I.I.I.I.I.I.I.I.I.I.uXuXuXI.I.I.uXuXI.I.I.I.uXuXuXI.uXuXI.I.uXuXuXuXP.P.P.P.P.P.P.P.I.I.uXuXuXI.I.I.P.I.I.I.I.I.uXuXuXuXI.uXiXuXuXiXI.I.I.I.I.I.I.I.iXiXiXI.Y.Y.iXiXpXpXpXpXpXpXpXpXpXpXpXpXpXpXpXpXpXpXpXpXpXpXpXpXpXpXpXpXpXpXpXpXpXpXpXpXpXpXpXpXpXpXiXiXpXpXpXpXpXpXpXpXiXiXiXiX",
"P.P.P.P.I.I.I.I.I.I.J.n.D.F.F.F._ _ _ ! ` ` ] } ].]..XOXOX|.] ` K J m 4 4 5 & o . o > 1 3 2 2 5 < H L ! } } { ` J 4 , , 2 5 4 2 5 2 d A d d d d B Y Y Y Y Y d d 4 d d d d d 4 4 2 2 2 2 2 1 1 1 1 1 1 1 1 1 1 1 1 1 2 2 1 1 1 1 1 1 1 1 1 1 1 ; # o o # # o o o o o o o + + # # # # # # # ; # ; ; 1 1 1 1 1 1 1 1 1 1 1 1 1 1 1 ; # # # + + + o O + + + o + + + + + + + # # # # # # ; ; e e e e p p p p p p p p s s s s s p p p p e e e p y y e e e e e e e e e e e p p p p e e e e e e e e f f e e y y f y y e e e 7 @ @ @ 6 6 @ @ 7 7 9 e e e y y g g g 8.g @ @ @ 6 6 6 O 0 @.H.P.H.H.H.P.P.P.P.P.P.P.P.P.P.P.P.P.P.P.P.P.P.P.P.P.P.P.P.P.P.P.P.P.P.P.P.P.P.P.P.P.P.P.I.I.I.I.P.P.P.P.I.I.I.I.I.I.I.I.I.I.I.I.I.I.P.P.I.I.I.I.I.I.I.I.I.I.I.P.I.I.I.I.I.I.I.I.I.I.I.I.I.I.I.I.I.I.I.I.I.I.I.I.I.I.I.I.Y.Y.Y.Y.iXiXiXiXiXpXiXiXY.Y.Y.Y.Y.Y.Y.Y.pXpXpXpXiXiXiXiXiXiXpXpXpXY.pXY.pXpXpXpXpXpXpXpXiXiXpXpXpXpXiXiXiXiXpXpXiXiXiXiXiXiXpXpXpXpXpXpXiXiXiXiXpXpXpXpXpXpXpXpXpXpXpXpXpXpXpXpXpXpXiXiXY.Y.Y.Y.Y.Y.Y.Y.Y.Y.Y.Y.Y.Y.Y.Y.I.I.I.I.I.I.I.I.I.I.I.I.I.I.I.I.uXuXuXI.I.I.uXuXI.I.I.I.uXuXuXI.uXI.I.I.uXuXuXuXP.P.P.P.P.P.P.P.uXI.uXuXuXI.I.I.P.P.I.I.I.I.uXuXI.I.I.I.iXuXiXiXI.I.I.I.I.I.I.I.iXiXiXiXiXiXiXiXpXpXpXpXpXpXpXpXpXpXpXpXpXpXpXpXpXpXpXpXpXpXpXpXpXpXpXpXpXpXpXpXpXpXpXpXpXpXpXpXpXpXiXiXpXpXpXpXpXpXpXpXiXpXiXiX",
"P.P.P.P.I.I.I.I.I.J.J.n.D.W.F.Z.[ _ _ [ ! ` } ]..X.X$X$X.X} ` L T Y m m , > & o o > 1 1 3 3 3 5 < J L ! { { ! J 4 < 5 2 5 5 2 5 5 2 d d d d 4 4 d B Y Y Y d d 2 2 4 4 2 2 2 2 5 5 5 2 2 2 2 * * * * * * * * * * * * * * * * * * 1 1 1 ; ; # # o o o o o o X o o o o o o # # + + + + # # # ; # 1 ; 1 1 1 1 1 1 1 1 1 1 1 ; ; ; ; # # o X + + o o + + + + o o + + + + + + # # # # # # # ; # # # # ; ; p p p p p p p p s p p e y y e e e e e e e e e 7 e e e e e e e e e e e e e e e e e e e e f f y e y y p p p y e e e 7 @ @ @ 6 @ @ 7 7 9 w w w y y u g g 8.g @ @ @ 6 6 6 6 O 9 =.H.P.P.P.P.P.P.P.P.P.P.P.P.P.P.P.P.P.P.P.P.P.P.P.P.P.P.P.P.P.P.P.P.P.P.P.P.P.P.I.I.P.P.I.I.I.I.I.I.P.P.I.I.I.I.I.I.I.I.I.I.I.I.I.I.I.I.I.I.I.I.I.I.I.Y.I.I.I.I.I.I.I.I.Y.Y.Y.Y.Y.Y.iXiXY.Y.Y.Y.Y.Y.iXiXY.Y.iXY.Y.Y.Y.Y.Y.Y.pXpXpXpXpXpXpXpXpXpXpXpXpXpXY.Y.Y.Y.iXiXpXiXiXiXiXiXpXiXpXiXY.Y.Y.I.Y.pXpXpXpXpXpXpXiXiXiXiXpXpXpXiXpXpXpXpXpXpXpXpXiXiXiXiXpXpXpXpXpXpXpXpXpXpXpXpXpXpXpXpXpXpXpXpXiXiXiXiXpXiXiXiXY.Y.Y.Y.Y.Y.Y.Y.Y.Y.Y.Y.Y.Y.Y.Y.I.I.I.I.I.I.I.I.I.I.I.I.I.I.I.I.uXuXuXuXI.I.I.uXI.I.I.I.uXuXuXuXuXuXI.I.uXuXuXuXP.P.P.P.P.P.P.P.I.uXI.uXI.I.I.I.uXuXuXuXI.uXuXuXI.I.I.I.iXiXiXiXY.I.I.I.I.Y.Y.I.Y.iXiXiXiXiXpXpXpXpXpXpXpXpXpXpXpXpXpXpXpXpXpXpXpXpXpXpXpXpXpXpXpXpXpXpXpXpXpXpXpXpXpXpXpXpXpXpXpXpXpXpXpXpXpXpXpXpXpXpXpXpXpXpX",
"P.P.P.P.I.I.I.I.J.J.n.x.D.G.{ [ _ ! ! ! ^ { ]..X.X$X,X.X|.} ^ J ~ Y m 4 , > o o > 2 1 1 3 3 3 2 < J ~ ! / ! T < < 5 5 5 5 2 2 2 5 2 d d 2 2 2 2 d B B Y d a 2 2 2 2 2 2 2 2 2 5 5 5 2 2 & * * * * * * * # # # # * * o o o o * * # # # o o o o o o o o o X       X X o o o o o o o o o o o o # # ; 1 1 1 1 1 1 1 1 ; ; # # # # # # # X     + + + O O o o o o + + + + + + # # # # # # # # # # # # # # e e e e p p e e e e e e e e e e ; ; e 7 7 # # # 7 # 7 7 7 7 e e e e e w e e e e e e e e f f y e y y y p f p f e e 7 @ @ @ 6 @ @ 7 7 9 w w w y y u #.#.8.g @ @ @ 6 @ 6 @ O 6 9 -.P.I.P.P.P.P.P.P.P.P.P.P.P.P.P.P.P.P.P.P.P.P.P.P.P.P.P.P.P.P.P.P.P.P.P.P.P.P.I.I.P.P.P.I.I.I.I.I.P.P.P.I.I.I.I.I.I.I.I.I.I.I.I.I.I.I.I.I.I.I.I.I.I.Y.I.I.I.I.I.I.I.I.Y.Y.Y.Y.Y.Y.Y.Y.Y.Y.Y.Y.iXiXY.Y.Y.Y.iXiXY.Y.Y.Y.Y.Y.pXpXpXpXpXpXpXpXpXpXpXpXpXpXY.Y.Y.Y.iXiXiXiXiXiXiXiXpXiXiXpXpXpXY.pXpXpXpXpXpXpXpXpXiXiXiXiXpXpXiXiXpXpXpXpXpXpXpXpXiXiXiXiXpXpXpXpXpXpXpXpXpXpXpXpXpXpXpXpXpXpXpXpXiXiXiXiXpXiXiXiXY.Y.Y.Y.Y.Y.Y.Y.Y.Y.Y.Y.Y.Y.Y.Y.I.I.I.I.I.I.I.I.I.I.I.I.I.I.I.I.uXuXuXuXI.I.I.I.I.I.I.I.uXuXuXuXuXuXI.I.uXuXuXuXP.P.P.P.P.P.P.P.uXuXuXuXuXI.I.I.uXuXuXuXuXuXuXuXI.I.I.I.iXiXiXiXY.Y.I.I.I.I.I.I.Y.iXiXiXpXpXpXpXpXpXpXpXpXpXpXpXpXpXpXpXpXpXpXpXpXpXpXpXpXpXpXpXpXpXpXpXpXpXpXpXpXpXpXpXpXpXpXpXpXpXpXpXpXpXpXpXpXpXpXpXpXpXpXiX",
"I.P.P.P.I.I.I.I.J.J.m.x.G.Z.[ ` ! L R ^ ` |.OX$X%X%X.XS.} / ~ m B B 4 2 > & o o > > > > 1 1 2 2 4 Y ~ ~ ! ~ m < , 5 5 2 2 2 2 2 2 a 2 2 2 3 2 2 d d d 2 2 2 2 2 2 3 3 3 3 2 2 > > > > > & * * * * * * * * # # # # # # # # # # # # # # # # # # o o o o o o           o o + + o o o o o o o o o # # # # # # ; 1 ; ; # # # # + o o o o o o + + + X + X + + O O + + + + + + + + # # # # # # # # # # # # e e ; ; e e e ; e e ; ; ; ; ; ; ; ; e 7 # @ # # # # 7 7 7 7 e e e e e e e e 7 7 e e e e e e e e y y f f f f f e e 7 6 @ 7 @ @ @ 6 7 w w w t y u u g g 8.#.@ @ @ 6 6 6 @ O O 0 @.P.I.P.J.P.P.I.I.I.I.I.I.I.I.P.P.I.I.I.I.P.P.P.P.P.P.I.I.I.I.P.P.P.P.I.I.I.I.I.I.I.I.I.I.I.I.I.I.I.I.I.I.I.I.I.I.I.I.I.I.Y.Y.Y.I.I.I.I.I.I.I.I.I.Y.Y.Y.Y.Y.Y.I.I.I.Y.iXiXY.Y.Y.Y.Y.Y.Y.Y.Y.Y.iXiXiXiXY.Y.Y.iXY.Y.Y.Y.Y.Y.pXpXpXpXpXpXpXpXpXpXpXpXpXpXpXpXpXpXpXpXpXpXpXpXpXpXpXpXpXpXpXpXpXpXpXpXpXpXpXpXpXpXpXpXpXpXpXpXpXpXpXpXpXiXiXY.Y.Y.iXiXiXiXpXpXpXpXpXpXpXpXpXpXpXpXpXpXpXpXpXpXpXpXpXiXiXiXiXiXiXiXiXiXiXiXpXpXiXiXiXiXiXiXpXpXpXpXiXiXY.Y.Y.Y.I.I.iXiXiXiXI.I.I.I.I.I.P.P.uXuXuXI.iX-.iXY.I.I.I.I.uXuXuXuXuXuXuXuXuXuXuXuXuXuXuXuXuXuXI.I.uXuXuXuXI.I.I.uXuXuXuXuXI.I.I.I.iXiXiXiXI.I.I.I.I.I.I.I.Y.Y.Y.Y.iXiXpXpXpXpXpXpXpXpXpXpXpXpXpXpXpXpXpXpXpXiXzXDXBXzXpXpXpXpXpXpXpXpXpXpXpXpXpXpXpXpXpXpXpXpXpXpXpXpXpXpXpXpXpXpXpXpXpXpX",
"P.P.P.P.I.I.I.J.H.m.m.x.Z.[ ` L L L R [ } |.OX$X1X#X|.{ / ~ B 4 d 4 3 2 & o o o > > > > 1 2 2 2 Y Y ! ! ! Y 4 , 5 2 2 2 2 2 2 2 3 2 2 2 2 3 3 2 d d 2 2 2 2 2 2 3 3 3 3 3 3 2 2 2 5 2 1 2 1 * * 1 1 1 * * # # # # o # # # # * * ; ; ; # # # # # # # # # + o + o o o o o + + o o o o o o o o # # # # # # # # # # # # # # + o o o o o o o + + + X X   X X O O + + + + + + + + # # # # # # # # # # # # e e ; ; e e ; ; ; ; ; ; ; ; ; ; ; ; e e # # # # # # 7 7 7 7 e e e e e e e e 7 7 7 e e e e e e e y y y y f f e e e 7 7 @ 7 @ @ @ 6 7 w w w t y y u u g #.#.6 @ @ 6 6 @ @ O O O 9 =.I.P.J.P.P.I.I.I.I.I.I.I.I.P.P.I.I.I.I.P.P.P.P.P.P.I.I.I.I.P.P.P.P.I.I.I.I.I.I.I.I.I.I.I.I.I.I.I.I.I.I.I.I.I.I.I.I.I.I.Y.Y.Y.I.I.I.I.I.I.I.I.I.Y.Y.Y.Y.Y.Y.I.I.I.I.Y.iXiXiXY.Y.Y.Y.Y.Y.Y.Y.iXiXiXiXY.Y.Y.Y.Y.Y.Y.Y.Y.Y.pXpXpXpXpXpXpXpXpXpXpXpXpXpXpXpXpXpXpXpXpXpXpXpXpXpXpXpXpXpXpXpXpXpXpXpXpXpXpXpXpXpXpXpXpXpXpXpXpXpXpXpXpXiXiXY.Y.Y.pXiXiXiXpXpXpXpXpXpXpXpXpXpXpXpXpXpXpXpXpXpXpXpXpXpXiXiXiXiXiXiXiXiXiXiXpXpXiXiXiXiXiXiXpXpXpXpXiXiXiXiXY.Y.I.I.iXiXiXiXI.I.I.I.I.I.P.P.uXuXI.uXI.uXpXiXI.I.I.I.uXuXI.I.uXuXuXuXuXuXuXuXuXuXuXuXuXI.I.I.uXuXuXuXI.I.I.uXuXuXuXuXI.I.I.I.iXiXiXiXI.I.I.I.I.I.I.I.Y.Y.Y.Y.iXiXiXiXpXpXpXpXpXpXpXpXpXpXpXpXpXpXpXpXpXpXzXNXBXzXiXpXpXpXpXpXpXpXpXpXpXpXpXpXpXpXpXpXpXpXpXpXpXpXpXpXpXpXpXpXpXpXpXpX",
"I.I.P.P.P.P.iXI.v.m.x.V.[ ` L L K P R { S.oXOX$X$X[.{ L T m 4 2 2 2 2 * o o o 1 1 1 > > 2 2 2 Y Y W W W W B 2 2 5 5 2 2 2 2 2 2 2 2 2 2 2 2 1 3 2 2 2 2 2 2 2 2 2 2 2 2 3 3 2 2 2 2 2 3 3 1 1 1 1 1 1 * * # # # o # # # * * 1 1 1 1 1 1 1 ; 1 1 ; ; ; # # # # # # # # # # # # # # # # # # # # # ; ; # # # # # o + o o o o + o o X o o o + + +   .   X X O O + + + + + + + # # # # # # # # # # # # # ; ; ; ; e e ; ; ; ; ; ; ; ; ; ; ; ; e e 7 # 7 7 # # 7 7 e e e e e e 7 7 7 7 7 7 e e e e e e e e y y y y y y e e e 7 7 @ @ @ 6 7 6 7 w w w t y y u u #.#.#.y @ @ 6 6 @ @ O O O O ..I.P.P.P.P.I.I.I.I.I.I.I.I.I.I.I.I.I.I.I.I.I.I.I.I.I.I.I.I.I.I.I.I.I.I.I.I.I.I.I.I.I.I.I.I.I.I.I.I.I.I.I.I.I.I.I.I.iXiXiXiXiXiXiXiXI.I.I.I.Y.Y.iXiXpXpXiXpXiXiXiXiXpXpXpXpXpXpXpXpXpXpXpXpXpXpXpXpXpXpXpXpXpXpXpXpXpXpXpXpXpXpXpXpXpXpXpXpXpXpXpXpXpXpXpXpXpXpXpXpXpXpXpXpXpXpXpXpXpXpXpXpXpXpXpXpXpXpXpXpXpXpXpXpXpXpXpXpXpXpXpXpXiXiXiXpXpXpXiXiXpXpXpXpXpXpXpXpXpXpXpXpXpXpXpXpXpXpXpXpXpXpXpXpXiXpXiXiXpXiXiXiXpXpXpXpXpXiXiXiXpXpXpXiXiXiXiXiXY.Y.Y.Y.iXiXiXiXI.I.I.I.I.I.P.P.uXuXI.I.fXiX-.-.I.I.I.I.I.I.I.I.uXuXuXuXuXuXP.P.P.P.I.I.uXuXI.I.I.I.uXuXI.I.I.I.uXuXI.I.uXuXI.I.iXiXiXiXI.I.I.Y.I.I.I.I.Y.Y.iXiXiXpXpXpXpXpXpXpXpXpXpXpXpXpXpXpXpXpXpXpXfXiXfXfXgXpXiXiXpXpXpXpXpXpXpXpXpXpXpXpXpXpXpXpXpXpXpXpXpXpXpXpXpXpXpXpXpXpXpXpX",
"I.I.I.I.P.P.I.J.n.m.m.V.[ R L K K K R A.S. X.X.X[.] I H m m 4 2 1 1 * & o o o # 1 > > > 2 2 a ! Y Y Y Y Y 4 2 > 5 5 2 2 2 2 > > > > > 1 1 1 1 3 2 2 2 2 > > 2 2 2 2 2 2 a a 2 2 2 2 2 2 a 2 p p 1 1 1 * # # # o o o # * * 1 1 1 1 1 1 1 1 1 1 1 1 1 1 1 ; # # # # # # # # # # # # # # # ; ; # # ; ; # # # # # o + o o o + + o o X o o o + + +     X X o O O + + + + + + + + # # + + + + + + # # # # # # # # e e ; ; ; ; # # # # ; ; ; 7 e e 7 # 7 7 7 # 7 7 e e 7 7 7 7 7 7 7 7 7 7 e e e e e e e e y y e e e e e e e 7 7 @ @ @ 6 7 7 7 w w w t t y u u g #.g t @ @ 6 6 7 @ @ O 0 O 0 P.P.P.P.P.I.I.I.I.I.I.I.I.I.I.I.I.I.I.I.I.I.I.I.I.I.I.I.I.I.I.I.I.I.I.I.I.I.I.I.I.I.I.I.I.I.I.I.I.I.I.I.I.I.I.I.I.iXiXiXiXiXiXiXiXI.I.I.I.Y.Y.iXiXiXpXiXiXiXiXiXiXpXpXpXpXpXpXpXpXpXpXpXpXpXpXpXpXpXpXpXpXpXpXpXpXpXpXpXpXpXpXpXpXpXpXpXpXpXpXpXpXpXpXpXpXpXpXpXpXpXpXpXpXpXpXpXpXpXpXpXpXpXpXpXpXpXpXpXpXpXpXpXpXpXpXpXpXpXpXpXpXiXiXiXpXpXpXiXiXpXpXpXpXpXpXpXpXpXpXpXpXpXpXpXpXpXpXpXpXpXpXpXpXpXpXiXiXpXiXiXiXpXpXpXpXpXiXiXiXpXpXpXiXiXiXiXiXY.Y.Y.Y.Y.Y.iXiXI.I.I.I.I.I.P.P.uXP.I.I.HXBXI.P.I.I.I.I.I.I.I.I.uXuXuXuXuXuXP.P.P.P.I.I.uXuXI.I.I.I.uXuXI.I.I.uXuXuXI.I.uXuXI.I.iXiXiXiXI.I.Y.I.I.I.I.I.Y.Y.iXiXiXiXpXpXpXpXpXpXpXpXpXpXpXpXpXpXpXpXpXpXpXpXfXY.I.iXiXiXpXpXpXpXpXpXpXpXpXpXpXpXpXpXpXpXpXpXpXpXpXpXpXpXpXpXpXpXpXpXpXpX",
"d.P.uXuXuXI.J.J.L.m.m.x.! T J b H H R { ^.|. X.X] U L H 4 2 2 2 1 * * o o o o o & & & & 2 2 d Y E V d 2 d 2 2 2 > > > > 2 2 2 2 1 1 2 2 3 3 2 3 2 3 2 2 2 2 2 2 2 2 2 2 B B d d 4 d d 3 a a p 1 1 1 * * # # # # # # # * * 1 1 1 1 1 p p p 1 1 1 1 1 1 1 1 1 1 1 ; ; ; ; ; ; ; ; ; 1 ; ; ; ; ; ; 1 1 1 ; # # # # # o o o + o o o         O O O O + X + + + + + + + + + + + + + + + O O O + + # # # # ; ; ; ; ; ; # # # # @ @ @ @ # # # 7 7 7 7 7 7 7 7 7 7 7 7 7 7 7 7 7 7 7 7 7 7 7 e e e e e e e e e e e e e e e e e 7 @ @ @ @ 6 @ 6 7 w w w t t y u u g g y w @ @ 6 7 7 @ O O 6 0 ..H.P.P.I.I.I.I.I.I.I.I.I.I.P.P.P.P.P.I.I.I.P.P.P.P.P.I.I.I.P.P.P.P.P.P.J.J.I.I.I.I.I.I.I.I.Y.Y.Y.Y.Y.Y.Y.I.Y.Y.Y.Y.Y.Y.Y.Y.Y.iXiXiXiXiXiXiXY.Y.Y.Y.Y.Y.Y.Y.Y.Y.Y.Y.pXpXpXpXpXpXpXpXpXpXpXpXiXiXiXiXiXpXpXpXpXpXpXpXpXpXpXpXpXpXpXpXpXpXpXpXpXpXpXpXpXpXpXpXpXpXpXpXpXpXpXpXpXpXpXpXpXpXpXpXpXpXpXpXpXpXpXpXpXpXpXpXpXpXpXpXpXpXpXpXpXpXpXpXpXpXpXpXpXpXpXpXpXpXpXpXpXpXpXpXpXpXpXpXpXpXpXpXpXpXpXpXpXpXpXpXpXpXpXpXpXpXpXpXiXiXiXiXiXiXiXiXiXiXiXiXY.Y.Y.Y.Y.Y.Y.Y.I.I.I.I.uXI.I.I.I.P.I.aXLXBX-.I.uXuXuXuXI.I.I.uXuXuXuXuXI.I.I.I.I.I.I.I.uXuXuXuXuXuXuXI.I.I.I.I.I.I.I.I.uXuXuXuXuXuXuXuXI.I.I.I.I.I.Y.Y.iXiXpXpXpXpXpXpXpXpXpXpXpXpXpXpXpXpXpXpXpXpXpXpXpXpXpXpXpXpXpXpXpXpXpXpXpXpXpXpXpXpXpXpXpXpXpXpXpXpXpXpXpXpXpXpXpXpXpXpXpXpXpXpX"
};
