/* XPM */
static char *c103060d1aaa471183fa60750a1b0701IHVcBuljD6c0I17l[] = {
/* columns rows colors chars-per-pixel */
"601 363 256 2 ",
"   c #020302",
".  c #0B0302",
"X  c #050905",
"o  c #0A0B04",
"O  c #04050B",
"+  c #09070B",
"@  c #060A0B",
"#  c #0A0C0B",
"$  c #130502",
"%  c #140B03",
"&  c #1B0C02",
"*  c #110E0B",
"=  c #1A0905",
"-  c #0E1105",
";  c #0D110C",
":  c #06100E",
">  c #131304",
",  c #1D1303",
"<  c #13140C",
"1  c #16190D",
"2  c #1A1B0C",
"3  c #1A1807",
"4  c #050314",
"5  c #090416",
"6  c #060A13",
"7  c #0B0D13",
"8  c #07031A",
"9  c #09041C",
"0  c #060C1A",
"q  c #0A0D1B",
"w  c #120E14",
"e  c #0D1213",
"r  c #0C121C",
"t  c #07111C",
"y  c #121413",
"u  c #151913",
"i  c #1B1C13",
"p  c #12141B",
"a  c #151A1B",
"s  c #1B1C1B",
"d  c #191517",
"f  c #211403",
"g  c #231B04",
"h  c #251C0A",
"j  c #231C15",
"k  c #200E02",
"l  c #1E210B",
"z  c #1E2114",
"x  c #1D221B",
"c  c #24230C",
"v  c #28260A",
"b  c #232414",
"n  c #252914",
"m  c #2A2B14",
"M  c #23251B",
"N  c #25291B",
"B  c #2B2C1B",
"V  c #2B2514",
"C  c #322B17",
"Z  c #2D311C",
"A  c #2E3115",
"S  c #32341C",
"D  c #35391D",
"F  c #383918",
"G  c #34330B",
"H  c #0A0623",
"J  c #0C0926",
"K  c #0D0729",
"L  c #0E092D",
"P  c #060523",
"I  c #110B2D",
"U  c #120C26",
"Y  c #0C1323",
"T  c #0D162A",
"R  c #0E192C",
"E  c #0B1626",
"W  c #111523",
"Q  c #141A24",
"!  c #1A1C23",
"~  c #12152B",
"^  c #131B2C",
"/  c #1A1D2B",
"(  c #1A1529",
")  c #0F0832",
"_  c #0E0835",
"`  c #110735",
"'  c #110A34",
"]  c #130B3B",
"[  c #150A3A",
"{  c #0D1A33",
"}  c #0C1A37",
"|  c #131D33",
" . c #131E3A",
".. c #191636",
"X. c #241A31",
"o. c #1C222C",
"O. c #1B2126",
"+. c #152134",
"@. c #1C2334",
"#. c #15223B",
"$. c #1A243C",
"%. c #1D2A3B",
"&. c #142636",
"*. c #2B2C23",
"=. c #252727",
"-. c #2D3224",
";. c #333523",
":. c #353A23",
">. c #3A3D24",
",. c #37392A",
"<. c #242A38",
"1. c #2B323A",
"2. c #373936",
"3. c #332B2E",
"4. c #433B18",
"5. c #423D2B",
"6. c #3D421B",
"7. c #3D4124",
"8. c #3E412A",
"9. c #3D4135",
"0. c #45451B",
"q. c #505018",
"w. c #434424",
"e. c #43452B",
"r. c #464A2B",
"t. c #4B4C2B",
"y. c #494A25",
"u. c #4D512B",
"i. c #54562B",
"p. c #474935",
"a. c #4D5234",
"s. c #525533",
"d. c #575A37",
"f. c #524D30",
"g. c #5D6338",
"h. c #5B612C",
"j. c #64683B",
"k. c #707135",
"l. c #655F2A",
"z. c #150C43",
"x. c #170D4B",
"c. c #190E4C",
"v. c #180C47",
"b. c #151145",
"n. c #1A114C",
"m. c #181447",
"M. c #170B52",
"N. c #1A0C53",
"B. c #1C0D5B",
"V. c #180754",
"C. c #1B1154",
"Z. c #1D125C",
"A. c #1A1856",
"S. c #0E1147",
"D. c #21145E",
"F. c #221A59",
"G. c #221949",
"H. c #152342",
"J. c #1A2643",
"K. c #1C2A44",
"L. c #1D2C4B",
"P. c #192649",
"I. c #1E2B52",
"U. c #1D3149",
"Y. c #232C47",
"T. c #23324C",
"R. c #283547",
"E. c #363948",
"W. c #242A56",
"Q. c #233353",
"!. c #293859",
"~. c #353B55",
"^. c #322D4D",
"/. c #1E0E62",
"(. c #1F0E69",
"). c #1E1262",
"_. c #1F1369",
"`. c #221464",
"'. c #23156B",
"]. c #24196C",
"[. c #241A65",
"{. c #261972",
"}. c #271976",
"|. c #200F68",
" X c #2C3962",
".X c #313268",
"XX c #1F2263",
"oX c #423D60",
"OX c #394458",
"+X c #39424B",
"@X c #374667",
"#X c #39486F",
"$X c #474846",
"%X c #575946",
"&X c #464858",
"*X c #545554",
"=X c #5E6245",
"-X c #5E6156",
";X c #666A46",
":X c #6D7347",
">X c #747949",
",X c #676A55",
"<X c #767A56",
"1X c #6D7155",
"2X c #4C536E",
"3X c #5A6475",
"4X c #6F726C",
"5X c #625E51",
"6X c #837C45",
"7X c #7D8355",
"8X c #7B834B",
"9X c #7E8267",
"0X c #7D803E",
"qX c #8E8B38",
"wX c #858A59",
"eX c #8D9257",
"rX c #878A66",
"tX c #8D9365",
"yX c #959A68",
"uX c #919475",
"iX c #9CA369",
"pX c #9DA375",
"aX c #A5AA76",
"sX c #ACB478",
"dX c #B3BB7B",
"fX c #A5AC6B",
"gX c #AAA757",
"hX c #BAC37C",
"jX c #C2C97A",
"kX c #2C1C82",
"lX c #2E2084",
"zX c #515685",
"xX c #59668A",
"cX c #6A718E",
"vX c #7076A6",
"bX c #7B85A1",
"nX c #92938A",
"mX c #B5BA86",
"MX c #ABAF8B",
"NX c #9DA19F",
"BX c #BCC488",
"VX c #BDC394",
"CX c #BEC2A4",
"ZX c #C3CA8A",
"AX c #C5CB96",
"SX c #D3DB99",
"DX c #CCD492",
"FX c #DBE39B",
"GX c #D0D5AA",
"HX c #DCE3A8",
"JX c #E3EBA8",
"KX c #EDF4B1",
"LX c #E2E99D",
"PX c #E9EDC8",
"IX c #A4A7B1",
"UX c #817D99",
/* pixels */
"4 4 4 4 4 4 4 4 4 4 4 4 4 4 4 4 4 4 4 4 4 4 4 4 4 4 4 4 4 4 4 4 4 4 4 4 4 4 4 4 4 4 4 4 4 4 4 4 4 4 4 4 4 4 8 8 8 8 8 8 8 8 8 8 5 5 5 5 9 9 5 5 5 5 9 5 9 9 9 9 9 9 9 9 9 9 9 9 9 9 9 9 9 9 9 9 H H H 9 9 9 9 9 H H H H H H H H H H H H 9 9 9 H H H 9 9 9 9 9 H H H H H H H 9 H H H H H H 9 9 9 9 9 H H J J J J 9 9 9 H H H 9 9 9 9 9 H H H 9 9 9 9 5 5 5 5 5 5 5 5 5 5 5 5 5 5 5 5 5 5 4 4 4 4 4 4 4 4 4 4 4 4 4 4 4 O O O 4 4 4 4 4 4 4 4 4 4 O O 4 4 4 4 4 4 O O O 4 4 4 4 4 4 4 4 4 4 4 4 4 4 4 4 4 O O O O O O O O O O 4 4 4 O O O 4 4 O O O O O O O O O O O O O O O O O O O     O O O O O 5 <.u d n uXCXMXyXsXAXGXAXBXBXAXZXmXmXBXAXGXGXGXGXAXmXmXVXVXBXBXdXsXaXaXyXyXyXyXuXuXrX,X%Xp.9.-.*.M i u < # # 6 6 7 7 q q q 7 # # # + + O O O O O O O O                                                                                                                         X X X X X X X X X + # 7 5 5 5 5 9 9 9 H H H H H H H J J J J J J K K K K K K K K K K K K L L L L L L L ) ) ) ) ) ' ' ' ' ` ` ] ] ] ] ] ] ] ] ] ] z.z.z.z.z.z.z.z.b.b.b.z.z.z.z.z.z.z.z.z.z.z.z.z.] ] ] ] ] ] ] ] ] ] ] ] [ ] ] ] ] ] ] ] [ [ ' ' ' ' ' ' ) ) [ ) ) ) ) ) ) ) ) ) _ _ _ _ _ _ [ [ [ _ _ _ ' ' ' ' ' ' ' ' ' ' ' ' ' ' ' ' ' ' ' ' ' ' ' ' ' ' ' ' ' ",
"4 4 4 4 4 4 4 4 4 4 4 4 4 4 4 4 4 4 4 4 4 4 4 4 4 4 4 4 4 4 4 4 4 4 4 4 4 4 4 4 4 4 4 4 4 4 4 4 4 4 4 4 4 4 8 8 8 8 8 8 8 8 8 8 5 5 5 5 9 9 5 5 5 5 9 9 9 9 9 9 9 9 9 9 9 9 9 9 9 9 9 9 9 9 9 9 H H H H 9 9 9 9 H H H H H H H H H H H H 9 9 9 9 H H H H 9 9 H H H H H H H H 9 9 H H H H H H 9 9 H H H H 9 9 9 9 9 9 9 H H H 9 H 9 9 H H H H 9 9 9 9 5 5 5 5 5 5 5 5 5 5 5 5 5 5 5 5 5 5 4 4 4 4 4 4 4 4 4 4 4 4 4 4 4 4 O O O O 4 4 4 4 4 4 4 4 O O 4 4 4 4 4 4 O O 4 4 4 4 4 4 4 4 4 4 4 4 4 4 O O 4 4 O 4 O O O O O O 4 O 4 4 4 O O O 4 4 O O O O O O O O O O O O O O O O O O O O O   O 7 p p 2.NXIXuX<XMXMXGXGXmXMXmXBXBXmXaXmXmXmXBXZXAXAXAXBXmXsXmXmXmXmXmXdXsXiXiXyXyXyXtXrX<X;Xp.8.Z B b z i u < ; # # 7 7 7 q q w q 7 # # # + + O O O O O O O O                                                                                                                                           X + + 5 5 5 5 5 9 q 9 H H H H H H J J J J J J K K K K K K L L K K K K L L L L L L L ) ) ) ) ) ' ' ' ' ` ` ] ] ] ] ] ] ] ] ] ] z.z.z.z.z.z.z.z.z.z.b.z.z.z.z.z.z.z.z.z.z.z.z.z.] ] z.z.] ] ] ] ] ] ] ] [ ] ] ] ] ] ] ] [ [ ' ' ' ' ' ' ) ) [ ) [ ) ) ) ) ) ) ) _ _ _ _ _ _ [ [ [ _ _ _ ' ' ' ' ' ' ' ' ' ' ' ' ' ' ' ' ' ' ' ' ' ' ' ' ' ' ' ' ' ",
"4 4 4 4 4 4 4 4 4 4 4 4 4 4 4 4 4 4 4 4 4 4 4 4 4 4 4 4 4 4 4 4 4 4 4 4 4 4 4 4 4 4 4 4 4 4 4 4 4 4 4 4 4 4 8 8 8 8 8 8 8 8 8 8 5 5 5 5 9 9 5 5 5 5 5 5 9 9 9 9 9 9 9 9 9 9 9 9 9 9 9 9 9 9 9 9 H H H H H H H H H H 9 9 9 9 9 H 9 9 H H H 9 H H H H H H H H H H 9 9 9 9 H 9 9 9 9 H H H H H H H H H H H H H H H H 9 H H H H H H H H H H H H 9 9 9 9 5 5 5 9 9 9 5 5 5 5 5 5 5 5 5 5 5 5 4 4 4 4 4 4 4 4 4 4 4 4 4 4 O O O O O O O O 4 4 4 4 4 4 O O O 4 O O 4 O O O 4 4 4 4 4 4 4 O 4 4 4 4 4 O 4 4 4 4 4 4 O O 4 4 4 4 4 4 4 4 4 4 O O 4 4 O O O O O O O O O O O O O O O O O O O O O + X *.%X,X1XMXMXMXMXmXVXGXAXmXmXBXAXVXmXaXsXmXmXmXAXmXmXmXsXaXaXmXmXmXmXmXsXaXiXyXyXtXwX7X<X%Xa.:.B b b i u u < < * 7 7 q 7 w w w q 7 7 # O O O O O O O O O O O O                                                                                                                                             + O q q 5 q 5 9 9 9 H H H H H H J J J J J J K K K K K K L L K K K K L L L L L L L ) ) ) ) ) ' ' ' ' ` ` ] ] ] ] ] ] ] ] ] ] z.z.z.z.z.z.z.z.z.z.z.z.z.z.z.z.z.z.z.z.z.z.z.z.z.z.z.z.z.z.z.z.] ] ] ] [ ] ] ] ] ] ] ] [ [ ' ' ' ' [ [ ) ) [ ' [ ) [ ) ) ) ) ) [ [ [ [ _ [ [ [ _ _ _ _ ' ' ' ' ' ' ' ' ' ' ' ' ' ' ' ' ' ' ' ' ' ' ' ' ' ' ' ' ' ",
"4 4 4 4 4 4 4 4 4 4 4 4 4 4 4 4 4 4 4 4 4 4 4 4 4 4 4 4 4 4 4 4 4 4 4 4 4 4 4 4 4 4 4 4 4 4 4 4 4 4 4 4 4 4 8 8 4 4 8 8 8 8 8 8 5 5 5 5 9 9 5 5 5 5 5 5 9 9 9 9 9 9 9 9 9 9 9 9 9 9 9 9 9 9 9 9 H H H H H H H H H 9 9 9 9 9 9 9 9 9 9 9 H H H H H H H H H H H H 9 9 9 H H H 9 9 9 H H H H H H H H H H H U U U U H H H H H H H H H H H H H H 9 9 9 9 5 5 5 9 9 9 5 5 5 5 5 5 5 5 5 5 5 5 4 4 4 4 4 4 4 4 4 4 4 4 4 4 O O O O O O O 4 4 4 4 4 4 O O O O 4 O O O O O O 4 4 4 4 4 4 4 O O O 4 4 4 O 4 4 4 4 4 4 O O 4 4 4 4 4 4 4 4 4 4 O O 4 4 O O O O O O O O O O O O O O O O O O + O =.*X*XrXMXAXmXMXaXAXAXAXDXAXAXBXmXmXsXaXyXpXaXmXVXmXmXaXyXyXyXyXyXaXaXaXaXaXaXaXiXyXtXwX>X1X%X7.;.B b i b u < < < # w w q w w w w 7 7 7 6 # O O O O O O O O O O O O                                                                                                                                             O O q q 7 q 5 5 q 5 q H H H H H J J J J J J K K K K K L L L K K K K L L L L L L L ) ) ) ) ) ' ' ' ' ` ` ] ] ] ] ] ] ] ] ] ] z.z.z.z.z.z.z.z.z.z.b.z.z.z.z.z.z.z.z.z.z.z.z.z.z.z.z.z.z.z.z.z.] ] ] ] [ ] ] ] ] ] ] ] [ [ ' ' ' ' [ [ ) ) [ [ [ ) [ [ ) ) ) ) [ [ [ [ _ [ [ [ _ _ _ _ ' ' ' ' ' ' ' ' ' ' ' ' ' ' ' ' ' ' ' ' ' ' ' ' ' ' ' ' ' ",
"4 4 4 4 4 4 4 4 4 4 4 4 4 4 4 4 4 4 4 4 4 4 4 4 4 4 4 4 4 4 4 4 4 4 4 4 4 4 4 4 4 4 4 4 4 4 4 4 4 4 4 4 4 4 8 8 8 8 8 8 8 8 8 8 5 5 9 9 9 9 5 5 5 5 5 5 9 9 9 9 9 9 9 9 9 9 9 9 9 9 9 9 H H H 9 H H H H H H H H H H H 9 9 9 H H 9 9 H H H 9 H H H H H H H H 9 9 H H H H 9 H H H 9 9 H H H H H H H H H H J U U J H H H H H H H H H H H H H H 9 9 9 9 9 9 5 5 5 5 8 8 8 8 4 4 4 4 4 4 4 4 4 4 4 4 4 4 4 4 4 4 4 4 4 4 O O 4 O 4 O O O 4 4 4 4 O O O O O O O O 4 4 O O 4 4 O O 4 4 4 4 O 4 4 4 4 O 4 4 4 4 4 4 4 4 4 4 4 4 4 4 4 4 4 4 O O O O O O O O O O O O O O O   O +     # 1 X M 9.nXMXMXGXGXGXAXVXAXAXAXAXAXAXmXMXyXyXyXpXaXMXmXmXmXmXaXyXwX>XwXyXMXaXaXaXaXaXyXyXtXrX<X1Xd.p.:.B l i u < < > < < w w w p w w q 7 7 7 6 6 6 O O O O O O O O                                                                                                                                                       O O 6 7 q q q q q 9 9 H H J J J J J J J J K K K K K K K K L L L L L L ) ) L L ) ) ' ' ' ' ' ' _ _ ` ` ] ] ] ] ] ] ] ] ] ] z.z.z.z.z.z.z.z.z.z.z.z.z.z.z.z.z.z.z.z.z.z.z.z.z.z.z.z.] ] ] ] ] ] ] ] [ ] ] ] ` ` ` ` ' ' ' ' ' [ [ [ ) ) ' ' [ [ ) ) [ [ [ [ _ _ [ [ ] ] ] ] ] ] ] ] ' ' ` ` ` ` ` ` [ ` ' ' ' ' ' ' ' ' ' ' ' ' ' ' ' ' ' ' ' ",
"4 4 4 4 4 4 4 4 4 4 4 4 4 4 4 4 4 4 4 4 4 4 4 4 4 4 4 4 4 4 4 4 4 4 4 4 4 4 4 4 4 4 4 4 4 4 4 4 4 4 4 4 4 4 8 8 8 8 8 8 8 8 8 8 5 5 9 9 9 9 5 5 5 5 5 5 9 9 9 9 9 9 9 9 9 9 9 9 9 9 9 9 H H H H H H H H H H 9 H H H 9 9 9 9 9 H H H H H 9 9 H H 9 H H H H H 9 9 H H H H 9 H H H 9 9 H H H H H H 9 9 H H H U U H H H H H H H H H H H H H H H 9 9 9 9 9 9 5 5 5 5 8 8 8 8 4 4 4 4 4 4 4 4 4 4 4 4 4 4 4 4 4 4 4 4 4 4 O O 4 4 4 4 O O 4 4 4 4 O O O O O O O O 4 4 O O 4 4 O O 4 4 4 4 4 4 4 4 4 4 4 4 4 4 4 4 4 4 4 O 4 4 4 4 4 4 4 4 O O O O O O O O O O O O O O   7 # > X -.a.rX1XuXMXGXGXCXVXMXBXBXAXAXAXAXAXBXmXpXyX8X>XwXyXaXmXmXMXaXpX7X:Xi.h.>XwXyXyXyXyXyXwXtXtX7X1Xd.a.>.,.B b 2 u u < ; < * y y w q p q w 5 7 7 6 6 + + @ @ O O O O O O                                                                                                                                                     O + O 6 5 q q q q q 5 9 9 9 H J J J J J J J K K K K K K K K L L L L L L L ) L L ) ) ' ' ' ' ' ' _ _ ` ` ] ] ] ] ] ] ] ] ] ] z.z.z.z.z.z.z.z.z.z.z.z.z.z.z.z.z.z.z.z.z.z.z.z.z.z.z.z.] ] ] ] ] ] ] ] [ ] ] ] ` ` ` ` ' ' ' [ [ [ [ [ ' ' ' ' [ ) ) ) [ [ [ [ _ _ [ [ ] ] ] ] ] ] ] ] ' ' ` ` ` ` ` ` [ ` ' ' ' ' ' ' ' ' ' ' ' ' ' ' ' ' ' ' ' ",
"4 4 4 4 4 4 4 4 4 4 4 4 4 4 4 4 4 4 4 4 4 4 4 4 4 4 4 4 4 4 4 4 4 4 4 4 4 4 4 4 4 4 4 4 4 4 4 4 4 4 4 4 8 8 8 8 8 8 8 8 8 8 8 8 5 5 5 9 5 5 5 5 5 5 5 5 9 9 9 9 9 9 9 9 9 9 9 9 9 9 9 9 H H H H 9 9 H H H H 9 9 H H H H 9 9 H H H H H H 9 9 H H 9 9 H H H H 9 9 H H H 9 9 9 H H 9 H H H 9 9 9 9 9 9 H H H J J H 9 H 9 9 H H H H 9 9 9 H H H 9 9 9 9 9 9 9 5 5 5 8 8 8 8 4 4 4 4 4 4 4 4 4 4 4 4 4 4 4 4 4 4 4 4 4 4 O O 4 4 4 4 O 4 4 4 4 O O O O 4 4 O 4 4 4 4 O O O O O O 4 4 4 4 4 4 4 4 4 4 4 4 4 4 O O 4 4 O O O O 4 4 4 4 4 4 4 O O O 4 4 O O O O O O O O X X   n n %X9XVXmXAXGXHXGXVXBXmXBXBXBXBXZXZXBXmXmXyXwX>X7XtXpXMXMXMXMXpXpX>Xg.i.i.>X8XtXtXtXtXtXtXtXwX>Xg.t.w.D S n i 1 < < < # # 7 y w r r p q q q q 6 6 6 @ @ @ # @ O O O O O                                                                                                                                                     O + + + 5 q q q q q q q 9 9 H H J J J J J J K K L K L L K K L L L L L L ) ) L L L ) ' ' ' ' ' ' _ _ ` ` ] ] ] ] ] ] ] ] ] ] z.z.z.z.z.z.z.z.z.z.z.z.z.z.z.z.z.z.z.z.z.z.z.z.z.z.z.z.] ] ] ] ] ] ] ] [ ] ] ] ` ` ` ` ' ' ' ' m.] [ [ ' ) [ ' [ [ [ [ _ _ [ [ _ _ _ _ ] ] ] ] ] ] ] ] ' ' ' ` ] ] ` ` [ [ ] ' ' ' ' ' ' ' ' ' ' ' ' ' ' ' ' ' ' ",
"4 4 4 4 4 4 4 4 4 4 4 4 4 4 4 4 4 4 4 4 4 4 4 4 4 4 4 4 4 4 4 4 4 4 4 4 4 4 4 4 4 4 4 4 4 4 4 4 4 4 4 4 4 8 8 8 8 8 8 8 8 8 8 8 5 5 5 9 5 5 5 5 5 5 5 5 9 9 9 9 9 9 9 9 9 9 9 9 9 9 9 9 H H H H 9 9 H H H 9 9 9 H H H H H H H H H H H H 9 9 H H 9 9 H H H H 9 9 H H H 9 9 9 H H H H H H 9 9 9 9 H 9 H H 9 J J 9 9 9 9 9 9 H H H 9 9 9 9 H H 9 9 9 9 9 9 9 5 5 5 8 8 8 8 4 4 4 4 4 4 4 4 4 4 4 4 4 4 4 4 4 4 4 4 4 4 O O 4 4 4 4 O O 4 4 4 O O O 4 4 4 4 4 4 4 4 O O O O O O 4 4 4 4 4 4 4 4 4 4 4 4 4 4 O O O 4 O O O O O O 4 4 4 4 4 4 O O 4 4 4 O O O O O O   M - N nXnXMXVXHXHXHXHXHXSXBXBXBXBXBXBXBXBXBXBXsXyX>X>X>XwXyXpXpXyXpXpXtXwXg.i.u.i.>XwXwXwXwXwXwXwXwX:Xi.w.D >.Z m b i < < ; # # 7 y w w r r q q q q 7 6 6 6 @ @ O O O O O O O O                                                                                                                                                       + O + 6 q q q q q q q 5 9 9 H H J J J J J K K L L L K K K L L L L L L ) ) L L L ) ' ' ' ' ' ' _ ' ` ` ] ] ] ] ] ] ] ] ] ] z.z.z.z.z.z.z.z.z.z.z.z.z.z.z.z.z.z.z.z.z.z.z.z.z.z.z.z.] ] ] ] ] ] ] [ [ ] ] ] ` ` ` ` ' ' ' ' m.m...' ' ) [ ' ) ' [ _ _ _ _ _ _ _ _ _ ] ] ] ] ] ] ] ] ' ' ' ` ] ] ` ` [ [ ] ' ' ' ' ' ' ' ' ' ' ' ' ' ' ' ' ' ' ",
"4 4 4 4 4 4 4 4 4 4 4 4 4 4 4 4 4 4 4 4 4 4 4 4 4 4 4 4 4 4 4 4 4 4 4 4 4 4 4 4 4 4 4 4 4 4 4 4 4 4 4 4 4 4 4 4 8 8 9 9 8 8 8 8 8 8 8 8 9 9 8 8 8 8 8 8 8 8 8 8 8 8 8 8 8 8 8 8 9 9 9 9 9 9 9 9 9 9 9 9 9 9 9 9 9 9 9 9 H H H H H H H H H H H H 9 9 H H H 9 9 9 H H H H H H H H H H 9 9 H H H H 9 H H H H H H H 9 9 9 9 9 9 9 9 9 9 9 9 9 9 9 9 9 9 9 9 5 5 5 5 8 8 8 8 5 5 4 4 4 4 4 4 4 4 4 4 4 4 4 4 4 4 4 4 4 4 4 4 4 4 4 4 4 4 4 4 O O 4 4 4 4 O O O O O O O O O 4 4 4 4 4 4 4 4 4 4 4 4 4 O O O O O O O 4 4 4 4 4 O O O O O O O O O O O 4 4 4 4 O O     < *.%X1XMXAXAXGXJXFXSXSXSXZXZXBXBXmXmXmXmXmXmXmXpX7Xj.j.8XtXyXpXpXyXyXyXrX>Xi.F i.h.>X8XwXwXwXwX8X>Xj.s.y.>.D Z N n i < - # # # # 7 q p q r q r q 7 6 6 6 @ @ + O + + + O O                                                                                                                                                               O O 5 5 q q q q q q q q 9 9 H H J J J J K K K K K K K K L L L L L L L ) L L L ) ' ' ' ' ' ' ' ' ` ` ] ] ] ] ] ] ] ] ] ] ] ] ] ] z.z.z.z.z.z.z.z.b.b.z.z.z.z.z.z.z.z.z.z.z.] ] ] ] ] ] ] ] ] ] ] [ ` ` ` [ [ [ [ [ [ [ [ ....[ ' _ _ _ _ _ _ [ [ ] ] ] ] ' ' ' ' ] ] ] ] ] ] ] ] ] ] ] ] ] ] ] ] [ [ ] ] ] ` [ [ ' ' ' ' ' ' ' ' ' ' ' ' ' ",
"4 4 4 4 4 4 4 4 4 4 4 4 4 4 4 4 4 4 4 4 4 4 4 4 4 4 4 4 4 4 4 4 4 4 4 4 4 4 4 4 4 4 4 4 4 4 4 4 4 4 4 4 4 4 4 8 8 8 8 8 8 8 8 8 8 8 8 8 9 9 8 8 8 8 8 8 8 8 8 8 8 8 8 8 8 8 8 8 9 9 9 9 9 9 9 9 9 9 9 9 9 9 9 9 9 9 9 9 H H H H H H H 9 H H H H H H H H 9 9 9 9 H H H H H H H H H H H 9 H H H H 9 9 H H H H H H 9 9 H 9 9 9 9 9 9 9 9 9 9 9 9 9 9 9 9 9 5 5 5 5 8 8 8 8 5 5 4 5 4 4 4 4 4 4 4 4 4 4 4 4 4 4 4 4 4 4 O 4 4 4 4 4 4 4 4 4 O 4 4 4 4 4 O O O O 4 O O O 4 4 4 4 4 4 4 4 4 4 4 4 4 4 O O O O O O 4 4 4 4 4 4 O O O O O O O O O O O O O O O O +   # %XnXGXGXGXGXHXJXJXKXFXSXDXZXBXBXBXmXmXmXmXMXMXaX7X:Xj.:XwXtXtXrXwXwXwX<Xj.d.u.0.j.:X>X<X8X7X>X>X:Xj.i.w.7.D S N b z 1 < o # # # 7 q q q q r q q 7 6 6 6 # @ @ + O + + O O O                                                                                                                                                               O O + 6 5 5 q q 7 5 q q q 9 9 H J J H J K K K K K K K K L L L L L L L L L L L ) ' ' ' ' ' ' ' ' ` ` ] ] ] ] ] ] ] ] ] ] ] ] ] ] z.z.z.z.z.z.z.z.b.b.z.z.z.z.z.z.z.z.z.z.] ] ] ] ] ] ] ] ] ] ] ] [ ` ` ` [ [ [ [ [ [ [ [ ..[ ' ' _ _ _ _ _ _ [ _ ] ] ] ] ' ' ' ' ] ] ] ] ] ] ] ` ` ] ] ] ] ] ] ] [ [ ] ] ] ` ' [ ' ' ' ' ' ' ' ' ' ' ' ' ' ",
"4 4 4 4 4 4 4 4 4 4 4 4 4 4 4 4 4 4 4 4 4 4 4 4 4 4 4 4 4 4 4 4 4 4 4 4 4 4 4 4 4 4 4 4 4 4 4 4 4 4 4 4 4 4 8 8 8 8 9 5 8 8 8 8 8 8 8 8 8 8 8 8 8 8 8 8 8 8 8 8 8 8 8 8 8 8 8 8 9 9 9 9 9 9 9 9 9 9 9 9 9 9 9 9 9 9 9 9 9 9 9 9 H H 9 9 9 9 H H H H H H H H 9 H H H 9 9 H 9 9 H H H 9 9 H H H H H H H H H H H H H H H H 9 9 9 9 9 9 9 9 9 9 9 9 9 9 9 9 5 5 5 5 8 8 8 8 5 5 5 5 4 4 4 4 4 4 4 4 4 4 4 4 O 4 4 4 4 4 O O 4 4 4 4 4 4 O 4 O O 4 4 4 4 4 4 4 4 4 4 O O 4 4 4 4 4 4 4 4 4 4 4 4 4 4 4 4 O O O O 4 4 O O 4 4 O O O O O O O O O O O O O O     X X Z MXCXGXGXKXKXKXKXJXFXZXBXZXBXBXBXmXmXmXmXmXMXaXpX:X:X>X7XwXwX7X7X7X7X>Xj.u.u.s.g.>X>X>X>X>X:Xj.g.h.h.y.6.D Z m b i i < # X # # 7 7 y y p q e e e 7 7 6 6 @ @ @ X X + + O O                                                                                                                                                                 O O O + 6 5 q q q q q q q q J H J J H H K K K K K K K K L L L L L L L L L L L ) ' ' ' ' ` ` ' ` ` ` ] ] ] ] ] ] ] ] ] ] ] ] ] ] z.z.z.z.z.z.z.z.z.z.z.z.z.z.z.z.z.z.z.z.] ] ] ] ] ] ] ] [ [ [ ] [ ` [ [ [ [ [ [ ] ] ] ] [ ' ' ' _ _ _ _ [ _ _ _ _ _ [ [ ' ' ] ] ] ] ] ] ] m.m.] ] ] ] ] [ [ [ [ [ [ [ ] ] ' ' ' ' ' ' ' ' ' ' ' ' ' ' ' ' ",
"4 4 4 4 4 4 4 4 4 4 4 4 4 4 4 4 4 4 4 4 4 4 4 4 4 4 4 4 4 4 4 4 4 4 4 4 4 4 4 4 4 4 4 4 4 4 4 4 4 4 4 4 4 4 8 8 4 9 U ( 8 8 8 8 8 8 8 8 8 8 8 8 8 8 8 8 8 8 8 8 8 8 8 8 8 8 8 8 9 9 9 9 9 9 9 9 9 9 9 9 9 9 9 9 9 9 9 9 9 9 9 9 H H 9 9 9 9 H H H H H H H H H H H 9 9 9 9 9 9 9 H H 9 9 9 9 H H H H H H H H H 9 H H H H 9 9 9 9 9 9 9 9 9 9 9 9 9 9 9 9 5 5 5 5 8 8 8 8 5 5 5 5 4 4 4 4 4 4 4 4 4 4 4 4 4 4 4 4 4 4 4 4 4 4 4 4 4 4 O O O O 4 4 4 4 4 4 4 4 4 4 O O 4 4 4 4 4 4 4 4 4 4 O 4 4 4 4 4 4 4 O O O 4 O O 4 4 O O O O O O O O O O O O         > ,XpXGXHXKXGXJXJXJXSXZXhXdXdXBXBXBXmXdXdXmXmXmXsXyXyXwXwXwX7X>X:X:Xj.j.j.y.6.y.u.:X:X>X<X>X:X:Xj.g.d.i.u.w.D S m b i u u > o X # 7 7 7 y y p e e q e 7 @ @ @ @ @ X O O O O O O                                                                                                                                                                   O O O # 6 6 7 q q q q q q q q J J H J J K K K K K K K L L L L L L L L L L L L ' ' ' ' ` ` ` ` ` ` ] ] ] ] ] ] ] ] ] ] ] ] ] ] z.z.z.z.z.z.z.z.z.b.z.z.z.z.z.z.z.z.z.z.] ] ] ] ] ] [ [ [ [ [ ] [ [ [ [ [ [ [ [ ] ] ' ' ' [ ' ' _ _ _ _ _ _ _ _ _ _ _ _ ' ' ] ] ] ] ] ] m.G.G.m.` ` ] ] [ [ [ [ [ [ [ ] ] ' ' ' ' ' ' ' ' ' ' ' ' ' ' ' ' ",
"4 4 4 4 4 4 4 4 4 4 4 4 4 4 4 4 4 4 4 4 4 4 4 4 4 4 4 4 4 4 4 4 4 4 4 4 4 4 4 4 4 4 4 4 4 4 4 4 4 4 4 4 8 8 8 8 4 5 <.<.9 9 9 9 8 8 8 8 8 8 8 8 8 8 8 8 8 8 8 8 8 8 8 8 8 8 8 8 9 9 9 9 9 9 9 9 9 9 9 9 9 9 9 9 9 9 9 9 H H H H H H H 9 9 9 9 H H H H H H H H H H 9 9 9 H H H H H H H H H H H H H H H H H H 9 9 H H H H H H 9 9 9 9 9 9 9 9 9 9 9 9 9 9 9 9 9 9 8 8 8 8 8 8 8 8 5 5 5 5 4 4 4 4 4 O 4 4 4 4 4 4 4 4 4 4 4 4 4 4 4 O O O 4 4 4 4 4 4 4 4 4 4 4 4 O O 4 O O O 4 O O O 4 4 4 4 4 4 4 4 O O O O 4 4 O O 4 4 O O O O O O O O O O O O   . X > D nXGXGXKXHXJXKXFXDXBXiXsXsXsXsXsXsXsXsXsXsXsXsXpXtXtXwXwXwX>Xj.d.d.i.i.s.y.u.d.;X;X:X:X>X:X:Xj.g.d.u.y.r.6.D B z i u u < # X + 6 5 q p p p p q q 7 7 6 @ @ @ @ @ @ O O O O O                                                                                                                                                                         O + + # # 7 7 q q q q q q J J J J J K K K K K K K K K K K L L L L L L L L ) ) ) ) ' ' ' ` ` ` ] ] ] ] [ ] [ [ ] ] ] ] ] ] z.z.z.z.z.z.z.] z.b.b.z.z.z.z.] z.z.z.] ] ] ] [ [ [ [ [ ] ] ] ` ' ' ' ' ' ' ' [ ' ' ' ' ' ' ' ' [ [ [ _ _ _ _ _ _ _ _ _ ] ] ] ] ] ] ] ] b.m.m.b.] ] ] ] ] ] ] ] ] ] [ ] ] ` [ [ ' ' ' ' ' ' ' ' ' ' ' ' ' ",
"4 4 4 4 4 4 4 4 4 4 4 4 4 4 4 4 4 4 4 4 4 4 4 4 4 4 4 4 4 4 4 4 4 4 4 4 4 4 4 4 4 4 4 4 4 4 4 4 4 4 4 4 8 8 8 8 8 5 / / 9 9 9 9 8 8 8 8 8 8 8 8 8 8 8 8 8 8 8 8 8 8 8 8 8 8 8 8 9 9 9 9 9 9 9 9 9 9 9 9 9 9 9 9 9 9 9 9 H H H H H H 9 9 9 9 9 H H H H H H H H H H H 9 9 H H H H H H H H H H H H 9 9 H H H H 9 9 H H 9 9 H H 9 H 9 9 9 9 9 9 9 9 9 9 9 9 9 9 9 9 8 8 8 8 8 8 8 8 5 5 5 5 4 4 4 4 4 4 4 4 O O 4 4 4 4 4 4 4 4 4 4 4 O O O O O 4 4 4 4 4 4 4 4 O O O O 4 4 O O 4 O O O 4 4 4 4 4 4 4 4 O O O O 4 4 O O 4 4 O O O O 4 4 O O O O O O X X > rXmXPXPXKXJXJXHXSXZXdXdXiXiXpXiXaXaXfXfXaXaXaXaXaXyXtXwXwX7X7X:Xh.u.u.y.u.s.s.d.;X:X:X:X:X;X;Xg.d.s.y.6.F 6.D B n 2 u u y # + # # 5 5 q p p p p q 7 6 7 @ O O O O O O O O O O O                                                                                                                                                                             + + + # # 7 7 q q q q r U q J J K K K K K K K K K K K L L L L L L L L ) ) ) ) ' ' ' ' ` ` ] ` ] ] [ [ ] [ ] ] ] ] ] ] z.z.z.z.z.z.z.] G.G.n.z.] ] ] ] ] ] ] ] [ [ _ _ [ [ [ [ [ ] ] ` ' ' ' ' ' ' ' ' ' ' ' ' ' ' ' ' [ [ [ _ _ _ _ _ _ _ ] ] ] ] ] ] ] ] ] ] b.m.m.b.] ] ] ] ] ] ] ] ] ] [ ] ] ` [ [ ' ' ' ' ' ' ' ' ' ' ' ' ' ",
"4 4 4 4 4 4 4 4 4 4 4 4 4 4 4 4 4 4 4 4 4 4 4 4 4 4 4 4 4 4 4 4 4 4 4 4 4 4 4 4 4 4 4 4 4 4 4 4 4 4 4 4 8 8 8 8 8 5 J J 8 8 8 9 8 8 8 8 8 8 8 8 8 8 8 8 8 8 8 8 8 8 8 8 8 8 8 8 9 9 9 9 9 9 9 9 9 9 9 9 9 9 9 9 9 9 9 9 H H H H H H 9 9 9 9 9 H H H H H H H H H H H H H H H H H H H H H H H H H 9 9 9 H H H H 9 H 9 9 9 H H H H 9 9 9 9 9 9 9 9 9 9 9 9 9 9 9 9 8 8 8 8 8 8 8 8 5 5 5 5 4 4 4 4 4 4 4 4 O 4 4 4 4 4 4 O 4 4 4 4 4 4 O O O O O O 4 4 4 4 O O O O O O 4 4 O O 4 4 4 4 4 4 4 4 4 4 4 4 4 O 4 4 4 4 O 4 4 4 O O O O O O O O O O O O o o v MXGXKXKXKXKXJXSXZXmXsXsXiXiXiXiXyXyXyXyXyXyXyXyXyXtXrXwXrX7X>Xg.y.6.0.0.u.i.g.;X:X:X:X;X;Xg.d.s.y.w.6.F F D B n z 1 u y # X # 7 6 6 5 q r p p q q 5 q 6 @ O O O O O O O O O O O                                                                                                                                                                                 X + + # # 6 q q q q r q J J K K K K K K K L L L L L ) L L L L L L ) ) ) ) ' ' ' ' ` ` ` ` ] ] ] ` ` ] ] ] ] ] ] ] ] ] ] z.] ] ] ] m.n.m.] ] ] ] ] ` ` ' ] _ _ _ _ [ [ [ [ ' ' ' ' ' ' ' ' ' ' ' ' ' ' ' ' ' ' ' ' [ [ [ _ _ _ [ [ ] ] ] ] ] ] ] ] ] ] ] ] ] m.m.] ] ] ] ] ] ] ] ] ] ] [ ] ` ` ' [ ' ' ' ' ' ' ' ' ' ' ' ' ' ",
"4 4 4 4 4 4 4 4 4 4 4 4 4 4 4 4 4 4 4 4 4 4 4 4 4 4 4 4 4 4 4 4 4 4 4 4 4 4 4 4 4 4 4 4 4 4 4 4 4 4 4 4 8 8 8 8 8 8 4 4 8 8 8 9 8 8 8 8 8 8 8 8 8 8 8 8 8 8 8 8 8 8 8 8 8 8 8 8 9 9 9 9 9 9 9 9 H 9 9 9 9 9 9 9 9 9 9 9 H H H H H H H 9 9 9 9 H H H H H H H H H H H H H H H H H H H H H H H H H H 9 9 H H H 9 9 H 9 9 9 H H H H 9 9 9 9 9 9 9 9 9 9 9 9 9 9 9 9 8 8 8 8 8 8 8 8 5 5 5 5 4 4 4 4 4 4 4 4 O 4 4 4 4 4 4 O 4 4 4 4 4 O O O O O O O O 4 4 4 O O O O O O 4 4 4 O 4 4 4 4 4 4 4 4 4 4 4 4 O O 4 4 4 4 O O 4 4 O O O O O O O O O O O   2 ,XMXKXPXKXJXKXJXBXsXsXmXsXsXyXtXtXtXyXwXwXwXwXwXwXwXwXtXwXwXwX8X:Xd.6.6.6.y.u.d.;X;X;X;X;Xg.g.s.u.w.6.D D F A B n z i u ; # X # 7 6 6 5 q q r p p q q 5 6 @ @ O O O O O O O O O O O                                                                                                                                                                                       + + # # 6 5 q r r J J K K K K K K K L L L L L ) L L L L L L ) ) ) ) ' ' ' ' ` ` ` ` ] ] ] ] ] ] ] ] ] ] ] ] ] ] ] ] ] ] ] ] ' ] ] ' ' ' ' ] ] ] _ _ ) _ _ _ [ [ [ [ [ ' ' ' ' ' ' ' ' ' ' ' ' ' ' ' ' ' ' ' [ [ [ _ _ _ [ ] ] ` ` ` ] ] ] ] ] ] ] ] ] b.b.] ] ] ] ] ] ] ] ] ] ] [ ] ` ` ' [ ' ' ' ' ' ' ' ' ' ' ' ' ' ",
"4 4 4 4 4 4 4 4 4 4 4 4 4 4 4 4 4 4 4 4 4 4 4 4 4 4 4 4 4 4 4 4 4 4 4 4 4 4 4 4 4 4 4 4 4 4 4 4 8 8 8 8 4 4 8 8 8 8 8 8 8 8 8 8 8 8 8 8 8 8 8 8 8 8 8 8 8 8 8 8 9 9 9 9 9 9 9 9 8 8 8 8 P P 8 8 9 9 9 9 H H H H H H H H 9 9 9 9 9 9 9 9 9 9 9 H H H H H H H H H H H H H H H H H H H H H H H H H H H H H H H H H H H H H H H H H H H H H 9 9 9 9 9 9 9 9 9 9 9 9 9 9 9 9 5 5 5 8 5 4 4 4 4 4 4 4 4 4 4 4 4 4 4 4 4 4 4 4 O O O 4 4 4 4 4 4 4 4 4 4 4 4 4 4 4 4 4 4 4 4 4 4 4 4 4 4 4 O O 4 O O 4 4 4 4 4 4 4 4 4 4 4 4 4 4 4 O O O O O O   . + < e.MXHXKXKXKXJXJXSXdXsXdXdXsXfXiXyXtXtXtXwXwX7X8X7XwX7X7X7X7X7X7X<X;Xu.F 6.6.y.d.g.j.;X;X:X;Xd.u.r.w.w.7.D D Z B n z 2 1 < # + # 6 7 5 5 7 q p p p p q q 5 5 6 4 O O O O O O O O O O                                                                                                                                                                                         + + + + + # p p p U U K K K K K K K K K K K L L L L L L L L ) ) ) ) _ _ _ _ ` ` ` ` ` ` ` ` ] ] ] ] ] ] ] ] ] ] ] ] ] ] ] ] ] ] ] ] ' ' ' ' ' ' ' ' ' ' ' ' ' ' ' ' ' ' ' ' ' ' ' ' ' ' ' ' ' ' ' ' ' ' ' ' ` ` ` ` ` ` ` ` ] ] ] ] ] ] ] ] ] ] ] ] ] ] ] ] ] ] ] ] ] ] ] ] ] ] ] ] ] ] [ [ ' ' ' ' ' ' ' ' ' ' ' ' ' ",
"4 4 4 4 4 4 4 4 4 4 4 4 4 4 4 4 4 4 4 4 4 4 4 4 4 4 4 4 4 4 4 4 4 4 4 4 4 4 4 4 4 4 4 4 4 4 4 4 8 8 8 8 4 4 8 8 8 8 8 8 8 8 8 8 8 8 8 8 8 8 8 8 8 8 8 8 8 8 8 8 9 9 9 9 9 9 9 9 8 8 8 8 P P 8 P 9 9 9 9 H H H H H H H H 9 9 9 9 9 9 9 9 9 9 9 H H H H H H H H H H H H H H H H H H H H H H H H H H H H H H H H H H H H H H H H H H H H H 9 9 9 9 9 9 9 9 9 9 9 9 9 9 9 9 5 5 5 8 5 4 4 4 4 4 4 4 4 4 4 4 4 4 4 4 4 4 4 4 O O O 4 4 4 4 4 4 4 4 4 4 4 4 4 4 4 4 4 4 4 4 4 4 4 4 4 4 4 O O O O O O 4 4 4 4 O 4 4 4 4 4 4 4 4 4 O O O O O   X   i 4XMXPXPXPXKXKXLXZXdXfXfXsXfXfXiXyXeXtXwXwXwX7X7X>X>X>X>X>X>X>X>X>X>Xd.y.F F 7.t.d.g.g.g.g.;Xd.s.t.w.7.>.D D Z B n z i 1 - # X # 6 5 7 5 7 q p p p q q q 7 5 6 4 4 O O O O O O O O O O                                                                                                                                                                                         + + + + + 6 q p p W U J J J K K K K K K K K L L L L L L L L ) ) ) ) _ _ _ _ ` ` ` ` ` ` ` ` ] ] ] ] ] ] ] ] ] ] ] ] ] ] ] ] ] ` ` ` ' ' ' ' ' ' ' ' ' ' ' ' ' ' ' ' ' ' ' ' ' ' ' ' ' ' ' ' ' ' ' ' ' ' ' ' ` ` ` ` ` ` ` ` ] ] ] ] ] ] ] ] ] ] ] ] ] ] ] ] z.z.] z.] ] ] ] ] ] ] ] ] ] [ [ ' ' ' ' ' ' ' ' ' ' ' ' ' ",
"4 4 4 4 4 4 4 4 4 4 4 4 4 4 4 4 4 4 4 4 4 4 4 4 4 4 4 4 4 4 4 4 4 4 4 4 4 4 4 4 4 4 4 4 4 4 4 4 4 4 8 8 8 8 8 8 8 8 8 8 4 4 8 8 8 8 8 8 8 8 8 8 8 8 8 8 8 8 8 8 9 9 9 9 9 9 9 9 8 8 8 8 P P P P 9 9 9 9 H H H H H H H H 9 9 9 9 9 9 9 9 9 9 9 H H H H H H H H H H H H H H H H H H H H H H H H H H H H H H H H H H H H H H H H H H H H H H H H H 9 9 9 9 9 9 9 9 9 9 9 9 5 5 5 8 5 4 4 4 4 4 4 4 4 4 4 4 4 4 4 4 4 4 4 4 O O 4 4 4 4 4 4 4 4 4 4 4 4 4 4 4 O 4 4 4 4 4 4 4 4 4 4 4 4 O O O O O O 4 4 4 4 O O 4 4 4 4 4 4 4 4 O O O O O     . 2.MXKXKXHXSXJXJXDXdXsXiXiXiXiXyXyXtXwXwXwXwXwX7X>X:X:X:X:X:X:X:X:X:X;Xr.6.A F 7.t.d.d.g.g.d.d.s.u.r.w.>.D S Z Z n z i 1 1 # + # 7 7 7 7 7 r p p p q q q 7 6 6 6 4 O O O O O O O O O O O                                                                               .         . . .                 . .                                                                       + + + + + # 5 r W W U J J J J J J K K K K K K L L L L L L L ) ) ) ) ) ) _ _ ` ` ` ` ` ` ` ` ` ` ` ` ` ` ` ` ` ` ` ` ] ] ` ` ` ` ` ' ' ' ' ' ' ' ' ' ' ' ' ' ' ' ' ' ' ' ' ' ' ' ' ' ' ' ' ' ' ' ' ' ' ' ' ' ` ` ` ` ` ` ` ` ] ] ] ] ] ] ] ] ] ] z.z.] ] z.z.z.z.z.z.] ] ] ] ] ] ] ] ] ] [ [ ' ' ' ' ' ' ' ' ' ' ' ' ' ",
"4 4 4 4 4 4 4 4 4 4 4 4 4 4 4 4 4 4 4 4 4 4 4 4 4 4 4 4 4 4 4 4 4 4 4 4 4 4 4 4 4 4 4 4 4 4 4 4 4 4 8 8 8 8 8 8 4 4 8 8 8 8 8 8 8 8 8 8 8 8 8 8 8 8 8 8 8 8 8 8 9 9 9 9 9 9 9 9 8 8 8 8 P P P P 9 9 9 9 9 9 9 9 H H H H 9 9 9 9 9 9 9 9 9 9 9 H H H H H H H H H H H H H H H H H H H H H H H H H H H H H H H H H H H H H H H H H H H H H H H H H 9 9 9 9 9 9 9 9 9 9 9 9 5 5 5 8 8 4 4 4 4 4 4 4 4 4 4 4 4 4 4 4 4 4 4 O O O 4 4 4 4 4 4 4 4 4 4 O 4 4 O 4 O O 4 4 4 4 4 4 4 4 4 4 4 O O O O O O O O 4 4 4 4 4 4 4 4 4 4 4 4 4 O O O   . X ,XnXAXGXHXHXHXSXSXZXdXsXiXyXiXyXyXtXtXwXwXwXwX7X7X>X:Xg.g.g.j.;X;X;X;Xs.D A A A w.a.s.d.d.d.s.u.t.r.y.7.>.Z Z Z n z i 1 < # + # 7 7 5 7 q q p p p q q q q 6 @ 6 4 4 O O O O O O O O O O O                                                                           . . .       . . . . . . . . . . . . . .                                                                       + + + + + + 5 q p W W U q J J J J J J J J J K K K L L L L L ) ) ) ) ) ) _ _ ` ` ` ` ` ` ` ` ` ` ` ` ` ` ` ` ` ` ` ` ` ` ` ` ` ' ' ' ' ' ' ' ' ' ' ' ' ' ' ' ' ' ' ' ' ' ' ' ' ' ' ' ' ' ' ' ' ' ' ' ' ' ' ` ` ` ` ` ` ` ` ` ] ] ] ] ] ] ] ] ] ] z.z.] ] z.z.z.z.z.z.] ] ] ] ] ] ] ] ] ] [ [ ' ' ' ' ' ' ' ' ' ' ' ' ' ",
"4 4 4 4 4 4 4 4 4 4 4 4 4 4 4 4 4 4 4 4 4 4 4 4 4 4 4 4 4 4 4 4 4 4 4 4 4 4 4 4 4 4 4 4 4 4 4 4 4 8 8 8 8 8 8 8 4 8 8 8 8 8 8 8 8 8 8 8 8 8 8 8 8 8 8 8 8 8 8 8 9 9 9 9 9 9 9 9 8 8 8 8 P P P 8 9 9 9 9 9 9 9 9 9 9 9 9 9 9 9 9 9 9 9 9 9 9 9 H H H H P H H H H H H H H H H H H H H H H H H H H H H H H H H H H H H H H H H H H H H H H H H H H 9 9 9 9 9 9 9 9 9 9 9 9 9 9 9 9 8 8 8 8 4 4 4 4 4 4 4 4 4 4 4 4 O O O O 4 4 4 4 4 4 4 4 4 4 4 4 4 4 4 4 4 4 4 4 4 4 4 4 4 4 4 4 4 4 4 4 4 4 4 4 4 4 4 4 4 4 4 4 4 4 4 O 4 4   O   + i p.,XuXGXGXAXSXFXSXSXDXjXsXfXyXeXtXwXwXtXtXtXtX7X7X>X:Xj.g.d.d.g.g.;X;X;X=Xt.A m A A 7.t.a.s.s.s.t.r.w.y.w.>.D Z B N b z i y ; + # 7 7 7 q r r p p p p q 5 6 6 6 7 + + O @ O O O @ O O O O                                                                   . . .     . . . . . . . . . . . . . . . . . . . . . . .   . . . .                                                           O + + + O 5 5 q p p W ( ( / U 9 J J U U J J J H K L L L L ' ' ' ' ) ) ' ' ' ' ' ' ' ' ' ` ' ' ' ' ' ' ` ` ` ` ` ` ' ' ' ' ' ' ' ' ) ) ) ) L L L L ' ' ' I ' ' ' ' ' ' ' ' ' ' ' ' ' ' ' ' ' ' ' ' ` ` ` ` ] ] ] ] [ [ ` ] ] ] ] ] ] ] ] ] z.z.z.z.z.z.z.z.b.b.] ] z.z.] z.] ] ] ] ] ] [ [ ' ' ' ' ' ' ' ' ' ' ' ' ' ",
"4 4 4 4 4 4 4 4 4 4 4 4 4 4 4 4 4 4 4 4 4 4 4 4 4 4 4 4 4 4 4 4 4 4 4 4 4 4 4 4 4 4 4 4 4 4 4 4 8 8 8 8 8 8 8 8 4 4 8 8 8 4 8 8 8 8 8 8 8 8 8 8 8 8 8 8 8 8 8 8 9 9 9 9 9 9 9 9 8 8 8 8 P P P 8 9 9 9 9 8 8 8 8 9 9 9 9 9 9 9 9 9 9 9 9 9 9 9 H H H H P H H H H H H H H H H H H H H H H H H H H H H H H H H H H H H H H H H H H H H H H H H H H 9 9 9 9 9 9 9 9 9 9 9 9 9 9 9 9 8 8 8 8 4 4 4 4 4 4 4 4 4 4 4 4 O O O O 4 4 4 4 4 4 O O 4 4 4 4 4 4 4 4 4 4 4 4 4 4 4 4 4 5 4 O 4 4 4 4 4 4 4 O 4 4 4 4 4 4 4 4 4 4 O O 5 4 5 O + $XuXGXmXAXAXAXZXSXSXDXDXZXhXfXiXtXwXtXwXwXwXwXwX7X>X:X;Xg.d.i.s.s.d.g.=X=Xg.s.w.A v v m >.e.t.a.a.a.r.w.w.w.7.>.D Z B N z z u ; # # 7 7 q q r r p p p p q 5 6 # # # # + + + X O O @ @ O O O O                                                                 . . . . . . . . . . . . . . $ $ . $ $ $ $ $ $ $ . . . . . . . . . .                                                           O + + + + + 5 5 5 5 q ! X.E.^.X.J ( U J J J U U J K L L L ' ' ' ' ) ) ' ' ' ' ' ' ' ' ' ' ' ' ' ' ` ` ` ` ` ` ` ` ' ' ' ' ' ' ' ' ) ) ) ) L L L L ' ' I I ' ' ' ' ' ' ' ' ' ' ' ' ' ' ' ' ' ' ' ' ` ` ` ` ] ] ] ] [ [ ] ] ] ] ] ] ] ] ] ] z.z.z.z.z.z.z.z.b.b.b.] z.z.] ] ] ] ] ] ] ] [ [ ' ' ' ' ' ' ' ' ' ' ' ' ' ",
"4 4 4 4 4 4 4 4 4 4 4 4 4 4 4 4 4 4 4 4 4 4 4 4 4 4 4 4 4 4 4 4 4 4 4 4 4 4 4 4 4 4 4 4 4 4 4 4 8 8 8 8 4 4 8 8 8 8 8 8 4 4 8 8 8 8 8 8 8 8 8 8 8 8 8 8 8 8 8 8 9 9 9 9 9 9 9 9 8 8 8 8 8 8 8 8 9 9 9 9 8 8 8 8 9 9 9 9 9 9 9 9 9 9 9 9 9 9 9 H H H H H H H H H H H H H H H H H H H H H H H H H H H H H H H H H H H H H H H H H H H H H H H 9 9 9 9 9 9 9 9 9 9 9 9 9 9 9 9 9 9 8 8 8 8 4 4 4 4 4 4 4 4 4 4 4 4 4 4 O O O 4 O O 4 4 4 4 4 4 4 4 4 4 4 4 4 4 4 4 4 4 O O 4 5 5 4 4 4 4 4 4 4 4 O 4 4 4 4 4 4 4 4 4 4 O 4 4 5 4 + u nXMXAXAXAXDXDXDXSXDXZXZXjXsXfXiXtXwXwXwXwX7X<X<X>X:X;Xg.d.s.s.s.s.d.g.=Xg.s.r.7.S m v v S 7.e.r.r.r.w.w.w.w.>.D S B N b z 1 1 # # 7 q 7 q r Y W W p r q 7 6 @ + + + X + O O O O @ @ @ O O O O                                                                     . . . . . . . . $ $ $ $ = % % % % % = = = = $ $ . . . . . . .                                                           X X + + + + + + + 7 + 5 a ! 1.E.E.1.E.X.J q J J J J I ' ' ' ' ' ' ' ) ) ' ' ` ` ' ' ' ' ' ' ' ' ' ' ` ` ` ` ` ` ' _ ' ' ' ' ' ' ' ' L L ) ) L ) L L ' ' ' ' ' ' ' ' ' ' ' ' ' ' ' ' ' ' ' ' ' ' ` ` ` ` ` ` ] ] ] ] ] ] ] ] z.z.] ] ] ] ] ] z.z.z.z.z.z.b.z.b.b.b.z.] ] ] ] ] ] ] ] ] ] [ [ ' ' ' ' ' ' ' ' ' ' ' ' ' ",
"4 4 4 4 4 4 4 4 4 4 4 4 4 4 4 4 4 4 4 4 4 4 4 4 4 4 4 4 4 4 4 4 4 4 4 4 4 4 4 4 4 4 4 4 4 4 4 4 8 8 8 8 4 4 4 8 8 8 8 8 4 4 8 8 8 8 8 8 8 8 8 8 8 8 8 8 8 8 8 8 9 9 9 9 9 9 9 9 8 8 8 8 8 8 8 8 9 9 9 9 8 8 8 8 9 9 9 9 9 9 9 9 9 9 9 9 9 9 9 H H H H H H H H H H H H H H H H H H H H H H H H H H H H H H H H H H H H H H H H H H H H H H H 9 9 9 9 9 9 9 9 9 9 9 9 9 9 9 9 9 9 8 8 8 8 4 4 4 4 4 4 4 4 4 4 4 4 4 4 4 O O O O O 4 4 4 4 4 4 4 4 4 4 4 4 4 4 4 4 4 4 O O O <.<.W 4 4 4 4 4 4 4 O 4 4 4 4 4 4 4 4 4 O O O 4 O O -XrXMXmXHXHXDXZXDXDXDXZXjXjXhXfXiXyXwXwXwXwXwX<X>X:X;Xg.g.d.d.s.s.s.s.d.g.;Xg.d.r.r.>.A v c S >.7.e.e.w.7.w.w.7.S D Z N b z u 1 - # 7 q q q q r r W W r r 5 6 @ + + X + + O O O O O @ @ @ O O O O                                                                 . . . . . . . $ $ $ % % % % % % & & & & & & & & & & % . . . . . . . .                                                       X X + + + + + O + 6 7 w p p Q 1.+X+X*XE.E.+X^.J 4 ..I I I I I ' ' ' ) ) ' ' ` ` ' ' ' ' ' ' ' ' ' ' ' ' ' ' ' ' ' ' ' ' ' ' ' ' ' ' ) ) ) ) ) ) L L ' ' ' I ' ' ' ' ' ' ' ' ' ' ' ' ' ' ' ' ' ` ` ` ` ` ` ` ] ] ] ] ] ] ] ] z.z.] ] ] ] ] z.z.z.z.z.z.z.b.z.] b.b.b.] ] ] ] ] ] ] ] ] ] [ [ ' ' ' ' ' ' ' ' ' ' ' ' ' ",
"4 4 4 4 4 4 4 4 4 4 4 4 4 4 4 4 4 4 4 4 4 4 4 4 4 4 4 4 4 4 4 4 4 4 4 4 4 4 4 4 4 4 4 4 4 4 4 4 8 4 8 8 8 8 8 4 8 8 8 8 4 4 8 8 8 8 8 8 8 8 8 8 8 8 8 8 8 8 8 8 8 8 8 8 8 8 8 8 9 9 9 9 9 9 9 9 9 9 9 9 9 9 9 9 9 9 9 9 9 9 9 9 H H H H 9 9 9 H H H H H H H H H H H H H H H H H H H H H H H H H H H H H H H H H H H H H H H H H H H H H H H H H H H H H 9 9 9 9 9 9 9 9 9 9 9 9 5 5 5 8 8 8 8 8 4 4 4 4 4 4 4 4 4 4 4 4 4 4 4 4 4 4 4 4 4 4 4 4 4 4 4 4 4 4 4 4 4 4 4 4 5 <.1./ 5 4 4 O 4 4 4 4 O O 4 4 4 O O O 4 O O + + w w NXCXpXaXKXJXFXDXZXZXDXZXhXhXdXfXeXwXwXwXwXwX<X:X:X;X;X;X;Xd.d.d.s.s.d.d.=X=X=Xd.t.e.>.S m v Z D 7.7.7.7.7.7.7.>.Z Z B n i i 1 ; # # 7 q q r r p p p r r 7 6 O @ O O O O O O O O O + + + + O O O O                                                             . . . . . . . $ % % & & & & & & & & & & f f f 3 3 , & & & % % % % % $ . . . .                                                           X X X + # # 7 7 y p a ! 1.E.*X&X&X3X2X( W 5 ~ U J K I I ' ' ) ) _ _ ' ' ' ' ) ) ) ) ) ) ) ) ' ' ' ' ' ' ' ' ' ' ' ' ' ' ' I L L L L L L L L ' ' ' ' ' ' ' ' ' ' ' ' ' ' ' ' ` ` ` ' ` ` ] ` ] ] ] ] ] ] ] ] ] ] ] ] ] z.z.z.z.z.b.b.z.z.z.z.z.z.z.z.b.b.] ] b.b.z.z.] ] ] ] ] [ [ [ ' ' ' ' ' ' ' ' ' ' ' ' ' ",
"4 4 4 4 4 4 4 4 4 4 4 4 4 4 4 4 4 4 4 4 4 4 4 4 4 4 4 4 4 4 4 4 4 4 4 4 4 4 4 4 4 4 4 4 4 4 4 4 4 4 8 8 8 8 4 4 8 8 8 8 4 4 8 8 8 8 8 8 8 8 8 8 8 8 8 8 8 8 8 8 8 8 8 8 8 8 8 8 9 9 9 9 9 9 9 9 9 9 9 9 9 9 9 9 9 9 9 9 8 8 9 9 9 9 H H 9 9 9 9 H H H H H H H H H H H H H H H H H H H H H H H H H H H H H H H H H H H H H H H H H H H H H H H H H H H H 9 H 9 9 9 9 9 9 9 9 9 9 5 5 5 8 8 8 8 8 4 4 4 4 4 4 4 4 4 4 4 4 4 4 4 4 4 4 4 4 4 4 4 4 4 4 4 4 4 4 4 4 4 4 4 4 O W / q 5 4 4 O 4 4 4 4 4 O 4 4 4 4 O O O O     * p.nXCXmXSXJXJXJXJXSXDXZXZXZXhXhXsXfXeXwX7X7X7X<X:X;X;X;X;X;X;Xg.d.d.s.d.d.g.=X=Xd.a.r.8.:.A v v B D >.7.>.>.>.>.>.>.A B n z i 1 1 ; # 7 q q q r p p p r r 7 6 O O O O O O O O O + O O + + + + O O O O                                                           . . . . . . . $ % % % , , , , , , , , f f h h h f f f 3 , , , , & % % $ $ . . .                                                               X + # # 7 7 y p a a ! 1.<.<.1.*X3X3X4X&X<./ U U I I ' ' ) ) _ _ ' ' ' ' ) ) ) ) ) ) ) ) ' ' ' ' I I I I I I I I I ' I I L L L L L L L L ' ' ' ' ' ' ' ' ' ' ' ' ' ' ' ' ` ` ` ` ` ` ] ` ] ] ] ] ] ] ] ] ] ] ] ] z.z.z.z.z.z.b.b.z.z.z.z.z.z.b.b.b.b.] ] b.b.z.z.] ] ] ] ] [ [ [ ' ' ' ' ' ' ' ' ' ' ' ' ' ",
"4 4 4 4 4 4 4 4 4 4 4 4 4 4 4 4 4 4 4 4 4 4 4 4 4 4 4 4 4 4 4 4 4 4 4 4 4 4 4 4 4 4 4 4 4 4 4 4 4 8 8 8 8 8 4 4 8 8 8 8 8 8 8 8 8 8 8 8 8 8 8 8 8 8 8 8 8 8 8 8 8 8 8 8 8 8 8 8 9 9 9 9 9 9 9 9 9 9 9 9 9 9 9 9 9 9 9 9 8 8 9 9 9 9 H H 9 9 9 9 H H H H H H 9 9 H H H H H H H H H H H H H H H H H H H H H H H H H H H H H H H H H H H H H H H H H H H H H H H H 9 9 9 9 9 9 9 9 5 5 5 5 8 8 8 8 4 4 4 4 4 4 4 4 4 4 4 4 4 4 4 4 4 4 4 4 4 4 4 4 4 4 4 4 4 4 4 4 4 4 4 4 4 q U 5 5 5 4 4 4 4 4 4 4 4 4 4 4 4 4 O O     o n 4XMXGXAXHXKXKXJXJXFXDXZXZXZXBXdXfXiXwX7X<X:X:X;Xg.g.g.;X;X;X;X=Xd.d.d.s.s.d.g.d.s.r.7.8.D B c l n A :.>.>.>.>.>.>.D B B b i 1 - - # # q q q p p p p p r q 6 6 O O O O O O O O O O O O + + + + O O O O                                                         . . . $ $ $ $ % % % & , , , f f f f f f f h h f g f f f f , , , , , , & % $ . . . . .                                                           + + # # # 7 y p p a a ! ! =.<.$X&X4XcX3X2X&X<.W U U I ' ) ) ) ) ' ' ' ' ) ) ) ) L L L L ' ' ' ' I I I I I I I I I I I I L L L L L L L L ' ' ' ' ' ' ' ' ' ' ' ' ' ' ' ' ' ` ' ` ` ] ] ` ] ] ] ] ] ] ] ] ] ] ] ] z.z.z.z.b.b.b.b.z.z.z.z.b.b.b.b.b.b.] ] b.b.z.z.] ] z.] ] [ [ [ ' ' ' ' ' ' ' ' ' ' ' ' ' ",
"4 4 4 4 4 4 4 4 4 4 4 4 4 4 4 4 4 4 4 4 4 4 4 4 4 4 4 4 4 4 4 4 4 4 4 4 4 4 4 4 4 4 4 4 4 4 4 4 8 8 8 8 8 8 8 8 8 8 8 8 8 8 8 8 8 8 8 8 8 8 8 8 8 8 8 8 8 8 8 8 8 8 8 8 8 8 8 8 9 9 9 9 9 9 9 9 9 9 9 9 9 9 9 9 9 9 9 9 8 8 9 9 9 9 H H 9 9 9 9 H H H H H H H 9 H H H H H H H H H H H H H H H H H H H H H H H H H H H H H H H H H H H H H H H H H H H H H H H H 9 9 9 9 9 9 9 9 5 5 5 5 8 8 8 8 4 4 4 4 4 4 4 4 4 4 4 4 4 4 4 4 4 4 4 4 4 4 4 4 4 4 4 4 4 4 4 4 4 4 4 4 O 4 4 4 5 5 4 4 4 4 4 4 4 4 4 4 4 4 4 O +   # ,.uXGXGXHXSXHXJXFXFXSXSXDXDXZXZXBXdXiXiXwX7X>X:X;Xg.i.i.d.=X;X;X;X=Xg.d.d.s.a.a.s.s.a.r.7.>.D B c l b n Z :.:.:.:.:.:.D m N z i > # # # 7 q r p p p p p p q 6 6 O O O X X O O O O + O O O + + + + O O O O                                                         . . $ % % $ % % % & , , g f g f f f g g g h h g g f f , , , , , , , , , & % $ . . . . .                                                         + + # # # 7 y y p p a a ! =.! <.1.2.$X3XcXcXcX~...U I I L ) ) ) ' ' ' ' ) ) ) ) L L L L ' ' ' ' I I I I I I I I I I I I L L L L L L L L ' ' ' ' ' ' ' ' ' ' ' ' ' ' ' ' ' ` ` ` ` ` ] ] ] ] ] ] ] ] ] ] ] ] ] ] z.z.z.z.b.b.b.b.z.z.z.z.b.b.b.b.b.b.] ] b.b.z.z.] ] z.] ] [ [ [ ' ' ' ' ' ' ' ' ' ' ' ' ' ",
"4 4 4 4 4 4 4 4 4 4 4 4 4 4 4 4 4 4 4 4 4 4 4 4 4 4 4 4 4 4 4 4 4 4 4 4 4 4 4 4 4 4 4 4 4 4 4 4 8 8 8 8 8 8 8 8 4 4 4 4 8 8 8 8 8 8 8 8 8 8 8 8 8 8 8 8 8 8 8 8 8 8 8 8 8 8 8 8 9 9 9 9 9 9 9 9 9 9 9 9 9 9 9 9 9 9 9 9 9 9 9 9 9 H H H H H H H H H H H H H H H H H H H H H H H H H H H H H H H H H H H K K H H H H H H H H H H H H H H H H H H H H H H H H H H 9 9 9 9 9 9 9 9 9 9 9 9 8 8 8 8 4 4 4 4 4 4 4 4 4 4 4 4 4 4 4 4 4 4 4 4 4 4 4 4 4 4 4 4 4 4 4 4 4 4 4 4 4 4 4 4 4 4 4 4 4 4 4 4 4 4 4 4 4 4 4 O O # * nXGXHXKXHXSXSXSXFXSXDXZXDXDXAXBXsXiXyXeXwX>X:Xj.h.g.s.s.g.g.g.=X=X=Xd.d.s.a.t.t.t.t.t.e.>.:.D B l 2 z b Z ;.;.;.;.;.D S n b z u # # # # e q p p p p p W p q 6 6 O O O X X O O O O O O O O O O O O + +                                                           . . . $ % % % % % & , , g g g h h h h h h h g g g g g g g g g , , , , , , , & % $ . . . .                                                         + + + + + # 7 y y y e y s s =.=.<.<.2.&X4XcXcX2XE.~ ( H ' L L ) ) ) ) ) ' ' ' ' ' ' ' ' L L L L L L L L L L L L L L L L I I I I ' ' ' ' ' ' ' ' ' ' ' ' ' ' ' ' ' ' ' ' ` ` ` ` ` ` ] ] ] ] ] ] ] ] z.z.z.z.z.] m.m.z.z.b.b.b.b.c.c.z.z.n.n.b.b.z.b.] ] ] z.z.z.z.z.z.] ` [ [ [ ' ' ' ' ' ' ' ' ' ' ' ' ' ",
"4 4 4 4 4 4 4 4 4 4 4 4 4 4 4 4 4 4 4 4 4 4 4 4 4 4 4 4 4 4 4 4 4 4 4 4 4 4 4 4 4 4 4 4 4 4 4 4 8 8 8 8 8 8 8 8 8 8 4 4 8 8 8 8 8 8 8 8 8 8 8 8 8 8 8 8 8 8 8 8 8 8 8 8 8 8 8 8 9 9 9 9 9 9 9 9 9 9 9 9 9 9 9 9 9 9 9 9 9 9 9 9 9 9 H H H 9 H H H H H H H H H H H H H H H H H H H H H H H H H H H H H H K K H H H H H H H H H H H H H H H H H H H H H H H H H H H 9 9 9 9 9 9 9 9 9 9 9 8 8 8 8 8 4 4 4 4 4 4 4 4 4 4 4 4 4 4 4 4 4 4 4 4 4 4 4 4 4 4 4 4 4 4 4 4 4 4 4 4 4 4 4 4 4 4 4 4 4 4 4 4 4 4 4 4 4 4 O + $XrXPXPXKXJXSXZXDXSXZXZXsXsXaXsXaXfXiXyXtXwXwX>X:Xj.h.g.s.s.g.g.g.g.g.=Xd.s.s.a.t.r.r.r.e.8.:.D Z B l 2 z z B ;.;.;.;.;.S B b b u < # # # 7 7 q p p p p p W p q 6 @ O O O X X O O O O O O O O O O O O + +                                                       . . . . $ $ % % & , , , , g g , , g h h c h h h h g g g g g g g g g g , , , , , , & = $ $ . . .                                                         O + + + + # 7 7 7 7 7 y p a s s ! =.1.1.&X-X3X3X~.E.X.I ' ..' ) ) L L ' ' ' ' ' ' ' ' L L L L L L L L L L L L L L L L I I I I ' ' ' ' ' ' ' ' ' ' ' ' ' ' ' ' ' ' ' ' ` ` ` ` ` ` ] ] ` ] ] ] z.] z.z.z.z.z.z.m.m.z.z.b.b.b.b.c.c.z.z.x.x.b.b.z.b.] ] ] z.z.z.z.z.z.] ` ] [ [ ' ' ' ' ' ' ' ' ' ' ' ' ' ",
"4 4 4 4 4 4 4 4 4 4 4 4 4 4 4 4 4 4 4 4 4 4 4 4 4 4 4 4 4 4 4 4 4 4 4 4 4 4 4 4 4 4 4 4 4 4 4 4 8 8 8 8 8 4 8 8 8 8 8 8 8 8 8 8 8 8 8 8 8 8 8 8 8 8 8 8 8 8 8 8 8 8 8 8 8 8 8 8 9 9 9 9 9 9 9 9 9 9 9 9 9 9 9 9 9 9 9 9 9 9 9 9 H H H H 9 9 9 H H H 9 H 9 9 H H H H H H H H H H H H H H H H H H H H H H K K H H H H H H H H H H H H H H H H H H H H H H H H H H H 9 9 9 9 9 9 9 9 9 9 9 8 8 8 8 8 4 4 4 4 4 4 4 4 4 4 4 4 4 4 4 4 4 4 4 4 4 4 4 4 4 4 4 4 4 4 4 4 4 4 4 4 4 4 4 4 4 4 4 4 4 4 4 4 4 4 4 4 4 4 p o uXGXPXKXKXFXDXZXhXdXsXfXyXeXeXyXyXiXyXtXtXwX7X>X:Xj.h.g.s.s.d.d.d.d.d.d.s.s.a.t.r.w.w.w.>.:.S Z B n 2 1 2 i N Z Z Z Z B B N z i u # # # 7 e 7 r p W W p p p p q 6 @ O O O O O O O O O O O O O O O + + + +                                                     . . . $ $ $ & & & , , , , g g g g h c V V c c c c c c c g g g g g g g g , f f , , , & & = $ $ . .                                                                 + # # # # # # # 7 7 y y y a =.3.$X*X3X3X3X2X^...' K L L L L L ' ' ' ' ' ' ' ' L L L L L L L L L L L L L L L L I I I I ' ' ' ' I I ' ' ' ' ' ' ' ' ' ' ` ` ` ` ] ] ] ] ] ] ] ] ] ] ] ] ] ] ] ] z.z.z.z.m.m.z.z.b.b.b.b.c.c.x.x.x.x.b.b.z.b.] ] ] ] z.z.z.z.z.] ` ] ] ] ' ' ' ' ' ' ' ' ' ' ' ' ' ",
"4 4 4 4 4 4 4 4 4 4 4 4 4 4 4 4 4 4 4 4 4 4 4 4 4 4 4 4 4 4 4 4 4 4 4 4 4 4 4 4 4 4 4 4 4 4 4 4 4 4 8 8 8 4 4 4 8 8 8 8 8 8 8 8 8 8 8 8 8 8 8 8 8 8 8 8 8 8 8 8 8 8 8 8 8 8 8 8 9 9 9 9 9 9 9 9 9 9 9 9 9 9 9 9 9 9 9 9 9 9 9 9 H H H H 9 9 9 H H H 9 9 9 9 9 9 H H H H H H H H H H H H H H H H H H H H H K H H H H H H H H H H H H H H H H H H H H H H H H H H H 9 9 9 9 9 9 9 9 9 9 9 8 8 8 8 8 4 4 4 4 4 4 4 4 4 4 4 4 4 4 4 4 4 4 4 4 4 4 4 4 4 4 4 4 4 4 4 4 4 4 4 4 4 4 4 4 4 4 4 4 4 4 4 4 4 4 4 O O p *.4XHXKXKXKXKXLXSXhXeX8X0Xk.k.>X8XyXiXpXiXtXwXwX7X>X:Xj.h.g.d.s.d.d.s.d.d.d.s.a.t.r.w.w.w.7.>.D Z B N b 1 1 1 2 N B B B B B N N i u > # # # 7 7 7 p W W W p p p r q 6 @ O O O O O O O O O O O O O O O + + + +                                                     . . $ $ $ % = & & , f g g g g g c V m S m c c c v c c c c c c c g g g g g g f f , , , & & $ $ $ .   .                                                               + + + + + + + X + # y 7 y s =.3.E.*X*X*X2X2X~.X.I ..K L L L ' ' ' ' ' ' ' ' L L L L L L L L L L L L L L L L I I I I I ' ' ' ' I ' ' ' ' ' ' ' ' ' ' ` ` ` ` ] ] ] ` ] ] ] ] ] ] ] ] ] ] ] z.z.z.z.z.m.b.b.b.b.b.b.b.c.c.x.x.x.x.n.b.z.b.z.z.] ] z.z.z.z.z.] ` ] ] ] ' ' ' ' ' ' ' ' ' ' ' ' ' ",
"4 4 4 4 4 4 4 4 4 4 4 4 4 4 4 4 4 4 4 4 4 4 4 4 4 4 4 4 4 4 4 4 4 4 4 4 4 4 4 4 4 4 4 4 4 4 4 4 4 4 4 4 4 4 4 4 4 4 4 4 4 4 4 4 4 4 4 4 4 4 4 4 4 4 4 4 8 8 8 8 8 8 8 8 8 8 8 8 9 9 9 9 9 9 9 9 9 9 9 9 9 9 9 9 9 9 9 9 9 9 9 9 9 9 9 9 9 9 9 9 9 9 9 9 H H H H H H H H H H H H H H H H H H H K H H H H H H H H H H H H H H H H H H H H H H H H H H H H H H H H 9 9 9 H H H 9 9 9 9 9 9 8 8 8 8 8 8 8 8 8 8 4 4 4 4 4 4 4 4 4 4 4 4 4 4 4 4 4 4 4 4 4 4 4 4 4 4 4 4 4 4 4 4 5 5 5 5 5 5 5 5 5 8 8 4 4 4 + O =.4XaXHXKXJXKXJXLXhXiXwX8X8XwX>X8XtXyXyXyXyXtXwX7X8X>X:X;Xj.g.g.d.d.s.s.s.s.s.a.t.t.r.w.w.>.D S A B N N M 1 1 1 1 z N B B B N b z u 1 - # # e 7 q r r W W W W W r r 7 @ @ @ + + + O O O O O X X + + + + + O                                                       . . $ $ $ = = & & , f g g h c c m B S S S m m v c v v v c c c g g g g g g g g g , f , , , , & % $ $ . . . .                                                                         X X X + # y u ! =.3.E.$X&X*X2X&X+XX.I I I I L L I ' ' ' ' ' ' I I I I I I I ' ' ' I I ' ' ' ' L L L L ) ) L L ' ' ' ' ' ' ' ' ' ' ' ' ` ` ' ' ] ] ] ] ] ] ] ] ] ] ] ] z.z.z.z.z.z.b.b.z.z.z.z.b.b.b.b.n.n.n.n.x.x.n.z.z.z.b.b.z.z.z.z.z.z.z.] [ [ [ [ ' ' ' ' ' ' ' ' ' ' [ ' ' ",
"4 4 4 4 4 4 4 4 4 4 4 4 4 4 4 4 4 4 4 4 4 4 4 4 4 4 4 4 4 4 4 4 4 4 4 4 4 4 4 4 4 4 4 4 4 4 4 4 4 4 4 4 4 4 4 4 4 4 4 4 4 4 4 4 4 4 4 4 4 4 4 4 4 4 4 4 8 8 8 8 8 8 8 8 8 8 8 8 9 9 9 9 9 9 9 9 9 9 9 9 9 9 9 9 9 9 9 9 9 9 9 9 9 9 9 9 9 9 9 9 9 9 9 9 H H H H H H H H H H H H H H H H K K H H H H H H H H H H H H H H H H H H H H H H H H H H H H H H H H H H 9 9 9 H H H H 9 9 9 9 9 8 8 8 8 8 8 8 8 8 8 4 4 4 4 4 4 4 4 4 4 4 4 4 4 4 4 4 4 4 4 4 4 4 4 4 4 4 4 4 4 4 4 5 5 5 5 5 5 5 5 8 8 8 4 4 + o 2.4XMXmXJXKXJXJXFXDXfXfXeXeXeXeXtXtXyXtXtXtXtXtXwX7X>X:X:X;Xj.g.g.g.s.s.s.a.a.a.t.t.y.w.7.>.D S m m m N N M i 1 1 1 l N N N N N z i u 1 # # # e q 7 r r W W W W r q q 6 @ @ @ + + O O O O O O X X O O + + + O                                                     . . $ $ $ $ & & & & , f g h v v V A >.,.>.D S S C v c v v c c c c c v c h g g g g g f , , , , & % $ $ $ $ . .                                                                         X X X + # u u s =.=.2.2.E.$X&X&X2X&XY.<.I H ' I L I ' ' ' ' I I I I I I I I ' ' ' I I ' ' ' ' L L ) ) ) ) L L ' ' ' ' ' ' ' ' ' ' ' ' ` ` ` ` ] ] ] ] ] ] ] ] ] ] ] ] z.z.z.z.z.z.b.b.x.z.z.z.b.b.b.b.n.n.n.n.x.x.n.z.z.z.b.b.z.z.z.z.z.z.z.] [ [ [ [ ' ' ' ' ' ' ' ' ' ' [ [ ' ",
"4 4 4 4 4 4 4 4 4 4 4 4 4 4 4 4 5 4 4 4 4 4 4 4 4 4 4 4 4 4 4 4 4 4 4 4 4 4 4 4 4 4 4 4 4 4 4 4 4 4 4 4 4 4 4 4 4 4 4 4 4 4 4 4 4 4 4 4 4 4 4 4 4 4 4 4 8 8 8 8 8 8 8 8 8 8 8 8 9 9 9 9 9 9 9 9 9 9 9 9 9 9 9 9 9 9 9 9 9 9 9 9 9 9 9 9 9 9 9 9 9 9 9 9 H H H H H H H H H H H H H H H H K K K H H H H H H H H H H H H H H H H H H H H H H H H H H H H H H H H H 9 9 H H H H 9 9 9 9 9 9 8 8 8 8 8 8 8 8 8 8 4 4 4 4 4 4 4 4 4 4 4 4 4 4 4 4 4 4 4 4 4 4 4 4 4 4 4 4 4 4 5 5 5 5 5 5 5 5 5 5 5 5 4 4 + u 1 <X<XyXsXJXKXJXJXDXZXfXdXfXsXfXiXyXtXtXwXwXwXwXwX7X<X>X:X;X:X;Xg.;Xg.s.t.t.t.t.t.t.y.w.7.>.D Z B m n n n b b i 1 1 1 z n n N N M i d u - # # 7 7 7 r r r p W W r q q 5 6 @ @ @ + + O O O O O O O O O O + + + +                                                     . . $ $ = = = & & f f f g h v V V S :.>.D D S S C V v v c c c c c c v v c c h h g g g f , , , , & % $ $ $ $ + .                                                                       X X X # y u s s =.*.3.2.2.$X$X$X*X*X&X~.X.U U I I K I I I I I I I I I I I I I I I I I ' ' ' ' L L L L ) L L L ' ' ' ' ' ' ' ' ] ] ] ] ] ] ] ] ] ] ] ] ] ] ] ] ] ] ] ] z.z.z.z.z.z.b.b.x.x.z.z.b.b.b.b.n.n.n.n.x.x.z.z.z.z.b.b.z.] ] z.] ] ] ] [ [ [ [ ' ' ' ' ' ' ' ' ' ' [ [ ' ",
"4 4 4 4 4 4 4 4 4 4 4 4 4 4 4 4 5 4 4 4 4 4 4 4 4 4 4 4 4 4 4 4 4 4 4 4 4 4 4 4 4 4 4 4 4 4 4 4 4 4 4 4 4 4 4 4 4 4 4 4 4 4 4 4 4 4 4 4 4 4 4 4 4 4 4 4 4 8 8 8 8 8 8 8 8 8 8 8 9 9 9 9 9 9 9 9 9 9 9 9 9 9 9 9 9 9 9 9 9 9 9 9 9 9 9 9 9 9 9 9 9 9 9 9 H H H H H H H H H H H H H H H H K K K H H H H H H H H H H H H H H H H H K K H H H H H H H H H H H H H H H H H H H H 9 9 9 9 9 9 8 8 8 8 8 8 8 8 8 8 4 4 4 4 4 4 4 4 4 4 4 4 4 4 4 4 4 4 4 4 4 4 4 4 4 4 4 4 4 4 5 5 5 5 5 5 5 5 5 5 5 5 4 5 u N a.<XwXdXHXJXJXFXSXZXZXBXBXmXBXmXaXyX7X>Xj.j.j.j.:X;Xg.g.d.d.g.d.g.;X=Xs.a.a.t.t.t.r.w.7.>.D Z m n n N b b b b i 2 1 2 b n N N N M i d y # # 7 7 7 7 r r r r W W q q 5 6 6 O O O + O O O O O O O O       + + + O                                                   . . $ $ $ = = & & f g f g h h v v V m S S C C C C V V v c c c c v v v v v v v v h h g g f , , , , & % & % $ $ $ + . .                                                                   X X + # y s s x =.=.*.3.2.2.$X$X$XE.*X&XE.<...I I I K I I I I I I L L I I I I I I I I ' ' ' ' L L L L ) ) L L ' ' ' ' ' ' ' ' ] ] ] ` ] ` ` ] ] ] ] [ ] ] ] ] z.z.] ] z.z.z.z.z.z.b.b.c.x.z.z.b.b.b.n.n.n.n.n.x.x.z.z.z.z.b.b.] ] ] ] ] ] ] ] [ [ [ [ ' ' ' ' ' ' ' ' ' ' [ [ ' ",
"4 4 4 4 4 4 4 4 4 4 4 4 9 9 9 9 5 5 4 4 4 4 4 4 4 4 4 4 4 4 4 4 4 4 4 4 4 4 4 4 4 4 4 4 4 4 4 4 4 4 4 4 4 4 4 4 4 4 4 4 4 4 4 4 4 4 4 4 4 4 4 4 4 4 4 4 4 4 4 8 8 8 8 8 8 8 8 8 9 9 9 9 9 9 9 9 9 9 9 9 9 9 9 9 9 9 9 9 9 9 9 9 9 9 9 9 9 9 9 9 9 9 9 9 9 9 9 9 H H H H H H H H H H H H K K K H H H H H H H H H H H H H H H H H K K K K J J J H H H H H H H H H H H H H H H H H 9 9 9 9 8 8 8 8 8 8 8 8 8 8 5 5 4 4 4 4 4 4 4 4 4 4 4 4 4 4 4 4 4 4 4 4 4 4 4 4 4 4 4 4 5 5 5 5 5 5 5 5 4 9 5 4 5 O * %X;X:XtXHXKXKXJXFXSXDXDXZXAXBXmXsXpXwX>Xg.;Xg.d.s.d.u.u.s.u.s.s.s.d.s.s.s.a.a.t.r.r.e.7.>.D S m n b b b j i j z i i 1 i b b M z i i u y * # # 7 q r r r r r r r q q q 5 6 @ @ X X O + O O O O O O O O   O       O                                                 . . . $ = = = & & & f f f g h h v v v V m m C C m m V m V V V V V V V V v v c c h h h g h g f , , , , & & = = $ $ . . .                                                                 X X X X # y s s =.=.*.*.3.,.,.,.2.3.3.E.E.&XE.W ( J ( I I I I I L L K K L L I L I I I I ' ' L L L L L L ' ' ' ' ' ' ' ' ' ' ' ' ` ` ` ` ` ` ` ] ] ] ] ] ] ] ] ] z.z.z.z.z.z.b.b.b.b.b.b.c.c.c.x.x.x.x.x.x.x.x.x.x.x.z.z.z.z.b.b.] ] ] ] ] ] ] ] [ [ [ [ ' ' ' ' ' ' ' ' ' ' ' ' ) ",
"4 4 4 4 4 4 4 4 4 4 4 4 5 q ( / 5 5 4 4 4 4 4 4 4 4 4 4 4 4 4 4 4 4 4 4 4 4 4 4 4 4 4 4 4 4 4 4 4 4 4 4 4 4 4 4 4 4 4 4 4 4 4 4 4 4 4 4 4 4 4 4 4 4 4 4 4 8 4 4 8 8 8 8 8 8 8 8 9 9 9 9 9 9 9 9 9 9 9 9 9 9 9 9 9 9 9 9 9 9 9 9 9 9 9 9 9 9 9 9 9 9 9 9 9 9 9 9 H H H H H H H H H H H H K K K K H H H H H H H H H H H H H H H H K K K K J J H H H H H H H H H H H H H H H H H H 9 9 9 9 8 8 8 8 8 8 8 8 8 8 5 5 4 4 4 4 4 4 4 4 4 4 4 4 4 4 4 4 4 4 4 4 4 4 4 4 4 4 4 4 5 5 5 5 5 5 5 5 5 5 5 4   s $X%X1XaXDXKXKXKXJXJXHXSXSXAXAXmXMXaXyX>Xj.u.s.u.w.7.6.F A F 6.r.s.s.s.s.s.a.a.a.r.r.e.w.>.>.S B m n b b i i i i i i i 1 i b z z i i u y * 7 # 7 e q r r r r r r r r q q 5 6 O @ X @ + O O O O O O O                                                               . . . $ $ = = & & & f f f f g h h v v v v m m C m m m m m B m B B m V V V v V v v c h h g g g f , , , , & & $ $ $ $ $ . .                                                                 X X X X + y s x =.*.*.-.-.3.-.*.s u d ! ! 3.<.W ( H J H J I I I L K K K L L I I I I I I ' ' ' ' L L L L ' ' ' ' ' ' ' ' ' ' ' ' ` ` ` ` ` ` ] ] ] ] ] ] ] ] ] ] z.z.z.z.z.z.b.b.b.b.b.b.c.c.c.c.x.x.x.x.x.x.x.x.x.x.z.z.z.z.] ] [ ` [ [ ` ` ' ' [ [ [ [ ' ' ' ' ' ' ' ' ' ' ' ' ) ",
"4 4 4 4 4 4 4 4 4 4 4 4 5 q ( / 5 5 4 4 4 4 4 4 4 4 4 4 4 4 4 4 4 4 4 4 4 4 4 4 4 4 4 4 4 4 4 4 4 4 4 4 4 4 4 4 4 4 4 4 4 4 4 4 4 4 4 4 4 4 4 4 4 4 4 4 8 8 8 8 8 8 8 8 8 8 8 8 9 9 9 9 9 9 9 9 9 9 9 9 9 9 9 9 9 9 9 9 9 9 9 9 9 9 9 9 9 9 9 9 9 9 9 9 H H H H H H H H H H H H H H H H H H H H H H H H H H H H H H H H H H J J J J K K K K H H H H H H H H H H H H H H H H H H 9 9 9 9 8 8 8 8 8 8 8 8 8 8 5 5 4 4 4 4 4 4 4 4 4 4 4 4 4 4 4 4 4 4 4 4 4 4 5 5 4 4 5 5 5 5 5 5 5 5 5 5 5 5 4   1 e.;Xj.7XZXHXKXKXKXJXJXSXDXSXAXAXmXMXpXtX:X;Xi.s.t.w.7.D A m A D w.a.a.a.a.a.t.r.r.e.e.w.>.D S S B m n b i i i i i i i 1 1 1 z i i d d u ; # # 7 w e r r r Y Y r q r r q q 5 6 O @ @ O + O O O O O O O                                                             . . . $ $ $ & & , , , f f f f g h h v v v v v v m m V n n n n n n n n V V V V V V v v c h h h h g , , , , , & = $ = $ $ . .                                                                 X X X X + y s M =.*.*.,.,.,.*.M < o o w s =.=.=./ ..X.U J J U I L K L L L L L L I I I I ' ' ' ' ' ' ' ' ' ' ' ' ' ' ' ' ' ' ' ' ` ` ` ` ` ` ] ] z.z.z.z.] z.] ] ] b.b.b.z.z.z.z.z.z.b.b.n.n.n.n.x.x.x.x.x.x.x.z.x.z.z.z.z.z.] ] [ [ [ [ ' ' ' ' ' ' [ [ [ [ ' ' ' ' [ [ ' ' ' ' ) ",
"4 4 4 4 4 4 4 4 4 4 4 4 9 9 9 9 5 4 4 4 4 4 4 4 4 4 4 4 4 4 4 4 4 4 4 4 4 4 4 4 4 4 4 4 4 4 4 4 4 4 4 4 4 4 4 4 4 4 4 4 4 4 4 4 4 4 4 4 4 4 4 4 4 4 4 4 8 8 8 8 8 8 8 8 8 8 8 8 9 9 9 9 9 9 9 9 9 9 9 9 9 9 9 9 9 9 9 9 9 9 9 9 9 9 9 9 9 9 9 9 9 9 9 9 H H H H H H H H H H H H H H H H H H H H H H H H H H H H H H H H H H J J J J K K K K H H H H H H H H H H H H H H H H H H 9 9 9 9 8 8 8 8 8 8 8 8 8 8 5 5 4 4 4 4 4 4 4 4 4 4 4 4 4 4 4 4 4 4 4 4 4 4 4 4 4 4 5 5 5 5 5 5 5 5 5 5 5   q +X1X7X<XyXsXSXJXKXKXJXJXHXSXZXAXBXmXaXyXwX:Xh.g.i.d.s.t.r.>.A A S A >.r.r.p.p.p.r.e.e.7.7.>.D S Z B m n b i i u u u u i i 1 1 1 i i i d u # # 7 7 7 7 q e r r r r r r r r r q 5 6 O @ @ O O O O O O O O O                                                           . . . . $ $ $ & & , f f f f f g g h v v v v v v v V V n b b b 1 3 3 3 , h V V V V V V c c h h h h g , , , , f k & $ $ $ $ . .                                                                 X X X + + y d s *.*.-.2.,.,.;.N i < * < w p d a <.E.&X<.( ~ J J K K L L L L L L I I I I ' ' ' ' ' ' ' ' ' ' ' ' ' ' ' ' ' ' ' ' ` ` ` ` ` ` ] ] z.z.z.z.z.z.] ] ] b.b.b.z.z.z.z.z.z.b.b.b.n.n.n.z.x.x.x.x.x.x.z.x.z.z.z.z.] ] ] ] ` ' ' ' ' ' ' ' ' [ [ [ [ [ ' [ [ [ [ ' ' ' ' ) ",
"4 4 4 4 4 4 4 4 4 4 4 4 4 4 4 4 4 4 4 4 4 4 4 4 4 4 4 4 4 O O 4 4 4 4 4 4 4 4 4 4 4 4 4 4 4 4 4 4 4 4 4 4 4 4 4 4 4 4 4 4 4 4 4 4 4 4 4 4 4 4 4 4 4 4 4 8 8 8 8 8 8 8 8 8 8 8 8 9 9 9 9 9 9 9 9 9 9 9 9 9 9 9 9 9 9 9 9 9 9 9 9 9 H H H 9 9 9 9 H H H 9 9 9 9 9 H H H H H H H H H H H H H H H H H H H H H H H H H H K K J J J J J J J J H H H H H H H H H H H H H H H H H H H H 9 9 9 9 9 9 8 8 8 8 8 8 8 8 8 8 8 8 5 5 4 4 4 4 4 4 4 4 4 4 4 4 4 4 4 4 4 4 5 5 5 5 5 5 5 5 5 5 5 5 5 5 q O ! 9XuXpXaXiXdXDXFXLXKXLXJXDXDXdXmXmXaXyXwX:Xi.d.d.;X;Xg.d.s.r.D S A A Z D e.e.e.e.7.7.>.>.>.:.D B B m n b l 1 1 1 1 1 1 1 1 1 1 i i i i u < y 7 7 7 7 7 7 7 7 7 7 7 7 7 7 7 6 6 @ O + + X O O O O O                                                                   . . . . $ $ $ & & , f f f f g g g h h v v v v v v m n n b j . * % % % > 3 h c V V V V c c h g g g f , f f f k k & = $ $ $ . .                                                                 X X o + # ; u =.-.2.2.9.2.2.,.-.*.z u < > < y u Q <.E.E.<.U 9 U K L K K K K K I I I ' I ' ' ' ' ..G...' ' ' ' ' ' ' ' ' ' ' ' ' ` ' ` ` ` ] ] ] ] z.z.z.z.z.z.z.b.b.z.z.z.z.b.b.b.b.b.b.b.b.b.b.b.b.b.z.x.z.z.z.z.z.z.z.z.] ] ] ` ' ' ' ' ' ' ' ' ' [ [ ' ' ' ' ' ' ' ' ' ' ' ' ' ",
"4 4 4 4 4 4 4 4 4 4 4 4 4 4 4 4 4 4 4 4 4 4 4 4 4 4 4 4 4 4 4 4 4 4 4 4 4 4 4 4 4 4 4 4 4 4 4 4 4 4 4 4 4 4 4 4 4 4 4 4 4 4 4 4 4 4 4 4 4 4 4 4 4 4 4 4 8 8 8 8 8 8 8 8 8 8 8 8 9 9 9 9 9 9 9 9 9 9 9 9 9 9 9 9 9 9 9 9 9 9 9 9 9 H H H H 9 9 9 H H H H 9 9 9 9 H H H H H H H H H H H H H H H H H H H H H H H H H H K K K K J J J J J J H H H H H H H H H H H H H H H H H H H H 9 9 9 9 9 9 8 9 8 8 8 8 8 8 8 8 8 8 5 5 4 4 4 4 4 4 4 4 4 4 4 4 4 4 5 5 5 5 5 5 5 5 5 5 5 5 5 5 q 4 5 O 7 -XnXGXGXDXBXdXZXDXFXLXJXJXSXsXyXwXwXtXwXj.i.i.g.:X<X>X:X;Xg.g.a.e.>.S m B S S :.>.>.>.>.>.>.>.:.Z B m n b 2 2 1 1 1 1 1 1 1 1 1 1 1 u d d u # 7 # 7 7 7 7 7 7 7 7 7 7 7 7 7 7 # # @ + O + X O O O O O                                                                   . . . . $ $ $ & , , f f f f g g g h v v v v v v v m m n i 1 . . . . . . > , h c V V V c c c g g g g f f f k k k & & $ $ $ . .                                                                 X X + # < u x *.2.p.p.$Xp.2.2.,.*.M i u - # # y p Q <.E.^.<.( U I I K K K L L I I I ' ' ' ' ' ' ......' ' ' ' ' ' ' ' ' ' ' ' ' ` ' ` ` ] ] ] ] ] z.z.z.z.z.z.z.b.b.z.z.z.z.b.b.b.b.b.b.b.b.b.b.b.b.b.z.x.z.x.z.z.z.z.z.] ] ] ] ' ' ' ' ' ' ' ' ' ' [ [ ' ' ' ' ' ' ' ' ' ' ' ' ' ",
"4 4 4 4 4 4 4 4 4 4 4 4 4 4 4 4 4 4 4 4 4 4 4 4 4 4 4 4 4 4 4 4 4 4 4 4 4 4 4 4 4 4 4 4 4 4 4 4 4 4 4 4 4 4 4 4 4 4 4 4 4 4 4 4 4 4 4 4 4 4 4 4 4 4 4 4 8 8 8 8 8 8 8 8 8 8 8 8 9 9 9 9 9 9 9 9 9 9 9 9 9 9 9 9 9 9 9 9 9 9 9 9 9 9 H H H H H H H H H H H H H H H H H H H H H H H H H H H H H H H H H H H H H H J J K K K K K J J J J J H H H H H H H H H H H H H H H H 9 9 H H 9 9 9 9 9 9 9 9 8 8 8 8 8 8 8 8 8 8 5 5 4 4 4 4 4 4 4 4 4 4 4 4 4 4 4 4 5 5 5 5 5 5 5 5 5 5 5 5 4 q 7 ; M NXGXGXGXSXSXSXSXSXFXLXJXHXAXyXwX>X>X>Xj.i.i.j.>X7X7X:X>X:X;X;Xd.s.e.>.D Z B m m S S :.D D D :.;.Z m n b 2 2 1 1 < < 1 1 1 1 1 1 1 1 1 u u < # # # 7 7 7 7 7 7 7 7 7 7 7 7 7 7 # # @ + O O O O O O   O         +                                                         . . . $ $ $ & & , , f f g f g g g h v v v v v v v v n b % o .       . . . > 3 c c c V c c c g g g g f f f k k k & & $ $ $ . .                                                               X . o # u u M -.,.p.p.$Xp.p.2.2.3.*.*.M d # # + + w p Q <.<.<...U I I L L L L L I I I I I ' ' ' ' ......' ' ' ' ' ' ' ' ' ' ' ' ' [ ' ] ] ] ] ] ] ] ] z.z.z.z.z.z.b.b.b.b.n.n.b.b.b.b.n.n.b.n.b.b.b.b.b.z.z.z.z.z.z.z.z.z.] ] ] [ ' ' ' ' ' ' ' ' ' [ [ [ ' ' ' ' ' ' ' ' ' ' ' ' ' ",
"4 4 4 4 4 4 4 4 4 4 4 4 4 4 4 4 4 4 4 4 4 4 4 4 4 4 4 4 4 4 4 4 4 4 4 4 4 4 4 4 4 4 4 4 4 4 4 4 4 4 4 4 4 4 4 4 4 4 4 4 4 4 4 4 4 4 4 4 4 4 4 4 4 4 4 4 8 8 8 8 8 8 8 8 8 8 8 8 9 9 9 9 9 9 9 9 9 9 9 9 9 9 9 9 9 9 9 9 9 9 9 9 9 9 H H H H H H H H H H H H H H H H H H H H H H H H H H H H H H H H H H H H H H J J K K K K K J J J J J H H H H H H H H H H H H H H H H 9 9 9 H 9 9 9 9 9 9 9 9 8 8 8 8 8 8 8 8 8 8 5 5 4 4 4 4 4 4 4 4 4 4 4 4 4 4 4 4 q q 9 5 5 5 5 5 5 5 5 5 5 5 X 9.rXPXHXPXKXKXJXJXFXLXLXJXHXDXmXyX<Xj.i.u.h.:XwXwXwXtXwX7X<X>X:X;X;X%Xa.e.8.:.B m m m m m A S D D Z B n b l 2 1 1 > < < < 1 1 1 1 < < < < < u ; o + # 7 7 7 7 7 7 7 7 7 7 7 7 7 7 # # @ + O O O O O O             +                                                         . . . . $ $ & & f f f f g g g g g h v v v v v v v v n 2 . X           . X o > 2 c c c c c c g 3 g g f f f f k k & & $ $ $ . .                                                                 o o # s M 2.p.p.9.p.2.2.2.2.3.3.*.*.=.x < + o + + w p Q ! ! ( ( I I I K L L L L I I I I I ' ' ' ..[ ' ' ' ' ' ' ' ' ' ' ' ' ' ' [ ' ] ] ] ] ] ] ] ] ] z.z.z.z.z.b.b.b.b.n.n.b.b.n.n.n.n.b.n.b.b.b.b.b.z.z.z.z.z.z.z.z.] ] ] [ [ ' ' ' ' ' ' ' ' ' [ [ [ ' ' ' ' ' ' ' ' ' ' ' ' ' ",
"4 4 4 4 4 4 4 4 4 4 4 4 4 4 4 4 4 4 4 4 4 4 4 4 4 4 4 4 4 4 4 4 4 4 4 4 4 4 4 4 4 4 4 4 4 4 4 4 4 4 4 4 4 4 4 4 4 4 4 4 4 4 4 4 4 4 4 4 4 4 4 4 4 4 4 4 8 8 8 8 5 5 5 8 8 8 8 8 5 5 5 5 9 9 9 9 9 9 9 9 9 9 9 9 9 9 9 9 9 9 9 9 9 H H H H H H H H H H H H H H H H H H H H H H H H H H H H H H H H H K K K K H H K K J J J K K J H H H H H H H H H H H H H H H H H H H H 9 9 H H 9 9 9 9 9 9 9 9 8 8 8 8 8 8 8 8 8 8 8 8 8 8 8 8 5 5 5 4 4 4 4 4 4 4 4 4 9 W W 9 5 5 5 5 5 5 5 5 J / =.4XCXGXPXKXKXKXKXKXJXLXLXLXJXSXZXaXyX;Xj.j.:X7XwXtXwXtXyX<X<X>X1X1X=Xd.a.r.e.>.S v n c c n B Z D Z Z B m n l 2 2 1 > > < < < 1 1 1 < < < < < < ; + # # # # # # 7 7 6 6 6 6 6 6 @ @ X + O     O O O         + +                                                             . . . . . $ $ & & , f f f g g g g g h v v v v v v c c c > X X             . . X , c c c c c c g g g , f f f f f & & & $ $ $ . . .                                                       X X X X o - < i *.2.p.p.9.2.2.2.2.2.3.*.*.=.=.M u # + + + # y a Q Q W ( ( ~ ~ ( I I I I I I I I I I ' ' ' ' ' ' ' ' ' ' ' ' ' ' ' ' ' ' [ ] ] ] ] ] ] ] ] ] ] ] z.z.z.z.b.b.b.b.b.b.b.b.b.b.b.b.b.b.b.b.z.z.z.z.z.z.z.z.z.] ] ] ` ' ' [ ' ) L L ' ' ' ' ' ' ' ' ' ' ' ' L L L L L L L L L ",
"4 4 4 4 4 4 4 4 4 4 4 4 4 4 4 4 4 4 4 4 4 4 4 4 4 4 4 4 4 4 4 4 4 4 4 4 4 4 4 4 5 4 4 O 4 4 4 4 4 4 4 4 4 4 4 4 4 4 4 4 4 4 4 4 4 4 4 4 4 4 4 4 4 4 4 4 8 8 8 8 5 5 5 5 8 8 8 8 5 5 5 5 9 9 9 9 9 9 9 9 9 9 9 9 9 9 9 9 9 9 9 9 9 H H H H H H H H H H H H H H H H H H H H H H H H H H H H H H H H H K H K K H H J J J J K K K K K H H H H H H H H H H H H H H H H H H H 9 9 H H 9 9 9 9 9 9 9 9 8 8 9 8 8 8 8 8 8 8 8 8 8 8 8 8 5 5 5 4 4 4 4 4 4 4 4 4 4 q q 4 5 5 5 5 5 5 5 5 U E.4XPXPXPXKXKXKXKXKXKXKXKXKXKXJXHXAXmXaXwXwXwXyXyXyXyXtXwXwX;X:X:X:X:X;Xd.s.p.p.e.>.S n 3 3 c n m S Z Z B B n b l 2 1 < > > > < 1 1 1 < < < < < < ; # # # # # # 6 6 6 6 6 6 6 @ @ @ @ X + O     O O O         + + X X                                                         . . . . . $ $ & & f f f f g g g g g h v v v v v v c c c > X X           . . . X > c c c c c c g g g , f f f f k & & & $ $ $ . .                                                     X X o X o u u s *.*.*.,.2.2.2.2.2.,.3.*.*.=.=.M s s s y # + . # e p p p W Q ! ( ( W U J K K K I I I I I ' ' ' ' ' ' ' ' ' ' ' ' ' ' ' ' ' ' [ ] ] ] ] ] ] ] ] ] ] ] z.z.z.z.b.b.b.b.b.b.b.b.b.b.b.b.b.b.b.b.z.z.z.z.z.z.z.z.] ] ] ] ' ' [ [ ' ) L L ' ' ' ' ' ' ' ' ' ' ' ' L L L L L L L L L ",
"4 4 4 4 4 4 4 4 4 4 4 4 4 4 4 4 4 4 4 4 4 4 4 4 4 4 4 4 4 4 4 4 4 4 4 4 4 4 4 4 5 5 4 4 5 5 5 5 5 5 4 4 4 4 4 4 4 4 4 4 4 4 4 4 4 4 4 4 4 4 4 4 4 4 4 4 8 8 8 8 5 5 5 5 8 8 8 8 5 5 5 5 9 9 9 9 9 9 9 9 9 9 9 9 9 9 9 9 9 9 9 9 H H H H H H 9 9 H 9 H H H 9 9 9 H H H H H H H H H H H H H H J J H H H H K K H H J H H H H H H H K K H H H H H H H H H H H H H H H H H H H H H H 9 9 9 9 9 8 9 9 9 9 9 9 8 8 8 8 8 8 8 8 8 8 8 8 5 5 5 4 4 4 4 4 4 4 4 4 4 5 5 5 5 5 5 5 5 5 5 5 *.4XMXPXPXPXKXKXKXKXKXKXKXKXKXKXJXHXDXZXfXyXyXyXpXyXyXwXtXwXwX:X:X;X;X;X;Xd.s.t.a.t.e.>.S c 3 3 c m Z B Z B B m n z 2 1 < > > > > 1 1 1 < < < < < < ; # # + # # # # @ @ 6 6 @ @ @ @ @ X + + O O O O O O     X X + + + +                                                         . . . . . $ $ & & f f f f g g g g g h c v v v v v v c h > X X           . . . X > h c c c c c g g g , f f f f & & & & $ $ $ . .                                                   X X o o o 1 *.-.,.,.,.;.*.*.-.,.,.-.*.*.=.M M x =.x x =.u # + o + # y p p p p a ! ! Q W W U U J K I I I I ' ' ' ' ' ' ' ' ' ' ' ' ' ' ' ' ' ' ] [ ` ] ] ] ] ] ] ] ] ] z.z.z.z.z.z.z.z.z.z.z.z.z.z.z.z.z.z.z.z.z.z.z.z.z.z.z.] ] ' ] [ _ _ ) ) ' L L L L L L L I I ' ' ' ' ' ' L L ) ) ) ) L L L ",
"4 4 4 4 4 4 4 4 4 4 4 4 4 4 4 4 4 4 4 4 4 4 4 4 4 4 4 4 4 4 4 4 4 4 4 4 4 4 4 4 4 5 q W 5 5 5 5 5 5 5 4 4 4 4 4 4 4 4 4 4 4 4 4 4 4 4 4 4 4 4 4 4 4 4 4 8 8 8 8 5 5 5 5 8 8 8 8 5 5 5 5 9 9 9 9 9 9 9 9 9 9 9 9 9 9 9 9 9 9 9 9 H H H H H 9 9 9 9 9 H H H 9 9 9 H H H H H H H H H H H H H H J K H H H H K K H H J H H H H H H H K K H H H H H H H H H H H H H H H H H H H H H H 9 9 9 9 8 8 9 9 8 9 9 9 8 8 8 8 8 8 8 8 8 8 8 8 5 5 5 4 4 4 4 4 4 4 4 4 9 5 5 9 5 5 5 5 4 5 5 a ,.MXCXGXGXKXKXKXKXKXKXKXKXKXKXKXFXSXDXBXdXsXsXiXyXtXwX7X>Xj.:Xj.j.g.g.g.g.d.s.a.a.a.t.e.e.A c l c m B B B B B m n b l 2 < < > > > < 1 1 < < < < u < - # + + # # # # @ @ 6 6 @ @ @ @ @ X + + O O O O O O     X X + + + +                                                           . . . . $ $ & & , f f f g g g g g h c v v v v v v c h > X . .         . . . X 3 h c c c c h g g g , , f f f & & & & $ $ . . .                                                   X o > i N ,.p.p.p.9.2.,.-.*.*.*.N M M M =.M M x M x s s s y # o o + e e e p p p p s ! / / ( ( U J K I I I ' ' ' ' ' ' ' ' ' ' ' ' ' ' ' ' ' ' ] [ ] ] ] ] ] ] ] ] ] ] z.z.z.z.z.z.z.z.z.z.z.z.z.z.z.b.b.z.z.z.z.z.z.z.z.z.z.] ' _ _ [ _ _ ) ) ' L L L L L L L ' ' ' ' ' ' ' ' L L ) ) ) ) L L L ",
"4 4 4 4 4 4 4 4 4 4 4 4 4 4 4 4 4 4 4 4 4 4 4 4 4 4 4 4 4 4 4 4 4 4 4 4 4 4 4 4 5 Y ( / 5 5 5 5 5 5 4 4 4 4 4 4 4 4 4 4 4 4 4 4 4 4 4 4 4 4 4 4 4 4 4 4 4 4 4 4 5 5 5 5 8 8 8 8 8 8 8 8 8 8 8 8 8 8 8 8 9 9 9 9 9 9 9 9 9 9 9 9 H 9 9 9 H H H H H H H H H H H H H H H H H H H H H H H H H K K J K K K K K K K K K K K K H H H H H H H H H H H H H H H H H H H H H H H H H 9 H H H H H H 9 9 9 9 9 9 8 8 9 9 8 8 8 8 8 8 8 8 8 8 5 5 5 5 4 4 4 4 4 4 4 5 8 8 8 8 9 9 9 5 4 5 O s :.MXMXMXmXKXKXKXKXKXKXLXLXKXKXLXFXSXDXBXBXsXsXiXyXtX>Xj.j.j.g.g.g.g.g.g.g.d.s.s.a.a.a.a.r.>.A c m m m B m m m m n n z i i < > > > > < 1 < < # # # # # # + + + # # # @ @ @ @ @ @ @ @ @ @ + O O O O O O O O O O O + + + +                                                             . . . $ $ & & k f f f f g g g g c c c v v v V V c h > o X . . . . . . . . . , c v c c h h g g g , , , f , , & & & $ $ . . . . .                                       X   o o X - *.,.p.a.a.p.p.2.,.,.,.-.-.*.M M s s x M x M s s s s s u < ; # # # 7 7 7 7 p p a ! ! ! ! <.~ J K K ' ' ' ) ) ) ) ) ' ' ' ' ' ' ' ' ' ' ' ' _ _ ] ] ` ` ` ] ] ] ] ] ] ] z.z.z.z.z.z.z.z.z.z.z.z.z.z.z.z.z.z.z.z.z.] ] ] ] ] ` ` ' ' ' ' ) ) L L L L L L L L ' ' ' ' L L L L L L ) ) ) ) ) L L ",
"4 4 4 4 4 4 4 4 4 4 4 4 4 4 4 4 4 4 4 4 4 4 4 4 4 4 4 4 4 4 4 4 4 4 4 4 4 4 4 4 4 5 q W 5 5 5 5 5 5 4 4 4 4 4 4 4 4 4 4 4 4 4 4 4 4 4 4 4 4 4 4 4 4 4 4 4 4 4 4 5 5 5 5 8 8 8 8 8 8 8 8 8 8 8 8 8 8 8 8 9 9 9 9 9 9 9 9 9 9 9 9 9 9 9 9 H H H H H H H H H H H H H J U ( ( U J H H H H H H H K J K K K K K K K K K K H K H H H H H H H H H H H H H H H H H H H H H H H H 9 9 H H H H 9 H 9 9 9 9 9 9 8 8 9 9 8 8 8 8 8 8 8 8 8 8 5 5 5 5 4 4 4 4 4 4 4 5 8 8 8 8 9 9 9 5 4 + y 9.=X<X<XwXyXDXFXFXSXDXZXDXSXJXJXJXFXSXDXBXmXaXfXyXeX8X:Xj.g.g.g.g.g.g.g.g.d.d.d.s.s.a.a.a.t.r.7.A S S A A m m m B m n b i i 1 > > - > > < < < # # # # # + + + + # # # @ @ @ @ @ @ @ @ @ @ + + + O O O O O O O O O + + + +                                                             . . . $ $ % & k f f f f g g g g c c c c v v V V c c 2 > % . . . . . . % % > h c v c v h h h g g , , f , , , & & % = $ . . . . .                                     # X   o M 2.p.p.%X%X%X$Xp.p.,.,.,.-.-.*.*.M i d s s s s x s M s s s s d u p y e 7 7 7 7 y p p s ! ! <.1.<.U H K I ' ) ' ) ) ) ) ' ' ' ' ' ' ' ' ' ' ' ' _ _ ] ] ` ` ` ` ] ] ] ] ] ] z.z.] z.z.z.z.z.z.z.z.z.z.] ] ] ] ] z.z.] ] ] [ ] ` ` ' ' ' ' ' ) L L L L L L L L L ' ' ' ' L L L L L L L L ) ) L ) L ",
"4 4 4 4 4 4 4 4 4 4 4 4 4 4 4 4 4 4 4 4 4 4 4 4 4 4 4 4 4 4 4 4 4 4 4 4 4 4 4 4 4 4 5 5 5 5 5 4 4 4 4 4 4 4 4 4 4 4 4 4 4 4 4 4 4 4 4 4 4 4 4 4 4 4 4 4 4 4 4 4 5 5 5 5 8 8 8 8 8 8 8 8 8 8 8 8 8 8 8 8 9 9 9 9 9 9 9 9 9 9 9 9 H H H H H H 9 9 H 9 9 9 9 9 H H H J U ( ( U J H J H H H H H H H K K K K K K K K K K H H H H H H H H H H H H H H H H H H H H H H H H H 9 9 9 H H 9 9 9 9 9 9 9 9 9 8 8 8 9 9 8 8 8 8 8 8 8 8 8 8 5 5 5 5 4 4 4 4 4 4 4 4 8 5 5 8 H H 9 5 + w M %X1Xj.:X:XwXZXDXDXZXZXZXDXDXFXFXFXSXDXZXmXsXiXyXwXwX:Xj.g.d.d.d.d.d.d.g.g.d.d.s.s.s.s.s.a.a.a.r.7.>.>.D S Z Z Z Z B n n z b 1 < > - - > > < > # # o o o o + + + + @ @ @ @ @ @ @ @ + + O + O + + + O O O O O O O O + + + +                                                             . . . $ $ % & f f f f f g g g g c c c v v v v V c c c 2 > > * * * * > 3 3 2 h v v v c h h h g g g , f f , , & & % = $ . . . . .                               X o # s M i M -.p.%X%X$X$X$Xp.p.9.,.,.-.*.*.*.=.j d u u u d d s s s s s s s s s s d p y 7 7 7 y p a a a ! =.2.E.Y...I I ' ) ) ) ) ) ) ' ' ' ' ' ' ' ' ' ' ' ' _ _ ] ] ` ` ` ` ] ] ] ] ] ] ] ] ] ] ] ] ] ] ] ] ] ] ] ] ] ] ] ] ` ` ` ` ` ' ' ' ' ' ' ' ) ) ) L L L L L L L L L L L L I L L L L L L L L L L L L L ",
"4 4 4 4 4 4 4 4 4 4 4 4 4 4 4 4 4 4 4 4 4 4 4 4 4 4 4 4 4 4 4 4 4 4 4 4 4 4 4 4 5 5 5 5 5 5 5 5 4 4 4 4 4 4 4 4 4 4 4 4 4 4 4 4 4 4 4 4 4 4 4 4 4 4 4 4 4 4 4 4 5 5 5 5 8 8 8 8 8 8 8 8 8 8 8 8 8 8 8 8 9 9 9 9 9 9 9 9 9 9 9 9 H H H H 9 9 9 9 H 9 9 9 9 9 9 H H H H H H H H H J H H H H H H H K K K K K K K K K K H H H H H H H H H H H H H H H H H H 9 H H H H H H 9 9 9 H H H 9 9 9 9 9 9 9 9 9 8 8 8 9 8 8 8 8 8 8 8 8 8 8 5 5 5 5 4 4 4 4 4 4 4 4 8 5 5 8 9 H 5 5 . u N a.d.0.h.8XwXfXsXfXsXhXZXZXDXSXSXDXDXZXhXsXiXwXwX>X>Xj.g.d.s.s.s.s.d.d.d.d.d.s.s.s.s.s.s.a.a.a.a.r.r.e.>.D D S D D B n N b M i < > > - > < > > # # X o o o o + + + X @ @ @ @ @ @ @ + O O O O O O O O O O O O O O O     O +                                                             . . . $ $ % & f f f f f g g g g c c c c v v v v c c c c 2 1 < 1 1 3 2 2 h h c c c h c c h h g g g , , , , , & & % % $ . . . . . .                           o > u i p.-X,X,X5X$X$X$Xp.p.p.p.p.2.,.-.*.*.*.*.M j s u u < < < < < < < d s s ! ! ! s s p p p q q p p a ! a ! <.&X&X^...I ' ) ) ) ) ) ) ' ' ' ' ' ' ' ' ' ' ' ' [ _ _ _ ] ] ] ` ] ] ] ] ] ] ] ] ] ] ] ] ] ] ] ] ] ] ] ] ] ] ] ] ` ` ` ` ' ' ' ' ' ' ' ' ) ) ' L L L L L L L L L L L L I L L L L L L L L L L L L L ",
"4 4 4 4 4 4 4 4 4 4 4 4 4 4 4 4 4 4 4 4 4 4 4 4 4 4 4 4 4 4 4 4 4 4 4 4 4 4 4 4 4 4 4 4 4 4 4 4 4 4 4 4 4 4 4 4 4 4 4 4 4 4 4 4 4 4 4 4 4 4 4 4 4 4 4 4 4 4 4 4 5 5 5 5 5 5 5 5 5 5 5 5 8 8 8 8 9 9 8 8 9 9 9 9 9 9 9 9 9 9 9 9 H H H H H H 9 9 H H 9 9 9 H H H H H H H H H H H J H H H H H H H K K K K L L K K K H H H H H H H H H H H H H H H H H H H 9 9 9 9 9 9 9 9 9 9 9 9 H H 9 9 9 9 9 9 8 8 8 8 8 8 8 8 8 8 8 8 8 8 8 8 8 4 4 8 8 8 8 8 5 5 5 5 8 8 8 8 8 H 5 w X e.;X1Xj.h.k.eXeXiXfXfXfXZXDXDXDXSXDXZXZXdXdXiXeX8X>X:Xj.j.g.d.s.s.s.s.s.s.s.s.s.s.s.s.s.s.a.a.a.a.a.r.r.e.e.8.7.>.:.:.m n N N z i u 1 > > - - > > - - # o X X o o X X X @ @ @ @ @ O O + + O O O O O O O O O O + + O O                                                                   . . . . $ $ & f f f f f f f g g g h h h h h c c c v c v c c b j h j h h h c c c c c c c h h g g g f , , & & & & % % % $ . . . . . . .                       X X M ,.$X*X-X,X-X%X%X$Xp.2.2.2.,.3.-.-.*.*.=.M j s s d d w # # + + # * y u s s ! O.O.O.! ! ! ! Q p p p a ! ! / =.E.2X&X..~ L L K L ) ) ) ' ' ' ' ' ' ' ' ' ' ' ' ) ) ) ) _ _ _ _ ' ] ] ] ` ` ` ` ' ' ` ` ` ` ' ' _ _ _ _ _ _ _ _ ) ) ) ) ) ) ) L L [ ..G.[ ' ' L K K K K L L L L L L L L L L L L L L L L L L L ) L ",
"4 4 4 4 4 4 4 4 4 4 4 4 4 4 4 4 4 4 4 4 4 4 4 4 4 4 4 4 4 4 4 4 4 4 4 4 4 4 4 4 4 4 4 4 4 4 4 4 4 4 4 4 4 4 4 4 4 4 4 4 4 4 4 4 4 4 4 4 4 4 4 4 4 4 4 4 4 4 4 4 5 5 5 5 5 5 5 5 5 5 5 5 8 8 8 8 9 9 8 8 9 9 9 9 9 9 9 9 9 9 9 9 H H 9 9 H H 9 H H 9 9 9 9 9 H H H H H H H H H H J H H H H H H H K K K K L L K K K H H H H H H H H H H H H H H H H H H H 9 9 H 9 H H 9 9 H 9 9 H H H H H 9 9 9 9 8 8 8 8 8 8 8 8 8 8 8 8 8 8 8 8 4 8 8 4 8 8 8 8 5 5 5 5 8 8 8 8 8 q 4 u p.MXGXMXyXeXwXeXwXeXiXdXhXZXDXDXDXZXhXsXfXeXeX8X8X>X:X:Xj.g.d.d.s.s.a.t.t.u.u.u.u.u.t.t.t.t.t.t.a.a.t.r.e.e.e.e.e.e.8.>.B m n N z i u 1 < > - - > > - - # o X X o o X X X @ @ @ @ @ O O + + O O O O O O O O O O + + O +                                                                   . . . . $ $ & f f f , f f f f g g g h g h h h v c c c c c c b b b b b c c c c c c c c h h g g g f , , & & & % % % $ $ . . . . . . . .               X X X - M *.,.p.$Xp.$X%X%X%X$Xp.p.2.2.2.3.-.*.*.*.M j i s s s s u y # + + + + # # y u s s O.O.O.O.o.o.o.o.! ! ! ! ! / =.<.E.3X2X..J K L ) ' ) ) ) ' ' ' ' ' ' ' ' ' ' [ [ ) ) ) ) _ _ _ _ ' ] ] ] ` ` ` ` ' ' ` ` ` ` ' ' _ _ _ _ _ _ _ _ ) ) ) ) ) ) L L [ ..X.G.' ' L L K K K K L L L L L L L L L L L L K K K L L L ) L L ",
"4 4 4 4 4 4 4 4 4 4 4 4 4 4 4 4 4 4 4 4 4 4 4 4 4 4 4 4 4 4 4 4 4 4 4 4 4 4 4 4 4 4 4 4 4 4 4 4 4 4 4 4 4 4 4 4 4 4 4 4 4 4 4 4 4 4 4 4 4 4 4 4 4 4 4 4 4 4 4 4 5 5 5 5 5 5 5 5 5 5 5 5 8 8 8 8 8 8 8 8 9 9 9 9 9 9 9 9 9 9 9 9 9 9 9 9 H H H H H H 9 9 H H H H H H H H H H H H J H H H H J J H K K K K K K K K K H H H H H H H H H H H H H H H H H H H H H H H H H H H H H H H H H H H 9 9 9 9 8 8 8 8 8 8 8 8 8 8 8 8 8 8 8 8 8 q q 8 8 8 8 5 5 5 5 5 8 8 5 5 9 5 O =.4XGXHXGXmXiXeXeXeXiXsXZXDXDXDXZXZXdXsXiXeX8Xk.k.k.k.j.j.g.d.d.i.s.a.t.r.r.r.r.r.r.r.r.r.t.t.t.t.t.t.r.w.w.w.e.7.8.8.8.8.;.B n z z i i u u < > > > > > > # o o X X o X X + + @ @ @ @ O O + + + O O O O O O O O O + + + +                                                                   . . . . $ $ & & & & & , f f f g g g h h h h h c c c c c c c c c c c c c h c c c c c c h g g g f f , , & & % % % $ $ . . . . . . . . .               o > < N ,.;.-.,.;.9.9.p.p.$Xp.2.2.2.3.3.*.=.=.M j s s d d s s s u p # + + X X + # y y u s ! ! O.O.o.=.=.=.=.<.<.=.<.<.<.1.^.2X2X....K L ] L L L ) ' ' ' ' ' ' ' ' ' ' ' ' ) ) ) ) ) ) ) _ ' ] ' ' ` ` ` ` _ _ ' ' ' ' _ _ _ _ _ ) ) ) ) ) ) ) ) L L L L L ' ......' L K K K K K K K K K K K K K K K K K K K I K L L L ) ) L ",
"4 4 4 4 4 4 4 4 4 4 4 4 4 4 4 4 4 4 4 4 4 4 4 4 4 4 4 4 4 4 4 4 4 4 4 4 4 4 4 4 4 4 4 4 4 4 4 4 4 4 4 4 4 4 4 4 4 4 4 4 4 4 4 4 4 4 4 4 4 4 4 4 4 4 4 4 4 4 4 4 5 5 5 5 5 5 5 5 5 5 5 5 8 8 8 8 8 8 8 8 9 9 9 9 9 9 9 9 9 9 9 9 9 9 9 9 H H H H H H H H H H H H H H H H H H H H J H H H H J J J K K K K K K K K K H H H H H H H H H H H H H H H H H H H H H H H H H H H H H H H H H H H 9 9 9 9 8 8 8 8 8 8 8 8 8 8 8 8 8 8 8 8 q ( ( q 8 8 5 5 5 5 5 5 5 8 5 5 9 4 O 9.uXPXKXJXZXfXiXsXZXHXKXKXJXSXZXZXdXyXwX8Xk.h.j.h.g.g.g.g.g.d.d.s.s.u.t.r.r.r.e.e.w.w.w.w.r.y.t.t.t.t.r.w.7.7.7.7.7.8.8.8.:.B b i i i i u u u < > > > - - # o o X o o X X + + @ @ @ O O O + + + O O O O O O O O O + + + +                                                                 . . . . . $ $ & & & & & , f f f f f g g g g g h h c c c c c c c c c c v c h c c c h c c g g g , f , , , & % % % % $ . . . . . . . . . .             X ,.p.e.2.2.2.;.,.B N z M -.2.,.,.-.*.*.=.M j j i s d d s s s s s d p # + + X X + # 7 y y p s ! ! o.o.=.<.<.<.<.1.1.1.1.E.E.~.2X2X^.Y.J P I L L L L ' ' ' ' ' ' ' ' ' ' ' ' ) ) ) ) ) ) ) _ ' ' ' ' ` ` ` ` _ _ _ _ ' ' _ _ ) ) ) ) ) ) ) ) L L L L L L L L K K K K L L K K K K K K K K K K K K K K K K K K I I K L L ) ) ) L ",
"4 4 4 4 4 4 4 4 4 4 4 4 4 4 4 4 4 4 4 4 4 4 4 4 4 4 4 4 4 4 4 4 4 4 4 4 4 4 4 4 4 4 4 4 4 4 4 4 4 4 4 4 4 4 4 4 4 4 4 4 4 4 4 4 4 4 5 5 5 5 5 5 5 5 5 5 5 5 5 5 5 5 5 5 8 8 8 8 8 8 8 8 8 8 8 8 8 8 8 8 5 5 5 5 5 5 5 5 9 9 9 9 9 9 9 9 9 9 9 9 9 9 9 9 H H H H H H H H H H H H J H H H H J J J H H H J K K J J H H H K K J H H H H H H H H H H H H H H H H H H H H H 9 9 9 H H H H H H 8 8 8 8 H 9 9 9 9 9 9 9 9 9 9 9 9 9 9 9 J J J J 8 8 8 8 8 8 5 5 5 5 5 5 5 q # -XMXPXPXSXhXiXiXZXFXKXKXJXJXZXmXfXyXwX7X>Xj.j.g.g.g.g.d.i.i.s.s.s.s.t.t.r.r.w.7.7.7.7.7.7.w.w.y.r.r.r.w.7.>.>.>.:.>.7.7.8.>.-.b i i i i 1 1 1 1 < > > - # # o X X o o o + + + @ + + + + + O O O O X X             O O                                                                       . . . . . . . % & & & & f f f f f g g g g g g g h h h c h h c h c c c h h h h h h h g g , , , , , , & & % % % $ $ . . . . . .   . . .   . o s < * < $X%X$Xp.2.,.,.,.;.N M M M -.-.-.-.*.=.s d d u u u d d s s s s s s p e # + X X + + 7 e e e p a ! o.o.@.<.<.<.1.1.1.1.R.E.E.OX3X3X+X^.~ J J L L L ) ) ) ) ) ' ' ' ' ' ' ' ' ' ' ' ' ' ' ' ' ` ` ' ' ' ' ' ' ) ) ) ) ) ) ) ) ) ) ) ) ) ) ) ) L L L L L L K K K K K K K K K H K K K K K K K K K K K K K K L L I L I I ' ' ' ' ' ",
"4 4 4 4 4 4 4 4 4 4 4 4 4 4 4 4 4 4 4 4 4 4 4 4 4 4 4 4 4 4 4 4 4 4 4 4 4 4 4 4 4 4 4 4 4 4 4 4 4 4 4 4 4 4 4 4 5 5 5 4 4 4 4 4 4 4 5 5 5 5 5 5 5 5 5 5 5 5 5 5 5 5 5 5 8 8 8 8 8 8 8 8 8 8 8 8 8 8 8 8 5 5 5 5 5 5 5 5 9 9 9 9 9 9 9 9 9 9 9 9 9 9 9 9 H H H H H H H H H H H H J H H H H J J J H H H H K K H H H H H K J J H H H H H H H H H H H H H H H H H H H H 9 9 9 9 H H H H H H 8 8 8 8 H 9 9 9 9 9 9 9 9 9 9 9 9 9 9 9 9 9 H H 8 8 8 8 8 8 9 9 9 9 9 5 4 ! 9.GXPXPXHXdXsXZXLXKXKXKXHXZXmXiXeX>Xj.j.j.g.g.g.d.g.d.s.u.y.y.r.r.r.r.r.r.y.e.7.7.D D D D D D 7.w.e.e.w.7.>.:.D D D D :.>.>.>.-.N i i i 2 1 1 1 1 < > > # # # o X X o o o + + + @ + + + + + O O O O X X             O O                                                                       . . . . . . . $ % = & k k f f f f g g g g g g g g g g h h h h h h h h h h h g g g g g , , , , , , , & & % % $ $ $ . . . . . . . . . . * i *.-X-X%X$Xp.9.,.,.-.-.;.*.*.M M M M *.*.*.*.=.s u < < # o + w p s s s s s s p p e + + X + + + 7 7 e p Q ! o.o.@.<.<.<.1.1.1.1.1.E.E.OX2X3X&XE.W ~ ~ J L L L ) ) ) ) ' ' ' ' ' ' ' ' ' ' ' ' ' ' ' ' ' ` ' ' ' ' ' ' ) ) ) ) ) ) ) ) ) ) ) ) ) ) ) ) L L L L L L K K K K H H K K H H K K K K K K K K K K K K K K L L I I I I ' ' ' ' ' ",
"4 4 4 4 4 4 4 4 4 4 4 4 4 4 4 4 4 4 4 4 4 4 4 4 4 4 4 4 4 4 4 4 4 4 4 4 4 4 4 4 4 4 4 4 4 4 4 4 4 4 4 4 4 4 5 5 5 5 5 5 4 4 4 4 4 4 5 5 5 5 5 5 5 5 5 5 5 5 5 5 5 5 5 5 8 8 8 8 8 8 8 8 8 8 8 8 5 5 5 5 5 5 5 5 5 5 9 5 9 9 9 9 5 5 9 9 9 9 9 9 9 9 9 9 H H H H H H H H H H H H J J H H H H H H H H H H H H H H H H H H J H H H H H H H H H H H H H H H H H H H H H H H 9 H H H H H H H 9 9 8 8 9 9 9 9 9 9 9 9 9 9 9 9 9 9 9 9 9 9 9 9 5 8 9 9 9 9 H H 9 9 9 5 7 # $XGXPXGXSXZXZXLXKXJXJXDXBXiXeXwX>Xj.d.d.i.d.d.s.s.t.t.r.w.w.y.y.w.w.w.w.w.w.7.7.>.D D D D D F >.>.>.7.>.>.>.:.D D D D :.:.:.>.-.N i i i 2 1 1 1 < < < > # # # # o o o o o + + + @ + + O + O O O O O X X X X         O O                                                                       . . . . . . . $ $ & & k k k f f f g g g g g g g g g g g g g g g g g g g g g g g , , , , , , , , , & & & % % % % $ . . . . . . . . . < *.,.,.-X-X$X$X2.,.,.,.,.-.*.*.N N M =.=.M M M M s u < # # o X X + # y p p s s d p p y # # # # # 7 e e r p Q ! o.@.@.<.<.1.1.1.1.R.R.E.E.~.&X2X&XE.<.<.( J J J L L ) L L ' ' I I ' ' ' ' ' ' ' ' ' ' ' ' ' ' ' ' ' ' ' ' ) ) L L L L L L ) ) ) ) L L L L L L L L L K K K K K H H K K H H H H H H H H J J J J J K K K K K L L I I ' ' ' ' ' ",
"4 4 4 4 4 4 4 4 4 4 4 4 4 4 4 4 4 4 4 4 4 4 4 4 4 4 4 4 4 4 4 4 4 4 4 4 4 4 4 4 4 4 4 4 4 4 4 4 4 4 4 4 4 4 5 5 q q q q 4 4 4 4 4 4 5 5 5 5 5 5 5 5 5 5 5 5 5 5 5 5 5 5 8 8 8 8 8 8 8 8 8 8 8 8 5 5 5 5 5 5 5 5 9 5 9 5 9 9 9 9 5 5 9 9 9 9 9 9 9 9 9 9 9 H H H H H H H H H H H H J H H H H H H H H H H H H H H H H H H J J H H H H H H H H H H H H H H H H H H H H H H 9 H H H H H H H 9 9 9 9 9 9 9 9 9 9 9 9 9 9 9 9 9 9 9 9 9 9 9 9 8 8 9 9 9 9 H H 9 9 5 5 # 9.4XGXGXAXSXKXKXKXLXDXZXeXeXk.k.i.i.i.0.y.u.u.t.r.w.7.7.w.w.w.w.r.r.w.7.7.w.w.7.7.7.D F D D D D D D >.>.>.>.>.:.D :.D D D :.:.>.-.N i i 1 1 1 1 1 < < < > # # # # o o o o o + + + @ O + O O O O O O O X X X X         O O                                                                         . . . . . . . $ = & & k & f f f g g g g g g g g , , g g g g g g g g g g g , , , , , , , , , , & & % & & % % % $ . . . . . . < < M 2.p.p.p.9.2.2.,.*.-.*.*.*.*.*.N N *.M =.=.i i i i u < # o # # o + + + # # y p p p p y y e y p p p p p Q Q a Q / o.@.@.<.<.<.1.<.1.R.R.E.E.~.&X2X2X~.~.~...J L J L L L L L L L L L I I ' ' ' ' ' ' ' ' ' ' ' ' ' ' ' ' ' ' L L L L L L L L ) ) ) L L L L L L L L L K K K K K H H H H H H H H H H H H H H J J J J J K K K K L L I ' ' ' ' ' ' ",
"O O 4 4 4 4 4 4 4 4 4 4 4 4 4 4 4 4 4 4 4 4 4 4 4 4 4 4 4 4 4 4 4 4 4 4 4 4 4 4 4 4 4 4 4 4 4 4 4 4 5 5 5 5 5 5 q q 9 4 4 4 4 4 4 4 5 5 5 5 5 5 5 5 5 5 5 5 5 5 8 8 8 8 8 8 8 8 8 8 8 8 8 8 8 8 8 8 8 8 5 5 5 5 5 5 5 5 9 9 9 9 5 9 9 9 9 9 9 9 9 9 9 9 9 9 9 9 H H H H H H H H H H H H H H H H H H H H H H H H K K J H H H K J J K H K H H H H H H H H H H H H H H H H H H H H H H H H H H H H 9 9 9 9 9 9 9 9 9 9 9 9 9 9 9 9 9 9 9 9 9 9 9 9 H H H 9 q q 5 w 1 ,XuXAXAXHXJXKXKXFXSXhXiXeX>Xk.h.i.0.F F w.r.w.r.r.7.7.7.7.7.7.7.7.e.e.w.7.7.7.7.7.7.>.>.D F F S D >.>.>.,.:.:.:.D :.D D :.:.:.,.;.N i 1 1 1 1 1 1 < < < > - - # # o o o # # # # # # + + + + + + + + + X + + + +                                                                                   . . . . . . . $ $ = $ & & & , f f f f f f f f f f f f f f f f f f f f f f , , , , , , , & & & & % % % % % $ . . . . . > % b j -.5.9.p.p.,.,.,.;.N N M M M M M M i i i s s i d u u < < < ; ; # # + + + + @ # # e p y p r r r p p p p a Q Q Q Q ^ o.@.@.@.<.<.<.%.<.<.R.R.R.E.+X&X2X2X&X~.^.<.J J T J K L L L L L L L L L L L ' ' ' ' ' ' ' ' L L L L I I I I ) ) ) ) ) ) L L L L L L L L L L L L L K K H H H H H H H H H H H H H H H H H J J H H H H K K K K L L L ' ' ' ' ' ' ",
"4 4 4 4 4 4 4 4 4 4 4 4 4 4 4 4 4 4 4 4 4 4 4 4 4 4 4 4 4 4 4 4 4 4 4 4 4 4 4 4 4 4 4 4 4 4 4 4 4 4 5 5 5 5 5 5 q 9 5 4 4 4 4 4 4 4 5 5 5 5 5 5 5 5 5 5 5 5 5 5 8 8 8 8 8 8 8 8 8 8 8 8 8 8 8 8 8 8 8 8 5 5 5 5 5 5 5 5 9 9 9 9 5 5 9 9 9 9 9 9 9 9 9 9 9 9 9 9 H H H H H H H H H H H H H H H H H H H H H H K K K H J H H J K J H K H H H H H H H H H H H H H H H H H H H H H H H H H H H H H H 9 9 9 9 9 9 9 9 9 9 9 9 9 9 9 9 5 9 9 9 9 9 9 9 H H H 5 q 4 O   2 uXmXHXJXKXJXFXSXdXfXeXwX8Xk.j.i.y.6.F F 7.7.>.7.>.D Z Z Z Z Z S D D :.>.>.>.>.>.>.>.>.:.D D D D S :.:.:.:.:.:.:.:.D D D D D :.;.-.N z 1 1 1 1 1 1 < < < > - - # # o o + # # # # # # + + + + + + + + + X + + + +                                                                                     . . . . . . . $ $ $ $ & & & & , f , , , , f f f f f f g g f f f f , , , , , , , , , & & & & % % $ $ $ . $ . . . % 2 Z >.p.a.p.5.,.>.;.*.N N N b i i i i i i u u < < u u u u < < < < < # # # # + + + + # # # e y p p r p p p p p p Q Q Q ^ ^ o.@.@.@.@.@.%.%.%.<.<.<.R.1.R.E.&X&X2X2X&X^.&X~.~ ..J L L L L L L K K L L L L ' ' ' ' ' ' ' ' L L L L I I I I ) ) ) ) ) ) L L L L L L K K K K K K K K H H H H H H H H H H H H H H H H H H J K H H H H K K K L L L L ' ' ' ' ' ' ",
"5 5 4 O 4 4 4 4 4 4 4 4 4 4 4 4 4 4 4 4 4 4 4 4 4 4 4 4 4 4 4 4 4 4 4 4 4 4 4 4 4 4 4 4 4 4 4 4 4 4 5 5 5 5 5 5 9 5 4 4 4 4 4 4 4 4 4 4 5 5 5 5 5 5 5 5 5 5 5 5 8 8 8 8 8 8 8 8 8 8 8 8 8 8 8 8 5 5 5 5 9 9 9 9 5 5 5 5 9 9 9 9 9 9 9 9 9 9 9 9 9 9 9 9 H H H H H H H H H H H H H H H H H H J J K K H H H H J J H H H H H H J J H H H H H H H H H H H H H H H H H H H H H H H H H H H H 9 9 9 9 9 9 9 9 9 9 9 9 9 9 9 9 9 9 9 9 9 9 9 9 9 9 9 9 H 9 9 5 p 6 + < e.MXAXHXKXHXSXdXdXiXeXwX>Xk.g.d.i.y.0.0.7.w.w.>.:.D Z A n A A Z Z Z D :.:.:.:.D :.:.:.D :.D D Z S :.:.:.:.:.;.;.;.;.Z Z Z Z Z ;.Z B N z 1 1 1 1 1 1 < < < > - - # # o o + # # # # 6 # + + + + + + + + + X X + + + + +                                                                                         . . . $ $ $ $ $ & & & & , , , , , , f f f f f f f f f f f f f , , , , , , & & & & & % % $ $ $ % % % % , n >.a.%X%X%Xp.,.Z B n b z z z 2 i 1 1 1 i u u < < 1 1 1 1 < > < < < < # ; # # + + + # # # # e p y p r p p p p p p W Q Q ^ o.@.@.%.%.%.%.%.%.%.@.%.<.<.1.1.E.&X&X2X2X&XE.3X3XY...J L ) L L L L K K L L L L I I ' ' ' ' I I L L L L I L K K L L ) ) ) ) L L K K K K K K K K H H H H H H H H H H H H H H H H H H H H H H H H H H H H K K K L L L L ' ' ' ' ' ' ",
"q 5 4 O 4 4 4 4 4 4 4 4 4 4 4 4 4 4 4 4 4 4 4 4 4 4 4 4 4 4 4 4 4 4 4 4 4 4 4 4 4 4 4 4 4 4 4 4 4 4 5 5 5 5 5 5 5 4 4 4 4 4 4 4 4 4 4 4 5 5 5 5 5 5 5 5 5 5 5 5 8 8 8 8 8 8 8 8 8 8 8 8 8 8 8 8 5 5 5 5 5 9 9 9 5 5 5 5 9 9 9 9 9 9 9 9 9 9 9 9 9 9 9 9 9 9 9 9 H H H H H H H H J H H H H H J J K K H H H H J J H H H H H H J H H H H H H H H H H H H H H H H H H H H H H H H H H H H H 9 9 9 9 9 9 9 9 9 9 9 9 9 9 9 9 9 9 9 9 9 9 9 9 9 9 H H 9 5 5 6 p x 3.4XMXGXGXAXBXaXiX8X8Xk.k.j.j.g.d.d.s.t.y.y.w.e.8.S D Z n n n n n n B Z Z ;.;.:.:.:.:.:.:.D ;.;.D Z S S ;.;.;.;.;.;.;.S Z Z Z Z Z Z B N n b i 1 1 1 1 1 1 < < > > > - # o o o + + # # # + + + + + + + + + + X X + + + + +                                                                                         . . . . $ $ $ $ $ & & & & & & & & & , , f f f f f f f f f , , , , , , , , & & & & & % % $ $ & , , C ,.p.a.d.%Xp.a.p.e.:.B b h 1 1 1 1 1 1 1 1 1 1 1 1 < > > > > > > > < < < < ; ; # # + + # # # # 7 e p p p r p p p p p p W Q ( ^ +.+.@.%.%.%.%.@.%.@.@.@.@.@.@.<.1.+X&X2X2X&X&XcXcX&XY.I ) ) L L L L K K L L L L I I ' ' ' ' I I L L K K L L K K L L L ) L L L L K K K K K K K K H J H H H H H H H H 9 H H H H H H H H H H H H H H H H K K L L L L L L ' ' ' ' ' ' ",
"p q 4 4 4 4 5 5 4 4 4 4 4 4 4 4 4 4 4 4 4 4 4 4 4 4 4 4 4 4 4 4 4 4 4 4 4 4 4 4 4 4 4 4 4 4 4 4 4 4 4 4 4 4 5 5 5 5 5 5 4 4 4 4 4 4 4 4 4 4 4 4 4 5 5 q 4 5 5 5 5 5 5 5 5 5 5 5 5 5 5 5 5 5 5 5 5 5 5 5 9 9 9 9 9 9 9 9 9 9 9 9 9 9 9 9 H H H H H H H H 9 9 H H 9 9 H H H H H H H H H H H H H H H H H H H H H H H K K K J J H H K K K K H H H H H H H H H H H H H H H H H H H H H H H H H H H H 9 9 H H H 9 9 9 9 8 9 9 H H 9 9 9 9 9 9 H 4 H H 8 J q a *.,X1XMXmXVXAXaXyXwX8X>X:Xj.h.d.d.d.d.d.s.a.t.t.r.r.e.>.;.Z n b b b b b n B B ;.;.;.;.;.:.,.:.;.S Z Z Z Z Z Z Z Z Z -.-.-.Z B B B B B N N n b z i i i i i 1 1 1 < 1 > ; # # # o + + + # # # + + + + X X X X X X X X X X X X X X                                                                                         . . . . $ $ $ $ & & & & & & & & & , f f f f , , , , , , & , & & & & & & % % % % % $ % % % f C ,.p.a.%X%X%Xa.p.,.8.,.;.B b l 2 1 < < < < 1 1 1 < < < < < - - - ; ; ; - - # # # # 7 7 6 6 6 6 6 6 7 q p p p p p p p p W W Q Q ^ +.^ +.@.%.<.%.@.@.@.+.+.^ ^ ^ ^ / <.~.&X&X2XOX~.3X3X2X^.I ) L ) L L L L L L L ) ) L L L L L L L L L I I K L L L L K K K K L L K K K K K K K K K K H H H H H H H H H H H H H H H H H H H H H H K K K K K K L L L L L ' ' ' ' ' ' ' ' ",
"q q 5 4 4 4 5 5 4 4 4 4 4 4 4 4 4 4 4 4 4 4 4 4 4 4 4 4 4 4 4 4 4 4 4 4 4 4 4 4 4 4 4 4 4 4 4 4 4 4 4 4 4 4 5 5 5 5 5 5 4 4 4 4 4 4 4 4 4 4 4 4 4 5 5 q ( W J 9 8 8 5 5 5 5 5 5 5 5 5 5 5 5 5 5 5 5 5 5 9 9 9 9 9 9 9 9 9 9 9 9 9 9 9 9 H H H H H H 9 9 H H H H H H H H H H H H H H H H H H H H H H H H H H H H H H K K H J H H K K K K H H H H H H H H H H H H H H H H H H H H H H H H H H H H 9 H H H H 9 9 9 9 8 8 9 H H 9 9 9 9 9 9 H H J 8 5 O # $XnXPXPXmXaXyXtX>X:Xj.h.i.d.i.i.u.u.s.s.s.s.s.u.a.t.r.8.>.,.;.Z B b b b b n n B B Z -.;.;.,.,.:.;.B B B B B B B B N N N N N N N n n n n n b b i i z i z i i i u 1 < < < ; - # # # # # # ; < y # # + + + + + X X X X X + X X X X X                                                                                         . . . . . $ $ $ $ $ & & & & & & & & , f , , , , , , & & & & & & & & & & & % % & & f h h C p.%Xa.a.%Xa.p.p.,.:.:.:.;.B N b i 2 1 < < < < < - - - - - - o # # # # # # # # # # ; 7 q q 7 6 7 7 q q q p p a W W W W p p W W Q ( ^ ^ ^ ^ +.@.%.@.+.+.^ ^ ^ ^ W W W ^ @.E.&X&X&X~.&X&X~.~.^.~ I L ) L L L L L L L ) ) L L L L L L L L L L I K L L L L K K K K L L L K K K K K K K K K H H H H H H H H H H H H H H H H H H H H H H K H K K K K L L L L L ' ' ' ' ' ' ' ' ",
"5 5 4 4 4 4 5 5 4 4 4 4 4 4 4 4 4 4 4 4 4 4 4 4 4 4 4 4 4 4 4 4 4 4 4 4 4 4 4 4 4 4 4 4 4 4 4 4 4 4 4 4 4 4 4 4 4 4 5 5 4 4 4 4 4 4 4 4 4 4 4 4 4 5 9 q / ( U 9 5 8 5 5 5 5 5 5 5 5 5 5 5 5 9 9 9 9 9 9 9 9 9 9 9 9 9 9 9 9 9 9 9 9 9 9 9 9 9 9 H 9 9 9 J J H H H H H H H H H H H H H H H H J J H J J H J J H H H H H H H H H H J J K K H H H H H H H H H H H H H H H H H H H H H H H H H H H H 9 9 H H H H H H H H H H H H H H 9 9 9 5 9 q 5 p + > *.NXGXGXAXMXyX7X>X:Xg.d.i.i.u.t.y.r.t.t.t.t.t.a.t.t.r.e.7.:.:.:.;.Z N b b b b n N N N N B *.;.,.,.;.B B N N N N N N N N N N N n b b b b z z z z i i z z b b z i i i u < 1 > - - - # < < < < u u < < ; # + o o o o X . . + + X X X X                                                                                         . . . . . . $ $ $ $ % & = & & & & & & = 3 3 & & & & & & = = & & & % % % . % , f h V ,.5.p.%X%Xp.a.f.e.,.:.;.Z B B N n n b i i 1 < < < > - - # # # # # o o o o o o + + + # 7 7 7 7 q 6 6 y y y y p a Q Q Q Q Q Q Q Q W W Q ( ^ ^ ^ ^ +.+.@.+.+.^ ^ ^ Y Y Y Y Y Y / 1.+XOX+X+X&XR.E.&X2X^.I ' L L L L L L L L L L L L L L L L L L L L K K K K K K K K K K K K L K K K K H H H H H H H H H H H H H H H H H H H H H H H H H H H K K K K K K L L L L L ' ' ' ' ' ' ' ' ",
"4 4 4 4 4 4 4 4 4 4 4 4 4 4 4 4 4 4 4 4 4 4 4 4 4 4 4 4 4 4 4 4 4 4 4 4 4 4 4 4 4 4 4 4 4 4 4 4 4 4 4 4 4 4 4 4 4 4 5 5 4 4 4 4 4 4 4 4 4 4 4 4 4 5 5 q W U 9 4 5 5 5 5 5 5 5 5 5 5 5 5 9 9 9 9 9 9 9 9 9 9 9 9 9 9 9 9 9 9 9 9 9 9 9 9 9 9 9 9 H H 9 9 J J J J H H H H H H H H H H H H H J J J J J J H J J J K H H H H H H H H J K K K H H H H H H H H H H H H H H H H H H H H H H H H H H H H 9 9 H H H H H H H H H H H H H H H 9 5 5 5 O + *.,XpXnXGXGXMXaXwX:Xd.i.i.y.y.y.y.y.y.y.y.r.r.r.r.r.r.r.e.e.>.:.D S ;.;.-.B n b b b b N N N N N N *.;.;.*.B B N N N N M M N M b b b b z l z z i i i i z z z M M M M b z i u < 1 > > - > < < u u u d u u u < < # # # + o o + + + X X X X X                                                                                               . . . $ $ $ $ $ $ = = = = = = = = = = = = = = = = = = = % % % % % , h ,.p.p.f.%X5X5X%X%Xa.5.5.>.:.;.B B N N N n b b i i u < < 1 < # # o o o o o o o o o o X + + X 7 7 7 7 7 q 7 7 y p p p p a Q Q Q Q Q Q Q ( ( W ^ ( ^ | ^ ^ +.+.+.+.^ ^ W Y Y r q q r r W <.E.~.E.+X&X1.( OX2X^...I L L L J J J L L L L L L L L ) L L L L L K K K K K K K K K K K K K K H H H H H H H H H H H H H H H H H H H H H H H H H H H H H H K K K K K K L L L L L ' ' ' ' ' ' ' ' ",
"4 4 4 4 4 4 4 4 4 4 4 4 4 4 4 4 4 4 4 4 4 4 4 4 4 4 4 4 5 5 5 4 4 4 4 4 4 4 4 4 4 4 4 4 5 5 4 4 4 4 4 4 4 4 4 4 4 4 4 4 4 4 4 4 4 4 4 4 4 4 5 5 5 5 5 5 q 5 5 5 5 5 5 5 5 5 5 5 5 5 5 5 5 5 5 5 9 9 9 9 9 9 9 9 9 9 9 9 9 9 9 9 9 9 9 9 H H H H H H 9 9 U U U U H H H H H H H H H H H H H H H J H H J J H H H H J H H H H H H J J J J J J J J J H J J H K K K K K K K K K J J J H H H J H H H H 9 H H H H H H H H H H H H H H H H H J q   =.*.,XMXGXGXGXAXaXtX>Xg.i.u.y.0.0.0.w.y.w.w.7.e.e.e.r.r.e.e.8.:.:.S Z -.;.-.-.B n z i i i 1 < 1 u i M M N N N N N N N N M N M M b i z z i i 2 2 2 2 2 i i i i z M M N M M b z i u 1 < < 1 1 1 1 d i i i i d u < < < - # # # + o o + + + X X X                                                                                                 . . . $ $ $ $ $ $ $ = = = = = = = = = = & = $ $ h % $ % % > , h V >.p.5X5X5X%X%X%Xd.p.e.5.>.;.Z B N N N b b b b z i u 1 < u < - # # + + o o o o + + + + o o + + ; < y y q r p p p p p p Q Q Q Q Q ^ / o./ ( ( ( ^ ^ ^ ^ | | +.+.+.^ ~ E Y Y r q q q q q r <.1.E.E.E.E.<.r E.E.<...( P 8 J J J L L L K K L L L L L L L L L L K K K K K K K K K K K H H H H H H H H H H H H H H H H H H H 9 9 H H H H H H H H H H K K K K K K K L L L L L ) ' ' ' ' ' ' ' ' ",
"4 4 4 4 4 4 4 4 4 4 4 4 4 4 4 4 4 4 4 4 4 4 4 4 4 4 4 4 5 5 5 5 4 4 4 4 4 4 4 4 4 4 4 4 5 5 4 4 4 4 4 4 4 4 4 4 4 4 4 4 4 4 4 4 4 4 4 4 4 4 5 5 5 5 5 5 5 5 5 5 5 5 5 5 5 5 5 5 5 5 5 5 5 5 5 5 9 9 9 9 9 9 9 9 9 9 9 9 9 9 9 9 9 9 9 9 H H H H H H H 9 J J J J H H H H H H H H H H H H H H H H H H H J H H H H J J H H H H H J J J J J J J J K H J J H K K K K K K K K K K J J H H H H H H H H H H H H H H H H H H H H H H H H H J q 6 *.NXGXHXHXGXVXyXeX>X>Xj.d.s.t.r.r.r.y.w.w.w.7.>.>.>.>.>.8.>.>.:.;.B B N N B N N n z 2 i u < > > > < 1 u i z z z z z z b x x b i i i u i i u 1 1 1 1 1 1 u u u u i z M N N M M b z i i i i u u u i z M M M x i i u < < ; > # # # o o + + + + X X                                                                                                 . . . . . . . . . $ $ $ $ $ $ $ $ $ $ = % % $ . $ % , h h c S p.d.,X,X,X5X%Xa.p.p.8.:.S ;.Z B B N N b b i i i i i 1 < 1 < < - # # # + + o o o + + + + + + + + + ; < y y e r p p p p p p Q Q Q Q ( ^ / / / / / / / / | |  . .+.+./ ^ E Y r 0 0 0 0 0 0 0 r / <.E.E.R.1.1.1.Q ( OX2X<.J L J J J J L L K K L L L L L L L L L L K K K K K K H H H H H H H H H H H H H H H H H H H 9 9 9 9 9 9 9 H H H H H H H H H H K K K K K K K L L L L L ) ' ' ' ' ' ' ' ' ",
"4 4 4 4 4 4 4 4 4 4 4 4 4 4 4 4 4 4 4 4 4 4 4 4 4 4 5 5 4 4 4 4 4 4 4 4 4 4 4 4 4 4 4 4 5 5 5 5 4 4 4 4 4 4 4 4 4 4 4 4 4 4 4 4 4 4 4 4 4 4 5 5 5 5 5 5 5 5 5 5 5 5 5 5 5 5 5 5 5 5 5 5 5 5 5 5 9 9 9 9 9 9 9 9 9 9 9 9 9 9 9 9 9 9 9 9 H H H H H H H H H H H H H H H H H H H H H H H H H H H H H H K K H H H H J J H H H H J J J J J J J K K K K K J J K K K K K K K K K K J J H H H H H H H H H H H H H H H H H H H H H H H H J H 5 p *.PXPXPXHXVXaXtX8Xk.j.j.s.u.t.t.u.t.e.7.D D D D D S S ;.;.;.Z B N n b b b b b b z 2 < < < > - - - > < 1 1 u 1 1 i i i i i i i i u u u u u u 1 1 1 1 1 1 1 1 1 1 i i z M N N M M b b b z z z M N N N N N N M M z i u < 1 < < ; # # # # # + + + X                                                                                                   . . . . . . . . . . . . . . . . . . . . . % % % 2 V Z ;.:.e.d.%X=X;Xd.d.a.e.5.>.:.S C B B N N b b j i 1 1 1 u 1 < > > < # # # # # # + + + X X + + + + + + # # y y y y p p r r p p p p ( ( ( ( ( ^ / @.+.+.+.+.+.$.$.+.+. .+.| | ~ Y 0 0 0 0 6 6 6 6 6 q Y / E.E.1.<.1.1.W W ~.2XE.<...J J J J L L L L L L L L L L L L L L K J J H H H H H H H H H H H H H H 9 9 9 9 9 9 9 9 9 9 9 9 9 9 9 9 H H H H H H H H H K K K K K K K L ) ) ) ) ) ' ' ' ' ' ' ' ' ",
"4 4 4 4 4 4 4 4 4 4 4 4 4 4 4 4 4 4 4 4 4 4 4 4 4 4 5 5 4 4 4 4 4 4 4 4 4 4 4 4 4 4 4 4 5 5 5 5 4 4 4 4 4 4 4 4 4 4 4 4 4 4 4 4 4 4 4 4 4 4 5 5 5 5 5 5 5 4 5 5 5 5 5 5 5 5 5 5 5 5 5 5 5 5 5 5 9 9 9 9 9 9 9 9 9 9 9 9 9 9 9 9 9 9 9 9 H H H H H H 9 9 H H H H H H H H H H H H H H H H H H H H H H K K H H H H H H H H H H J J J J J J J K K K K K J J K K K K K K K K K K J J H H H H H H H H H H H H H H H H H H H H H H H H H 9 W =.%XPXGXBXsXtX8X>X:Xj.g.i.s.u.s.s.t.e.>.S S A B m n n n N N N n b b b 2 1 1 2 1 1 1 < - - - o o o o - > < < < 1 < 1 1 1 1 1 1 1 1 u 1 1 1 1 1 1 < < < < < < < < < 1 i i b M N N N N n n n n B Z ;.;.;.Z B B N N N b i u u < < < < # # # # # + X X X                                                                                                     . . . . .   . . . o . . . . . . . % 2 B >.>.p.%X%X%X%X%X%Xd.8.e.,.>.>.S :.S S C B N N N b b b i u < < < u 1 > - # # # # # # # # # + + X X + + + + + + # # w y y y p p r r r r p r ( ( ^ ^ ^ ^ / +.+.$.$.$.$.$.$.+. . .+.| ^ E q 0 0 6 6 6 6 6 0 0 q q r E.E.<.=.1.1.Q Q <.E.3X2XY.J J J J L L L L L L L L L L L L K K K K K H H H H H H H H H H H H H 9 9 9 9 9 9 5 5 5 9 9 9 9 9 9 9 H H H H H H H H H H K K K K K K K L ) ) ) ) ) ' ' ' ' ' ' ' ' ",
"4 4 4 4 4 4 5 5 4 4 4 4 5 5 5 5 5 5 5 4 4 4 4 4 4 4 4 4 4 4 4 4 4 4 4 4 4 4 4 4 4 4 4 4 4 4 4 4 5 5 4 4 4 4 4 4 4 4 4 4 4 4 4 4 4 4 4 4 4 4 4 4 4 4 5 5 5 5 5 5 5 5 5 5 8 8 8 8 5 5 5 5 9 9 5 9 9 9 9 9 9 9 9 9 9 9 9 9 9 9 9 9 9 9 9 9 9 9 9 9 9 9 9 9 H H H H H H H H H H H H H H H H H H J H H H H H H H H K K H H H H H K K J J K K K K K K K K K K K K K K K K K K K K K K K K K K H H H H H H H H H H H H H H H H H H H H 8 q O ,XuXGXGXsXyXwX>X:Xj.d.i.t.t.t.t.t.>.>.D D m n b l b b b b b b b b j i 1 1 1 1 1 < < > o o o o o o o o o - > < < < < < < < < < < < < < 1 1 < < > > > > < < < 1 < u < u i i z N N N B B B B B B ;.,.,.>.,.:.;.;.-.N b i i u d i i d d u u < ; # + + X .                                                                                                     .       . . . . . . X . . . . * > B %X,X,X,X,X%X%Xa.p.e.e.e.8.>.,.:.Z Z B B B n n n b b j i i 1 < > # o # # # # # # + + # # # # # # # # # # # # # # 7 7 e e e e r r r r p p Q Q W ^ ^ ^ ^ | +.$.$.$.$.$.$.$. . . .| | / T J 0 0 0 0 0 0 6 6 6 6 7 r W <.E.<.<.1.<.W r o.E.3X3X<.J J J J K K K K K K K K K K K K K K J J H H H H H H H H H H H H H H 9 9 9 9 9 9 9 9 9 9 9 5 9 9 H H H H H H H H H H H H K K K K K K K L I I L ) ) ' ' ' ' ' ' ' ' ",
"4 4 4 4 4 4 5 5 4 4 4 4 5 5 5 5 5 5 5 4 4 4 4 4 4 4 4 4 4 4 4 4 4 4 4 4 4 4 4 4 4 4 4 4 4 4 4 4 5 5 4 4 4 4 4 4 4 4 4 4 4 4 4 4 4 4 4 4 4 4 5 5 5 5 5 5 5 5 5 5 5 5 5 5 8 8 8 8 5 5 5 5 9 9 9 5 9 9 9 9 9 9 9 9 9 9 9 9 9 9 9 9 9 9 9 9 9 9 9 9 9 9 9 9 H H H H H H H H H H H H H H H H H J J H H H K H H H K K K H H H H H K K J J K K K K K K K K K K K K K K K K K K K K K K K K K K J H H H H H H H H H H H H H H H H H H H J r a uXGXmXsXeX8X:Xj.i.u.y.w.w.w.>.>.>.S S B n l l 2 1 1 1 1 u u u u u 1 1 < < < < < < > - o X X X X X X X o o o - > > > > > > > > > > > > < < > > - - - - - > > > < < < < 1 i 1 b z B Z Z Z Z Z D ,.8.8.8.8.8.8.8.>.;.B N b z z M *.*.=.s d u < ; # + + X                                                                                                             . . X X X . X X   1 ;.%X%X1X4X4X1X5X%Xa.p.e.>.>.,.>.:.;.;.;.;.Z B B N N N N b b j i i u < - o o o + # # + + + # # # 7 7 7 7 7 7 # 6 6 6 6 6 7 e r y q e r r r r r p W Q W ^ ^ ^ | | +.$.$.$.$.$.$. . .|  . .| ~ Y q 0 6 0 0 6 6 5 6 6 0 6 q p o.1.<.<.<./ q r <.=.*X2X<.J J J J K K K K K K K K K K L K J J J J H H H H H H H H H H H H H H 9 9 9 9 9 9 9 9 9 9 5 5 9 9 H H H H H H H H H H H H K K K K K K K L I I L L ) ' ' ' ' ' ' ' ' ",
"4 4 4 4 4 4 5 5 4 4 4 4 4 4 4 4 5 5 5 4 4 4 4 4 4 4 4 4 4 4 5 5 5 5 5 5 4 4 4 4 4 4 4 4 4 4 4 4 5 4 4 4 4 4 4 4 4 4 4 4 4 4 4 4 4 4 4 4 4 4 4 4 5 5 5 5 5 5 5 5 5 5 5 5 8 8 8 8 5 9 5 5 9 5 5 5 9 9 9 9 9 9 9 9 9 9 9 9 9 9 9 9 9 9 9 9 9 9 9 9 9 9 9 9 H H H H H H H H H H H H H H H H H H H H J J K J H H H H H H H H H H K K J J K K K K K K K K K K I K I I K K K K K K K K K K K K K K K K K K K K K K H J J J J J H H J H r Q ! nXAXmXsXwX>X;Xd.u.0.7.D D D S S S Z B n b b z 1 1 1 1 1 1 1 1 < < < < < < > > > > > - o X X X X X X X X X o o o o o o o o o o - - # # - - > - - - - - - - > < > < < < 1 1 1 l b :.>.>.>.D D >.e.r.t.t.r.r.r.r.e.>.;.Z B N M M *.*.*.*.M i u < - # o o X                                                                                                           . . X X X o o 3 3 D a.1X1X<X1X,X%Xa.e.e.,.:.:.,.;.;.B N N B B N N N N M M b z i i d u u < > # o # + + # + + # @ @ 7 7 7 7 7 7 e 7 7 7 7 7 q p p r r r r r r r r r W W Q W ^ ^ ^ | | +.$.$.$.$.$. .| | | | | / ~ Y q 0 0 0 6 6 6 5 5 6 6 6 7 r W <.<.<.o.^ W ^ @./ E.E.<.J J J J J J K K K K J J J K K J J J J J H H H H H H 9 9 H H H H H H H H H H 9 9 9 9 9 9 5 5 5 9 H H H H H H H H H H K K K K K K K K K L I L L L L ' ' ' ' ' ' ' ' ",
"4 4 4 4 4 4 5 5 4 4 4 4 4 4 4 4 5 5 5 4 4 4 4 4 4 4 4 4 4 4 5 5 5 5 5 5 4 4 4 4 4 4 4 4 4 4 4 4 5 5 4 4 4 4 4 4 4 4 4 4 4 4 4 4 4 4 4 4 4 4 4 4 q q q q 5 5 5 5 5 5 5 5 8 8 8 8 9 9 5 5 5 5 5 5 9 9 9 9 9 9 9 9 9 9 9 9 9 9 9 9 9 9 9 9 9 9 9 9 9 9 9 9 H H H H H H H H H H H H H H H H H H H H H J H H H H H H H H H H H H K K J J K K K K K K K K K K I K K I K L L L L K K K K K K K K K K K K K K K K K H J J J J J H H H J 4 $XnXGXCXyXyX:Xd.i.t.w.F D >.:.D Z Z B B n b b z i i 1 1 1 1 < < < < < > > > > > > > > - o o X X X X X X X X X o o o o X X X X o o o o o o # # - # # # - - - - - > > > 1 < < 1 l b n e.e.e.w.7.7.w.r.a.s.s.s.s.d.d.d.a.a.p.e.,.,.,.,.;.-.*.*.M i u 1 - # + o X X                                                                                                       . . X X > 3 S ;X1XrX4X<X,X%Xp.e.>.>.>.>.;.;.;.;.N N b i i i z M N M z i i i u u u u < < - # # + + + # # + # # 6 6 6 6 6 e e e q q q r q q q p r r r r r r r r r r W W Q W ^ ^ ^ ^ +.+.+.$.$.$.$. .| ~ ~  .| | J Y q 0 6 6 6 6 6 6 5 6 6 6 7 r W <.1.<.o.o.1.1.Q Q ! =.<.J J J J K K K K J J H H H H H H H H H H H H H H H H 9 9 9 9 H H H H H H H H H 9 9 9 9 9 5 5 5 9 H H H H H H H H H H K K K K K K K K K K I I L L L ' ' ' ' ' ' ' ' ",
"4 4 4 4 4 4 4 4 4 4 4 4 4 4 4 4 4 4 4 4 4 4 4 4 4 4 4 5 5 5 5 5 5 5 5 5 4 4 4 4 4 4 4 4 4 4 4 4 4 4 4 4 4 4 4 4 4 4 4 4 4 4 4 4 4 4 4 4 4 4 4 4 5 q ( / q 9 5 5 5 5 5 5 8 8 8 8 9 5 5 5 5 5 5 5 9 9 9 9 9 9 9 9 9 9 9 9 H H H H 9 9 9 9 9 9 9 9 9 9 9 9 H H H H H H H H H H H H H H H H H H H H H H H H H H H H J J H H H H H H J J J J K K K K K K K K L L L L L ) ) ) L L L L L L K K K K K K K K K K K K H H H H J J H H H J q &XNXGXmXyXwXj.g.t.w.>.S D Z B N N N N N N b i i i 1 < 1 1 < < < < < < * * o o o o o o o o o o X X X X o o o o o o o o o o o o o o o o o o + # # # # # * * * * # # o # 1 1 i 2 2 c B a.r.w.w.7.w.r.s.d.g.g.g.g.g.g.d.d.s.a.p.p.e.,.,.,.,.-.*.*.N i < # ; # # +   o o       X X                                                                                   . X     . 1 ,.:.p.a.rX4X<X1X,Xa.a.e.8.>.,.:.;.;.-.*.N M i u 1 1 u u u i d d i u < - # # # # # # # # + # + # # 7 7 7 7 7 6 0 0 7 7 q q q q r r r r r r r r r r r r r r r r r r W Q ^ ^ +.+.+.$.$.$.$.$. .| ~ ~ |  .| T H 9 0 6 6 6 6 6 5 5 6 6 6 5 q W ( 1.<.@.<.E.<.q q W <.E.<.{ P J J K K J H H H H J J H H H H H H H H H H H H 9 9 9 9 9 9 9 9 9 9 9 9 9 9 9 9 9 9 5 5 5 9 H H H H H H H H H H H H J J J J J J J K K L L L L L I I L L L L L ",
"4 4 4 4 4 4 4 4 4 4 4 4 4 4 4 4 4 4 4 4 4 4 4 4 4 4 4 4 5 5 5 5 5 5 5 5 4 4 4 4 4 4 4 4 4 4 4 4 4 4 4 4 4 4 4 4 4 4 4 4 4 4 4 4 4 4 4 4 4 4 4 4 5 q / X.( U 9 4 5 5 5 5 8 8 8 8 5 5 5 5 5 5 5 5 9 9 9 9 9 9 9 9 9 9 9 9 H H H H 9 9 H H 9 9 9 9 9 9 9 9 H H H H H H H H H H H H H H H H H H H H H H H H H H H H K K H H H H J J J J J J K K K K K K K K L L L L ) ) ) ) L L L L L L K K K K K K K K K K K K H H H H H J H H H H 5 2.nXCXpX7X>Xj.s.e.:.S B N N b b b b b z i 1 1 < < > > * * * * # o o o o o X X . . X X o o o o X X X X o o X X o o X X X X X X o o o o o o o o o o # # # # # # # # # # 1 i b b l m D s.a.r.y.y.u.i.g.;X:X:X:X:X:X;X=Xg.d.d.s.a.a.e.>.,.,.,.,.,.;.N i < 1 > # # < < ; + # + o X     X X                                                                             y *.*.$X,X4X4X4X1X%X%Xp.,.e.e.,.,.:.;.S B B *.M M s u u < < 1 1 1 1 < < < > - # o o + + o o + o o + + + # # 7 7 7 7 7 7 7 7 7 7 7 7 7 7 r q t r r r r r r r r r r r r r t r E W ^ ^ +.+.+.+.$.$.$.$. .| { { |  .| ~ H 0 0 6 6 6 6 6 5 5 6 6 6 6 q r W <.<.<.<.R.@.q q W 1.&XOXY.| J J J J J H H H H H H H H H H H H H H H H 9 9 9 9 9 9 9 9 9 9 9 9 9 9 9 9 9 9 9 9 5 5 5 9 H H H H H H H H H H H H J J J J J J K K K K K K I L I L K K K K L ",
"4 4 4 4 4 4 4 4 4 4 4 4 4 4 4 4 4 4 4 4 4 4 4 4 4 4 5 5 5 5 5 5 5 5 5 5 4 4 4 4 4 4 4 4 4 4 4 4 4 4 4 4 4 4 4 4 4 4 4 4 4 4 4 4 4 4 4 4 4 4 4 4 5 5 ( ( ( U 9 4 5 5 5 5 8 8 8 8 5 5 5 5 9 5 9 5 9 9 9 9 9 9 9 9 9 9 9 9 H H H H 9 9 J U 9 9 9 9 9 9 9 9 H H H H H H H H H H H H H H H H H H H H H H H H H H H H K J H H H H K J J J J J K K K K K K K K L L L L L ) L L L L L L L L L L K K K K K K K K K K K K K K J J H H J J p 2.4XNXuX>X:Xj.s.8.:.B N N M j u 1 1 1 1 1 < < < < > # # # # # o o o o o o X X X X X X o o X X X X X X X X X X X X X X X X X X X X X X X X o o o o o o o o o o # # # # > z B ;.Z >.e.d.s.s.u.u.y.i.g.:X<X>X>X>X>X:X:X;X;X=Xd.d.d.p.e.>.,.,.,.,.,.;.N i 1 < > - < ; # < y y < # X                                                           X X             X X X o *.$X,XrXrX4X4X5X%Xp.,.*.B ;.;.;.;.*.B N N M i d u u u u < < < < - - # # # # o X o o o o o o X X o + X X + + 7 7 7 7 e e r e 7 7 7 7 7 7 r r r r t r r r p p r r W W r r r r Y E R ^ ^ ^ |  . . . . . .| | { | |  .| J 0 0 6 6 6 6 6 5 5 6 6 6 6 0 q Y <.<.<.<.1.^ Y 0 Y @.E.R.R./ J H J J H H H H H H H H H H H H H 9 H H H 9 9 9 9 9 9 9 9 9 9 9 9 9 9 9 9 9 9 9 9 5 5 5 9 H H H H H H H H H H H H H H H H H H H H K K K K K K K K K K K K K ",
"4 4 4 4 4 4 4 4 4 4 4 4 4 4 4 4 4 4 4 4 4 4 5 5 4 4 5 5 5 5 5 5 5 5 5 5 4 4 4 4 4 4 4 4 4 4 4 4 4 4 4 4 4 4 4 4 4 4 4 4 4 4 4 4 4 4 4 4 4 4 4 4 5 4 q 5 q 5 5 5 5 5 5 5 8 8 8 8 5 5 5 5 5 9 5 5 9 9 9 9 9 9 9 9 9 9 9 9 H H H H 9 J U ~ 9 9 9 9 9 9 9 9 H H H H H H H H H H H H H H H H J J H H H H H H H H H H J J H H H H K J J J J K K K K K K K K L L L L L L L L L L L L L L L L L K K K K K K K K K K K K K K J J H J J q E.nXnXuXrX;Xd.t.e.;.n b u 1 < > * > > > 1 1 < u u < < # # # # # o o o o o o . X X X X X o o X X X X X X X X X X X X X X X X X X X X X X X X o o o o o o o o o o + # o - 1 N :.e.a.s.a.s.i.d.d.i.d.j.>X7XwXwX7X8X7X>X:X:X:X;X;X=X%Xa.p.e.e.e.8.8.e.,.;.N b 1 < > u < u =.=.=.*.*.*.s # X X X                                               X o - i i i i b ;.p.%X*X$X%X5X$X,X%X;.N N N i j i u u i j M M j i u u < u u u u < < < ; # # # o o o o o o o o o + X X X X X X X X + + 7 7 7 7 e e e e e 7 7 7 7 7 q 7 7 r r r r r p W W W W W W W r Y r Y W R ^ ^ | | | |  . . .| | | | | | / Y q 0 6 6 6 6 6 5 5 6 6 6 6 6 q r @.<.<.<.<.^ W q 0 r ^ E.2X| ~ J H H H H H H H H H H H H H H H 9 9 H H 9 9 9 9 9 9 9 9 9 9 9 9 9 9 9 9 9 9 9 9 9 5 5 9 H H H H H H H H H H H H H H H H H H H H K K K K K K K K K K K K K ",
"4 4 4 4 4 4 4 4 4 4 4 4 4 4 4 4 4 4 4 4 4 4 4 4 4 4 5 5 4 4 4 4 4 4 4 4 4 4 4 4 4 4 4 4 4 4 4 4 5 5 5 5 5 5 5 4 4 4 4 4 4 4 4 4 4 4 4 4 4 4 4 4 4 4 4 4 4 4 4 4 4 4 4 4 4 4 4 4 5 5 5 5 5 5 5 5 5 5 5 9 9 H H H H H 9 9 H H H H H J ~ ( H H H H 9 H 9 H H H H H H H H H H H H H H H H H H H H J H H H H H H H H H H H H H H H H K K K K L L L L K L L L L L L L ' ' ' ' ' ' ' ' L L L L L L L L K K K K K K K K K K K H H K U q 5XMXnX<X1X;Xd.8.,.N z i 1 < 1 > # # # # # # # # # # < < # o o X . . o o . . o o o X X X X X X X X X X X X       X X . . X X X X X X X X . . o o o o o o o o o o o # - > u B ,.%X%X%Xd.t.i.d.h.i.i.j.>XtXwXwX8X>X>X8X>X:X:X:X;X;X=X%Xa.p.p.p.e.e.p.p.8.;.N M 1 - u u s M =.=.3.2.3.3.=.< X X                     X X       y < d o X # u d d > z b -.,.,.9.5X%X4X4X4X5Xp.2.2.-.i < > o o o * > > > < < u u u u u y y y y y y y y + + + + X X X X X X X X X O + + + O + + + + @ @ # 7 7 7 7 e r e q q q q q q q q 7 q r r r p W W W W Q Q Q Q W W W W R R ^ ^ ^ ^ ^ | | | | | | | | +.$.$.( Y 0 6 6 6 6 6 5 5 6 6 0 0 0 q Y +.<.<.1.<.o.( Y 0 6 r ^.2XY.$.J H 0 0 H H 9 H H H H 9 9 9 9 9 9 9 9 9 9 9 9 9 9 9 9 9 9 9 9 9 5 5 5 5 9 9 9 5 9 9 9 9 H H H 9 H H H H H H H H H H H H H H H H K K K K J J J J J J K K K ",
"4 4 4 4 4 4 4 4 4 4 4 4 4 4 4 4 4 4 4 4 4 4 4 4 4 4 5 5 4 4 4 4 4 4 4 4 4 4 4 4 4 4 4 4 4 4 4 4 5 5 5 5 5 5 5 4 4 4 4 4 4 4 4 4 4 4 4 4 4 4 4 4 4 4 4 4 4 4 4 4 4 4 4 4 4 4 4 4 5 5 5 5 5 5 5 5 5 5 5 9 H H H 9 H H 9 9 H H H H 9 8 8 8 H H H H H H 9 9 H H H H H H H H H H H H H H H H H H H H H H H H H H H H H H H H H H H H K K K K L L L L K K L L L L L L ' ' ' ' ' ' ' ' L L L L L L L L K K K K K K K K K K K J J H H 4 ,.<X1X%X%Xa.r.;.*.M i 1 1 - o o # # # # # # # # # # # # o X X X X X X X . . X X X X X X X X . . X X X X X X   . X X . . X X X X X X X X . . + + + + o o o o o o o # > < u ;.p.,X4X,X=Xs.u.i.i.i.h.>XwXyXyXtXwXwX>X8X8X>X:X:X:X;X;X=X%Xd.a.a.p.p.p.p.e.,.;.-.N M s i s M =.=.*.2.$X$X$X2.*.s + X X X     X           o # # *.,.$X$X$Xp.,.,.2.9.%X-X,X1X,X,X%X%X-X%Xp.,.M < 1 < X o o o o o o o o # # # # * * * * # # # # # + + + + + + +     + + + + X   O O + + O O + + + + @ @ O # 6 7 7 7 e e q q q q q q q 7 7 q r r r r r r p p W W W W W W W W R ^ ^ ^ T T T T ^ ^ ^ ^ ^ ^ | | | / ^ W q q 5 5 6 6 6 0 0 5 0 0 0 r Y / <.<.1.<.+.( Y 0 6 Y <.~.&X~.~ J 9 0 9 9 9 9 H H H 9 9 9 9 9 9 9 9 9 9 9 9 9 9 9 9 9 9 9 9 9 5 5 5 5 9 9 9 9 9 9 9 9 H H H H H H H H H H H H H H H H H H H H K K K K J J J J J J J J K ",
"4 4 4 4 4 4 4 4 4 4 4 4 4 4 4 4 4 4 4 4 4 4 4 4 4 4 5 5 4 4 4 4 4 4 4 4 4 4 4 4 4 4 4 4 4 4 4 4 5 5 5 5 5 5 5 4 4 4 4 4 4 4 4 4 4 4 4 4 4 4 4 4 4 4 4 4 4 4 4 4 4 4 4 4 4 4 4 4 5 5 5 5 5 5 5 5 5 5 5 9 H H 9 9 H H 9 9 H H H H J J 9 8 H H H H H H H 9 H H H H H H H H H H H H J J K K H H H H H H H H H H H H H H H H H H H H K K K K L L L L L L L L ' ' ' ' ' ' ' ' I I ' ' L L L L L L L L K K K K K K K J J J J J J H H r N =X;Xs.a.p.e.;.M u < - o o X X o o o o o o o o o o o o X X X X X X X X X X X X X X X X X X X X X X X X X X . . X X . . X X X X X X . . . . o o + + o o o o # o o # > > i ;.p.,X<X,X=Xs.i.d.h.i.i.8XwXyXiXyXeXeXwXwXwX7X7X>X>X1X;X;X=Xd.d.a.a.p.p.e.8.,.,.;.*.*.M s d M =.=.*.3.2.$X$Xp.p.3.s # s u < # # o X   X o y s *.p.$X,X*X*Xp.3.2.p.p.-X,X1X,X,X,X*X%X,.,.*.i - # # # o o o o o o o o o o o o o # # # # o o o o + X X X X X             + O     O O + + O O + + O O @ @ + + 6 6 7 7 7 e q q q q q 7 7 7 7 7 r r r r r r r r p p W W W W W W ^ ^ ^ R E E E E T E W W W ~ ~ ~ ^ ^ +.^ W W r q q 0 0 0 q q q 0 0 r Y ( @.<.1.<.+.( Y 0 6 Y <.R.2X&X<.Y 9 9 9 9 9 9 H H 9 9 9 9 9 9 9 9 9 9 9 9 9 9 9 9 9 9 9 9 9 9 5 5 5 5 9 9 9 9 9 9 9 9 H H H H H H H H H H H H H H H H H H H H J J H H H H H H H H H H H ",
"4 4 4 4 4 4 4 4 4 4 4 4 4 4 4 4 4 4 4 4 4 4 4 4 4 4 5 5 4 4 4 4 4 4 4 4 4 4 4 4 4 4 4 4 4 4 4 4 5 5 5 5 5 5 5 4 4 4 4 4 4 4 4 4 4 4 4 4 4 4 4 4 4 4 4 4 4 4 4 4 4 4 4 4 4 4 4 4 5 5 5 5 5 5 5 5 9 9 5 9 H H 9 9 H H 9 9 9 9 9 H H H H H H H H H H H H 9 H H H H H H H H H H H H J J K K H H H H H H H H H H H H H H H H H H H H K K K K L L L L L L L K ' ' ' ' ' ' ' ' I ' ' ' L L L L L L L L K K K K K K K J J J J J J H ( <.a.t.7.7.S B B 2 i < - X X X X X X o o o o o o o o o o . X X X X X X X X X X X X X X X X X X X X . X X X X X X .   X . . . X X X X X X X . . o o # # o o . . . o o # > 1 M ;.9.%X1X;Xd.s.d.j.j.j.k.eXiXfXfXfXiXyXyXyXyXtXtXwXwX7X1X;X;X=Xd.a.a.p.p.e.8.,.;.-.*.M M s d M =.=.=.*.,.p.$X$X$X$Xp.2.2.*.=.x =.=.*.*.3.3.2.2.p.$X$X-X*Xp.2.3.2.p.p.%X-X-X%Xp.p.2.,.*.M d - o o o o o # o o o o o o o . . . . o o o o . . X X X X                     + +     O + + + O O + + O O @ @ + + @ 6 6 7 7 7 q q q q q 7 7 7 7 7 r r r t r r r r r r Y Y Y Y W W W ^ R W E Y E E E Y Y Y W W E T ^ ^ / / ^ ( W W r q q r q q q Y Y Y q ^ @.<.1.<.+.^ Y 0 6 Y R.E.&X2XE.( J 9 H J 9 9 9 H 9 9 9 9 9 9 9 9 9 9 9 9 9 9 9 9 9 9 9 9 9 9 5 5 5 5 9 9 9 9 9 9 9 9 H H H H H H H H H H H H H H H H H H H H J J H H H H H H H H H H H ",
"5 5 5 5 5 5 5 5 4 4 4 4 4 4 4 4 4 4 4 4 4 4 4 4 4 4 4 4 4 4 4 4 4 4 4 4 4 4 4 4 4 4 4 4 4 4 4 4 5 5 5 5 5 5 5 4 4 4 4 4 4 4 4 4 4 4 4 4 4 4 4 4 4 4 4 4 4 4 4 4 4 4 4 4 4 4 4 4 5 5 5 5 5 5 5 5 9 9 9 9 H H H 9 H H H H H H H H H H H H H H 9 H H H H H H H H H H H H H H H J J K K J J K K K K K K K K K K K K K K K K K K K K K K K K L L L L ' ' ' I ' ' ' ' ' ' ' ' ' ' ' ' ' ' ' ' L L L L L L L L L L K K I K J J J 8 ..-X;Xr.w.D S m b 1 < > X X X X X X X X X X X X X X X X X X   X X X X X X X X X X X X X X X X X X X . . . . X X X X   X X X X X X X # # # # # # o o # # # # . o o o o * > < u ;.e.,X;X%Xd.s.d.:X>X>X8XsXsXsXsXfXfXiXiXiXiXiXyXtXwX7X<X:X;Xd.d.s.a.p.e.e.>.;.*.*.*.=.=.s d u M M *.3.,.p.$Xp.2.*.M M =.*.3.*.3.2.$X$X$X$X$X*X-X*X*X*X*Xp.2.2.p.$X$X$X%X$X$Xp.;.M x d d ; # o # # # # o o + + # + o o o . . . . . X X . . X X X               + +       X X X O O O O O O O O O O O @ + + @ @ 6 6 6 7 q q q q q q 7 7 6 6 7 7 7 7 7 7 q q 7 7 t t t t Y Y W W W W Y W W W W W W Y Y Y E E E E ^ ^ / ^ ^ ^ W W E Y Y Y Y Y Y Y Y ^ +.<.<.<.R./ W 0 q +.@.<.OX&XR.<.9 9 J J ~ ( 9 9 9 9 9 9 9 9 9 9 9 9 9 9 5 5 5 5 5 5 5 9 9 9 9 9 9 5 5 5 5 5 9 9 9 9 9 9 9 9 9 9 9 9 9 9 9 H H H H H H H H H H H H H H H H H H H H H H ",
"5 5 5 5 5 5 5 5 4 4 4 4 4 4 4 4 4 4 4 4 4 4 4 4 4 4 4 4 4 4 4 4 4 4 4 4 4 4 4 4 4 4 4 4 4 4 4 4 5 5 5 5 5 5 5 4 4 4 4 4 4 4 4 4 4 4 4 4 4 4 4 4 4 4 4 4 4 4 4 4 4 4 4 4 4 4 4 4 5 5 5 5 5 5 5 5 9 9 9 9 H H 9 9 H H H H H H H H H H H H H H 9 9 H H H H H H H H H H H H H H J J K K J J K K K K K K K K K K K K K K K K K K K K K K K K L L L L ' ' I I ' ' ' ' ' ' ' ' ' ' ' ' ' ' ' ' L L L ) L L L L L L L K I K I J J 5 W 4X;X6.F S m n i 1 < o X X X X X X X X X X X X X X X X X X         X X X X         X X X X X X X X . . X . X X X X   X X X X X X X # # # # # # o o o + + o . . . o o * > < u *.,.%X=X%Xd.=X:XwXyXeXeXdXBXhXdXsXfXfXfXfXiXiXiXyXyXtX7X>X:X;Xd.s.t.e.e.,.:.;.-.*.*.=.=.s d u u i *.,.,.2.3.=.M u < u u s *.,.2.9.$X*X*X*X*X-X*X$X$X$X$X$X$X$X$Xp.2.2.3.*.M i u < < > # + o o o o o o o o o o o . . . X X X X . . . . . .                     + + X +   X X X O O O O + + O O O O O @ + + @ @ @ 6 6 6 7 7 q q q q 7 7 7 6 6 7 6 6 6 6 0 0 0 0 q q 0 0 Y Y W W W W W W W W W W W r r Y Y E E E E ^ ^ / +.| ^ ^ ^ E Y Y Y Y Y Y Y ^ +.<.<.<.Y.^ W q Y / ( / @.E.2X&X<.W J J W ( 9 9 9 9 9 9 9 9 9 9 9 9 9 9 9 5 5 5 5 5 5 5 9 9 5 9 9 5 5 5 5 5 9 9 9 9 9 9 9 9 9 9 9 9 9 9 9 9 H H H H H H H H H H H H H H H H H H H H H ",
"5 5 5 5 5 5 5 5 4 4 4 4 4 4 4 4 4 4 4 4 4 4 4 4 4 4 4 4 4 4 4 4 4 4 4 4 4 4 4 4 4 4 4 4 4 4 4 4 5 5 5 5 5 5 5 4 4 4 4 4 4 4 4 4 4 4 4 4 4 4 4 4 4 4 4 4 4 4 4 4 4 4 4 4 4 4 4 4 5 5 5 5 5 5 5 5 5 5 9 9 H H H H H 9 9 9 J J H H H H H H H 9 9 9 H H H H H H H H H H H H H H J J K J J J K K K K K K K K K K K K K K K K K K K K K K K K L L L L ' ' ' ' ' ' ' ' ' ' ' ' ' ' ' ' ' ' ' ' ' ' ) ) L L L L L L L L I I K J U p =.%Xd.F A A m b 1 < - X X X X X X X X X X X X X X X X X X X         X X X X         X X X X X X X X X X X X X X X X X X X X X X o o o + + # # o o o . . . . . . . o o # 1 u 1 N ;.a.%Xd.=X1X>XyXaXiXfXhXhXhXBXdXsXfXfXfXfXsXsXfXpXyXwX7X>X:X;Xd.a.r.8.>.;.Z *.*.*.*.=.x d u < u M 3.*.*.M d < # # u d =.*.2.p.$X*X*X*X*X*X*X$X$Xp.$X2.9.9.2.2.3.*.M s u < < o o o # + o o o o X X X X X X X X X X X X X X . . .                             + + + +     X X O O O O + + + + O O @ X @ # # @ @ @ @ 6 6 7 q q q q 7 7 7 7 6 6 6 6 6 6 0 0 0 6 0 0 0 0 Y Y W ^ W W W W W W W W W Y W W Y E E E E T ^ | +.+.@.+.^ ^ T Y Y Y Y Y E ^ +.$.$.@.<.^ Y Y E ( / / <.E.3XcXE.( q q J Y J 9 H H 9 9 9 9 9 9 9 9 9 5 5 5 5 5 5 5 5 5 5 5 5 5 5 5 5 5 5 5 9 9 9 9 9 9 9 9 9 9 9 9 9 9 9 9 H H H H H H H H H H H H H H H H H H H H H ",
"5 5 5 5 5 5 5 5 4 4 4 4 4 4 4 4 4 4 4 4 4 4 4 4 4 4 4 4 4 4 4 4 4 4 4 4 4 4 4 4 4 4 4 4 4 4 4 4 5 5 5 5 5 5 5 4 4 4 4 4 4 4 4 4 4 4 4 4 4 4 4 4 4 4 4 4 4 4 4 4 4 4 4 4 4 4 4 4 5 5 5 5 5 5 5 5 5 9 9 9 H H H H H 9 9 9 J J J J H H H H H 9 9 9 H H H H H H H H H H H H H H J J K J J J K K K K K K K K K K K K K K K K K K K K K K K L L L L L ' ' ' ' ' ' ' ' ' ' ' ' ' ' ' ' ' ' ' ' ' ' ) ) L L L L ) L L L I L K J q *X-Xp.w.A F m n i 1 o o X X X X X X X X X X X         X X X X         X X X X         .       X X X X X X X X X X X X X X X X X X o o o + + # o o o o X X X X X X X . o # < < 1 N B p.d.d.;X<XwXMXAXmXsXhXdXhXBXhXdXsXsXsXsXsXmXsXaXpXyXwX7X:X>X;Xd.t.>.:.;.B B *.*.*.M s d u u u d =.s d u ; < # u s *.3.2.$X$X$X*X*X*X$X2.2.2.-.*.3.*.3.*.s # o X     X       X o o + o X o X X X X X X X X X X X X . X X . . .                             + + + +     X X O O O O O O + + O O X X # # @ @ @ @ @ @ 6 6 7 q q q 7 7 7 6 6 6 6 6 6 6 0 0 0 6 7 6 6 0 Y Y W ~ W W W W W W W W W W W W Y Y E E E T T | +.+.$.+.| R R T E E Y Y E ^ +.@.$.@.%.^ q E ^ ^ E.&X1.E.2X3X~...J 0 q J J 9 9 9 9 9 9 9 9 9 9 9 5 5 5 5 5 5 5 5 5 5 5 5 5 5 5 5 5 5 5 5 9 9 9 9 9 9 9 9 9 9 9 9 9 9 9 9 H H H H 9 H H H H H H H H H H H H H H H H ",
"5 5 5 5 5 5 5 5 4 4 4 4 4 4 4 4 4 4 4 4 4 4 4 4 4 4 4 4 4 4 4 4 4 4 4 4 4 4 4 4 4 4 4 4 4 4 4 4 4 4 4 4 4 4 4 4 4 4 4 4 4 4 4 4 4 4 4 4 4 4 4 4 4 4 4 4 4 4 4 4 4 4 4 4 4 4 4 4 5 5 5 5 8 8 8 8 5 5 5 9 H H H H H H H 9 U U U U H H H H H H H H H H H H H H H H H H H H H K K K K K K K K K K K K K K K K K K K K K K K K K L L L L I I L L L L ) ) ) ) ) ) ) ) ' ' ' ' _ _ [ [ [ [ [ [ _ ) ) ' ' ' ) ) L L L ' ' L K J q -X4X$X>.S S m b i < o o X X X X X     X X X X                                                                             X X X X     o o o o X X X X X X X X X X X X o # > < 1 b B >.a.=X=X<XtXVXAXmXdXsXsXdXhXdXdXsXsXsXdXdXdXdXsXiXyXtXwX>X>X;X;Xs.:.Z B N N N N M x s d u u < < u u u < # u u s =.*.2.$X$X*X*X$X$X2.3.*.=.s s s s s s d u # o     X X X X X X X X     X X X X X X X X     X X X X X X X X . .             O O O O           + + + O O O O O O O O O O O O O O X X O O O O @ @ @ @ 6 6 q q q q q q 5 6 6 @ 6 6 6 6 5 5 5 q 6 6 6 6 q Y E E W W ( ^ W W W Y E E Y Y r r Y q Y Y T ^  .$.$.$.+.| { R T E E E Y ^ +.@.%.@.@.^ W W E Y R.&X<.E.3X3X&X~.W 0 5 9 9 9 9 9 9 9 9 9 9 9 9 9 5 5 5 5 9 9 9 5 5 5 5 5 5 5 5 5 8 8 8 8 8 8 8 8 8 8 8 8 8 8 8 8 9 9 5 5 H H H H 9 H H H H H H H H H 9 9 9 9 H H H ",
"5 5 5 5 5 5 5 5 4 4 4 4 4 4 4 4 4 4 4 4 4 4 4 4 4 4 4 4 4 4 4 4 4 4 4 4 4 4 4 4 4 4 4 4 4 4 4 4 4 4 4 4 4 4 4 4 4 4 4 4 4 4 4 4 4 4 4 4 4 4 4 4 4 4 4 4 4 4 4 4 4 4 4 4 4 4 4 4 5 5 5 5 8 8 8 8 5 5 9 9 H H H H H H 9 9 J J J J H H H H H H H H H 9 H H H H H H H H H H K K K K K K K K K K K K K K K K K K K K K K K K K K L L L L L L L L L L ) ) ) ) ) ) ) ) ' ' ' ' _ _ [ [ [ [ [ [ _ ) ) ' ' ' ) ) ) L L ' ' L K U q *X4Xp.,.:.S N j 1 - o X X X X X                                                                                                   X X X X X X X X X X X X X X . . . X o # < 1 u i N ;.a.;X;X<XtXBXAXZXdXsXsXdXhXhXdXsXsXsXdXdXBXBXmXsXfXpXyXwX7X:X:Xd.p.>.Z n n N M M s s d u < < < < u u < < u u s =.2.$X$X*X*X2.*.s y # X   o o o o # # o X         X X X X X X X X         X X X X X X   X X X X X X X X X . .             O O O O         + + + + O O + + O O O O O O O O O   X O O O O O @ @ @ @ 6 6 q q q q q q 6 6 6 @ 4 4 4 6 5 5 5 7 q 5 0 0 q q Y Y E W ^ ^ W W Y Y Y Y Y Y r r Y J Y Y T R | +.$.%.$.+.{ { R T Y E Y ^ +.+.@.$.@.| ( E 0 0 <.Y.1.<.<.&X3X3X( 9 9 9 9 9 9 9 9 9 9 9 9 9 9 9 5 5 5 5 9 9 5 5 5 5 5 5 5 5 5 5 8 8 8 8 8 8 8 8 8 8 8 8 8 8 8 8 9 9 9 5 H H H H H H H H 9 9 9 9 H H 9 9 H H H H H ",
"5 5 5 5 5 5 5 5 4 4 4 4 4 4 4 4 4 4 4 4 4 4 4 4 4 4 4 4 4 4 4 4 4 4 4 4 4 4 4 4 4 4 4 4 4 4 4 4 4 4 4 4 4 4 4 4 4 4 4 4 4 4 4 4 4 4 4 4 4 4 4 4 4 4 4 4 4 4 4 4 4 4 4 4 4 4 4 4 5 5 5 5 8 8 8 8 5 5 5 9 H H H H H H H H H H H H H H H H H H H H 9 H H H H H H H H H H H K K K K K K K K K K I I K K K K K K K K K K K K L L L L L L L L L L L L L L L L ) ) ) ) ' ' ' ' _ _ _ _ ] ] ] ] ' ' ' ' ' ' ' ' ' [ ' ' ' L I ( a p.%X,.,.>.S n i < o X X X X X X                                                                                                       X X X X X X X X X X X X X X X X X # ; 1 1 1 b B a.;X:X<XtXsXmXBXZXdXsXdXhXhXdXdXdXdXBXBXBXZXZXBXsXfXpXtXwX:X:Xd.d.p.,.;.B N b z z i d u # # # # # < u u d u s *.3.2.p.p.$X2.M u # + X X X X X o o X X       X X X X X X X X X X         X X X X X X X X         X X X X         O O O O O O O O O O     + X + + O O O + O O O O O O + + O O O O @ O O O @ @ @ @ 6 6 7 q q q 7 7 6 6 6 @ 4 4 4 6 7 7 7 7 q q q q q q r r Y Y W W W Y Y r q q q q Y Y Y Y Y T T R ^ +.$.$.$.$.+.| { R T T T ^ +.+.+.@.<.@.^ W ^ <.1.R.2X&XE.&X3X3X/ J 0 9 9 9 9 9 9 9 9 9 9 9 9 9 9 9 5 5 5 5 5 5 9 9 5 5 5 5 5 5 8 8 8 8 8 8 8 8 8 8 8 8 8 8 8 8 9 9 9 9 9 9 9 9 9 9 9 9 9 9 9 9 H H H H H H H H H ",
"5 5 5 5 5 5 5 5 4 4 4 4 4 4 4 4 4 4 4 4 4 4 4 4 4 4 4 4 4 4 4 4 4 4 4 4 4 4 4 4 4 4 4 4 4 4 4 4 4 4 4 4 4 4 4 4 4 4 4 4 4 4 4 4 4 4 4 4 4 4 4 4 4 4 4 4 4 4 4 4 4 4 4 4 4 4 4 4 5 5 5 5 8 8 8 8 5 5 5 9 H H H H H H H H H H H H H H H H H H H H H 9 9 H H H H H H H H H K K K K K K K K K K I I K K K K K K K K K K K K L L L L L L L L L L L L L L L L ) ) ) ) ' ' ' ' _ _ _ _ ] ] ] ] ` ` ` ` ` ` ` ' ' ' ' ' ' ' ' / 2.9.p.e.,.:.B b 1 > o X X X X X X                                                                                                               X X X X X X X X X X X X X + ; 1 1 1 i n S a.s.g.>XyXsXSXDXhXdXdXhXhXdXdXdXdXBXBXBXBXZXBXsXfXpXtX7X:X:Xd.d.a.p.8.:.-.N b z i d u # # # # # < u u d d s =.M *.*.*.*.=.s u o o o o + + # # # o X       X X   X X X X X . .         X X X X X X X       + + X X X X         O O O O O O O O O O             O O + + O O O O O O + + O O O O @ O O O @ @ @ @ 6 6 7 q q q 7 7 6 6 6 6 4 4 4 6 7 7 t t t t r r 6 q q r r Y Y W Y Y r q q q q q J Y Y Y Y T T R ^ | @.$.$.$.+.+.| { R T T ^ +.+.| @.<.$.+.Y E <.<.E.3XcX&X&X2XOX<.W 9 5 9 9 9 9 9 9 9 9 9 9 9 9 9 5 5 5 5 5 5 5 9 5 5 5 5 5 5 5 8 8 8 8 8 8 8 8 8 8 8 8 8 8 8 8 9 9 9 9 9 9 9 9 9 9 9 9 9 9 9 9 9 H H H H H H H H ",
"5 5 5 5 5 5 5 5 8 8 8 8 8 8 8 8 4 4 4 4 4 4 4 4 4 4 4 4 4 4 4 4 4 4 4 4 4 4 4 4 4 4 4 4 4 4 4 4 4 4 4 4 4 4 4 4 4 4 4 4 4 4 4 4 4 4 4 4 4 4 4 4 4 4 4 4 4 4 4 4 4 4 4 4 4 4 4 4 5 5 5 5 8 8 8 8 5 5 5 9 9 9 9 9 9 9 9 H H H H H H H H H H H H H H H H H H H H H H H H H K K K K K K K K I I I I L L L L L L L I L L L L L L L L L L ) ) ' ' ' ' ' ' ' ' ) ) [ [ ' ' [ [ ] ] ] ] ] ] ] ] ] ] ] ] ` ` ] ] [ [ [ [ [ [ ..E.,X%Xp.8.,.;.m 2 < * X X X X X X                                                                                                                                 X X X . o # o o < 1 2 l c 7.u.g.j.tXaXSXDXZXjXBXdXsXsXsXsXdXBXBXZXBXdXdXsXfXiXwX>X:X;Xd.d.s.t.p.e.;.N 1 i d u < < < > # # # y u d d s =.=.=.=.=.s u u y # # # # o # ; y u y # + X           X X X X X X     X X X + X X + + + + + + O O + + + + @ + + O O O O O O O O O O O O O O O     O O O O + + + + O O + + O O @ @ @ O O O @ @ @ @ 6 6 q q q q 7 7 6 6 6 6 6 6 6 q 0 t r r W Y r r q 0 q q q r r Y Y Y Y r Y Y q q q t Y E ^ R R R ^ ^ | +.$.$.+.+.+.+.{ T R | | | | +.$.<.@.E r W / R.cXcX2X&X~.E.R.<.0 9 H 9 9 9 9 9 9 9 9 9 9 9 9 9 5 5 5 5 5 5 9 9 5 5 5 5 8 8 8 8 8 8 8 8 8 8 8 8 8 8 8 8 8 8 8 8 9 9 9 9 9 9 9 9 9 9 9 9 9 9 9 9 H H H H H H H ",
"5 5 5 5 5 5 5 5 8 8 8 8 8 8 8 8 4 4 4 4 4 4 4 4 4 4 4 4 4 4 4 4 4 4 4 4 4 4 4 4 4 4 4 4 4 4 4 4 4 4 4 4 4 4 4 4 4 4 4 4 4 4 4 4 4 4 4 4 4 4 4 4 4 4 4 4 4 4 4 4 4 4 4 4 4 4 4 4 5 5 5 5 8 8 8 8 5 5 5 9 9 9 H H 9 9 H H H H H H H H H H H H H H H H H H H H H H H H H H K K K K K K K K I K I I L L L L L L I I L L L L L L L L L L L L ' ' ' ' ' ' ' ' ) ) [ [ ' ' [ ] ] ] ] ] ] ] ] ] ] ] ] ] ` ] ] ] [ ] ] ] ] [ I <.$X%X8.8.:.Z n 1 > o X X X X X X                                                                                                                                 X X X o o o o o o < 1 2 l D y.d.i.7XpXSXSXFXDXBXhXiXiXsXsXdXBXBXBXBXdXsXfXiXyXwX>X;Xg.d.s.a.t.e.>.S n 1 u u < < u < < # # # < y u s s s s s s s u y y y ; # ; ; < y y u =.=.s s u # o X X     .   X X X X X X X X X + + + + # # # # 6 6 # # # # # # @ + + O O O O O O O O O O O         O O O   + + + + O O + + O O @ @ @ @ O O @ @ @ @ 6 6 q q q 7 7 7 6 6 6 6 q q 7 r t r W W W Y r r q q q q q q r r r r Y Y E E Y Y Y Y E E R R R R R ^ ^ +.+.+.$.$.$.+.| R R | | ^ | +.+.$.+.E r Y E.&X3XcX2X&XE.Y.&X^.~ 9 9 9 9 9 9 9 9 9 9 9 9 9 5 5 5 5 9 9 5 5 5 9 5 5 9 5 8 8 8 8 8 8 8 8 8 8 8 8 8 8 8 8 8 8 8 8 9 9 9 9 9 9 9 9 9 9 9 9 9 9 9 H H H H 9 H H H ",
"5 5 5 5 5 5 5 5 8 8 8 8 8 8 8 8 4 4 4 4 4 4 4 4 4 4 4 4 4 4 4 4 4 4 4 4 4 4 4 4 4 4 4 4 4 4 4 4 4 4 4 4 4 4 4 4 4 4 4 4 4 4 4 4 4 4 4 4 4 4 4 4 4 4 4 4 4 4 4 4 4 4 4 4 4 4 4 4 5 5 5 5 8 8 8 8 5 5 5 9 9 9 9 9 9 9 H H H H 9 9 H H H H 9 H H 9 H H H H H H H H H H H H K K K K K K K K K K K K L L L L L L I I L L L L L L L L L L L L ' ' ' ' ' ' ' ' ) ) [ [ ' ' ] ] ] ] ] ] ] ] ] z.] ] ] ] ] z.z.] ] ] ] ] m...( 1.9.a.>.7.>.B b 1 * . X X X X X                                                                                                                                   X X X X o o o o o o > 1 3 D w.d.i.8XyXSXFXFXSXhXsXyXeXiXfXdXBXBXBXmXsXsXiXyXtX8X:Xj.d.s.s.t.r.e.>.;.N b z i d u u < < # # # < u u u s s s s s s y y y y y y y y y y y y u d s s s u y o o X X X X X X X o o o + # # # # # # 7 7 q q q q q q 7 7 7 5 6 @ X + X O O O O O O O O O                     + + O O O O O O @ @ O O O O O O O O # 6 q q q 7 7 7 6 6 6 6 q q q r r E W Q W Y r t r 0 0 0 6 0 7 r r r Y Y ^ ^ R E W W R ^ R R R R R R ^ ^ | +.$.$.$.$.| ^ ^ | | ^ ^ +.+.$./ J 0 r OX2XcXcX3X&XE.Y.&XOX/ H 9 9 9 9 9 9 9 9 9 9 9 9 5 5 5 5 9 9 5 5 5 5 5 5 9 9 8 8 8 8 8 8 8 4 4 4 8 8 8 8 8 8 8 8 8 8 9 9 9 9 9 9 9 9 9 9 9 9 9 9 H H 9 9 H H H H H ",
"5 5 5 5 5 5 5 5 8 8 8 8 8 8 8 8 4 4 4 4 4 4 4 4 4 4 4 4 4 4 4 4 4 4 4 4 4 4 4 4 4 4 4 4 4 4 4 4 4 4 4 4 4 4 4 4 4 4 4 4 4 4 4 4 4 4 4 4 4 4 4 4 4 4 4 4 4 4 4 4 4 4 4 4 4 4 4 4 5 5 5 5 8 8 8 8 5 5 5 5 9 9 9 9 9 9 H H H H 9 9 H H H H H H 9 H H H H H H H H H H H H H H K K K K K K K K K K L L L L L L L L I L L L L L L L L L L L L ' ' ' ' ' ' ' ' ) ) [ [ ' ' ] ] ] ] ] ] ] ] ] ] z.z.z.] z.z.z.z.] ] z.] m...X.E.$Xe.>.>.:.N j < . . X X X X X                                                                                                                                   X X X X o o o o o o - > > S 7.i.h.:XeXAXSXFXDXdXiXyXyXiXfXsXmXBXBXmXsXfXiXyXwX>Xj.g.i.t.u.t.r.e.8.:.;.B N N M s u < < # # # < u u u p s s s d u u y y y y y y y y ; # X     X o o # u # # o X X X X X X o o # # # # 7 7 7 7 7 7 e q q q q q q q q q 7 6 @ X O O + O O O O O O O                     + + O O O O O O O O O O O O O O O O 6 6 q q 7 7 7 7 0 6 6 6 r r q Y W W Q ^ W Y r t 7 6 0 0 6 0 7 7 r r Y Y ( ^ ^ ^ ^ ^ +.^ ^ ^ ^ ^ ^ ^ ^ ^ ^ |  .$.$.$. .| |  . .| ^ | +.+.^ 0 6 0 +.R.cXcX3X2XOX^.&X&X<.J 9 9 H 9 9 9 9 9 9 9 9 9 5 5 5 5 9 9 5 5 5 5 5 5 9 9 8 8 8 8 8 8 8 8 4 4 8 8 8 8 8 8 8 8 8 8 9 9 9 9 9 9 9 9 9 9 9 9 9 9 H 9 9 H H H H H H ",
"5 5 5 5 9 9 9 9 8 8 8 8 8 8 8 8 4 4 4 4 4 4 4 4 4 4 4 4 4 4 4 4 4 4 4 4 4 4 4 4 4 4 4 4 4 4 4 4 4 4 4 4 4 4 4 4 4 4 4 4 4 4 4 4 4 4 4 4 4 4 4 4 4 4 4 4 4 4 4 4 4 4 4 4 5 4 4 4 5 5 5 5 8 8 8 8 8 8 8 8 9 9 9 9 9 9 9 9 H H H H H H H H H H H H H H H H H H H H H H H H H H H H K K K K K L L L L L L L L L L L L L L L ' ' ' ' ' ' ' ' ' ' ' ' ' ' ' ' ' ' ' ' [ [ ] ] ` ] ] ] z.z.z.z.z.z.z.z.z.z.z.z.z.z.z.z.b...&X4X,Xt.y.D Z n 2 - X X X X X X X                                                                                                                                   X X X X X o o o o o - - > A 6.u.h.j.7XmXZXSXBXfXiXeXeXyXsXsXmXBXsXsXiXyXeXeX8X:Xj.g.s.u.t.t.r.r.e.>.:.Z N M M M u < - # # # y y p p p u p y ; ; ; ; ; ; d u u u u < #         X # u < d u u u u y ; # # # # # + # # 7 # 7 q p p p p q q q p p p r q 7 5 6 @ O O O O O O + O O O O               O O O O + O @ @ @ @ @ @ O O O O O O O O 6 6 7 7 7 7 0 0 0 6 0 t r Y W ~ ^ ^ ^ ^ W Y Y r 7 7 7 6 @ 6 6 6 7 r r W Q / ^ / +.| ^ ^ ^ ^ ^ ^ ^ ^ ^ ^ R ^ ^ | / +.+.| | $. .{ ~ ^ | | ^ J 0 0 ^ <.3XcX3X&XE.1.~.E./ ( q 9 9 9 9 9 9 9 9 9 9 9 9 9 9 9 9 9 9 9 9 9 9 9 9 9 9 9 8 8 8 8 8 8 8 8 8 8 5 5 8 8 8 8 5 5 5 5 9 9 9 9 9 9 9 9 9 9 9 9 H H H H H H H H H ",
"5 9 5 5 9 9 9 9 8 8 8 8 8 8 8 8 4 4 4 4 4 4 4 4 4 4 4 4 4 4 4 4 4 4 4 4 4 4 4 4 4 4 4 4 4 4 4 4 4 4 4 4 4 4 4 4 4 4 4 4 4 4 4 4 4 4 4 4 4 4 4 4 4 4 4 4 4 4 4 4 4 4 5 5 5 5 5 4 5 5 5 5 8 8 8 8 8 8 8 8 9 9 9 9 9 9 9 9 H H H H H H H H H H H H H H H H H H H H H H H H H H H H K K K K L L L L L L L L L L ) ) L L L L ' ' ' ' ' ' ' ' ' ' ' ' ' ' ' ' ' ' ' ' [ [ ] ] ` ] ] ] z.z.z.z.z.z.z.z.z.z.z.z.z.z.z.z._ ^.4XIX,Xt.y.D Z b 1 - o X X X X X X                                                                                                                                   X X X X X + o o o o - - > A 6.u.i.h.8XsXBXmXsXiXfXeX8XeXiXaXsXsXaXpXyXeXwX8X>Xj.j.g.d.s.t.r.r.r.e.8.,.;.B N N z d < - # # # y y p p p p y y e # # # # # y y y y p y # X   X X o < M =.,.3.*.=.=.x s s u y y ; # 7 e e 7 7 e p a a p p q q p p p p p q 7 6 @ @ O O O O O O + O O O O             O O O O O O X X @ @ @ @ O O O O O O O O @ @ @ 6 6 6 0 0 0 6 7 r Y Y ~ ( | | | ^ W Y Y r 7 7 7 6 6 6 6 6 0 7 r Y W ^ ^ ^ ^ ^ ^ W E E E E E E E ~ T T ~ ~ ^ / +.+.$.J. .{ ~ ~ ^ / / Y 0 0 0 Y &X3X4X3X&XE.<.<.^.<.J 9 9 9 9 9 9 9 9 9 9 9 9 9 9 9 9 9 9 9 9 9 9 9 9 9 9 9 8 8 8 8 8 8 8 8 8 8 5 5 8 8 8 8 5 5 5 5 9 9 9 9 9 9 9 9 9 9 9 9 H H H H H H H H H ",
"9 5 5 5 9 9 9 9 8 8 8 8 8 8 8 8 4 4 4 4 4 4 4 4 4 4 4 4 4 4 4 4 4 4 4 4 4 4 4 4 4 4 4 4 4 4 4 4 4 4 4 4 4 4 4 4 4 4 4 4 4 4 4 4 4 4 4 4 4 4 4 4 4 4 4 4 4 4 4 4 4 5 q q q 5 5 5 5 5 5 5 8 8 8 8 8 8 8 8 8 8 8 8 9 9 9 9 9 9 9 9 9 9 H H H H 9 9 H H H H H H H H H H H H H H H H J J K K L L L L L L L L L L ) ) L L L L ' ' ' ' ' ' ' ' ' ' ' ' ' ' ' ' ' ' ' ' [ [ ] ] ` ` ] ] z.z.z.z.z.z.z.z.x.x.n.n.n.n.n.b.' E.4XNX<Xs.0.F B z 1 > X X X X X X .                                                                                                                                   X X X X X X o o o o - - > A 6.u.u.h.>XsXBXsXiXiXiX>Xj.8XtXaXaXaXiXtXeX8X>X>X:Xj.j.j.d.s.a.r.r.8.>.>.,.,.N N N z d < < # # # y y p p p p y 7 7 # @ @ @ @ 7 7 7 7 y y y # + + # # u *.,.$X9.2.3.=.=.O.x s u p e ; e e e e y p d ! ! ! a p p p p p p p p q 6 @ @ @ @ @ O O O O O + + O O             O O + O O O X @ @ @ O @ O O O O O O O O O @ @ 6 6 0 0 0 0 t r Y E ~ | | { | ^ W Y Y r 7 6 6 6 6 6 6 6 6 0 q r W ( / ^ ^ W Y r q q q q q q q q Y Y Y Y Y ( / $.<.Y.$.| ~ ~ ^ | +.~ J Y Y Y E.&X3XcX2X&X^.1.E.1.( J 9 9 9 9 5 5 9 9 9 9 9 9 9 9 9 9 9 9 9 9 9 9 9 9 9 9 8 8 8 8 8 8 8 8 8 8 5 5 8 8 8 8 5 5 5 5 9 9 9 9 9 9 9 9 9 9 9 9 H H H H H H 9 9 H ",
"5 9 5 5 9 9 9 9 8 8 8 8 8 8 8 8 4 4 4 4 4 4 4 4 4 4 4 4 4 4 4 4 4 4 4 4 4 4 4 4 4 4 4 4 4 4 4 4 4 4 4 4 4 4 4 4 4 4 4 4 4 4 4 4 4 4 4 4 4 4 4 4 4 4 4 4 4 4 4 4 4 5 q W q q 5 5 5 5 5 5 8 8 8 8 8 8 8 8 8 8 8 8 9 9 9 9 9 9 9 9 9 9 9 H H H 9 9 H H H H H H H H H H H H H H H H J K K K L L L L L L L L L ) L ) L L L L ' ' ' ' ' ' ' ' ' ' ' ' ' ' ' ' ' ' ' ' [ [ ' ' ` ] ] ] z.z.z.z.m.m.m.m.n.n.n.n.n.m.n.m.^.NXIXMX9Xs.6.A n i < - o X X X X X                                                                                                                                     X X X X X X o o o o o - > A 6.u.i.g.8XsXsXyXwX8XwXj.h.>XwXiXaXiXeXwX8Xk.>X>X>X:X;Xj.g.d.a.r.8.D ;.;.;.Z N N N z i < < # # # * y p p p p q 7 6 # O O @ O @ @ # # 7 y p y y y y y s *.2.$X$X$X$X2.2.2.3.3.*.=.=.=.=.=.=.O.! ! =.=.o./ ! ! ! a a p a a a r q 7 @ @ 6 @ @ O O + + + + + O             O O + O O O O @ @ @ O @ O O O O O O O O O + O 6 6 0 0 0 0 t Y Y W ^ | | | ^ ^ W Y Y r 7 6 6 6 @ @ 6 6 6 6 0 q Y W ^ ( W Y q q 0 0 0 0 0 0 0 0 q q q q r W ^ | $.Y.<...~ T ~ ^ @.^ Y Y Y T ^ <.&X&X&X&X3X2XE.E.<.J 9 9 5 9 5 5 9 9 9 9 9 9 9 9 9 9 9 9 9 9 9 9 9 9 9 9 8 8 8 8 8 8 8 8 8 8 5 5 8 8 8 8 5 5 5 5 9 9 9 9 9 9 9 9 9 9 9 9 H H H H H H 9 9 9 ",
"9 9 9 9 9 9 9 9 9 9 5 5 9 9 8 8 8 8 8 8 4 4 4 4 4 4 4 4 4 4 4 4 4 4 4 4 4 4 4 4 4 4 4 4 4 4 4 4 4 4 4 4 4 4 4 4 4 4 4 4 4 4 4 4 4 4 4 4 4 4 4 4 4 4 4 4 4 4 4 4 4 5 r W q q 5 5 5 5 5 5 8 8 8 8 8 8 8 8 8 8 8 8 9 9 9 9 9 9 9 9 9 9 H H H H 9 9 H H H H H H H H H H H H H H H H K K K K L L L L L L L L ) ) L L L L L L ' ' ' ' ' ' ' ' ' ' ' ' ' ' ' ' ' ' ' ' ' ' ' ' ` ` ] ] z.z.z.z.m.m.m.m.m.m.m.m.n.m.n.m.&XCXGXnX9Xs.6.v l 1 < o o X X X                                                                                                                                             X X X X o o X X o o o A 6.y.y.g.8XaXiXtXwX8X>Xj.g.:XtXaXiXeX7X8X>X8X>X>X>X:X;X;Xg.d.s.t.8.D S Z B B N N N z i u < # # # # w y p p p p q 5 6 6 @ 6 4 6 6 6 @ 7 p p p p p p p s =.3.2.E.+X+X+X+X+X2.2.2.3.3.<.*.*.*.*.*.=.=.=.=.=.o.o./ ! / ! ! Q Q a p r 7 7 7 7 6 4 O O O O O O O               O O O + O @ O O O O O O O @ O O O O O O O O 5 6 6 0 0 0 t r Y W ^ ^ ....( ( W Y r q r 6 6 6 @ @ @ 6 @ 6 6 q r W ( ^ Y q 5 6 4 4 4 4 4 4 4 6 6 6 6 6 q Y ~ | | <.<.| T J Y T +.^ Y Y 0 Y | Y.~.~.&X3X3X2XOX&X<.<.J 9 9 5 5 5 9 9 9 9 9 9 9 9 9 9 9 9 9 9 9 9 9 9 9 9 8 8 8 8 8 8 8 8 8 8 8 8 8 8 8 8 5 5 5 5 9 9 9 9 9 9 9 9 9 9 9 9 9 9 H H H H 9 9 9 ",
"9 9 9 9 9 9 9 9 9 9 5 5 9 9 8 8 8 8 8 8 4 4 4 4 4 4 4 4 4 4 4 4 4 4 4 4 4 4 4 4 4 4 4 4 4 4 4 4 4 4 4 4 4 4 4 4 4 4 4 4 4 4 4 4 4 4 4 4 4 4 4 4 4 4 4 4 4 4 4 4 5 5 q r 5 5 5 5 5 5 5 5 8 8 8 8 8 8 8 8 8 8 8 8 9 9 9 9 9 9 9 9 H 9 H H H H 9 9 H H H H H H H H H H H H H H H H K K K K L L L L L L L L ) ) L L L L L L ' ' ' ' ' ' ' ' ' ' ' ' ' ' ' ' ' ' ' ' ' ' _ ' ` ` ] ] z.z.z.z.m.m.m.m.m.m.m.m.m.z.z...E.NXNX9Xd.F v > 1 > o X X X X X                                                                                                                                             X X X X X X X X o o l 7.w.u.i.j.8XtXeX8X>X:Xj.j.g.>XtXaXiXeX7X8X>X8X>X>X>X:X;Xj.g.d.s.a.e.:.;.Z B N N N M z i u < # # # # # 7 p p a p r 7 6 6 6 6 6 6 6 6 6 7 q p p p p p p ! =.=.1.3.2.2.2.+X+X$X$X$X+X+X+X+X+X2.2.<.=.=.=.=.<.<.=.<.=.=.<.<.<.=.=.o.o.=.=.! p 7 6 O O O O O O O               O O O O O O O O O O O O O @ O O O O O O @ 6 5 6 0 0 0 q r Y W ^ ^ ^ ..( ( ~ E Y r q 7 6 6 6 @ @ @ @ O O 6 0 r W W W r 7 6 6 4 4 6 6 4 4 4 6 6 6 6 6 q Y W ^ / <.<.| J J Y T | ^ E Y 0 Y ^ <.E.^.&X2XcX3XOXOXOXE.( 9 9 5 5 5 9 9 9 9 9 9 9 9 9 9 9 9 9 9 9 9 9 9 9 9 8 8 8 8 8 8 8 8 8 8 8 8 8 8 8 8 5 5 5 5 9 9 9 9 9 9 9 9 9 9 9 9 9 9 H H H H 9 9 9 ",
"9 9 9 9 9 9 9 9 9 9 5 5 9 9 8 8 8 8 8 8 4 4 4 4 4 4 4 4 4 4 4 4 4 4 4 4 4 4 4 4 4 4 4 4 4 4 4 4 4 4 4 4 4 4 4 4 4 4 4 4 4 4 4 4 4 4 4 4 4 4 4 4 4 4 4 4 4 4 5 5 5 5 5 5 5 5 5 5 5 5 5 5 8 8 5 5 8 8 8 8 8 8 9 9 9 9 9 9 9 9 9 9 9 9 9 9 H H H H H H H H H H H H H H H H H H H H K K K K L L L L L L L L ) ) L L L L L L ' ' ' ' ' ' ' ' ' ' ' ' ' ' ' ' ' ' ' ' ' _ _ _ ` ` ' ] z.z.z.z.m.m.m.m.m.n.n.n.C.z.z.G.2.NXnX,Xr.B m 3 > o X X X X X .                                                                                                                                             X X X X X X X X o o n s.s.s.h.>X7X7X8X>X>X:Xj.j.j.wXiXpXiXeX7X8X>X8X>X>X>X:X;Xg.g.d.s.a.r.7.:.Z B B N N M z i u < - # # # # 7 q p a p p q 6 6 6 6 6 6 6 6 6 5 7 p p p p p a a O.O.=.=.<.<.1.2.9.+X$X+X$X$X$X$X+X2.2.1.<.<.<.<.<.<.<.<.<.=.o.<.<.1.1.<.1.1.<.<.! r 6 O O O O O O                   O O O O O O O O O O O O O O O O O O O @ 6 5 0 0 0 0 t r Y W ^ ^ ^ ^ ^ ( T Y Y r 0 r 6 6 6 @ @ @ @ O O 6 7 r W W r q 0 6 6 O O O O O O O O 4 4 O 6 0 r Y ^ ^ <.<./ Y Y Y T +.^ E Y Y Y ^ @.R.R.E.&X3X3X&X&XE.R.^ Y H 0 0 9 9 9 9 9 9 9 9 9 9 9 9 9 9 9 8 8 5 5 5 5 8 8 8 8 8 8 8 8 8 8 8 8 8 8 8 8 5 5 5 5 9 9 9 9 9 9 9 9 9 9 9 9 9 9 9 9 H H H 9 9 ",
"9 9 9 9 9 9 9 9 9 9 9 9 9 9 8 8 8 8 8 8 4 4 4 4 4 4 4 4 4 4 4 4 4 4 4 4 4 4 4 4 4 4 4 4 4 4 4 4 4 4 4 4 4 4 4 4 4 4 4 4 4 4 4 4 4 4 4 4 4 4 4 4 4 4 4 4 4 4 5 5 5 5 5 5 5 5 5 5 5 5 5 5 8 8 8 5 8 8 8 8 8 9 9 9 9 9 9 9 9 9 9 9 9 9 9 9 H H H H H H H H H H H H H H H H H H H H K K K K L L L L L L L L ) ) L L L L L L ' ' ' ' ' ' ' ' ' ' ' ' ' ' ' ' ' ' ' ' ' _ _ _ ` ` ' ] z.z.z.z.n.n.n.n.n.n.n.n.C.z.A.~.3XuX9Xa.D c b X o X o X X X                                                                                                                                                 X X X X X X X X o o m ;X;X;Xj.7X7X8X>X>X>X:Xg.j.:XtXyXiXiXwX7X8X>X8X>X8X>X:Xj.g.d.s.a.a.t.r.>.;.Z B N N M z i u < ; # # # # 7 7 q p p p r 7 6 6 5 5 6 6 6 6 7 7 q r p p p a Q Q ! O.O.o.o.=.<.1.1.2.2.2.2.E.+X+X+XE.1.1.1.<.<.1.1.1.<.=.o.Q Q / <.<.E.&X&X1.=.o.Q 7 6 # O O O O                     O O O O O O O O O O O O O O O O O O 6 6 7 0 0 0 t t Y W ^ ( ^ ^ ^ ( ~ Y Y r q q 7 6 6 6 @ @ @ @ O O 6 7 r W r q 0 6 @ O O O O O O O O O O O O O 6 r r W ^ @.<.+.Y J Y T | ^ E Y 0 Y R +.R.R.R.E.2X3X&X&X&X&X<.W J 0 9 0 9 9 9 9 9 9 9 9 9 9 9 9 9 9 8 8 5 5 5 5 8 8 8 8 8 8 8 8 8 8 8 8 8 8 8 8 5 5 5 5 9 9 9 9 9 9 9 9 9 9 9 9 9 9 9 9 H H H H 9 ",
"9 9 9 9 H H H H 9 9 9 5 9 9 9 9 8 8 8 8 8 8 5 5 4 4 4 4 4 4 4 4 4 4 4 4 4 4 4 4 4 4 4 4 4 4 4 4 4 4 4 4 4 4 4 4 4 4 4 4 4 4 4 4 4 4 4 4 4 4 4 4 4 4 4 4 4 4 4 4 5 5 5 5 5 5 5 5 5 5 5 5 5 5 5 9 5 5 5 5 9 9 9 9 9 9 9 9 9 9 9 9 9 9 9 9 9 9 9 9 9 9 9 H H H H H H H H H H H H H K K K K K K K L L L L L ) ) ) L L ) ) ) ' ' I I ' ' ' ' ' ' ' ' ' ' ' ' ' ' ' ' ' ' ` ` ` ` ] ] z.z.z.z.b.b.b.n.c.c.c.c.F.] m.3XnX4X;Xe.n l 1 < o o X X                                                                                                                                                         X X X X X o - 3 7.<X1X>X7X8X>X>X>X8X>X:Xj.:X8XtXyXyXtXtXtX8X:X>X>X>X>X;Xg.u.s.s.a.a.t.r.8.:.;.B N N M z i u y ; # # # + 7 7 7 p p r r r r 7 0 0 6 6 6 0 7 7 q t r p W Q Q Q Q O.O.o.o.o.<.<.1.1.1.1.2.1.1.1.E.2.1.1.1.1.1.1.1.1.<.<.o.Q Q p / <.+X&X&XE.<.o.Q 7 q 6 @ O O O                     O O O O O O O O + + + O O O O O 6 6 6 6 6 6 7 t q r r r Y W ( ( W W Y r r r 7 5 6 6 6 @ O O 6 6 O @ 0 7 r r r 7 6 6 @ O O O O O O O O O O O O O @ 7 r Y W @.<.@.^ Y Y Y | | | ^ T T ^ ^ R.E.R.Y.OX2X2X2X2X&XE.^ J 0 5 5 9 9 9 9 9 9 9 9 9 9 5 5 5 5 5 5 5 5 5 5 8 8 8 8 8 8 8 8 8 8 8 8 8 8 8 8 8 8 8 8 8 8 8 8 8 8 8 4 8 8 8 8 9 9 9 9 9 9 9 9 5 ",
"9 9 9 9 H H H H 9 9 9 9 9 9 9 9 8 8 8 8 8 8 5 5 4 4 4 4 4 4 4 4 4 4 4 4 4 4 4 4 4 4 4 4 4 4 4 4 4 4 4 4 4 4 4 4 4 4 4 4 4 4 4 4 4 4 4 4 4 4 4 4 4 4 4 4 4 4 4 4 5 5 5 5 5 5 5 5 5 5 5 5 5 5 5 5 5 5 5 5 9 9 9 9 9 9 9 9 9 9 9 9 9 9 9 9 9 9 9 9 9 9 9 9 H H H H 9 9 H H H H H H J K K K K K K K L L L L L L L L L ) L L ' ' I I ' ' ' ' ' ' ' ' ' ' ' ' ' ' ' ' ' ' ` ` ` ` ] ] ] z.z.z.z.z.z.z.n.c.c.c.F.z.] cXNX,Xp.S b l 1 > o X X X                                                                                                                                                         X X X o X o - 3 =XrXrXrXtX7Xj.h.g.;X:Xj.:Xj.:X>X8X8XwXeXtX8Xk.j.>X>X>X;Xg.y.r.r.y.y.r.r.8.:.;.B N N M z i u y ; # # + + # 7 q p r r r r r 7 0 0 6 6 0 7 q t t t r p Q Q Q Q Q Q O.o.o.o.<.<.1.1.1.1.1.1.1.1.1.1.1.1.1.1.1.1.1.1.<.<.o.! Q W Q <.E.&X$X1.=.O.Q q q 6 @ O O O                     O O O O O + O O + + + + O O O O O O 5 4 O 6 7 q q q q q q Y Y W Y r r t q q 7 6 6 O O O O O 6 6 O 6 0 r r r r 7 6 6 O O O O O O O O O O O O O O O 6 t r W o.<.+.| T J Y | | | ^ T ^ +.+.OXOX~.E.R.OX&X2X2X2XOXY.Y 0 0 5 9 9 9 9 9 9 9 9 9 9 5 5 5 5 5 5 9 9 5 5 8 8 8 8 8 8 8 8 8 8 8 8 8 8 8 8 8 8 8 8 8 8 8 8 8 8 4 4 8 8 8 8 9 9 9 9 9 9 9 9 9 ",
"9 9 9 9 H H H H 9 9 9 9 9 9 9 9 8 8 8 8 8 8 5 5 4 4 4 4 4 4 4 4 4 4 4 4 4 4 4 4 4 4 4 4 4 4 4 4 4 4 4 4 4 4 4 4 4 4 4 4 4 4 4 4 4 4 4 4 4 4 4 4 4 4 4 4 4 4 4 4 5 5 5 5 5 5 5 5 5 5 5 5 5 5 5 5 5 5 5 5 9 9 9 9 9 9 9 9 9 9 9 9 9 9 5 5 9 9 9 9 9 9 9 9 H H H H 9 9 H H H H H H J K K K K K K K L L L L L L L ) L ) L L ' ' ' ' ' ' ' ' ' ' ' ' ' ' ' ' ' ' ' ' ' ' ` ` ` ` ] ] z.z.z.z.z.z.z.z.n.x.c.c.n.b.[ UXNX%X,.n z 2 < # o X X                                                                                                                                                           X X X o X o - 3 =XpXMXpXrX>Xg.u.i.j.:X;X:Xg.g.g.j.>XwXtXyX8Xj.g.j.>X:X;Xg.w.7.6.7.7.7.7.8.>.D Z B N N M i u y < # # # + # # 7 y r r r r e 7 7 0 6 0 q q r r r r r Y W Q ^ O.O.O.O.o.o.@.<.<.<.1.1.1.1.1.<.<.1.1.<.1.1.1.1.1.1.1.1.<.<.o.o.Q ! =.E.E.1.o.O.! a e q 6 @ O + + O               O O O O O O O O O + + + + + O O O O O O O O O O 6 5 0 0 0 0 q q q r t t q q 7 7 6 @ 4 4 4 4 4 4 4 4 6 6 q q r r r q 6 6 O O O O O O O O O O O O O O O 6 0 r Y ^ @.+.$.^ Y Y | | | | +.$.Y.R.&X2XOX~.<.E.2X2X3X2X2XOX| J 0 9 9 0 9 9 9 9 9 9 9 9 5 5 5 5 5 5 5 5 5 5 8 8 8 8 8 8 8 8 8 8 8 8 8 8 8 8 8 8 8 8 8 8 4 4 8 8 4 8 8 8 8 8 5 5 5 5 9 9 9 9 9 ",
"9 9 9 H H H H H 9 9 9 9 9 9 9 9 8 8 8 8 8 8 5 5 4 4 4 4 4 4 4 4 4 4 4 4 4 4 4 4 4 4 4 4 4 4 4 4 4 4 4 4 4 4 4 4 4 4 4 4 4 4 4 4 4 4 4 4 4 4 4 4 4 4 4 4 4 4 4 4 5 5 5 5 5 5 5 5 5 5 5 5 5 5 5 5 5 5 5 5 9 9 9 9 9 9 9 9 9 9 9 9 9 9 5 5 9 9 9 9 9 9 9 9 H H H H 9 9 H H H H H H J K K K K K K K L L L L L L L ) L L L L ' ' ' ' ' ' ' ' ' ' ' ' ' ' ' ' ' ' ' ' ' ' ` ` ` ` ] ] z.z.z.z.z.z.z.z.b.n.c.c.z.z.] cX4X9.N z 2 1 > o X X                                                                       . .           . . . .                                                                 X X X o o - - 3 1XGXGXtX>X:Xg.i.d.g.g.h.g.i.i.i.j.:XwXtXtX8Xj.h.g.:X:Xj.g.y.7.6.6.6.7.7.7.>.D Z B n b z i u < < # # # + # # 7 7 e p r r e 7 0 6 0 q q r r r r r r Y W ^ ^ ^ +.+.+.o.@.@.%.%.<.<.<.<.<.<.<.<.<.<.<.<.<.<.<.<.<.1.1.<.<.o.o.o.o.<.1.<.o.p ! Q p r y 7 # O + + O               O O O O O O + O O O + + + + O O O O O O O O O O @ 6 0 0 0 0 0 0 q q q q q q 7 7 6 6 4 4 4 4 4 4 4 4 6 6 q q r r r t 0 6 O O O O O O O O O O O O O O O O 0 t r ^ +.+.@.| T Y ^ | | | Y.R.OXOX&X2X+XE.R.E.2X3X3X3X3X2XY.Y J 0 9 9 9 9 9 9 9 9 9 9 5 5 5 5 5 5 5 5 5 5 8 8 8 8 8 8 8 8 8 8 8 8 8 8 8 8 8 8 8 8 8 4 4 4 8 8 8 8 8 8 8 8 5 5 5 5 9 9 9 9 9 ",
"H H H H H H H H H H H H 9 9 9 9 9 9 8 8 8 8 5 5 4 4 4 4 4 4 4 4 4 4 4 4 4 4 4 4 4 4 4 4 4 4 4 4 4 4 4 4 4 4 4 4 4 4 4 4 4 4 4 4 4 4 4 4 4 4 4 4 4 4 4 4 4 4 4 4 5 5 5 5 5 5 5 5 9 9 9 5 5 5 5 5 5 5 9 9 9 9 9 9 9 9 9 9 9 9 9 9 9 9 5 5 9 9 9 9 9 9 9 9 H H H H H H H H H H H H J K K K L L L L L L L L L L L L L L ) ) ' ' ' ' ' ' ' ' ' ' ' ' ' ' ' ' ' ' ' ' ` ` ` ` ` ` ` ` ] ] z.z.z.z.z.z.z.z.x.c.z.m.[ 3XcX2.M 1 1 < > + X X                                                             . . . .   . . . . . . .     .                                                                   X X X X o o - n 1XGXKXtX>X:Xj.i.h.i.u.s.j.j.i.i.i.7XtXtXeXk.h.i.g.j.:Xj.g.y.6.D 6.6.7.7.7.:.D Z B n b z i u < < # # # # # # 7 q p p p p r e 7 0 q q t r Y Y Y Y Y W ( ^ ^ ^ ^ ^ +.@.@.@.@.@.@.<.<.<.<.<.@.@.@.o.o.o.@.<.<.<.<.<.<.<.@.o.o.o.o.<.<.o.Q r p a p r p q 6 @ O O O                   O O O O O O O O O O O O O O O O         O O O O O 4 4 O 6 6 6 6 6 6 6 7 7 6 6 4 4 5 5 5 5 5 5 6 0 q q q q r r r 0 6 O O 4 4 6 O @ @ @ @ @ @ O O O 6 6 7 r W +.+.| | T Y R | ^ ^ Y.E.OX2X2X&XOXR.OX~.OX2X3X3X3X3XOX+.4 0 9 9 9 9 9 9 9 9 9 9 5 5 5 5 5 5 5 5 5 5 8 8 8 8 8 8 8 8 8 8 8 8 8 8 8 8 8 8 8 8 8 8 5 5 8 8 4 4 5 5 5 5 5 5 5 5 9 9 9 9 9 ",
"9 H H H H H H H H H H H 9 9 9 9 9 9 8 8 8 8 5 5 4 4 4 4 4 4 4 4 4 4 4 4 4 4 4 4 4 4 4 4 4 4 4 4 4 4 4 4 4 4 4 4 4 4 4 4 4 4 4 4 4 4 4 4 4 4 4 4 4 4 4 4 4 4 4 4 5 5 5 5 5 5 5 5 9 9 9 9 5 5 5 5 5 5 9 9 9 9 9 9 9 9 9 9 9 9 9 9 9 9 5 5 J ~ ~ J 9 9 9 9 H H H H H H H H H H H H K K K K L L L L L L L L L L L L L L L L ' ' ' ' ' ' ' ' ' ' ' ' ' ' ' ' ' ' ' ' ` ` ` ` ` ` ` ` ] z.z.z.z.z.z.z.z.z.z.z.z.m.' 3X3X=.< > < > # o X                                                               . . . . . . . . . . . . . . . .                                                                 X X X X - o - Z <XHXHXaXyXyXyX7Xh.y.y.s.g.:Xg.j.j.wXtXtXwXk.j.i.g.j.;Xj.d.r.7.7.7.7.7.7.>.:.Z B m n b z i u < < # # # # # # 6 6 e p r p r r r q q r r r Y Y Y Y Y W ^ ^ ^ ^ ^ | +.+.@.@.@.@.@.@.@.@.@.@.( ( ( ( ( ^ o.@.<.<.<.<.<.<.o.o./ / o.=.=.o.a r r p p r q 6 # O O O O                   O O O O O O O O O O O O O O O O O O O O O O O O O O O O 4 4 6 6 6 6 6 6 6 6 6 6 6 6 6 6 6 0 5 q q r q q q q q q 0 6 4 O 4 4 6 6 6 @ @ @ @ @ O O O O 6 0 t Y ( +.| | ^ T R ^ ^ ^ %.R.OX2XOXOXR.Y.E.~.OXOX2XxXcXcX2XR.J Y 0 9 9 9 9 9 9 9 9 9 5 5 5 5 5 5 5 5 5 5 8 8 8 8 8 8 8 8 8 8 8 8 8 8 8 8 8 8 8 8 8 8 8 8 8 8 4 4 5 5 5 5 5 5 5 5 9 9 9 9 9 ",
"9 H H H H H H H H H H H 9 9 5 9 9 9 8 8 8 8 5 5 4 4 4 4 4 4 4 4 4 4 4 4 4 4 4 4 4 4 4 4 4 4 4 4 4 4 4 4 4 4 4 4 4 4 4 4 4 4 4 4 4 4 4 4 4 4 4 4 4 4 4 4 4 4 4 4 5 5 5 5 5 5 5 5 5 5 5 5 5 5 5 5 5 5 5 9 9 9 9 9 9 9 9 9 9 9 9 9 9 5 5 5 J ( ( J 9 9 9 9 H H H H H H H J H H H H K K K K L L L L L L L L L L L L L ) ) L ' ' ' ' ' ' ' ' ' ' ' ' ' ' [ [ ' ' ] [ ` ` ` ` ] ] ] ] ] z.z.z.z.z.z.z.z.z.z.z.] ] ' 3X3X=.< < # o o . X                                                               . . . . . . . . . . . . . . . . . . . .                                                         X . X X > o < >.rXPXHXGXVXMXMX7Xh.0.6.d.;X>X:Xj.:XtXtXeX8Xj.j.i.h.j.;Xg.d.u.y.y.w.w.7.7.>.:.Z B m n b i i u < < y # # # # # 6 6 7 r r r r r r r r r Y Y Y Y E E E W ^ / | +.+.+.+.+.@.@.@.@.@.@.@.@.@.@.^ ^ ^ ^ ^ ^ o.o.o.o.o.o.o.o./ W W W Q Q Q W r r r r r q q 6 @ O O O O O O O O O         O O O O O O O O O O O O O O O O O O O O O O O O O O O O 6 6 6 6 6 6 6 6 7 7 q q q q q J J W W W ( ^ T E Y q q q 0 6 4 4 4 4 6 6 4 O @ @ @ @ O O 6 O 6 6 0 r W o.| | | R R ^ ^ ^ +.<.~.OXOXR.Y.$.<.E.OXOX2X3XcXcXOXR.Y ~ 0 0 8 9 9 9 9 9 9 9 5 5 5 5 5 5 5 5 5 5 8 8 8 8 8 8 8 8 8 8 8 8 8 8 8 8 8 8 8 8 8 8 8 8 8 8 4 4 5 5 5 5 9 9 5 5 9 9 9 9 9 ",
"9 H H H H H H H H H H H 9 9 5 5 9 9 8 8 8 8 5 5 4 4 4 4 4 4 4 4 4 4 4 4 4 4 4 4 4 4 4 4 4 4 4 4 4 4 4 4 4 4 4 4 4 4 4 4 4 4 4 4 4 4 4 4 4 4 4 4 4 4 4 4 4 4 4 4 5 5 5 5 5 5 5 5 5 5 5 5 5 5 5 5 5 5 9 9 9 9 9 9 9 9 9 9 9 9 9 9 9 5 5 5 U U U U 9 9 9 9 H H H H H H H J H H H H K K K K L L L L L L L L L L L L L ) ) ) ' ' ' ' ' ' ' ' ' ' ' ' ' ' ' ' ' ' ] [ ` ` ` ` ] ] ] ] ] z.z.z.z.z.z.z.] ] z.z.] ] ' 3X4X=.. o # o X X                                                                 . . . . . . . . . . . . . . . . . . . .                                                         X . o X - o - e.rXGXmXmXmXyXpX<Xh.6.6.d.>XwX>Xj.>XyXtXwX8Xj.g.i.h.j.j.g.i.u.y.r.t.r.w.7.>.D Z B m n b i i u y < < # # # # # 6 6 6 e r r r r r r r r W W Y Y E E W W ^ / +.+.+.+.+.$.$.+.@.@.@.@.@.@.@.+./ / / ^ ^ ^ o.o.o./ / ^ W W r t 0 q t r t q r 7 q r q 7 6 # O O O O O O O O O O         O O O O O O O O O O O O # # @ @ # # O O 4 4 6 6 @ @ O O 6 6 6 7 7 7 7 7 7 r p W W W W W ( ( / @.@.$.| ^ ~ E Y r q 0 6 6 4 4 4 4 O 4 6 @ @ @ O O 6 O 4 6 0 t Y ( ^ | | ^ R ^ ^ ^ ^ $.E.OXOXE.Y.%.@.Y.OXOX2X3XcXcX3XOX+.T 0 0 8 9 9 9 9 9 9 9 5 5 5 5 5 5 5 5 5 5 8 8 8 8 8 8 8 8 8 8 8 8 8 8 8 8 8 8 8 8 8 8 8 8 8 8 4 4 5 5 5 5 5 5 5 5 9 9 9 9 9 ",
"H H H H H H H H H H H H 9 9 9 9 9 9 9 9 5 5 5 5 8 8 5 5 5 5 5 5 5 5 5 5 8 8 5 5 5 5 5 5 5 5 5 5 4 4 4 4 4 4 4 4 4 4 4 4 4 4 4 4 4 4 4 4 8 8 4 4 5 5 5 5 5 8 8 8 5 5 5 5 9 9 5 5 5 5 5 5 9 9 9 9 9 9 9 9 9 9 9 9 9 9 9 9 9 9 9 9 9 9 9 9 H H H H 9 9 9 H H H J J H H H H H H J J K K K K K K K K L L L L L L L L L L L L L ) ) ) ' ' ' ' ' ' ' ' ' ' ' ' ] ` [ m.] [ ] ' [ [ ] ` ] ] ] ] z.z.z.z.] ] ] ] [ [ ..oX*Xs # o o X                                                         . . . . . . . . . $ $ $ $ $ $ $ $ $ $ . . . . . . . . . . .                                                 X + o o - - > >.rXGXVXpXrXwX7X7Xj.y.0.g.:X7X;Xj.7XtXtXwX>Xj.g.h.g.j.j.g.s.u.y.t.t.t.r.7.7.>.S A B n b i i u y < < # # # 7 7 6 5 7 r r r r r Y Y Y Y Y Y E E W W R ^ ^ ^ +.+.+.+.+.$.$.$.@.+.+.@.$.$.+./ / | ^ ^ ( ^ ^ ^ Q W W Y t t t q q q q 7 7 0 0 0 0 7 7 6 @ @ @ O O O + O O O O O   O O   O O O O O O O O O + O # 6 q 6 7 7 7 7 6 7 7 7 7 7 7 7 6 7 7 7 7 0 0 0 7 r r p W W W W W ~ ^ | | +.<.$. .^ ^ E Y Y q q q 0 6 4 4 4 6 6 6 6 6 6 4 4 4 6 6 6 q r W ^ ^ / | ^ ^ ^ ^ ^ +.Y.~.~.~.R.%.^ +.R.OX2X2X3XcX3X2X$.T 0 8 9 9 5 9 8 9 J H 5 8 8 8 5 5 5 5 5 5 8 8 8 8 8 8 8 8 8 8 8 8 8 8 8 8 8 8 8 8 8 8 4 4 4 4 4 4 5 5 8 8 8 8 5 5 5 5 5 5 5 ",
"H H H H H H H H H H H H 9 9 9 9 9 9 9 9 5 5 5 5 8 8 5 5 5 5 5 5 5 5 5 5 8 8 5 5 5 5 5 5 5 5 5 5 4 4 4 4 4 4 4 4 4 4 4 4 4 4 4 4 4 4 4 4 8 8 4 4 5 5 5 5 8 8 8 8 5 5 5 5 9 9 5 5 5 5 9 5 9 9 9 9 9 9 9 9 9 9 9 9 9 9 9 9 9 9 9 9 9 9 9 9 H H H H 9 9 9 9 H H J J H H H H H H J J K K K K K K K K L L L L L L L L L L L L ) ) ) ) ' ' ' ' ' ' ' ' ' ' ' ' [ ` [ m.G.m.[ ' [ [ ] ] ] ] ] ] ] ] z.z.] ] ] ] [ [ ..^.1.# X   o X                                                         . . . . . . . . $ = = = = $ = = = = = $ $ . . . . . . . . .                                               O + + + o o > 3 a.uXVXMX:Xj.h.j.:X:Xg.d.g.;X;Xd.g.>XwXwX7X>Xj.g.g.j.j.g.d.i.u.y.r.t.t.r.w.7.7.D S A n b i i u u < < # # # 7 6 5 5 q r r r r r Y Y Y Y Y Y ^ ^ ^ ^ ^ ^ ^ ^ +.+.+.+.$.$.$.$.$.+.+.+.+.+./ / +.| ^ ^ W W W W W Y r r t 7 q q q q q 7 7 0 0 6 6 7 6 O @ @ @ O O O + O O O O O X X O O O O O O O O O O O O # # 6 6 6 6 7 7 7 6 7 6 6 6 6 6 6 6 @ @ @ @ 6 6 6 6 7 r r r W ( ( ( ( ^ | | | $.$.+.| | ^ ^ W W W W Y r 0 6 4 4 6 6 6 6 6 4 @ O 6 6 6 0 q W ^ ^ / | ^ ^ T ^ R | $.Y.E.R.E.Y.| +.%.R.~.OX2X3XUX3XOXR.Y 9 9 0 5 H 8 H U J 9 8 8 8 5 5 5 5 5 5 8 8 8 8 8 8 8 8 8 8 8 8 8 8 8 8 8 8 8 8 8 8 4 4 4 4 4 4 5 4 8 8 8 8 5 5 5 5 5 5 5 ",
"9 H H H H H H H H H H H 9 9 9 9 9 9 9 9 5 5 5 5 8 8 5 5 5 5 5 5 5 5 5 5 8 5 5 5 5 5 5 5 5 5 5 5 5 5 5 5 4 4 4 4 4 4 4 4 4 4 4 4 4 4 4 4 8 8 4 4 5 5 5 5 8 8 8 8 5 5 5 5 9 5 5 5 5 5 9 9 9 9 9 9 9 9 9 9 9 9 9 9 9 9 9 9 9 9 9 9 5 5 9 9 H H 9 9 9 9 9 9 H H J J H H J J J J J J K K K K K K K K L L L L K K K K L L L L ) ) ) ) ' ' ' ' ' ' ' ' ' ' ' ' ` ` ] m.^.G.] ] ] ] ] ] z.z.z.z.] ] ] ] ] ] [ [ [ ' ' ( a + X   X                                                           . . . . . $ $ $ = = = = = = = = & & = = $ $ . . . . . . . . . . . .                                         + + + # - > l =XpXMXwXh.u.q.h.:X>X>X:Xg.j.h.u.i.:X7X7X>X:Xj.j.j.:X;Xg.s.i.u.y.r.t.t.r.r.w.7.D D A n b i i u < < < # # # 7 7 q q r p p r r r Y Y Y Y E Y ^ ^ ^ ^ ^ ^ ^ +.+.+.+.$.$.$.$.$.$.+.+.+.+./ ^ ^ / ^ ^ ^ Y Y Y Y r r t t t t q q q q q 7 7 0 0 6 6 7 6 O @ @ @ @ O O O O O O O O + + X X O O O O O O O O O # 6 6 6 6 6 6 6 6 6 6 @ @ @ @ @ @ @ @ O O O O 4 4 O O 6 6 5 5 q r r W W W W ~ | $.$.+.| | ^ ^ ^ ^ ^ ^ W W r q 6 4 6 6 6 6 @ @ 6 6 6 6 6 0 q Y E ^ ^ ^ ^ ^ R T T ^ +.$.Y.E.R.E.%.+.@.R.~.OX2X3XcXcXcX2X<.J 9 8 8 J 9 ~ ( ~ 9 8 8 8 5 5 5 5 5 5 8 8 8 8 8 8 8 8 8 8 8 8 8 8 8 8 8 8 8 8 8 8 4 4 4 4 4 4 5 5 8 8 8 8 5 5 5 5 5 5 5 ",
"9 9 H H K K H H H H H H 9 9 9 9 9 9 9 9 5 5 5 5 8 8 8 8 8 8 8 5 5 5 5 5 8 8 5 5 5 5 5 5 5 5 5 5 5 8 8 8 8 4 4 4 4 4 4 4 4 4 4 4 4 4 4 4 8 8 4 4 5 5 5 5 8 8 8 8 5 5 5 5 9 9 5 5 5 5 5 9 9 9 9 9 9 9 9 9 9 9 9 9 9 9 9 9 9 9 9 9 5 9 9 9 H 9 9 9 9 9 9 9 H H J J H J J H J J J J J K K K K K K K L L L L K K K K L L L L L ) ) ) ' ' ' ' ' ' ' ' ' ' ' ' _ ` ] G.W.m.] ] ] ] ] ] z.z.z.z.] ] ] ] ] ] [ [ ' ) ' ..p # o   X                                                         . . . . $ % % % % & 3 < = = = = = & & & = = $ $ $ $ $ . . . . . . . .                                         + + o o > > c 1XrX7Xy.q.q.q.g.8XyXpXyX>X:Xh.i.i.j.7X7X:X:Xj.j.:X:Xj.g.i.i.u.y.r.t.r.r.r.7.7.D S A n b i i 1 < < ; # # # 7 7 q 7 r r p p r r r r Y Y E W E E W W W ^ ^ ^ +.+.+.$.$.$.$.$.@.+.+.+./ ^ ( ^ ^ ~ E Y r r r r r r t t t t q q q q q 7 7 0 0 6 6 7 0 6 @ @ @ @ O O O O + O O O X X X X O O O O O O O O # # 6 6 6 6 6 6 @ @ @ O O O O O O O O O O O O O O O O O O O 4 O 4 4 4 6 0 Y r q ~ ..@.| / +.| ^ ^ ^ ^ ^ ^ Q W W r 0 6 6 6 6 6 6 6 6 6 6 6 6 0 q Y ~ ^ ^ ^ ^ R T T T | +.%.R.~.~.E.Y.%.Y.OX&X2X2X2XcXNXcX&X<.J 9 0 H H ( ..~ 9 5 8 8 5 5 5 5 5 5 8 8 8 8 8 8 8 8 8 8 8 8 8 8 8 8 4 8 8 8 8 8 4 4 4 4 4 4 5 5 8 8 8 8 5 5 5 5 5 5 5 ",
"9 9 H H H H H H 9 9 9 9 9 9 9 9 9 9 9 9 9 9 9 9 9 9 9 9 9 9 9 5 5 5 5 5 5 5 5 5 5 5 5 5 5 5 5 5 8 8 8 8 8 8 5 5 4 4 4 4 4 4 4 4 4 4 4 4 8 8 4 4 5 5 5 5 8 8 8 5 5 5 5 9 9 9 9 9 9 9 9 9 9 9 9 9 9 9 9 9 9 9 9 9 9 9 9 9 9 9 9 9 9 9 9 9 9 H 9 9 9 9 9 9 H J U U I U J J H J J J J J J K K K K K K K K K ' I K K L L L L L L L ) ' ' ' ' ' ' ' ' ' ' ' ' [ ' ] G.m.m.] ] ] ] ] ] ] ] ] ] ] ] ] ] ] ] ] ] [ ) ..~ a < o                                                       . . . . . . $ % & & % & & 3 = = = k 3 3 3 3 , = & = % $ $ $ $ $ . . . . . . .                                     X + # # > o o m <X<Xu.6.q.q.h.j.eXaXMXaXwX8Xj.i.i.j.>X>X:X:X:X:X;X;Xj.g.i.i.u.y.r.r.r.r.y.w.7.D D Z m b z i u u < ; # # 7 7 q q q r r W Y r r r r r Y r r E E E E Y Y W W ^ ^ | | $.$.$.$.+.| ^ ^ ( W E Y Y Y r r t t t t t t t t q q t t t t t 7 7 0 0 6 6 7 0 6 @ @ @ @ @ @ X X # # # @ + +   X O O O O O O X X # 6 5 5 6 6 6 6 6 6 6 6 6 O O O O O O O O O O O O O O O O O O O O O O O 4 4 4 4 q W / <.<.+.+.+.^ ^ ^ R ^ ^ ^ ^ Y t 6 6 6 6 6 6 6 6 6 6 4 4 6 0 q W ~ ^ | ^ T T T T ^ R $.Y.R.~.OXOX~.R.OX&XOXOX3XcXIXNX3XOXH 0 8 0 H H J J q 5 5 5 9 9 5 5 5 5 5 5 5 5 9 9 5 5 5 5 5 5 5 5 8 8 8 8 4 4 8 8 4 4 4 4 4 4 4 4 4 4 8 8 8 8 8 8 8 8 8 ",
"9 9 H H H H H H 9 9 9 9 9 9 9 9 9 9 9 9 9 9 9 9 9 9 9 9 9 9 9 9 5 5 5 5 5 5 5 5 5 5 5 5 5 5 5 5 8 8 8 8 8 8 8 5 4 4 4 4 4 4 4 4 4 4 4 4 8 8 4 4 5 5 5 5 8 8 8 5 5 5 8 8 8 9 9 9 9 9 9 9 9 9 9 9 9 9 9 9 9 9 9 9 9 9 9 9 9 9 9 9 9 9 9 9 H 9 9 9 9 9 9 9 J J ..^.$.I H U J J J J J J J J K K K K K K K K K K K K L L L L L L L ) ' ' ' ' ' ' ' ' ' ' ' ' ] ` [ m.] ] [ [ ] ] ] ] ] ] ] ] ] ] ] ] ] ] ] [ [ ^.3X&Xa < + X                                                   . . . . . $ $ % & & , & & , f f f f f f 3 3 3 f , , & & & $ $ $ $ $ . . . . . . . .                               X X # # > > 3 S s.uXwXj.h.k.k.8XwXiXsXAXAXpXyXwX>Xj.j.>X>X:X:X:X;Xj.;X;Xg.d.i.u.r.r.r.r.r.r.r.7.>.D S B n b i u u < - # # # 7 q q p p p W W r r r r r r r r r r Y Y Y Y E E E W ^ |  . . . .| ^ ~ E Y Y Y r r r r r t t t t t t t t q q t t t t t 7 7 0 0 6 6 7 0 6 @ @ @ @ @ @ @ X @ @ # # + +     O O O O O X X + # 6 5 5 6 6 6 6 6 6 6 6 6 6 6 6 @ @ O O O O O O O O O O O O O O O O O O O O 4 4 4 5 p ( @.@.@.+.+.^ R R R ^ ^ ^ W r 0 q 0 0 5 5 6 6 6 6 6 4 4 0 q Y ~ ^ | ^ T T ^ ^ R R +.<.R.R.&X2X2X&X&X2XOXE.2X3XnXNXnX3X/ 8 9 0 9 9 H 9 5 5 9 9 9 5 5 5 5 5 5 5 5 5 9 9 5 5 5 5 5 5 5 5 8 8 8 8 4 4 8 8 4 4 4 4 4 4 4 4 4 4 8 8 8 8 8 8 8 8 8 ",
"9 H H H K H H H H 9 9 9 9 9 9 9 9 9 9 9 9 9 9 9 9 9 9 9 9 9 9 9 9 9 5 5 5 5 9 9 5 5 5 5 5 9 9 5 9 9 9 9 8 8 8 5 5 5 5 5 4 4 5 5 4 4 4 4 8 8 4 4 5 5 5 5 8 8 8 8 9 5 8 4 8 8 9 9 9 9 9 9 9 9 9 9 9 9 9 9 9 9 9 9 9 9 9 9 9 9 9 9 9 9 9 9 H 9 H 9 9 9 9 9 H U <.~.$.I H K J J J J J J J J K K K K K K K K K K L L L L L L L L L L ' ' ' ' ' ' ' ' ' ' ' ' [ ] ` ] [ [ [ [ ] ] ] ] ] ] [ ] ] ] ] ] ] ] ] [ ..oXcX&Xa < o X                                                   . . . . . % % & & , , , , f h h h h f f f f f f f f f & & & & $ $ $ $ . . . . . . . .                             X . # * > > 2 d.<XpX8Xk.>XwXyXiXiXsXmXBXAXaXfXyX7Xk.j.>X>X:X:X:Xj.j.;X;Xg.d.s.r.w.y.r.r.r.r.r.r.7.D D Z B b z i d < > # # # 7 7 r p p W W W r r r r r r r r r r r r Y Y Y Y Y E ^ ^ | | | ^ ^ E Y Y Y r t t t t t t t t t t q q r r t t t t r r r q 7 7 0 0 0 7 7 6 O O 6 6 @ @ @ @ @ @ @ # + + O O O O O O X X + + @ 6 7 6 6 6 6 6 7 7 7 7 7 7 7 7 7 6 @ O O O O O O 4 4 O O O O O O O O O O O O O O 6 7 r W ^ +.+.+.^ ^ R R ^ ^ W E r 0 q q q t 7 6 6 6 6 6 4 4 4 0 J E ^ ^ ^ ^ R ^ ^ R R ^ @.Y.E.OXOX2X2X2X2XOXOXOX2XcXNXUX3XE.T 0 0 0 9 9 9 5 5 5 5 5 5 5 5 5 5 5 5 5 5 9 9 5 5 5 5 5 5 5 5 8 8 8 8 8 8 8 8 4 4 4 4 4 4 4 4 4 4 8 8 8 8 8 8 8 8 8 ",
"9 H H H K K H H H 9 9 9 9 9 9 9 9 9 9 9 9 9 9 9 9 9 9 9 9 9 9 9 9 9 9 9 9 9 9 9 5 5 5 5 9 9 5 9 9 9 9 9 8 8 8 8 8 8 5 5 4 4 4 4 4 4 4 4 8 8 4 4 5 5 5 5 8 8 8 8 8 U X.<.~ J 8 8 9 9 9 9 9 9 9 9 9 9 9 9 9 9 9 9 9 9 9 9 9 9 9 9 9 9 9 9 9 H 9 9 H 9 9 9 H J J J U K J J H J J J J J J J K K K K K K K K I ' ....L L L L L L L L ) ) ' ' ' ' ' ' ' ' ' [ ] ] ` [ [ [ [ [ ] ] ] ] ] ] [ [ ] ] ] ] ] ] ] [ [ ~.cX&Xs < o X                                                 . . . . . = % & , , f f f f g h h h g g g f f , f f f f , & & & & $ $ $ . . . . . . . .                           X X o * > > > A 1X>XtXeXeXyXdXZXSXDXDXZXBXdXiXfXyXwXj.j.>X>X:X:X:Xj.;X;Xj.g.s.s.y.w.w.r.r.r.r.r.y.7.D D S B N b i i u > # # # 7 r p p W W W W r r r r r r r r t t t t t t Y Y Y E ^ ^ ^ ^ ^ ^ E Y q q t t t t t t t t t t t t q q r r t t t r Y r r q q 7 7 0 0 7 7 6 6 O 6 6 6 @ @ @ @ @ @ @ + + O O O O O O X + # # @ 7 7 6 6 6 6 0 7 7 7 q r 7 r r r r 0 0 6 6 6 6 6 6 4 O O O O O O O O O O O O O O @ 7 q Y W W ^ ^ ^ ^ R R R ^ ^ E Y 0 q q 0 q 7 0 6 6 6 6 4 4 4 4 0 Y ~ ^ ^ ^ ^ ^ ^ R R R +.<.R.%.R.OX&X3X3X2X2XOXOX3XUXNXbX3XE.H 0 8 0 9 9 5 5 5 5 5 5 5 5 5 5 5 5 5 5 9 9 5 5 5 5 5 5 5 5 8 8 8 8 8 8 8 8 4 4 4 4 4 4 4 4 4 4 8 8 8 8 8 8 8 8 8 ",
"9 9 H H H H H 9 9 9 9 9 9 9 9 9 9 9 9 9 9 9 9 9 9 9 9 9 H H H H H H H H H H H H 9 9 9 9 9 9 9 9 9 9 9 9 9 9 9 9 9 9 9 5 5 8 5 5 4 4 4 4 5 5 5 5 5 5 5 5 8 8 8 8 9 q ~ X.( U J 9 9 9 9 9 9 9 9 9 9 9 9 9 9 9 9 9 9 9 9 9 9 9 9 9 9 9 9 9 H H H H H H H H H H H H J J J H J J J J J J J J J J J J J J J K ' ......K K K L L L L L L L L ) ' ' ' ' ' ' ' ' ` ` ` ` [ [ [ [ ] ] ] ] ] ] ] ] ] ] ] ] ] ] ] [ [ oX3X$Xs - o X                                                 . . . . = & & & f f g h g g g g h h h h g g f f f f f f f f , & & % $ $ $ $ . . . . . .                         . X X o # > 1 S 1XrXtXyXyXiXsXZXSXFXSXDXZXdXfXyXpXyXwXj.j.:X:Xj.j.;X;X;X;X;Xg.s.s.r.w.w.r.r.r.r.r.w.7.:.D ;.Z N b i i u ; # # # e r p p W W W W Y Y r r r r r Y r r r r Y Y Y Y Y Y E W ~ ~ ^ ~ E q 0 r q q q q t t t t t t r r r r Y Y Y Y Y Y Y Y Y q q q 0 0 0 7 7 6 6 6 6 6 @ @ 7 7 7 6 @ @ O O O O O O O + X + # # e 7 0 6 O O O O 6 7 r r t t t t r r r t q 0 0 0 0 6 6 O O O @ @ O O + + O O O O O O @ 6 t Y E ^ ^ ^ R R R | ^ R T Y Y 0 r t q q r 6 6 O O 4 4 4 4 0 q E ^ ^ ^ ^ ^ ^ R R T R +.Y.@.%.R.R.2X3X3X3X2X2X2X3XbXNXcX~.Y 8 9 5 9 9 9 9 9 9 9 9 9 9 9 9 9 9 9 9 9 9 9 9 9 8 8 8 5 5 5 5 5 5 4 4 4 4 4 4 4 4 4 4 4 4 4 4 8 8 8 8 8 8 8 8 8 ",
"9 9 H H H H 9 5 9 9 9 9 9 9 9 9 9 9 9 9 9 9 9 9 9 9 9 9 H H H H H H H H H H H H H H H H H H H 9 9 9 9 9 9 9 9 9 9 9 9 9 8 8 5 5 4 4 4 4 5 5 5 5 5 5 5 5 8 8 8 8 5 5 q ~ J H 8 8 9 9 9 9 9 9 9 9 9 9 9 9 9 9 9 9 9 9 9 9 9 9 9 9 9 9 9 9 H H H H H H H H H H H H J J J J J J J J J J J J J J J J J J J J ' ..' ' K K K K L L L L L L L L ' ' ' ' ' ' ' ' ` ` ` ` [ [ [ [ ] ] ] ] ] ] ] ] ] ] ] ] ] ] ] [ [ ~.3XE.i - o X                                               . . . $ = & = , , f f h h h h h h h h h h h g g g f f f f f f f f & & $ $ $ $ $ . . . . .                         . X X o X X 3 ,XpXAXmXsXBXAXHXJXJXJXSXDXZXdXiXyXyXtXwXj.g.j.j.g.g.;X;X;X;Xg.g.s.s.r.w.w.r.r.y.r.y.w.7.D D ;.Z N b i i 1 - # # # e e p p p W W W Y Y r r r r Y Y Y Y Y Y Y Y Y Y Y Y E E E E ~ ~ Y q 0 r q q q q t t t t r r r r r r Y Y Y Y Y E W Y Y q q q 0 0 0 7 7 6 6 6 6 6 @ @ 7 7 7 6 @ @ O O O O O O + + # # 7 7 7 6 6 6 O O 4 4 6 7 r r r r r r r r r r r q q q 7 6 6 O O O 4 O O O + + O O O + O O O 4 0 r Y R ^ ^ ^ R { | { { R T E Y Y r r r r r t r 6 6 4 4 6 6 0 q E ^ +.^ ^ R R R Y T ^ +.^ Y Y E OX2XcXcXcX3X2X&XbXbX3XOX| Y H H 9 9 9 9 9 9 9 9 9 9 9 9 9 9 9 9 9 9 9 9 9 8 8 8 5 5 5 5 5 5 4 4 4 4 4 4 4 4 4 4 4 4 4 4 8 8 8 8 8 8 8 8 8 ",
"5 9 H H H H 9 5 9 9 9 9 9 9 9 9 9 9 9 9 9 9 9 9 9 9 9 9 H H H H H H H H H H H H H H H H H H H H 9 9 9 9 9 9 9 9 9 9 9 9 8 8 5 5 5 5 5 5 5 5 5 5 5 5 5 5 8 8 5 5 5 5 5 9 H 9 9 9 9 9 9 9 9 9 9 9 9 9 9 9 9 9 9 9 9 9 9 9 9 9 9 9 9 9 9 9 H H H H H H H H J J H H J J J J J J J J J J J J J J J J J J J J I K K L L K K K L L L L L L L L ' ' ' ' ' ' ' ' ] ] ] ] [ [ [ [ ] ] ] ] ] ] ] ] ] ] ] ] ] ] ] [ ' Y.&X2.x - - X       O                                       . . $ % & 3 , f f f h h h h h h h h h h h h h h g g g f f f , , f , & % $ $ $ $ $ . . . . .                       . X X X o > 3 y.<XGXAXGXHXJXKXJXJXHXSXAXZXsXfXtXtXwXwX;Xg.g.g.g.s.g.g.;X;X=Xg.s.s.t.y.y.w.y.w.w.y.w.7.D D ;.Z N M z i 1 - # # # e e p p p p W W Y r r r r r Y Y t Y Y E Y Y Y Y Y Y Y E E E E E Y r 0 r q q q q t t t t r q r r r r Y Y Y Y W W W Y Y q q q q 0 7 t 7 6 6 6 6 6 6 6 6 7 6 6 @ @ O O O O O O @ @ 6 6 7 7 7 @ O O O O O O 6 0 r r r r Y Y Y Y Y Y Y r r q q 0 6 4 4 4 O O O + O O O O O + O O O 4 6 r Y E ^ ^ ^ ^ | | | | { R T Y Y Y Y Y E W W W Y 0 6 6 6 6 6 0 Y ^ +.+.R R R W Y E Y R ^ W 0 0 ~.2XcX3XcX3X2X&XUXbX3X3XY.T 0 H 9 9 9 9 9 9 9 9 9 9 9 9 9 9 9 9 9 9 9 9 9 9 5 5 5 5 5 5 5 5 5 5 8 8 5 5 5 5 5 5 5 5 5 5 8 8 8 8 8 8 8 8 8 ",
"5 9 H H H H 9 9 9 9 9 5 9 9 9 9 9 9 9 9 9 9 9 9 9 9 9 H H H H H H H H H H H H H H H H H H H H H H H H 9 9 9 9 9 9 9 9 9 8 8 5 5 5 5 5 5 5 5 5 5 5 5 5 5 8 8 5 5 5 5 5 5 H H 9 9 9 9 9 9 9 9 9 9 9 9 9 9 9 9 9 9 9 9 9 9 9 9 9 9 9 H 9 H H H H H H H H H H H H H H H H H H H J J J J J J J J J J J J J J H H K K K K K K L K L L L L L L ) ) ' ' ' ' ' ' [ ] ] ] [ [ [ [ ] ] ] ] ] ] ] ] ] ] ] ] ] ] ] [ ' X.$X1.i - - X       O                                       . . % & & , 3 f h h h h h h v v v v v v v h h h g h g g g f f f f , & = $ $ $ $ $ . . . . .                       . X X X > c d.MXmXHXJXKXJXJXHXAXBXmXsXmXBXsXpX8XwXwX7X;X;X;Xg.s.u.s.d.g.;X=Xd.s.s.t.r.y.w.w.w.w.w.w.7.>.D ;.Z N M z i 1 - # # # e e p p p W W W Y Y Y r r Y Y Y Y Y E R W Y Y Y Y Y Y Y Y Y Y Y Y q q q q q q q t t t t q q q r r r Y Y Y W W W W Y Y q q q q 0 7 7 7 6 6 O 6 6 6 6 6 7 6 6 @ O O O O O O @ @ @ 6 6 0 7 @ O O O O O O O O 0 r Y Y Y Y W W W W W W Y Y r q 0 6 4 4 4 4 O O O O O O O O O O O O O 6 q Y E ^ ^ ^ | | | | | | | R R T E E Y Y E ^ ^ ^ Y Y q 0 6 6 6 0 ~ ^ +.^ R R W E Y E Y Y Y 0 0 | R.3XxX3X3X3X3XcXcX2X3XR.T 0 0 0 9 9 9 9 9 9 9 9 9 9 9 9 9 9 9 9 9 9 9 9 9 5 5 5 5 5 5 5 5 5 5 8 8 5 5 5 5 5 5 5 5 5 5 8 8 8 8 8 8 8 8 8 ",
"5 9 H H H H 9 9 5 5 5 5 9 9 9 9 9 9 9 9 H H H H 9 9 H H H H H H H H H H H H H H H H H H H H H H P H P 9 H H H H 9 9 9 9 8 8 5 5 5 5 5 5 5 5 5 5 5 5 5 5 8 8 8 8 9 9 9 9 9 9 9 9 9 9 9 9 9 9 9 H H H 9 9 H H H H H H H H H H H H H H H H H H H H H H H H H H H H H H H H H H H H J J J J J J J J J J J J K K K K K K K K K K K L L L L L ) ) ) ) ' ' ' ' ` ` ` ` ] ] ] ] ] ] ] ] ] ] ] ] ] ] ] ] ] ] ] [ I X.2.=.i - X X                                           . . . % % & , f f h h h j C S C C V V V v v v c h h h h h h g g g , , , , = % $ $ $ $ $ . . . .                           . o o w.rXGXGXHXKXKXHXAXBXsXaXyXyXsXmXpXwX>X>X7X7X<X;X;Xd.t.t.s.d.g.d.g.d.s.a.a.r.r.w.w.7.7.7.7.7.7.:.;.Z N N z i 1 < - # # e e p p p p W W Y Y r r E Y Y Y r Y Y ^ ^ W Y Y Y Y Y Y Y r r r q q q q q q 0 6 6 6 6 6 q 5 5 q 6 6 6 6 6 q p W W W r r q q q q q 0 q 6 O O 6 q r r r 7 0 6 O O O O @ 6 0 7 6 0 0 0 0 6 6 @ O O O O O O 6 q r W W Y E ~ ^ ^ ~ W W Y Y r q 0 6 4 4 5 6 6 O O O O O O X @ X O O O 6 q Y W ^ | ^ | | | | | | | | { ~ T T Y Y E E ^ ^ ^ E Y 0 0 0 0 0 Y ^ ^ ^ ^ ^ R E Y Y Y Y Y Y Y Y Y.2XcX3X2X2XcX3X2X&X2X~.$.8 0 0 9 9 9 9 9 9 9 H H H H H H H H H H H 9 9 9 5 5 9 8 8 8 5 5 8 8 8 8 8 8 8 8 5 5 5 5 5 5 9 9 9 9 9 9 9 9 9 ",
"5 9 H H H H 9 9 5 5 5 5 9 9 9 9 9 9 9 9 H H H H 9 9 H H H H H H H H H H H H H H H H H H H H H H P P P H H H H H 9 9 9 9 8 8 8 5 5 5 5 5 5 5 5 5 5 5 5 5 8 8 8 8 9 9 9 9 9 9 9 9 9 9 9 9 9 9 9 H H H 9 9 H H H H H H H H H H H H H H H H H H H H H H H H H H 9 9 H H H H H H H H J J J J J J J J J J J J K K K K K K K K K K K L L L L L ) ) ) ) ' ' ' ' ` ` ` ` ] ] ] ] ] ] ] ] ] ] ] ] ] ] ] ] ] ] ] [ I / =.=.u - X X                                         . . . . % % , , f h h h V V S ;.S C C V V V V v c h h h h h h h g g , , , , & = $ $ $ $ $ . . .                             . > A wXmXAXHXKXKXmXyX:Xj.>X7X8XtXyXtXj.u.u.;X>X7X7X;X=Xd.r.7.w.r.t.s.d.d.s.a.a.t.r.w.7.7.7.7.7.7.7.>.;.Z B N z i 1 < - # # e e p p p p W W Y Y Y r E Y Y Y t Y Y R W Y Y r r r r r r r r q q q q q q 0 6 6 6 O O O O O O O O O O O O 5 q p p r r r q q q q q 0 0 6 6 6 q r r r r 7 0 6 O O O @ 6 7 r r r r t t t r 6 @ O O O O O O 6 q r W W Y Y ^ ^ ^ ^ ~ W Y Y r q 0 6 6 5 6 6 6 @ @ @ @ @ @ @ @ X @ @ 6 6 t Y ( / | | | | |  . . . . . .| R T Y Y E E R ^ ^ T E Y t 0 0 0 Y E R ^ ^ ^ R Y Y Y Y Y Y Y Y Y +.&X3X3X2XE.OX3XcX2X&XOXOXT H H H 9 9 9 9 9 9 H H H H H H H H H H H 9 9 9 5 5 9 8 8 8 5 5 8 8 8 8 8 8 8 8 5 5 5 5 5 5 9 9 9 9 9 9 9 9 9 ",
"5 9 H H H H 9 5 5 5 9 9 9 9 9 9 9 9 9 9 H H H 9 9 9 H H H H H H H H H H H H K K K K H H H H H H P H H H H H H H 9 9 9 9 5 5 5 5 5 5 5 5 5 5 5 5 5 5 5 5 5 5 5 5 9 9 9 9 9 9 9 9 9 9 9 9 H 9 H H H H 9 9 H H H H H H 9 9 9 9 H H H H H H H H H H H H H H 9 9 9 9 H H H H H H H H J J J J J J J J J J J J K K K K K K K K K K K L L L L L ) ) ) ) ' ' ' ' ` ` ' ' [ ] [ [ ] ] ] ] ] ] ] ] ] ] ] ] ] ] ] [ ..( =.s u - X X                                         . . . % % & , f g h h j C S ;.,.S C C V V V V v c c c c c c h g g g g , f 3 = & & $ $ $ $ $ . .                             X c i.tXmXAXGXKXJXyXj.0.0.:X;XwXtXwX>Xi.6.u.u.=X1X<X;X=Xa.7.D D D 7.r.a.d.s.a.a.t.r.w.7.6.6.7.7.7.7.>.:.;.B N b i 1 < - ; # e e p p p W W W Y Y Y Y E Y Y Y t Y Y R W Y q 0 q q q q q q q q q q q q 6 6 O O O O O O                 O O 6 7 e r r t q q q q q 0 0 6 0 0 r t r r r 7 6 6 O O O 6 7 r r r t t t t r t 6 @ @ O O O O O 6 r Y W W Y Y ^ / | | ^ W Y Y Y q q 6 6 6 6 6 6 6 @ @ 6 6 6 @ @ @ @ 6 6 6 t Y W @.+.| | |  . . . . . .+. .| T Y Y Y T T ^ ^ ^ ~ T T Y t 0 t Y E R ^ ^ R Y Y Y Y Y Y Y Y Y E ~.2X3X2X~.OX2XcXxXOX~.OX| J H H H H 9 9 9 9 H H H H H H H H H H H H 9 9 9 5 5 5 5 5 5 5 5 5 5 5 5 5 5 5 5 5 9 9 9 9 9 9 9 9 9 9 9 9 9 ",
"5 9 H H H H 9 5 9 9 9 9 9 9 9 9 9 9 9 9 H H H 9 9 9 H H H H H H H H H H H H K K K K H H H H H H H P H H H H H H 9 9 9 9 5 5 5 5 5 5 5 5 5 5 5 5 5 5 5 5 5 5 5 5 9 9 9 9 9 9 9 9 9 9 9 9 H H H H H H 9 9 H H H H H 9 9 9 9 9 H H H H H H H H H H H H H H H 9 9 9 H H H H H H H H J J J J J J J J J J J J K K K K K K K K K K K L K L L L ) ) ) ) ' ' ' ' ' ' ' ' [ [ [ [ ] ] ] ] ] ] ] ] ] ] ] ] ] ] z.] ..( =.s u - X X                                         . . . % & , , f g g h V S ;.>.5.S C C V V V V c c c c c c c g h g g g , f , , & & = $ $ $ $ . .                         X > 3 t.>XpXAXGXZXDXsXi.F v G u.;XrXtX:X6.G G F D r.=X1X;X=Xt.:.D D D F 7.r.a.a.a.a.t.r.7.6.6.6.6.D >.7.>.:.;.*.N z i 1 < - ; # e r p p p W W W Y r Y Y E E Y Y t Y Y E W r 0 0 0 0 q q q q r q q q q 7 6 @ O O O O O O                     O O @ 7 7 r t q q q q 6 6 6 7 r t t r r r 7 6 6 6 O 6 6 r e r r r r r r r r r 6 @ O O O O O 6 q r W W Y T ^ | | | | ~ Y Y q q q 0 0 6 q 5 5 6 6 6 6 6 6 6 @ @ 6 6 6 6 t Y W @.$.+. .{ |  . . . . .$.$. .| T E E T T ~ ^ ^ ^ ^ ^ R Y t 0 0 0 ^ ^ ^ ^ Y Y Y Y Y Y Y Y Y Y Y.OX3X2XE.R.2X3XcXOX$.+.+.^ H H H H 9 9 9 9 H H H H H H H H H H H H 9 9 5 5 5 5 5 5 5 5 5 5 5 5 5 5 5 5 5 9 9 9 9 9 9 9 9 9 9 9 9 9 9 ",
"9 9 H H H H 9 9 9 9 9 9 9 9 9 9 9 9 9 9 H H H 9 9 9 9 9 H H H H H H H H H H H H H H H H H H H H H H H H H H 9 9 H H 9 9 5 5 5 5 5 5 5 5 5 5 5 9 9 9 9 5 5 5 5 5 9 9 9 9 H H H H 9 9 9 H H H 9 9 9 9 H H H H H H 9 9 H H H H H H H H H H H H H H H H H H H H H H H H H H H H H H H H H H J H H H H H H H K K J J J J J K K L L L L L L L ) ) ) ) ' ' ' ' ' ' ' ' ` ` ` ` ] ] ] ] ] ] ] ] ] ] z.z.z.z.] ] ..( ! s < - o X X                                 . . . . . . % & , f g g h v v S S S S B B m m m v v c c c c c c c c g g g f , f f f & & = = $ $ $ . . .             . .       . 2 A g.tXaXAXAXmXmXwXG G G A s.;XrXuXs.F c l m A e.=X1X;X%Xa.>.D D D D >.r.a.a.a.a.t.w.6.6.D D D D :.:.:.:.-.B M z 1 ; - ; # e e r r W W W W Y r r r Y ~ ~ E ~ E Y Y Y Y t 0 6 6 0 0 0 q q 0 6 4 4 4 O O O O O O                               O @ 6 7 q q q q 6 6 6 0 r r r r r r r 7 6 6 6 6 r r r r r Y Y W Y Y Y r r 7 6 @ O O O O O 0 r W 0 0 T | $. .| | ^ W Y 0 r r Y Y r r r r r p r 6 6 6 6 6 6 6 @ 6 6 q r W @.<.$. .| | | |  . .$.$.$.$. .~ R R R R ~ | | | +.| ^ ^ r 0 t t t R ^ ^ T Y Y Y Y Y Y Y Y Y +.E.3X2XR.$.OX2XcX2X$.| Y.<.H J 9 9 H H H H H H H H 9 9 9 9 9 9 9 9 9 9 9 9 5 5 5 5 9 9 5 5 9 9 9 9 9 9 9 9 9 9 9 9 9 9 9 9 9 9 9 9 9 ",
"9 9 H H H H 9 9 9 9 9 9 9 9 9 9 9 9 9 9 H H H H 9 9 H 9 H H H H H H H H H H H H H H H H H H H H H H H H H H 9 9 H H 9 9 5 5 5 5 5 5 5 5 5 5 5 5 9 9 5 5 5 5 5 5 9 9 9 9 H H H H 9 9 9 H H H 9 H 9 9 H H H H H H 9 9 H H H H H H H H H H H H H H H H H H H H H H H H H H H H H H H H H H H H H H H H H H K K K K J J J K L L L L L L L L ) ) ) ) ' ' ' ' ' ' ' ' ` ` ` ` ] ] ] ] ] ] ] ] ] ] z.z.z.z.z.] ../ ! u 1 - o X X                                 . . . . . % % , , f g h h v V C C C C B m m m m m m c n n v c c c c g g g f , f f f & & = = $ $ $ . . .             . .     . . =XuXmXaXmXmXsXsXj.0.3 v A D d.rXMXuX>.S v c m v >.s.,X;X%Xs.w.>.:.D D D 7.r.a.a.a.r.7.7.D D D D D D D ;.-.B N z i 1 ; ; # e e r r r Q W W W Y r r r E ~ ~ T ~ E Y q Y t 0 6 0 0 0 0 q 0 0 6 6 4 O O O O O O                                   O O @ 6 q q q q q q q q t r r r r r 7 7 6 6 6 7 t t r W Y Y W Y Y Y Y Y r 7 6 @ @ @ @ @ O 6 q Y q Y ^ | $. .| | ^ Y J 0 r Y Y Y r r r r Y W r 7 6 6 @ @ 6 6 @ @ 6 7 t Y / @.$. . . .| |  . .$.$.$.$.$.| | | | | | | | | +.| | ^ r 0 t t Y R ^ +.R Y Y Y Y Y Y Y T T | R.2X2XR.Y.R.OX3X2XR ^ R.<.~ J 8 8 H H H H H H H H 9 9 9 9 9 9 9 9 9 9 9 9 5 5 5 5 5 5 5 5 9 9 9 9 9 9 9 9 9 9 9 9 9 9 9 9 9 9 9 9 9 ",
"9 9 H H H H 9 9 9 9 9 9 9 9 9 9 9 9 9 9 H H H H H H H H H H H H H H H H H H H H H H H H H H H H H H H H H H H H H H 9 9 9 9 9 9 5 5 5 5 5 5 5 5 5 5 5 5 9 9 9 9 9 9 9 9 H H H H 9 9 H H H H H H H H H H H H H H H H H H H H H H H H H H H H H H H H H H H H H H H H H H H H H H H H H H H J H H H H H H K K K K J J J K L L L L L L L L ) ) ) ) ' ' ' ' ) ) ' ' ` ` ` ` ] ] ] ] ] ] ] ] ] z.z.z.z.z.] ....<.<.u 1 - o o X                                   . . . . % > , , g h h h V V C C m m m m V V V V V c m m c c c c c c g g g g f f f k & = = $ $ $ . . .               X . . o 3 <XMXAXmXmXsXpXtX0.v c v F w.1XuXMXuXS A m n n c S e.%X%X%Xs.e.7.>.D D D >.r.a.a.t.r.7.7.D D D D Z Z Z B N M z i u ; ; # # e r r W W ( W W Y Y Y Y Y E ~ ~ ~ T ^ Y q r t 0 6 0 0 0 0 0 0 6 O O O O O O                                           O O 6 r q q q q q r r r r r r r 7 0 6 6 6 7 t r r W W W Y W E Y Y E Y r q 6 6 6 6 6 6 O 4 0 Y Y ~ +.$.$. .| ~ ~ Y q 6 q Y Y Y W W W W W Q r q O O @ @ @ @ @ @ 6 6 q r ^ +.$. . . . . . . .$.$.$.$.$. . . . . . . . . .$. .| ^ r 0 t t Y ^ +.+.^ T Y Y E Y Y Y E T ^ Y.OX&X~.~.Y.~.2X2X+.^ Y.<...~ 8 8 H H H H H H H H 9 9 9 9 9 9 9 9 9 9 9 9 5 5 5 5 5 5 5 5 9 9 9 9 9 9 9 9 9 9 9 9 9 9 9 9 9 9 9 9 9 ",
"9 9 H H H H 9 9 9 9 9 9 9 9 9 9 9 9 9 9 H H H H H H H H H H H H H H H H H H H H H H H H H H H H H H H H H H 9 H H H 9 9 9 9 9 9 5 5 5 5 5 5 5 5 5 5 5 5 9 9 9 9 9 9 9 H H H H H 9 H H H H H H H H H H H H H H H H H H H H H H H H H H H H H H H H H H H H H H H H H H H H H H H H H H H H H H H H H H H H H K K J J J J K L L L L L L L ) ) ) ) ' ' ' ' ) ) ' ' ` ` ` ` ] ] ] ] ] ] ] ] ] z.z.z.] z.] ..2X3X$Xu 1 - o o X                                   . . . % % , , g g h h v V V V V m m m m V V V V V V V m n c c c c c h g g f f f f k k = $ $ $ $ . .                 X X X c a.rXyXaXmXMXMX>Xg.G v v G y.a.,XuXuX,Xc m m m c B B S p.a.d.s.e.7.7.>.D D D 7.r.a.r.7.7.6.D D D Z Z Z N n b z i u y ; # # 7 r r r W ( ( W W E Y Y Y E E T ~ R T ^ Y q q 0 6 0 0 0 0 0 0 6 6 O O                                                     O O r q r r r r r r r r r r q 7 6 6 6 0 q t r r W W W E W E E E E W Y q 6 6 7 7 7 6 6 4 6 q E ^ $.$. . .| ~ T J 0 6 0 Y Y W W W W W W ( W q O O @ @ O O O @ 6 6 5 q W ^ $.$.+.#. . . . . .$.$.$.$. . . . . . .| |  .$. . .^ Y 0 t t Y ^ +.@.+.R Y Y Y Y Y Y E R +.Y.E.OXOXOXR.~.2X2X2XR.~.OX....H 8 H H H H H H H H H 9 9 9 9 9 9 9 9 9 9 9 5 5 5 5 5 5 5 9 9 9 9 9 9 9 9 9 9 9 9 9 H H H H H H H H H ",
"9 9 9 9 9 9 9 9 9 9 9 9 9 9 9 9 9 9 9 9 H H 9 9 H H H H H H H H H H H H H H H H H H H H H H H H H H H H H H H H H H 9 9 9 9 9 9 9 9 9 5 5 5 5 5 5 5 5 5 9 9 9 9 H 9 H H H H H H H H H H H H H H H H H H H H H H H H H H H H H H H H J H K K H H H H H H H H H H H H H H H H H H H H H H H H H H H H H H H H H H H H K J K K K K L L L L ) ) ) ) ' ' ' ' ' ' ' ' ` ` ` ` ` ` ] ] ] ] ] ] ] ] ] ] ] ] z.] oX3X+Xd < > - o X X                                 . . . % % , , g h h h h V V V V m m m c n n b c b n n n c c c c c c h g g g f f k k k = $ $ $ $ . .                 X   X A d.7X7XaXVXmXMX:Xy.G G G F u.d.1X<X<X%Xn c m B m c B S >.r.p.a.a.a.a.8.Z D D 7.r.a.r.8.7.:.D D S -.Z N N z z i u u < ; 7 e e r r W W ( ( ~ ~ E Y Y Y E E ~ { | ^ E Y Y q 0 0 0 0 r q q 6 6 O O                                                       O 6 r W Y W W W W W r r q q 7 7 0 6 6 6 7 7 t r Y Y E ~ ^ | +.| | ^ ~ r 0 0 t r r 6 0 0 0 0 Y ~ | $.$. .| { T J 0 6 q Y W W W W W W ( W r 6 4 O O O O O O O O 4 6 5 q W | Y.$.J.J.J.$.$. .|  .$. . . . . .| | | | | |  . .| R E Y Y T ^ +.+.+.| T Y Y Y Y Y T ^ +.<.R.E.OXOXOXOX2X3X2XR.~.OXT.<.J H H H H H H H H H H H H H 9 9 9 9 H H 9 9 9 9 9 9 9 9 9 9 H H H H H H H H H H H H H H H H H H H H H ",
"9 9 9 9 9 9 9 9 9 9 9 9 9 9 9 9 9 9 9 9 H H H 9 H H H 9 H H H H H H H H H H H H H H H H H H H H H H H H H H H H H H 9 9 9 9 9 9 9 9 9 9 5 5 5 5 5 5 5 5 9 9 9 9 9 9 H H H H H H H H H H H H H H H H H H H H H H H H H H H H H H H H J H K K H H H H H H H H H H H H H H H H H H H H H H H H H H H H H H H H H H J J K K K K K K L L L L L ) ) ) ' ' ' ' ' ' ' ' ` ` ` ` ` ` ] ] ] ] ] ] ] ] ] ] ] ] z.] ^.+X=.d 1 < - o X X                                 . . . % , , , g h h h h V V V m m m n 2 > > o % > > c n n c c c c c h g g f f f k k k = $ $ $ $ . .                   X v ;X>X:X>XmXGXMXuXu.F F 7.D a.a.a.:X<X,Xa.m v m m m n m m S >.8.e.r.t.t.e.D S D >.e.t.r.7.7.D D S Z Z N N x z i u y 1 ; e e e r r Y W W ( ( ~ ~ E Y Y Y E ~ ~ | | ~ Y J q q 0 0 0 0 r q q 6 O O                                                         O 4 r W Y W W W W W r r q q q 7 0 6 6 6 7 7 0 0 0 r Y ~ ^ | +.+.+.+.^ Y 0 Y r r r 0 6 6 0 6 J Y ~  .$. .| { J J 0 q Y W W W W W W W W Y q 6 4 4 O O O O O O O O O 5 5 J | Y.Y.Y.Y.J.$.$.| | |  . . . . .| | | | | | |  . . .| T Y Y Y R ^ +.+. .R T Y Y Y Y R ^ ^ @.<.R.~.OX&X2X2X3X&XR.Y.Y.Y.<.U J H H H H H H H H H H H H 9 9 9 9 9 H 9 9 H 9 H H 9 9 9 H H H H H H H H H H H H H H H H H H H H H H ",
"5 5 5 5 9 9 9 9 9 9 9 9 9 9 9 9 9 9 9 9 H H 9 9 H 9 9 9 H H H H H H H H H H H H H H H H H H H H H H H H H H H H H H 9 9 9 9 9 9 9 9 9 9 5 5 5 5 5 9 9 5 9 9 9 9 9 H H H H H H H H H H H H H H H H H J J J J J J J J J J K K J J J J K K K K H H H H H H H H H H H H H H H H H H H H H H H H H H H H H H H H J H J K K K K K K K L L L L L L L L ' ' ' ' ' ' ' ' ] ] ' ` ` ` ] ] ] ] ] ] ] ] ] ] ] ] z.] ..<.s u 1 < < o o X                               . . . % % , , , g h h v v V V V m m n m 1 > o . . % > > c n c n c c c h g g f f f f k k = $ $ $ $ . . .               . > D tXeXwXyXBXAXuX<XF m >.r.d.;Xa.e.;X:X;Xs.:.m m n c n c B Z S >.7.e.e.r.e.D A D >.e.r.8.7.:.D D -.Z N N z z u u y ; e e e r r r r Y Y W ^ ^ ~ ~ E Y T T T T | | R Y 0 0 0 q q 0 0 0 r q 7 6 O O                                                         O 4 r W W W W W W Y r r 0 0 q 0 0 6 0 0 t t 0 6 0 0 Y T | | +.+.+.+.| E Y Y E W E t 0 0 0 0 J J E ~  . .| ~ J 0 0 q Y W W W W W W W Y q q 6 4 4 O O O O O O O O O O 5 5 ~ <.T.!.Y.J.$. .{ T T { | |  .| | | | | | { {  . .+. .{ Y E T T R | +.+.| T Y t Y Y T R ^ +.$.<.R.E.OX2X3XxX2X~.<.| Y.Y...U J J J J J J H H H H H H 9 9 9 9 9 9 9 9 H H H H 9 9 9 H H H H H H H H H H H H H H H H H H H H H H ",
"5 5 5 5 9 9 9 9 9 9 9 9 9 9 9 9 9 9 9 9 H H 9 9 H 9 9 9 H H H H H H H H H H H H H H H H H H H H H H H H H H H H H H 9 9 9 9 9 9 9 9 9 9 5 5 5 5 9 9 9 9 9 9 9 9 9 9 H H H H H H H H H H H H H H H H J J J J J J J J J J K J J J J K K K K K H H H H H H H H H H H H H H H H H H H H H H H H H H H H H H H H J H K K K K K K K K L L L L L L L L ' ' ' ' ' ' ' ' ] ] ' ' ` ` ] ] ] ] ] ] ] ] ] ] ] ] z...U o.y u 1 < < o o X   O                           . . . % % , , , g g h h v v V V m n n 1 o X . . . X . % > c c c c c c h g g g f f f k k = $ $ $ $ . . .               X >.7XBXmXBXBXaXrXd.a.c c S r.<X%XS l r.d.:X:Xa.A m v c n n n m Z S >.e.7.8.>.S Z D :.7.8.8.7.:.:.-.-.Z N M z i u y ; 7 e e r r Y Y Y Y E E ^ ^ ~ ^ E Y T T T T ^ T Y Y 0 0 0 q q 0 0 0 r q 7 6                                                             O 4 r W Y W W W W Y r t 0 0 q 0 0 6 0 t r r 0 0 0 0 Y T | | +.+.$.$.| T Y Y W ^ W r Y Y E Y Y J J E ~ / | T J 0 q q W W W W W W W W q 5 6 5 O O O O O O O O O O O O 4 5 Y | <.T.Y.$. .| T E T T R | | R R T R R { {  . . .#.+.| T Y T Y T ^  .+. .R Y t r Y E R ^ ^ +.$.<.Y.OX2XcXcXxX&XY.| Y.Y...U J J J J J J J J H H H H H H H H H H H H H H H H H H H H H H H H H H H H H H H H H H H H H H H H H ",
"5 5 5 9 9 9 5 5 9 9 5 5 9 9 9 9 9 9 9 9 H H H 9 H H H H H H H H H H H H K J J H H H H H H H H H H H H H H H H H H H 9 9 9 9 9 9 5 5 5 5 9 9 9 9 9 9 9 9 H H H H H H H H J J J J H H H H J J J J K K J J K K J J J J J J J J J J K K K K K H H H H H H H H H H H H H H H H H H H 9 H H H H 9 9 H 9 9 H H H H H H K K K K K K K K K K K L L L L L ' ' ' ' ' ' ' ' ' ' [ [ ] ] ] ] ] ] ] ] ] ] ] ] ] ] ] ] / =.d u < < > X X X                               . . . $ % , , f g h h h v v v v V n b o         . X X o > l c c c c c h g g g f f f k k = $ $ $ $ . . .       X     X l 1XtXVXAXAXmX7X;X,.b m m A s.<Xs.c 3 >.s.<X<X;Xe.A c v v A A m m S >.e.8.>.D Z Z Z D >.>.>.:.:.:.Z Z N N z z u p e 7 7 q r Y Y Y Y Y Y E T R ^ ^ R ^ ^ | ^ T T ^ ^ E Y q q q q q q q q r r 7 6                                                             O 7 r E E W W W W Y Y r 0 0 0 0 t Y E E E E t 0 0 t Y R | | +.+.+.+.T T Y Y R ^ R E @.+.^ ^ Y q q Y ^ / ^ Y J J q q r q 0 6 6 6 0 6 O O @ @ O O + O O O O   O O O O O 4 0 ~ | Y.Y.$.| T Y E J E R | | R R T R R { | #.$.J.J.$. .~ Y Y Y Y T | $.$.+.E t t E E W W R +.%.%.$.OX2XcXcXcX2XY.| Y.Y...J J J J J J J J J J J J H H H H H H H H H H H H H H H H H H H H H H H H H H H H H H H H H J J J J H ",
"9 5 5 9 9 9 9 5 9 9 5 5 9 9 9 9 9 9 9 9 H H H H H H H H H H H H H H H H K H J H H H H H H H H H H H H H H H H H H H 9 9 9 9 9 9 5 9 5 5 9 9 9 9 9 9 9 9 H H H H H H H H J J J J H H H H J J J J K K J J J K J J J J J J J J J J K K K K K H H H H H H H H H H H H H H H H H H H H H H H 9 9 H H 9 9 H H H H H H J K K K K K K K K K K K L I L L ' ' ' ' ' ' ' ' ' ' [ [ ] ] ] ] ] ] ] ] ] ] ] ] ] ] ] [ ~ / u < < > o X X X                             . . . . $ % , , f g h h g v v v v V n j o         . X X o > 2 c c c c h h g g f f f f k & $ $ $ $ $ . . .       X     B ;XMXVXMXmXpXwX7.B i 2 n b m r.,Xe.3 3 D s.9XrX1Xd.w.D 7.S S A v S ,.8.e.>.:.D B B B Z D D :.:.:.;.Z N M z i u u e e 7 q q Y Y Y Y Y E W T ^ ^ ^ ^ R ^ ^ | ^ T T R ^ W Y q q q q q q q q r q 7 @                                                           O X 7 r E E W W W W Y r q 0 0 0 0 Y W ^ ^ ^ ~ Y t t t Y ^ | | +. . .| Y Y Y Y T T T ^ @.+.^ ^ q q q r W W W Y Y q q q q 0 6 6 5 5 6 4 O O O O O O O O O O O   O O O O O 4 6 Y Y ~ ~ Y Y Y Y J J E {  . .| | { { |  . .J.J.J.K.$. .~ Y Y Y Y T +.$.$.$.T E Y Y E W W R +.%.%.@.<.~.3XcXcXcX2XR.Y.Y...J J J J J J J J J K K K K K K K K K K K K K K K K H H H H H H H H H H H H H H H H H H H H J J J J H ",
"5 5 5 5 9 9 5 5 9 5 5 5 9 9 9 9 9 9 9 9 H H H H H H H H H H H H K K H H H H H H K H H H H H H H H H H H H H H H H 9 9 9 9 9 9 9 5 5 9 9 9 9 9 9 9 9 9 9 H H H H H H H H J J J J J K K K K K K K K K K K K K K K K K K K K K K K K K K K K H H H H H H H H H H H H H H H H H H H H H 9 9 9 9 9 9 9 9 H H H H H H J K K K K K K K K K K K L L I I I I I ' ' ' ' ' ' ' [ [ ] ] ] ] ] ] ] ] ] ] ] ] ] ] ] ] ~ =.s < > > X X X X                             . . . . $ % , , f g g h g v v v V V V j o         . X X o > 2 c c c c h h g g f f f f & & & $ $ $ $ . . .           X %XuXGXGXmXmXrX=Xm > > 1 b l S t.s.F l c w.s.9X<X;Xs.w.>.e.e.e.>.A :.8.e.e.>.;.Z n b n B Z Z -.-.-.Z N N x z i u e e 7 7 r r W Y E E E ~ ^ ^ ^ ^ ^ R R R R | ^ R T T R R Y q q q q q q q q r q 6 O                         O O O O O O O O O O O O O O       + + e r E W ^ W W W E r 0 0 0 t Y W ^ ^ ^ ^ R Y Y Y Y W ^ +.+.^ | | Y Y Y E Y T T T | @.+./ ^ q q q r q r Y Y q 0 0 0 6 6 4 O O O 4 O   O O O O O     O O     O O   O O O 4 0 q Y Y Y Y Y Y Y Y E R |  . .| |  . .$.$.$.J.J.J.$. .~ Y Y Y Y Y  .$.K.K.R T E T T ^ ^ ^ | <.%.$.%.R.2XcXcXcX3X2X^.Y...T J J J J J J J J K K K K K K K K K K J J K K K K H H H H H H H H H H H H H H H H J J J J J J J J J ",
"5 5 5 5 9 9 5 5 9 5 5 5 9 9 9 9 9 9 9 9 H H H H H H H H H H H H K H H H H H H H K H H H H H H H H H H H H H H H H H 9 9 9 9 9 9 5 9 9 9 9 9 9 9 9 9 9 9 H H H H H H H H J J J K K K K K K K K K L L L L L L L L L L L K K K K K K K K K K H H H H H H H H H H H H H H H H H H H H H 9 9 9 9 9 9 9 9 H H H H H H J K K K K K K K K K K K L L I I I I I I ' ' [ ' ' ' [ [ ] ] ] ] ] ] ] ] ] ] ] ] ] ] ] ] / 1.=.i > - X X X X                             . . . . $ % , , f g g h g v v v V V V b o     .     X X o > l c c c c h h g g g f f f & & & $ $ $ $ . . . .       X < 4XCXAXGXMXuXt.A 2 - < 1 2 2 a.%Xw.F v F a.d.<X1Xs.d.r.r.s.a.a.t.>.>.e.p.e.:.S B n b n n m B Z Z Z N M x i i u y e 7 7 q r Y W E E E T ^ ^ ^ ^ ^ ^ R R R R | ^ R T T R R W t q q q q q q q r 5 6 O                         O O O O O + + O + + O O O O     O + 7 r Y E W ^ W W W E Y 0 0 0 Y W ^ +.| | ^ R E W W W R ^ ^ ^ ^ R T E Y E E T T T T | @.+./ ^ q q q q q q q q 6 4 4 6 4 O O O O   O       O                           O O O 6 6 0 q Y 0 0 Y Y Y E {  .+. . . . .$.J.J.$.$.$.$.$.| ~ Y Y Y Y Y | $.K.K.{ R T R ^ ^ ^ ^ +.<.%.$.%.%.OX2X3X3X3X3X^.Y...~ J J J K J K K K K K K K K K K K K K J K K K K K H H H H H H H H H H H H H H H H J J J J J J J J J ",
"5 5 5 5 9 9 9 5 5 5 5 5 9 9 9 9 9 9 9 9 9 9 9 9 H H H H H H H H K K H H H J H H K K H H H H H H H H H H H H 9 9 H H 9 9 9 9 9 9 9 9 9 9 9 9 9 9 9 9 9 9 H H H H H H J J J J K K L L L L ' ' ' ' L L L L L L L L L L L L L L L L L L K K K K H H H H H H H H H H H H H H H H 9 9 H H 9 9 9 9 9 9 H H H H H H H H H H H H H H H H J J K K K K K K K K K L ' ' ) ) ' ' ' ' ' ' [ [ [ [ [ [ [ _ _ _ ] ] ] ..X.2.*.i > % X X X X                             . . . . $ & 3 3 f f g h h v v v V V n b > X . X . . . . o 3 l c c c c g h h h f f f k k & & % $ $ . . .   X     o > p.uXMXmXMXpX<XA c 1 i 2 2 1 1 p.a.>.F r.w.t.u.<X;Xd.d.7.7.r.a.a.p.e.>.p.d.>.;.Z B B n b b b z N N N N M i i u p e e 7 q q q Y W E Y Y R ~ | | | | | R R R ^ ^ R R T T R W Y r q q q r r r r q 6 O O O O O O O O O O O O O O O O O O O O O O O O O O O O O O O O 6 r W R R ^ W W W E Y Y E R ^ ^ ^ ^ | | ^ ^ R W W R R ^ ^ | ^ R Y E E E T T R T ^ <.E.+./ Y q q q 5 6 6 6 4 O O O O O O O O                                         O O O @ @ 6 6 q 0 0 Y Y Y R  .+.+.+.+.+.+.$.K.$.$.$.+.| +.+.^ T Y Y E E | #.$.K.K.$. .R | | | | | Y.R.%.| $.~.2X2X2X2X2X&X~...~ J K K K K L L K K K K K K K K K K K K K K K K K K K J J J J J J J J J J J J K J K K K K K K K K K ",
"5 5 5 5 9 9 5 5 5 5 5 5 9 9 9 9 9 9 9 9 9 9 9 9 H H H H H H H H H K H H K J H H J J H H H H H H H H H H H H 9 9 H H 9 9 9 9 9 9 9 9 9 9 9 9 9 9 9 9 9 H H H H H H H J J J J K L L L L L ' ' ' ' L L I L L L L L L L L L ) L L L L L K K K K H H H H H H H H H H H H H H H H 9 9 H H 9 9 9 9 9 9 H H H H H H H H H H H H H H H H J J K J K K K K K K K L ' ' ) ) ' ' ' ' ' ' [ [ [ [ [ [ [ [ _ _ ' ] z.[ <.$X2.N 1 > o X X X                             . . . . $ & 3 , f f g h h h v v V c n b 3 o X X . . . X > 2 c c c c c g h g f f f f k k & & % $ $ . . . . X X o 2 =X4XuXuXrXrXd.7.3 2 i b b b 2 3 8.t.d.;XrX<X:X>XyX<Xd.=Xw.r.a.a.a.p.e.8.a.d.:.-.B N n b b z i 2 2 i i i 1 1 1 e e e e e q t q Y W E T T ~ | | |  .+.+.R R R ^ R R T T T R W Y r q q q r r r r q 6 O O O O O O O O O O O O O O O @ @ @ @ @ @ @ @ @ @ @ O O O O O 4 7 r W ^ R ^ W W R E E E T ^ ^ ^ | +.| | ^ ^ R W W R ^ ^ | | R Y E E T T T R R Y +.E.R.^ W q q q 6 6 6 6 @ O O O O O O O                                                 O + O 6 6 0 0 0 Y J T | +.+.+.+.+.+.+.$.$.$. .| R T ^ ^ ^ ^ Y Y T E | #.$.K.K.K.K.$. .| | | +.Y.R.Y.R | R.OXR.Y.Y.E.2X2X^.| J K K K L L L L K K K K K K K K K K K K K K K K K K J K J J J J J J J J J J K K K K K K K K K K K ",
"5 5 5 5 9 9 9 9 5 5 9 9 9 9 9 9 9 9 9 9 9 9 9 9 9 H H H H H H H H H H H K J J H J H H H H K H H H H H H H H H H H H 9 9 9 9 9 9 9 9 9 9 9 9 9 9 9 9 9 H H H H H H H J J J J K L L ) ) ) ' ' ' ' ) ) ' ' ) ) ) ) ) ) ) ) L L I I L L L K K K H H H H H H H H H H H H H H H H H H H H 9 9 9 9 9 9 H H 9 9 H H H H H H H H J J J J H H J J K K K K K K K L ' ) ) ) ' ' ' ' ' ' _ _ _ _ _ [ [ [ _ _ ' ] ] [ ^.$X2.B 2 > - X X X                             . . . . $ = & , f f g h h v v v v c n n b > o X X . . > 3 2 c c c c c c h g f f f f k & & & % $ $ . . .   X   1 e.rXuX<X9X<X1X7.v 3 2 N N b 2 2 2 S 7.1XrXMXpXwXwXpXyX<X1Xs.a.a.a.a.p.e.e.a.a.;.B N b b b z i 2 1 < < - - ; ; ; ; 7 e 7 7 7 q q Y W E T ~ |  .| $.$.$.$.R R R R T T T T T R W Y r q q q r Y r r 5 6 O O @ 6 6 6 4 4 O O 4 4 4 6 O @ @ @ 6 6 6 6 6 6 6 6 4 O O O 6 5 q W W ^ ^ ^ ^ R ^ R T ^ ^ ^ | +.+.+.| | ^ ^ R W ^ ^ ^ ^ | R T E E T R R R R T T %.~.Y.Y Y q q 6 6 6 6 @ O O O O O O O O                                                 O O O 6 @ 6 0 q J T |  .+.$.+.+. .+.$.$.+.| T T Y Y R W E R E T T R  .+.$.K.K.K.J.K. . . . .| $.Y.<.| R $.R.R.$.+.$.2X2X~.$.J J K K L L L L K K K K K K K K K K K K K K K K K K K K J J J J J K K K J J J J K K K K K K K K K ",
"5 5 5 9 9 9 9 9 9 9 9 9 9 9 9 9 9 9 9 9 9 9 9 9 H H H H H H H H H H H H J J H H J J H H H H H H H H H H H H H H H H 9 9 9 9 9 9 9 9 9 9 9 9 9 9 9 9 9 H H H H H H H J J J J K L L ) ) ) ' ' ' ' ) ) ) ) ) ) ) ) ) ) ) ) ) ) ) I L L L K K K H H H H H H H H H H H H H H H H H H H H 9 9 9 9 9 H H 9 9 9 H H H H H H H H H H H J H H J J K K K K K K K L L ) ) ) ' ' ' ' ' ' _ _ _ _ _ _ [ [ _ _ ' ] ] [ ^.$X2.N b 1 > o X X X                           . . . . $ = & , f f g h g h v v V c c n n 2 > o o % > 2 2 c c c c c c c g g f f f f k & & & % $ $ . . .   o 1 4XuXrX;X;X=X=Xa.S m n i b N b 2 2 3 >.s.uXAXHXGXmXmXmXaXyXrX;X;Xd.a.a.p.e.p.a.a.Z N b z z z i 2 1 2 1 1 - - # # # # 7 7 7 7 7 q q r W Y E ^ |  .$.$.$.$.$.R R R R T T T T T W W Y r q q q Y Y r r 6 4 O O 6 6 6 6 6 6 6 6 6 6 6 6 # # @ @ 7 7 7 7 7 7 7 7 6 O O O q q p ! W ^ ^ ^ ^ R R R ^ ^ ^ ^ +.+.+.+.| | ^ R W W ^ ^ ^ | | R E E T T R R R R T +.Y.R.$.J Y q 6 6 6 @ @ O O O O O O O O                                                     O O O 6 6 q Y T ^ |  . .+.+.+. .#.$.+. .R E Y Y Y T W E E R R R R  .#.H.K.K.K.J.J. . . . .T | +.+.+.| $.K.R.Y.+.R !.2XOXY.J J K K L L L L K K K K K K K K K K K K K K K K K K K K J J J J K K K K J J J J K K K K K K K K K ",
"9 9 9 5 9 9 9 9 9 9 9 9 9 9 9 9 9 9 9 9 9 9 9 9 H H H H P P P P H H H H H H H H H H H H H H H H H H H H H H H H H H H H H H H H 9 9 9 9 H H H 9 9 9 9 H H H H H H H J J K K K K L L ' ' ' ' ' ' ' ' ' ' ' ' ' ' ' ' ' ' ' ' ) ) L L K K K H H H H H H H H H H H H H 9 9 9 9 9 H H H H H H H H H H H H H H H H H H H H H H H H H H H H H K K K K K K K K L L L L ' ' ' ' ' ' ' ' ' ' ' ' ' ' ' ` ] ] [ [ <.1.2.*.z 3 - X X X X X                         . . . . $ = & , f g g h h h v v V c c c n n h > 3 2 c c h h h h h h h h g , , , f f , & = = = $ . $ $ . X b e.MXMX<Xs.t.t.s.a.>.B n 2 i j b 2 3 3 t.;XMXGXKXJXGXAXaXaXpXtX7X1X=Xd.a.a.p.p.p.a.Z n i i z 2 2 i i i u - # # # # 7 7 7 7 7 r r t r Y W ^ ^  . . . . . . . .T R R T T E E E W W E Y r q q q Y r r q 6 4 O O 6 6 6 6 6 6 7 7 6 6 6 6 6 @ @ @ 7 7 7 7 q q 7 7 5 6 6 6 q r Q W ^ ^ ^ ^ ^ ^ ^ ^ ^ ^ | | | | | | | ^ T T E ^ ^ ^ | | | R E T T R R R ^ ^ R @.<.+.W Y q 6 4 O @ @ + O O O O O O O                                                     X X O O 6 5 q Y ^ ^ | | | +. . .+.+.#.#. .{ R Y Y Y Y T Y W R R R {  .#.H.K.K.L.Y.J.#.| |  .| ^ | | | | | +.Y.%. .R T.&XOXY.L J J K L L L L L L L L L L L L L L L L K K K K K K K K K K K K K K K K K K K K K K K K K K K K K ",
"9 9 9 9 9 9 9 9 9 9 9 9 9 9 9 9 9 9 9 9 9 9 9 9 H H H H P P P P H H H H H H H H H H H H H H H H H H H H H H H H H H H H H H H H 9 9 9 9 H H H H 9 9 H H H H H H H H J J K K K K L L ' ' ' ' ' ' ' ' ' ' ' ' ' ' ' ' ' ' ' ' ) ) ) L K K K H H H H H H H H H H H H H 9 9 9 9 H H H H H H H H H H H H H H H H H H H H H H H H H H H H H H K K K K K K K K L L L L ' ' ' ' ' ' ' ' ' ' ' ' ' ' ' ` ] ] [ [ J / 2.2.N b 1 o o X X X                         . . . . $ = & , , f g g g h v v v c c c c c c h h c c c h h h h h h h f g , , , f , & = = $ $ $ $ .   B 3 rXMXnX1Xw.F F D e.e.:.m b 2 1 1 > > l F 1XtXmXAXKXKXDXAXaXaXpXyXrX<X;X=Xd.a.a.p.e.p.Z M 2 2 z z z i i i u < # # 7 7 7 7 7 7 7 r r r r r W ^ ^ $.$.$.$. . .| { T R R T T E E E W E Y J r r r Y Y r r q 6 4 O O 6 6 6 6 6 6 7 7 6 6 6 6 7 6 6 6 7 7 7 q t t r t q q r r r W Q Q ^ ^ ^ ^ ^ ^ ^ ^ ^ | | | | | | | ^ R T Y E ~ ^ |  .| | R T R ^ ^ ^ ^ ^ ^ +.@.^ Y 0 6 4 O O O O X O O O O O O O O O O X O                                         X X X + 6 5 q q W ( ^ ^ ^ ^ R { | +.+.+.+.$.#. .| T Y Y Y T Y W R R R | #.$.H.K.K.L.Y.J. .{ R | | ^ | | | | | +.Y.%.+.|  .~.~.$.J J J J L L L L L L L L L L L L L L L L K K K K K K K K K K K K K K K K K K K K K K K L L L L K K ",
"9 9 9 9 9 9 9 9 9 9 9 9 8 8 8 8 9 9 9 9 9 9 9 9 H H H H P H H H H H H H H H H H H H H H H H H H H H H H H H H H H H H H H H H H 9 9 9 9 H H H H H H H H H H H H H H J J K K K K ' ' ' ' ' ' ' ' ' ' ' ' ' ' ' ' ' ' ' ' ' ' ) ) ) L K K K H H H H H H H H H H H H H H H H H H H H H 9 9 H 9 9 H H H H H H H H H H H H H H H H H H H J J K K K K K K K K L L L L ) ) ) ) ' ' ' ' ' ' _ _ ' ' [ [ ] ] ` [ I <.$X9.2.S b < - o o X                         . . . . $ = & , , f g g g g h v v c c c c c c c v c c c h h h h h h h g , , , , , , & % = * $ $ . . % %X<XMXMX<Xa.A m A >.p.p.,.n 2 1 > o > 3 m w.<XwXmXAXKXJXAXmXsXsXiXyXrX7X:X:X;X%Xd.p.>.>.N z 2 1 i i i i u u y y e 7 q 7 7 7 7 7 7 r r r r r Y W ^  . .+.+.| R T T T T T E E E E E E Y t J Y Y Y Y Y Y r q 6 6 6 O 6 6 6 6 6 6 0 0 6 6 7 7 7 6 6 6 7 7 7 t r Y Y Y r Y Y W W ^ ^ ( ^ ^ ^ ^ | R | | ^ ^ | | | | | ^ R T Y Y T ^ | |  .| | R T ^ ^ ^ ^ ^ ^ ^ o.W 0 6 4 4 4 O O O X + + + + + O O + + X X X + + # +                                   # # # # 7 q p ! / / ( ^ ^ R R R | | +.+.+.$.$.+.| | T Y T T Y T R R R { +.K.K.K.L.L.L.J.{ T E T | | | | | | | $.<.%.$.$...~.~.$.J J J J L L L L L L L L L L L L L L L L L L L L K K J J K K K K K K K K L L L L L L L L L L L L L ",
"9 9 9 9 9 9 9 9 9 9 9 9 8 8 8 8 9 9 9 9 9 9 9 9 9 H H H H P H H H H H H H H H H H H H H H H H H H H H H H H H H H H H H H H H H H H H H H H H H H H H H H H H H H H J J K K K K L L L L ' ' ' ' ' ' ' ' ' ' ' ' ' ' ' ' ' ' ) ) ) L K K K H H H H H H H H H H H H H H H H H H H 9 9 9 9 9 9 9 9 H H H H H H H H H H H H H H H H H H J J J K K K K K K K L L L L L ) ) ) ' ' ' ' ' ' _ _ ' ' ' [ [ [ [ ' J <.&X*X$X,.N 1 < - X o                         . . . . $ = & 3 , , f g g g g h v c c v c c c c v v v c h h h h h h h g , , , , , , & $ $ = $ . , C ,XMXGXMX<X7.c v c S :.,.,.b b 1 > > > 2 S w.d.>XwXmXHXJXSXBXsXsXsXiXyXtXrX<X<X1X;X%Xa.:.;.z z 1 1 u 1 1 1 < y y y y q 7 7 7 7 7 7 7 r r r r r r E W ^ ^ R R R T T T T T T E E E E E Y t t Y E E E Y W Y r q 6 6 6 6 6 6 6 6 6 6 0 0 6 6 7 7 7 7 7 5 7 7 t r Y W W W W W ( ( ( / / / ^ ^ ^ ^ | R | | | | | | | | ^ ~ T Y Y Y T | | $. . .| R R ^ ^ ^ ^ ^ ^ ^ r 4 4 4 O O O O O + + + + + + + O + + X X X X # u s u                                   # s 3.$X2.2.3.<.=.o.^ W W W W R R | | +.+.+.$.+.+.| ^ T T T Y T R R R { $.K.K.K.K.K.K.J.T P P E ^ ^ ^ ^ ^ | |  .%.%.%.$.^.&XOXY.J J J L L L ) ) L L L L L ) ) L L L L L L L L L L L L L L L L L L L L L L L L L L L L L L L L L ) ",
"9 9 5 5 9 9 9 9 9 9 9 9 9 9 8 8 9 9 9 9 5 5 5 9 9 9 H H 9 9 9 9 H H H H H H H H H H H H H H H H H H H H H H H H H H H H H H H H H H H H H H H H H H H H H H H H H H K K K K K K L L L L L ) L ) L L L L ) ) ) ) ) ) ) ) ) ) ) ) ) L L L K H H H H H H H H H H H 9 9 H H H H 9 9 H H H 9 H H H H H H H H H H H H H H H H H H J J U U J J H K K K J J J K L L L L K L L L L L ) ) ) ) ) ) ' ) ) ) ' ' ' ' I X.*X-X%Xp.,.b i - X X X                       . . . . . $ = & & , , f f f f g h h c c c c c c v c c c h h h h h g f f , , , , & & % $ % = . & v ,XpXAXAXrXs.F v c v m :.S b 2 3 2 > 2 , >.e.d.i.wXtXAXSXHXSXBXsXdXZXiXyXrX7X<X<X<X1X%Xp.;.Z 2 2 1 1 i u - - # 7 e y y q 7 7 7 7 7 t t r r r r r r r Y E T ~ T R R R ^ ^ R E E Y Y Y Y Y Y Y E E E E E E Y 0 4 6 6 6 6 6 6 6 5 7 7 0 0 7 7 7 7 7 7 q 7 q q r Y Y W W W ^ ^ ^ ^ ^ ^ / | ^ +.+.+.| | | | +.+.+.| | ^ ^ E Y Y Y Y T  .$.$.$. . .| ^ ^ ^ ^ ^ ^ E q 6 6 O O @ @ @ X + X X X + + + + + + + @ + + + # # s s X                             X X ; s 3.$X$X2.3.<.=.o.Q W W E W W ^ ^ | | +.+.+.+.+.+.| | ^ ^ ^ ^ ^ R R R  .$.J.K.K.K.K.+.T T E Y ^ ^ ^ ^ | | |  .$.Y.Y.$.~.&X2XY.J J L L L ) ) ) ) ) ) ) ) ) ) ) L L L L L L L L L ) L L L L L L L L L L ) ) ) ) ) ) ) ) ) ) ) ) ) ",
"9 5 5 9 9 9 9 9 9 9 9 9 9 9 9 8 9 9 9 9 5 5 5 5 9 9 9 9 9 9 9 9 9 9 9 9 9 9 9 9 9 9 9 9 9 9 9 9 H H H H H H H H H H H H H H H H H H H H H H H H H H H H H H H H H H K K K K K K L L L L L L L L L L L L ) ) ) ) ) ) ) ) ) ) ) _ ) L L L K H H H H H H H H H H H 9 9 H H H H 9 9 H H 9 9 H H H H H H H H H H H H H H H H H H J J U U J H H K K K J J J K K K L L K K L L L L ) L ) ) ) ) _ ) ) ) ' ' ' ' ' &XNXnX,X%Xa.,.B 1 X X X                       . . . . . $ $ = & & , f f f f f g g h h c c c c c c c h h h f f f f , , , , & & & % % % $ . $ %XrXmXmXMXpXs.m 3 c m A S S n 2 3 3 , > c :.a.s.d.>XaXmXKXJXSXZXdXBXZXZXiXtXwX7X7XrX<X<X;X%X,.Z 2 2 1 i i u 1 ; # 7 7 q q 7 7 7 7 7 7 t t r r Y r Y r r Y T T ~ ~ R R R ^ ^ R T E Y Y Y Y Y Y E T E E W W Y Y 0 4 4 6 6 6 6 6 5 5 7 7 0 7 7 7 7 7 7 7 q q q r Y E E W ^ ^ ^ ^ ^ ^ ^ ^ | | | +.+.+.| | | +.+.+.| | ^ ^ ^ E Y Y Y Y R  .$.J.J.J.$. .| T T W ^ W q 6 O O O O O O X X X X X + + + + + + + # # + + # # y =.=.u                         X + + # y d =.3.3.=.=.=.=./ Q Q W E E W W ^ ^ / +.+.+.+.+.| | ^ ^ ^ ^ ^ ^ ^ R R  .$.K.K.K.K.K.+.R T Y E ^ ^ ^ ^ ^ | |  .$.Y.Y.Y.~.2X2XY.J L L L ) ) ) ) ) ) ) ) ) ) ) ) L L L L L L L L ) ) L L L L L L L L L ) ) ) ) ) ) ) ) ) ) ) ) ) ) ",
"9 9 5 9 9 9 9 9 9 9 9 9 9 8 8 8 5 5 5 5 5 5 5 5 5 5 5 5 5 5 5 5 5 5 9 5 9 9 5 5 5 5 9 9 9 9 9 9 H H H H H H H H H H H H H H H H H H H H H H H H H H H H H H H H H H K K K K K K L L L L L ) L L L L L L ) ) ) ) ) ) ) ) ) ) _ _ ) L L L K J J J H H H H 9 9 H H 9 9 H H H H H H H H H H H H H H H H H H H H H H H H H H H H J U U U J H H K J J H J J K K K L L K L L L L L L L L L L L ' ' ) ) I I ' ' ' &XcX4X,X%Xa.e.-.< o o X                       . . . . . . $ = = & & , f f f f g g h h h h c h h h h h h g f f f f , , & & & & % . % , % v >.uXMXmXMXtX<X0.v 3 v A S S n 2 3 > 3 2 c :.s.d.d.g.<XmXDXKXKXFXZXZXDXDXZXiXtXwX7XrXrX9X<X;X%X;.n 2 1 1 i i u y e 7 7 6 6 7 7 q e e r r r r r r r r Y r r Y E T R R R R R ^ ^ ^ E E Y Y Y Y Y E T T E E W W E q 0 6 6 6 6 6 6 7 5 5 7 7 7 7 0 7 7 7 7 q q q r Y W ^ ^ R ^ ^ ^ ^ ^ ^ ^ | | | | +.+.+.+.+.+.+.+.| | ^ ^ ^ R Y t 0 Y Y {  .$.J.Y.Y.J.$.| T E E W q 4 O O O + + + + X X + o + + + + # # 6 6 6 7 # # # # 7 s =.=.+                       X X + # # < s s O.! ! ! ! ! Q Q W W E W E ^ ^ ^ | +.+.+.+.^ ^ ^ ^ ^ ^ ^ ^ ^ ^ R  .$.K.K.K.K.K.+.R R Y Y ^ ^ ^ R | | |  .$.Y.E.~.@X3X3XY.L L L ) ) _ _ _ ' ' ' ' ' ' ' ' ' ' ' I ' ' ' ' ' ' ' ' ) ) _ [ [ [ [ [ _ _ _ _ [ [ ) ) _ _ ) ) ) ",
"9 9 9 9 9 9 9 9 9 9 9 9 8 8 8 8 5 5 5 5 5 5 5 5 5 5 5 5 5 5 5 5 5 5 5 5 9 5 5 5 5 5 5 5 9 9 9 9 H H H H H H H H H H H H H H H H H H H H H H H H H H H H H H H H H H K K K K K K L L L L L ) L L ) L L L L L L L ) ) ) ) ) ) _ ) L L K K H H H H H H H H 9 9 H H 9 9 H H H H H H H H H H H H H H H H H H H H H H H H H H H H J U U U J H H J J J H J J J K K L L L L L L L L L L L L L L ' ' ' ' I I ' ' I U ~ E.$Xp.p.,.N X X # X                         . . . . . $ = % & & , f f f f g g g g g h h h h h h h h g f f f , , , & & % % % . . g 4.uXMXVXMXpX<X1Xs.G v l m S S m 2 3 > > > n S d.d.d.s.j.:XsXAXKXKXJXFXSXDXDXZXeXwX7XwXrX9X<X<X=Xa.n z l 1 i i u u e e 7 7 6 7 7 7 7 7 7 r r r r t r r r r r r Y E E W R R R ^ ^ ^ ^ E E Y Y Y Y E E T T E E W W Y q q 6 4 4 6 6 5 5 5 5 7 7 7 7 0 7 7 7 5 q q Y Y E ^ ^ ^ ^ ^ ^ ^ ^ ^ ^ ^ |  . . .+.+.+.$.$.$.+.+.| ^ T T ^ T Y t 0 0 Y R  .J.Y.Y.Y.Y.$.| ~ E Y q 6 O O O O + + + + X + + + + + + + # 6 6 6 6 6 6 6 # # # p =.=.p                           X X o # u s s s s s a a a a p a r Y E W ^ ^ ^ +.+.| ^ ^ ^ ^ ^ ^ ^ ^ ^ ^ ^ |  .$.K.K.K.K.K.+.| R R Y ^ ^ ^ R | | | | $.R.~.~.2XxX3XY.L L ) ) _ _ _ _ ' ' ' ' ' ' ' ' ' ' ' ' ' ' [ [ [ [ [ [ ) ) _ [ [ [ [ [ _ _ _ _ ] ] _ _ _ _ _ _ _ ",
"9 9 H H 9 9 9 5 5 5 5 5 8 8 8 8 5 5 5 5 5 5 5 5 5 5 5 5 5 5 5 5 5 5 9 9 9 9 9 9 9 9 9 9 9 9 9 9 H H H H H H H H H H H H H U I U H H H H H H H H H H H H H H H H H H H H K K K K K L L L L L L L L L L L L L L L L ) ) ) ) ) ) ) K K K K H H H H H H H H 9 H H H 9 H H H H H H H H H H H H H H H H H H H H H H H H H H H H H H H H H H H H H H H K J J J K K K K K K K K L L L L L L L L L L L L I I I I I J H <.1.p.$X,.N > X X X X                         . . . . . $ $ & & & & f f f f f g g f f f f f f f f f f f f , , , & & % % $ % $ , w.>XmXmXMXuXuXrX;Xw.G c v A S Z m 2 3 > > 3 ,.s.=X=Xs.i.j.>XmXSXKXKXKXLXFXSXDXdXyXwXrXrX7XrX<X<Xd.a.m l b z i u ; # # # # 7 7 6 7 7 7 7 7 7 r r r t t r r r r r r Y Y Y E E E E E E E E E E Y Y Y ^ ^ R T E E E E Y q 0 6 4 4 6 6 q q q q q q q q q q 7 0 0 0 Y T ^ ^ ^ +.+.| ^ R R R R ^  .$.$.+.$.+.+.+.$.$.$.$.| | R T T ^ ^ Y t 0 0 Y ~  .J.T.T.T.%.+.^ E r 5 4 O O + + + + + + + + # 7 # # # # + # 7 7 Q Q 7 6 6 6 # # p ! 2.=.7                             X o # u s s s s d p d a p r Y Y W W ^ ( ^ ^ ^ ( ^ ^ ^ W ^ ^ ^ ^ ^ ^ | | +.$.$.J.$.$.$.+.| ^ ^ ^ ^ ^ ^ | ^ ^ ^ ^ +.<.E.OX2XcX3XY.) _ ' ' ] ] ] ] ` ` ` ` ] ] _ [ [ _ _ _ [ ' ' ' [ [ _ _ _ _ [ [ _ _ _ ] ] ] ' ' ' ' ] ] ] ] ] ] ] ",
"9 9 H H 9 9 9 5 5 5 5 5 8 8 8 8 5 5 5 5 5 5 5 5 5 5 5 5 5 5 5 5 5 5 9 9 9 9 9 9 9 9 9 9 9 9 9 9 H H H H H H H H H H H H ( ......H H H H H H H H H H H H H H H H H H H H H H K K K K K K K K K K K K K K K K K K L ) ) L L L L L K J J J H H H H H H H H 9 9 H H H H H H H H H H H H H H H H H H H H H H H H H H H H H H H J H H H H H H H H H H K K J J K K K K K K K K L L L L L L L L L L L L I I I I I ( U &X&X$X2.*.b - o o X X                             . . . $ $ $ & & & , f f f f f f f f f f f f f f , f f , , & & & & & % $ % h y.MXAXsXyXwXrXrXrX7.F v v m A Z Z n 2 1 > 2 :.%X,X,Xg.s.d.>XaXHXJXJXJXJXJXJXFXDXsXeXtXtXrXrXuX<X,Xp.8.n b N z i y # X X X + # @ @ @ @ @ @ @ 0 7 r r t r r r r r r r r r Y Y Y Y Y E E E E T E E Y Y ^ ^ R T E E E E Y Y Y q 0 0 0 0 q q q q q q q q q q q q 0 Y T ^ |  .$.$.$.+.^ R R R ^ |  .$.$.$.#.+.+.+.$.$.$.$.| | R T T ^ ^ E 0 0 0 Y R  .J.Y.Y.Y.+.^ Y q 5 4 O O + + + + + # # # # # y 7 # # # + # e p o.=.! r q 7 5 q a ! 1.2.p 6 O                           X o ; u s s s d d d a p r p Y Y W W ^ ^ ^ W W W W W W E E E E ^ ^ | | +.$.J.J.$.$.$.+.| ^ ^ ^ ^ ^ ^ | ^ ^ ^ ^ | +.R.OX2XxX2XY._ ' ] ' ] ] ] ] ` ` ` ` ] ] ] _ _ _ _ _ ' ' ' ' [ [ _ _ _ _ [ [ _ _ ' ' ] ] ' ' ' ' ] ] ] ] z.z.] ",
"5 9 H H 9 9 9 5 9 5 5 5 8 8 8 8 9 9 5 5 5 5 5 5 9 9 5 5 5 5 5 5 9 9 9 9 9 9 9 9 9 9 9 9 H H H H H H H H H H H H H H H H ....X...J J J J J J J H H H H H H H H H H H H H H H H H H H H H H H H H H H H H J J J J K L L K K K K K H H H H H H H H 9 9 9 9 9 9 9 9 H H H H H H H H H H H H H H H H H H H H H H H H H H H H J J H H H H H H H H H H K K H H K K K K K K K K L L L L L L L L ) ) L L ' ' I I I ( U 2X3X-X$X;.*.1 - # X X                             . . . $ $ $ % & & , , f f f f f f f f f f f f , , , , , , & & & % % & , % w.1XMXmXtXtXwXyXrX9XS m c m S Z Z n l 2 1 2 B 8.;X<X;Xg.d.g.pXmXHXKXKXKXJXJXJXSXZXfXtXtXwXrXrXrX<X,Xe.>.B N M i u ; + O O + + + + X X X X O O 6 0 r t r r W r Y Y Y Y r r Y Y r r Y Y E E ~ ~ T T R R ^ ^ R T Y Y Y Y Y T R ^ E Y J 0 q q Y Y Y r r r r r q J Y T | +.$.$.$.$.$.$.| R R R | | $.$.J.J.#.#.#.#.$.$.$.$.| | R T T ^ ^ E Y Y 0 0 ~ | $.Y.Y.$.^ E r 0 4 O O + + + # # 7 7 7 7 7 e y w # # + O 6 p ! o.<.<.o.p r q p Q ! 1.1.W 6 O                             X o < u s s u u d d p p r r W W W W W Y Y Y Y Y Y Y Y Y Y E ^ ^ | | +.$.J.J.$.$.$.+.| | ^ ^ ^ ^ ^ ^ | ^ ^ ^ ^ | Y.~.2X3X2XY.' ] ] ] ] ] ] ] ] ] ] ] ] ] ] ] ] ] ] ] ] ] ] ] ] ] ] ] ] ] ] ] ] ] ] ] ] ] ] ] ] ] ] ] ] ] z.z.] ",
"5 9 H H 9 9 9 5 9 5 5 5 8 8 8 8 9 9 9 5 5 5 5 5 9 9 9 9 5 5 5 5 9 9 9 9 9 9 9 9 9 9 9 9 H H H H 9 9 H H H H H H H H H H U ( ..( J J J J J J J H H H H H H H H H H H H H H H H H H H H H H H H H H H H H H H H H H K K K H H H H H H H H H H H H 9 9 9 9 9 9 9 9 H H H H H H H H H H H H H H H H H H H H H H H H H H H H J H H H H H H H J H H H H H H H K K K K K K K K L L L L L L L L ) ) ) L ' ' I I I J H <.E.*X-Xp.p.N 1 # X X                             . . . . . $ % & & , & , f f f f f f f f f , , , , , , & , & & & % % f C s.pXmXpXwX>XwXtXtX<X%Xv m n m S Z B b 2 2 2 b e.d.;X<X:Xg.g.>XAXJXKXKXKXKXKXJXHXDXmXaXiXwX>X<X9X4X1X,Xa.e.;.N u u y # X O O + + O O O O O O O O O 6 0 r r W W W W W W W Y r Y Y Y Y E E E E E E ^ ^ ^ ^ ^ ^ R E Y Y Y Y T R | | ^ ~ Y 0 J J Y Y Y Y Y Y Y Y Y Y T |  .$.$.$.$.K.K.$.+.| { { |  .$.J.J.J.#.#.$.$.$.$.$.$.| R R T T ^ ^ T Y Y Y Y T / $.Y.<.+.^ q 0 4 O O + + + + # # 7 w 7 e e e y 7 # # + + q a ! o.<.1.<.o.W Y W ( ^ 1.R.1.o.4 O                             X + < u d u u u u p y r r p W W W Y Y Y r r r Y Y Y Y Y Y W ^ ^ | +.$.J.J.$.$.$.+.| | ^ ^ ^ ^ ^ ^ ^ ^ ^ ^ ^ | <.~.2X3X2Xm.] z.z.z.z.z.] z.z.] ] ] ] ] ] ] ] ] ] ] ] ] ] ] ] ] ] ] ] ] ] ] ] ] ] ] ] ] ] ] ] z.] ] ] ] z.z.] ",
"5 9 H H H 9 9 5 9 9 9 9 9 8 8 8 8 8 8 8 8 8 8 8 8 8 8 8 8 8 8 8 5 5 5 5 9 9 9 9 5 5 5 9 9 9 9 9 9 9 9 9 9 9 H H 9 9 9 9 U U J J J J J J J H H H H H H H H H H H H H H H H H H H H 9 9 9 H H H H H H H H H H H H H H H H H H H H H H H H H H H H 9 9 9 9 H H H H H 9 H H H J U J J H 8 H H H H H H H H H J J H H H H H J J J H H H J J J J J J H H H H H K K K K K K K K L L L L L L L L L L L L ' ' I I I I I U =.*X4X5Xp.B i - # o X                             . . . . . $ % & & & & , , , , , , , , , , & & & & , , % % % . . , h d.<XaXMXtX:X>XtXtXtX;Xr.v m B B m n b l 3 2 3 B t.s.;X>X:Xj.7XyXSXHXKXKXKXKXKXJXDXGXBXmXyX7X=X;X:X1X,X,Xe.,.*.i y e 7 # O + + + + O O O O X X X O O 6 6 7 q r r W r r r r 0 0 r r Y Y Y Y E E ~ ^ ^ ^ ^ R R R R E E T T T T |  .| | R Y Y Y T T T T E E E E E T |  . .$.J.K.K.T.L.L.K.+. .{ { |  .J.J.J.J.J.J.$.+.$.$.$. .| | R R T ^ | ^ ~ T J H Y / $.$.<.^ q 6 6 5 O + + + + + + 7 w w y y y y w 7 # + + + q a ! o.<.1.1.<.+.W ( ^ +.<.R.R.<.0 6 O                             X o - < u u u s u p e e p p r r r q q t r r r r Y Y Y Y W ^ ^ |  .+.$.J.$.$.+.| | | | | | | | ^ ^ R ^ ^ ^ | <.~.&X2X.Xm.S.S.z.z.z.z.z.z.z.z.z.z.z.] ] ] ] ] ] ] ] ] ] ] ] ] ] ] ] ] ] ] ] ] ] ] ] ] z.z.z.z.z.z.z.z.z.z.z.",
"5 9 H H H 9 9 5 9 9 9 9 8 8 8 8 8 8 8 8 8 8 8 8 8 8 8 8 8 8 8 8 5 5 5 5 9 9 9 9 5 5 5 5 9 9 9 9 5 9 9 9 9 9 9 9 5 5 5 5 J J J J J J J J H H H H H H H H H H H H H H H H H H H H H H H H H H H H H H H H H H H H H H K H H H H H H H H H H H H H H H 9 9 H 9 H H 9 9 H H J ( ..( ( J H J H H H H H H H H J J H H H H H H J J H H H J J H J J H H H H H H H H K K K K K K L L L L L L L L L L L L ' ' I I I I I U <.4X4X%X,.N i > > # o X                           . . . . . . $ $ $ % & & & & & , & & & & & & & & % % % % % % , h y.=XrXuXtXwX>X:XwXwXwX;XF m m B B N b 2 1 < > 3 l 8.=X=X1X<X:X>XsXBXSXHXKXKXKXKXKXHXBXsXmXMXwX1X=X=Xd.a.8.,.b M u ; # # @ @ @ + + + + + + @ @ X X X @ 6 6 6 6 7 q q r 0 0 0 6 6 6 0 t Y Y Y Y E W ^ ^ ^ ^ ^ R R R R R R R T T | $.$.$. .| R T | ^ | | T T T E T R |  .+.#.J.K.K.L.T.T.T.K. .{ { {  .#.J.J.J.J.J.$.#.+.$.$.+. .| | R R ^ ^ |  .| R J Y ~ / +.+.^ 0 4 4 6 # # # # + # + 7 w w p p p p p y 7 # + + + q Q ! o.<.1.<.1.<.+.o.^ +.<.R.E.R.<.0 6 O                             X o - 1 u s x s u y e p p q 7 7 7 7 7 t r r r r r r Y W ^ ^ | |  .#.$.#.$.+.| | | | | | | | | ^ ^ ^ ^ T | $.^.~.&X~.m.b.S.S.S.z.z.z.z.z.z.z.z.z.z.z.z.z.z.z.z.z.z.z.z.z.z.z.z.] ] ] ] z.z.z.z.z.z.z.z.z.z.z.z.z.z.z.z.z.",
"5 9 H H H 9 9 5 9 9 9 9 8 8 8 8 8 8 8 8 8 8 8 8 8 8 8 8 8 8 8 8 5 5 5 5 9 9 9 9 5 5 5 5 8 8 8 8 8 8 8 8 8 8 8 8 5 5 5 5 q J J J H H H H H H H H H H H H 9 9 9 9 9 9 9 9 9 9 9 9 9 9 9 9 9 9 9 9 9 H H 9 9 9 9 9 H H H H H H H H H H H H H H H H H H 9 9 H H H H H H H H J ( ....( U J U H H H H H H H H J H H H H H H H J H H H H H H H H H H H H H H H H H K K K K K K L L L L L L L L L L L L ' ' I I I I I U / 4X4X$X;.b 1 > > < # o X                           . . . . . . $ $ $ $ = = = & & = = & & % % % % % % % % % % V 5.,XrXuXpXwX<X:X>X7X<Xj.d.G v S B N b < < < - > 3 n r.1X;X<XwX7XtXBXDXSXSXHXJXJXKXJXSXaXpXMXpX:X:X=Xd.8.,.N N i u < # X X @ @ @ + + + + O O @ @ O O @ @ 6 6 6 6 6 0 q q 6 6 6 6 0 0 t r Y Y Y Y W ^ ^ ^ ^ ^ ^ R R R R R R R { {  .$.K.$.+. . .| +.+. .| R R R R R ^ +.+.$.J.K.L.L.L.L.L.K.J.#.{ { |  .$.J.J.P.J.J.#.+. .$.$. .| | | R | | | +.$.$.~ E Y T ^ ( W q 4 O O # # # # 7 # 7 7 w w p d p p d p y 7 # + + + q Q ! o.<.1.R.Y.R.Y.<.@.%.Y.R.E.E.R.^ 0 4 O                           X o # > 1 i x M x d y e q 7 6 6 6 6 6 7 e r r r r W W W ~ ^ | |  .+.$.#.$.+.| | | | | | | | | ^ ^ R ^ Y ~ / Y.^.~.W.m.S.x.S.S.n.x.n.n.x.x.x.z.z.z.z.z.z.z.z.z.z.z.z.z.z.z.z.z.z.z.z.z.z.z.z.z.z.z.z.z.z.z.z.z.z.z.b.b.b.",
"5 9 H H H 9 9 5 9 9 9 9 8 8 8 8 8 8 8 8 8 8 8 8 8 8 8 8 8 8 8 8 5 5 5 5 9 9 9 9 5 5 5 5 8 8 8 8 8 8 8 8 8 8 8 8 5 5 5 5 5 9 9 9 H H 9 9 H H H H H H H H 9 9 9 9 9 9 9 9 9 9 9 9 5 5 5 5 5 5 9 9 9 9 9 9 9 9 9 9 H H H H H H H H H H H H H H H H H H 9 9 H H H H H H H H 9 U ....I J H J H H H H H H H H H H H H H H H H H H H H H H H H H H H H H H H H H H K K K K K K L L L L L L L L L L L L ' ' I I I I I U ( E.*Xp.*.z 1 < < < > # o X X                         . X . . . $ $ $ $ $ $ = = = & & = % % % % % % % % . , v =XrXAXVXpXtX:X:Xj.:X:Xd.w.F v m B N b < o > - - > l Z e.;X<XpXMXMXBXAXZXdXZXSXSXSXSXAXaX>X:XwX7X1X1X%Xa.Z N > 1 - ; # + X @ @ @ @ + + @ @ O O @ @ O O @ @ 6 6 6 6 6 6 6 0 r r r t t r Y Y W W W W ^ ( ^ ^ ^ ^ ^ R R R E E R { { { { #.H.#.+.#.+.+.+.+. . .| { { { | | +.+.$.J.L.T.L.L.L.K.H. .{ { {  .#.J.J.J.J.J.#.+. . .$.+. .| | | R | |  .$.$.$.| T J J Y q 0 6 O O # # # # # 7 w w w w p d a s s a p y 7 # + + + q Q ! o.<.1.Y.R.R.R.R.<.<.Y.Y.R.R.E.Y.r 6 O                         X X X o - 1 i x M M s u e # @ X @ @ 6 6 6 7 r e p W W W W ~ ^ ^ | |  .$.$.$.+.| | | | | | | | | ^ ^ R T J T | $.Y.T.W.m.m.n.m.S.n.n.n.n.x.x.n.n.z.z.z.z.b.b.b.b.z.z.z.b.z.z.b.z.z.z.z.z.z.z.z.z.z.z.z.z.z.z.z.z.z.z.b.b.b.",
"5 9 H H H H 9 5 9 9 9 9 9 9 9 9 9 9 9 9 9 9 9 9 9 9 9 9 9 9 9 9 8 8 8 8 8 8 8 8 8 8 8 8 8 8 8 8 8 8 8 8 8 8 8 8 8 8 5 5 8 8 5 9 9 9 9 9 H H H H H H 9 9 9 9 9 9 9 9 9 9 5 5 5 5 9 9 9 5 9 5 9 9 9 9 9 9 5 5 5 5 9 H H H H H H H H H 9 9 H H H H H H 9 9 H H H H H H H H J J J J U J J J H H J J H H H H H H H H H H H H H H H H H H J H H H H H H H H H K K K H K K K K K K K K K K K K I I I I I I I I I I I U W Q 3.2.*.z u 1 u u < < o o X X                           . . . . . $ $ $ $ $ $ = = % % % % % % . . . % % F t.rXaXAXmXwX:Xj.j.j.j.s.y.F S S B n i < - o # > < < 3 n 7.:XrXMXmXVXAXBXdXdXBXZXAXAXAXaXiXj.g.>X<X1X1Xa.8.b i 1 - o X X X @ O + O + @ @ @ @ @ @ @ @ @ @ @ @ 6 6 6 6 6 6 0 0 t r r r r r W W W W ^ ^ ^ ^ ^ ^ R ^ R R R R R R ^ | |  . .#.H.#.#.#.+.+.+.+. . . .{ { { ^ +.+.$.K.Y.Y.T.Y.L.J.J.#.| { { {  .#.$.J.$.$. . .| | | +. .| | { { | | | +.$.$.$.| ~ J q q 5 6 6 @ # # 6 # 7 7 7 w p p p p s ! s s s s y 7 # + X @ q p ! o.<.1.1.R.R.R.R.Y.Y.Y.T.R.!.~.~.+.6 O                           X o # u i M M *.*.N M x 1 o   + O O @ @ 7 7 r W W W W W ~ ~ ^ ^ ^ | +.$.$.+.| | | | | | | | | ^ ^ T Y J J ~ { Y.Y.m.m.m.m.m.n.n.b.b.n.S.x.S.S.x.x.x.x.z.z.z.z.x.x.c.c.x.x.x.x.z.z.z.z.z.z.z.z.z.z.z.z.z.z.z.z.z.z.b.b.z.",
"5 9 H H H H 9 5 9 9 9 9 9 9 9 9 9 9 9 9 9 9 9 9 9 9 9 9 9 9 9 9 8 8 8 8 8 8 8 8 8 8 8 8 8 8 8 8 8 8 8 8 8 8 5 5 8 8 8 8 5 5 5 5 9 9 H H 9 9 H H H H 9 9 9 9 9 9 9 9 9 9 5 5 5 5 9 5 9 9 5 9 5 5 9 9 9 9 5 5 5 5 9 9 9 9 9 9 9 9 9 9 9 9 H H H 9 H H 9 9 H H H H H H H H J J J J J J J J H H H J H H H H H H H H H H H H H H H H H H J J H H H H H H H H K K K K K K K K K K K K K K K K I I I I ' ' ' ' I I I U U p 3.$X,.B M i i u < 1 - # o X                             . . . . . . . . $ . $ $ $ $ $ $ $ % . . % V F 1XyXmXmXiXwX>Xj.d.d.s.s.w.S A S S N i > o o # # > < < z >.d.<X7XyXaXAXZXsXsXdXdXBXBXmXiX7X>Xu.d.:X1X1X%XZ 2 - 1 - o X + X + + + + O O + O + + @ @ @ @ 6 6 6 6 6 6 6 6 6 6 7 0 7 t r r r r r r Y W W ( ^ ^ W W ^ ^ R R R R R R R {  . .H.H.H.H.#.#.#.+.+. . . . .| { | | +.$.$.K.T.K.J.J.$.#. . .{ { { |  .$.$.J.$. . .| | | {  .| { { { { |  .+.$.<.Y.$.^ Y q 5 6 6 6 @ @ # # # # 7 7 7 w p p p p s s s s s s y 7 # + X @ e p ! o.<.<.Y.R.T.R.T.T.T.T.R.T.T.~.~.@.0 O                           X o # u s M *.*.-.-.N N 1 # X + + + O @ 6 7 e r W W W W ~ ^ ^ R ^ ^ | +.+.+.| | | | | | | | | | ^ T Y J H T |  . . .b.b.m.m.S.n.n.n.n.x.S.n.n.n.x.x.x.n.x.x.x.c.c.c.c.m.m.x.x.c.x.x.x.z.z.z.z.x.x.x.x.z.z.b.z.z.z.z.b.z.",
"5 9 H H H H 9 5 9 9 9 9 9 9 9 9 9 9 9 9 9 9 9 9 9 9 9 9 9 9 9 9 8 8 8 8 8 8 8 8 8 8 8 8 8 8 8 8 8 8 8 8 8 8 4 4 8 8 8 8 5 5 5 5 9 9 H H 9 9 H H H H 9 9 9 9 9 9 9 9 9 9 9 9 9 9 9 9 9 9 9 9 9 9 9 9 9 9 9 9 9 9 9 9 9 9 9 9 9 9 9 9 9 9 H H 9 9 H H 9 9 H H H H H H H H J J J J J J J H H H H J K K H H H H H H K K H H H H H H H H H J H H H H H H H H H H H H H H H H J K K K K K K K L L L L ' ' ' ' I I I I J W 1.*X2.,.B N z i u u < # o X X                             .   . . . . . . . . . . $ $ $ $ . % % g w.s.pXMXAXaXwX>X:X;Xd.u.r.w.S m m ;.B b < - o # # # > < < n a.=X1X;XtXaXVXZXdXfXsXmXmXmXaXtX>X;Xd.;X:X1X=Xe.z < - - # X X O + + + + + + + O O O O + + O O @ @ @ @ @ @ 6 6 6 6 7 7 7 7 t r r r r r r Y W W W W W W W W R R R R R R { |  .#.H.H.J.H.#.#.#.+.#. . . . . . .| #.$.$.K.Y.Y.J.#. .| | | | { { |  .+.$.$.$.#. .| | { { | | | { R R | | | +.$.<.<.+.E q 6 5 4 4 @ # # 6 # 6 6 7 7 7 w p p p p s s s s s s y 7 # + X # r W ! o.<.<.Y.R.T.R.R.R.Q.Q.T.T.T.R.E.%.r O                           X o # u x *.,.,.:.:.-.;.z 1 o X + + + @ 6 7 7 r W W W W W W W W R ^ ^ +.+.| | | | | | | | | | ^ ^ E Y 0 J T |  . ...] b.m.m.S.m.n.n.n.n.n.n.n.x.c.c.c.c.n.c.c.c.c.c.c.n.n.x.n.n.n.m.c.c.c.c.c.c.c.c.c.b.b.b.b.b.n.n.n.b.",
"5 9 H H H H 9 5 9 9 9 9 9 9 9 9 9 9 9 9 9 9 9 9 9 9 9 9 9 9 9 9 8 8 8 8 8 8 8 8 8 8 8 8 8 8 8 8 8 8 8 8 8 8 4 4 8 8 8 8 5 5 5 5 9 9 9 9 9 9 9 9 H H 9 9 9 9 9 9 9 9 9 9 9 9 9 9 9 9 9 9 9 9 9 9 9 9 9 9 9 9 9 9 9 9 9 9 9 9 9 9 9 9 9 9 H H 9 9 H H 9 9 9 H H H H H H H H H J J J J J H H H H H H H H H H H H H H K H H H H H H H H H J H H H H H H H H H H H H H H H H J J J J K K K K L L L L ' ' ' ' I I I I J ( 2.*Xp.,.:.B z i u 1 < - # o X                               . . .   . . . . . . . . . $ . . , m =XpXMXmXmXyXeX:Xj.j.u.0.G m A m B B B n 1 * o # # # # > < 1 n a.a.a.g.<XyXAXAXBXdXmXmXmXmXwX<X:X:Xd.d.d.a.B 2 o - X # o X + O O O O + + + + O O O O   O O O O O O O @ @ 6 6 6 6 7 7 7 0 7 t t t t t t r Y W E E W W W W R R R R R R |  . .H.P.P.J.J.H.#.#.+. . . . . . . . .#.$.K.Y.Y.J.+. .{ { { { R R R |  .$.$.$.+. .| | { { { | | R { { R R | | | +.+.@./ Y 0 4 4 4 @ @ # # 6 # 6 6 7 7 w w p p p p s s s s s s y 7 # + X # r W ! o.<.<.Y.R.T.!.!.!.!.Q.Q.T.T.R.R.%.E O O                         X o o u M ;.,.8.8.8.:.8.N 1 ; X X + + + # 6 7 r Y W W W W W W W W R ^ +.| | | | | | | | | | | | ^ E Y 0 J T | .. ...b.m.n.m.x.n.n.n.n.n.n.n.n.n.c.c.c.C.n.C.C.N.N.c.c.n.n.c.n.n.n.n.n.m.m.m.m.m.m.m.m.n.b.b.b.b.n.n.n.b.",
"5 9 H H H H 9 5 9 H H H 9 9 9 H 9 9 9 9 9 9 9 9 9 9 9 9 9 9 9 9 5 5 8 8 8 8 8 8 4 4 4 4 4 4 4 4 4 4 4 4 4 4 4 4 4 4 4 4 8 8 8 8 8 8 5 9 9 9 9 9 9 9 9 9 9 9 9 9 9 9 9 9 9 9 9 9 9 9 9 9 9 9 9 9 9 9 9 9 9 9 9 9 9 9 9 9 9 9 9 9 9 9 9 9 H H H 9 H H H H H H H H H H H H H H H H H H H H H H H H H H H H J J J H H H H H H H H H J K K K H H H H H H H H H H H H H H H H H H J J J J K K L L L L ' ' ' ' I I I L I ( <.*X%Xa.>.B z i u 1 < < # o X X                             . . . . . . . . . . . . . $ . % G d.wXmXmXmXMXtX>Xj.g.i.w.F m v m B B B M i < * X X X X # > < 1 i a.%Xs.i.>XaXAXSXAXZXBXmXmXaX7X<X:X:Xd.a.r.>.2 - o X X X + + + + + + O                             O O O O O O O @ 7 0 6 6 0 0 q q 7 7 t r Y Y E E W ^ ^ ^ R R ^ R R R | #.J.P.L.L.J.J.H.#. . . . . . . . .#.J.J.J.K.K.J.$. .| R R R R R R ~ | |  . . . . .| | { { R R R R R R ^ ^ ^ ^ | ^ +.^ Y q 6 4 4 @ # + + + # 6 7 7 7 7 w y p p p p s d a a ! ! ! y # # # 7 p Q ! o.@.<.Y.T.T.Q.!.!.!.!.!.T.T.R.R.@.Y 4 O                           X o o N Z e.e.p.t.a.a.;.N - o X X X X @ 6 5 q r Y W W W W Y Y Y E W ^ +.+.| | | | | R ^ +.@.| ^ T Y J J T | m. .] b.m.n.n.n.n.C.C.C.c.C.C.C.C.C.C.C.C.C.C.C.C.C.C.C.C.C.C.C.C.C.C.n.n.m.n.n.n.n.n.n.n.n.n.n.n.n.n.n.m.",
"5 9 H H H 9 9 9 H H H H 9 9 9 9 9 9 9 9 9 9 9 9 9 9 9 9 9 9 9 9 5 5 8 8 8 8 8 8 4 4 4 4 4 4 4 4 4 4 4 4 4 4 4 4 4 4 4 4 8 8 8 8 8 8 8 8 8 8 8 8 9 9 9 5 9 9 9 9 9 9 9 9 9 9 9 9 9 9 9 9 9 9 9 9 9 9 9 9 9 9 9 9 9 9 9 9 9 9 9 9 9 9 9 9 H H 9 9 H H 9 H H H H H H H H H H H H H H H H H H H H H H H H H J J J H H H H H H H H H J K K K H H H H H H H H H H H H H H H H H H J J J J K K L L L L ' ' ' ' I I I L I ( / $X4X<Xd.Z l 2 1 1 < < # o X X                             . . . . . . . . . . . . . % , s.>XmXmXmXmXyXwXj.>Xj.d.t.D A v v m B N b 1 > o X X X X X o # > < 2 %X=Xa.d.wXMXVXDXAXBXVXVXmXyX<X<X<X:Xa.>.n l X o X X X + + + + + O O O                             O O O O O O O O O 6 6 6 0 0 7 7 7 7 r r Y W E W ^ ^ ^ ^ R R ^ |  .+.$.P.Y.W.Y.P.J.J. . .{ { { | { {  .+.#.J.K.K.K.$.$.| | R R R R R ^ T ^ ^ ^ | | | | | | R { { R R R R R R R ^ ^ ^ | E Y 4 q 5 4 4 @ @ + + + + # 6 7 7 7 7 7 7 y y p p p p p a ! ! ! y # # # e p Q ! o.<.<.<.Y.T.R.!.!.~.!.!.T.T.R.R.+.J O O                           X X o b B p.p.t.a.s.d.8.;.2 o X X X X @ 6 5 q r r W W W W r r r r W ^ +.+.| | | | | R ^ +.@.+.| ^ E J J T | Y. .] b.n.c.c.c.C.C.C.C.c.c.C.C.C.C.C.C.C.C.C.C.C.C.C.C.C.C.C.C.C.C.C.n.n.m.n.n.n.n.n.n.n.n.n.n.n.n.n.n.m.",
"9 9 H H H 9 9 9 H H H H H H H H 9 9 9 9 9 9 9 9 9 9 9 9 9 9 9 9 5 5 8 8 4 8 8 8 4 4 4 4 4 4 4 4 4 4 4 4 4 4 4 4 4 4 4 4 8 8 8 8 8 8 8 8 8 8 8 8 9 9 9 9 9 9 9 9 9 9 9 9 9 9 9 9 9 9 9 9 9 9 9 9 9 9 9 9 9 9 9 9 9 9 9 9 9 9 9 9 9 9 9 9 H H H H H 9 9 9 9 H 9 9 H H H H H H J H H H H H H H J J K K K K J J K K K K K K J J J J J J K K K K H H H H H H H H H H H H H H H H J J K K K K L L L L ' ' ' ' ' ' ' ' ' I W 2.4X<X%XB l 2 1 1 < < # o X X                                 . . . .   . . . . . > , v wXaXZXBXaXiXwX>Xj.j.g.s.7.F v m c m n j < > # o o o X X X X o # > 2 d.;X=X;XyXmXVXVXBXBXVXmXMXtX<X7X1X=X7.A 3 1 - X X X O O + + O + O O                                 O O O O O O O O O 4 6 6 0 7 0 7 7 r Y Y W W ^ ^ ^ ^ ^ R R | +.$.K.T.T.Q.W.L.P.J.m. .| { { { | | |  .+.J.J.K.K.J.+. .| R R R R R R ^ ^ ^ ^ ^ ^ ^ ^ | | R R R R R R R R R R R R ^ ^ W 0 6 O 6 O 4 # # + # # # # # 7 7 7 7 7 # # # # w w y 7 7 y a ! =.p # # # y p ! ! o.@.@.%.%.K.Y.R.R.~.OX!.T.T.R.R.+.q O O                             X o 2 B a.d.d.=X=X=Xp.8.n > o X X + # 6 5 5 q Y Y W W W r r r r W R | +.| +.+.| | R ^ +.@.+.+.^ E Y Y T | Y.m.b.m.n.A.A.C.C.C.C.C.A.A.Z.A.C.C.C.Z.Z.Z.Z.Z.Z.C.Z.Z.C.C.C.C.C.C.C.C.n.m.n.n.n.n.n.c.n.n.n.n.n.n.n.n.n.",
"9 9 H H H 9 9 9 H H H H H H H H 9 9 9 9 9 9 9 9 9 9 9 9 9 9 9 9 5 5 8 8 4 8 8 8 4 4 4 4 4 4 4 4 4 4 4 4 4 4 4 4 4 4 4 4 8 8 8 8 8 8 8 8 8 8 8 8 8 8 9 9 9 9 9 9 9 9 9 9 9 9 9 9 9 9 9 9 9 9 9 9 9 9 9 9 9 9 9 9 9 9 9 9 9 9 9 9 9 9 9 9 H H H H H 9 9 9 9 9 9 9 H H H H H H H J H H H H H H H J K K K K J K K K K K K K K K K J J J K K K H H H H H H H H H H H H H H H H H H H K L L L L L L L ' ' ' ' ' ' ' ' ' I U 3.p.%Xa.m c 2 1 1 < < # + X X                                     . . . X . . . X , <XpXAXAXyXyXwX>Xj.j.j.j.d.t.S A v n n n i > . * # # # o X X X X X o o 1 p.;X<X<XpXmXmXpXpXpXaXMXpXrXrX9X=Xa.m 3 X o o X X O O O O + O O O                                     O O O O O O O O O O 6 6 0 0 7 7 r Y W W W ^ ^ ^ ^ R R R +.$.K.T.T.T.Q.W.P.J.H. . . . .{ | | | |  .+.J.K.J.J.#. .| R R R W W W R ^ ^ T T R R R R ^ { R R { R R R R R R R R ^ ^ ^ q 4 6 O O O @ # + + # # # # # # # # # # + + + + # # # # + 7 p a ! p 7 # 7 p p o.! o.@.%.%.%.%.Y.R.R.E.OX~.R.T.R.R.@.J O                               X X 1 N %X:X:X1X1X;Xa.p.Z 2 o X X + # # 6 6 q Y Y r r r r r r r E T ^ | +.+.+.| | R ^ +.@.$.+.^ ^ Y Y T ^ Y.J.b.m.n.C.C.C.C.C.C.C.A.A.A.Z.C.C.Z.Z.Z.Z.Z.Z.Z.Z.Z.Z.C.C.C.C.C.C.C.C.c.n.n.n.c.n.c.c.n.n.n.n.n.n.n.n.n.",
"5 9 H H H H 9 9 H H H 9 9 9 H H 9 9 9 9 9 9 9 9 9 9 9 9 9 9 9 9 5 5 5 5 8 8 8 8 4 4 4 4 4 4 4 4 4 4 4 4 4 4 4 4 4 4 4 4 4 4 4 4 4 4 4 8 8 8 8 8 8 8 8 8 8 8 9 9 9 9 9 9 9 9 9 9 9 9 9 9 9 9 9 9 9 9 9 9 9 9 9 9 9 9 9 9 9 9 9 9 9 9 9 9 9 9 9 9 9 9 9 9 H H H 9 H H H H H H H H K K H H H H K J K K J J J J J J K K K K K K J J J J J J H H H H H H H H H H H H H H H H H H H H L L L L ' ' ' ' ' ' ' ' ' ' [ [ ' I ~ =.p.,Xa.Z B n B 1 < < # o X X                                     . .     X % . v s.aXGXmXsXwXwX>Xj.j.j.j.d.s.t.S B c 2 1 u u < < . + . + + o X X   X o o 3 8.;X9XrXMXVXyX7XwXwXuXpXuXuXrX1Xe.B 2 < - o o o X X + + + + O O O                                 O O O O O O O O O O O O @ 6 q r r Q W ( ( W ( ( ^ ^ | | +.$.%.K.T.Y.T.T.Y.J.J.H.m. . . . . . . . . . .#.$.J.K.J. .| | R R R W R W R ^ ^ R E Y Y R R R R R R R { | | R ^ ^ ^ ^ ^ W r 6 6 6 6 @ # 6 # # # # # # # 6 6 6 # # # + + + + + + + + # # w p s p 7 + q p p Q / / o.@.@.@.%.%.R.R.!.+X~.!.R.R.R.+.q O                                 o - l d.1X<X>X:X;Xu.r.A b > o X + + # 6 r q r r r r Y r r r r Y W ^ | | $.$.$.+.| | | +.$.$.+.^ E Y Y ^ Y.J...m.C.C.C.C.C.Z.Z.Z.Z.Z.Z.Z.D.D.D.Z.).Z.Z.Z.Z.Z.Z.Z.C.C.C.C.C.C.C.C.N.n.n.n.n.n.n.n.n.n.n.n.n.n.n.x.n.",
"5 9 H H H H 9 9 H H H H 9 9 H H 9 9 9 9 9 9 9 9 9 9 9 9 9 9 9 9 5 5 5 5 8 8 8 8 4 4 4 4 4 4 4 4 4 4 4 4 4 4 4 4 4 4 4 4 4 4 4 4 4 4 4 4 8 8 8 8 8 8 8 8 8 8 9 9 9 9 9 9 9 9 9 9 9 9 9 9 9 9 9 9 9 9 9 9 9 9 9 9 9 9 9 9 9 9 9 9 9 9 9 9 9 9 9 9 9 9 9 9 H H H H H H H H H H H H K K H H H H K K K K J J J J J J K K K K J K J J J J J J H H H H H H H H H H H H H H H H H H H H L L L L ' ' ' ' ' ' ' ' ' ' [ [ [ I ( <.3.9.e.p.a.e.:.1 < > # o X X                                     .     X X m s.pXmXGXmXtXtX>X:Xg.d.d.d.d.u.r.w.V b 1 > > < * # # # + . + X X X X   X o o l >.a.:X9XpXpXg.h.:X:X>X<XrX9X;Xd.b > X o o + + X + + + + + + O O                                   O O O O O O O O O O O O @ 6 p Q o.o.@.@./ ( ^ ^ / +.$.%.Y.Y.R.R.R.R.T.L.J.#.H.H.H. . . . . . . . . .+.$.$.J.K.$.+. .| R R R ^ ^ R R ^ ^ R E Y Y R R ^ ^ ^ | R { | | | ^ ^ ^ ^ W r 6 4 6 6 # # # # # # # # # # # 6 # # # # # # # # # # # # # # # 7 p a p 7 6 q p p Q ! ! o.o.@.@.%.%.Y.R.R.E.~.!.R.Y.R./ q O                                 X X 3 p.=X1X1X;Xg.u.r.S m 2 - X + + # 7 r r t r r r r r r r r Y W W ^ | <.%.$.$.| R ^ | +.$.@.+.^ E E ^ R.Y.m.m.C.Z.Z.A.Z.Z.Z.Z.Z.Z.).).D.D.D.Z.).).Z.Z.Z.Z.Z.Z.C.C.C.C.C.C.C.C.N.N.n.n.n.n.n.n.n.n.n.n.n.n.n.x.n.",
"5 9 H H H H 9 9 9 H H H 9 9 9 H 9 9 9 9 9 9 9 9 9 9 9 9 9 9 9 9 5 5 5 5 5 8 5 5 4 4 4 4 4 4 4 4 4 4 4 4 4 4 4 4 4 4 4 4 4 4 4 4 4 4 4 4 8 8 8 8 8 8 8 8 8 8 9 9 9 9 9 9 9 9 9 9 9 9 9 9 9 9 9 9 9 9 9 9 9 9 9 9 9 9 9 9 9 9 9 9 9 9 9 9 9 9 9 9 9 9 9 9 H H H H H H H H H H H H H H H H H H H J K J J J K K J J J J J J J J J J J J J J H H H H H H H H H H H H H H H H H H H H I L L L ' ' ' ' ' ' ' ' [ [ [ [ [ ' [ <.3.$X%Xa.%Xs.p.l < > # o X X                                       . . > c d.tXmXGXDXaXwXwX>X:Xd.d.s.s.f.w.>.S , 2 > > . * * # # # + . . X X X X   X o o l S 7.;X<XpXpXh.y.j.;X:X<X<X1Xa.>.2 < o o o X + + + + + + + X                                   O O O O O O + + O O O O O O @ 6 p Q o.o.@.@./ / ^ / +.$.<.Y.R.T.R.R.R.R.Y.J.#.H.H.H. . .#.#.#.#.+.+.+.+.+.$.$.J.K.$.+.| | R R R ^ ^ ^ ^ ^ ^ R E Y T R ^ | | | | | | | +.| ^ W W Y t 6 6 6 # # # # # # # # 7 # # 7 7 7 # 7 7 7 7 7 7 7 7 7 7 e 7 # # 7 w w w 6 6 q p p a ! ! O.o.@.@.%.%.%.Y.R.!.~.!.R.R.<.( q O                                 X X - >.d.1X>X;Xg.u.t.>.Z b < o o + + # e r t t Y Y Y Y Y Y Y Y Y W ^ | <.%.$.$.| T Y T | +.$.+.^ R W ^ ^.Y.m.n.Z.).).).).).).).).).).).`.`.`.Z.).).Z.Z.Z.Z.Z.Z.C.C.C.C.C.C.C.C.N.N.n.n.n.n.n.n.n.n.n.n.n.n.n.c.c.",
"5 9 H H H H 9 9 H H H H H H H H 9 9 9 9 9 9 9 9 9 9 9 9 9 9 9 9 5 5 5 5 5 5 5 5 4 4 4 4 4 4 4 4 4 4 4 4 4 4 4 4 4 4 4 4 4 4 4 4 4 4 4 4 8 8 8 8 8 8 8 8 8 8 9 9 9 9 9 9 9 9 9 9 9 9 9 9 9 9 9 9 9 9 9 9 9 9 9 9 9 9 9 9 9 9 9 9 9 9 9 9 9 9 9 9 9 9 9 9 H H H H H H H H H H H H H H H H H H H J J J J J H H H H H H H H H H J J J J J J H H H H H H H H H H H H H H H H H H H H L L L L L L L L ' ' ' ' [ [ [ [ ] ` [ Y.$X4X4XrXrX<X%Xb < > # o X X                                     . . % %XwXmXmXaXsXiXwXj.k.j.j.u.d.s.f.t.>.S m > 2 < > . * * # # + + . . X X X X   X o o 2 A :.d.<XpXyXu.0.;X:X1X;Xs.e.D i o - X X X + + + + + + + + +                                   O O O O + + + + O O O O O O @ 6 7 r p Q / / / / / / @.$.<.Y.R.Y.Y.K.Y.K.J.#.#.#.#.H.J.J.J.J.J.$.$.$.$.#.$.$.$.J.J.$.+.| R R R R ^ ^ +.^ ^ ^ R E Y T R ^ +.+.+.+.^ / / +.+.^ W r 0 6 6 4 # # # # # # # # 7 7 # # # # # # 7 7 7 w q q q q e e p e 7 6 6 q 7 7 # 7 q p p a a ! O.o.o.o.@.@.%.Y.R.!.~.R.R.Y.<.Q 0 O                                 # o > 8.d.<X7X:Xg.u.u.7.D N i # o + + # e e r t Y Y r r r r Y Y Y W ~ | $.$.$.+.| E Y Y T | +.+.| R R | ^.Y.m.A.Z._._._.[.[._._.`.`._._.`.`.`.).).).Z.Z.Z.Z.Z.Z.Z.C.C.C.C.C.C.C.N.N.n.n.n.n.n.n.n.n.n.n.n.n.n.c.c.",
"9 9 H H H H 9 9 H H 9 9 9 9 9 9 9 9 9 9 9 9 9 9 9 9 9 9 9 9 9 9 9 9 9 5 5 5 5 5 8 8 8 8 8 8 8 4 4 4 4 4 4 4 4 4 5 5 5 5 5 5 5 5 4 4 4 4 8 8 8 8 8 8 8 8 9 9 9 9 9 9 9 9 9 9 9 9 9 9 9 9 9 9 9 9 9 9 9 9 9 9 9 9 9 9 9 9 9 9 9 9 9 9 9 9 9 9 9 9 9 9 9 9 H H H H H H H H H H H H H H H H K K K K H H H H H H H H H H H H H H H H H H H H H H H H H H H H H H H H H H H H H H H H K L L L ) ) ) ) ) ) ) ' [ [ [ [ z.] [ ~.*X4XnXuXrX,X%XB 2 < < u < # o X X X             . .             . o m uXMXaXaXeXyXeXk.j.j.g.u.y.t.a.t.8.>.m 2 > * * * * * * # + X + X X X X X     X + o z D 7.=X9XMXuXd.d.1X<X:X%X>.Z 2 > o o X + + + @ # # + + O O                                     X X O O O O + + O O O O O X @ 7 7 r p Q / / / / / / @.@.$.%.%.%.K.J.J.$.#.#.#.#.H.H.H.H.J.J.J.J.$.$.$.$.$.$.$.J.J.#. .R T T R R R ^ ^ ^ ^ R E Y E T R | @.+.| | / ^ ( W W r 6 6 6 6 6 @ # # # # # # # # # # # + + + # # 7 q p p a Q Q p a a p p p q 6 6 + # # # 7 y p p a a Q O.o.o.&.&.%.K.T.R.E.R.Y.<.<.Q 6                                   X X 1 ;.s.7X7Xj.h.u.s.w.:.B 2 o o o + # 7 7 r t t t r r r r Y r Q ( | | $.$.^ Y E E Y Y Y T  .$.+.^ R  .^.Y.m.C.[.'.'.'.].].'.'.'.'.'.'.'.'.].'.'.`.`.`.`.Z.Z.Z.Z.Z.Z.Z.C.C.C.C.C.C.C.C.C.C.n.n.n.n.x.x.x.x.x.x.C.",
"9 H H H H H 9 9 H H 9 9 9 9 9 9 9 9 9 9 9 9 9 9 9 9 9 9 9 9 9 9 9 9 9 9 5 5 5 5 8 8 8 8 8 8 8 8 4 4 4 4 4 4 4 4 5 5 5 5 5 5 5 5 4 4 4 4 8 8 8 8 8 8 8 8 9 9 9 9 9 9 9 9 9 9 9 9 9 9 9 9 9 9 9 9 9 9 9 9 9 9 9 9 9 9 9 9 9 9 9 9 9 9 9 9 9 9 5 5 9 9 9 9 H H H H H H H H H H H H H H H H K K K K H H H H H H H H H H H H H H H H H H H H H H H H H H H H H H H H H H H H H H H H K L L L L L ) ) ) ) ) ' [ ' [ ` ] ] ] oXnXNXMXnXuX;Xa.Z b 2 u u d u < # + o X           . .   . o   .   . <XMXmXmXtXwXwXwX>Xk.h.g.u.y.w.w.e.e.:.B h 1 > * * * * * # + + X X X X X X       X + # b 7.a.9XMXGXCX7X;X1X,Xd.a.B 2 - o o X X + O @ # + # + + O O                                     X X + + O O + O O O O O O X @ 7 7 r p Q ( / / / / / @.@.+.+.$.$.+.#.#.#.$.$.#.$.H.H.J.J.J.J.J.J.$.$.$.$.$.$.$.$.$.+.R T Y Y E W R R ^ R R E Y Y Y T R | $.+.+.| ( W p q q 7 @ O O @ @ # # # # # # # # # # # # + + + # 7 q p Q ! o.o.o.o.o.o.O.! Q p r 6 + + + # # e y p d a a Q O.o.o.&.%.%.R.R.E.R.1.<.<.Q 6                                   X X 3 ;.s.<XrX>Xj.i.s.w.>.B 2 o X o o + # 7 7 7 t r r r r r r r Q ( | / $.$.| E E E Y Y Y E | $. .| R  .^.Y.m.C.[.'.'.'.].].].].].].].].}.{.].'.'.'.`.`.`.Z.Z.Z.Z.Z.Z.Z.C.C.C.C.C.C.C.C.C.C.n.n.n.n.x.x.x.x.x.x.n.",
"9 H H H H H 9 9 H H 9 9 9 9 9 9 9 9 9 9 9 9 9 9 9 9 9 9 9 9 9 9 9 9 9 9 5 5 5 5 8 8 8 8 8 8 8 8 4 4 4 4 4 4 4 4 5 5 5 5 5 5 5 5 5 5 5 5 8 8 8 8 8 8 8 8 9 9 9 9 9 9 9 9 9 9 9 9 9 9 9 9 9 9 9 9 9 9 9 9 9 9 9 9 9 9 9 9 9 9 9 9 9 9 9 9 5 5 5 5 9 9 9 9 9 9 9 9 H H H H H H H H H H H H H H K K H H H H H H H H H H H H H H H H H H H H H H H H H H H H H H H H H H H H H H H H K L L L ) ) ) ) ) ) ' [ [ [ ' ` ] ] ..&XnXMXmXpXuXg.r.S B l 1 1 i u < # # # o X X           . .   o 2 m w.MXAXaXaX8Xj.j.k.j.h.d.i.w.D D >.e.,.;.b 2 1 . o * * * # # + X X X X X X X       X + - b 8.d.rXMXAXVXrX:X<X;Xr.,.3 - o X X X + + @ 6 6 6 6 O +                                         X X X X O O O O O O O O X @ @ 7 7 r p Q Q Q ( ( / / / / | |  .+.+.{  .#.H.H.H.J.J.J.J.J.J.J.J.J.$.J.$.$.$.$.$.$.$. .R T Y Y Y Y W W R R E Y Y Y J T ^ | +.| ^ ^ q q 5 5 + # # # @ @ 7 # # # * * # # # # # # + + + # 7 q p Q o.o.<.<.1.<.@.@.o.o./ / a 5 O + + + # # ; y p d a Q Q o.o.@.%.%.1.R.R.R.1.o./ r #                                   X X 3 ;.t.:X7X7X:Xg.d.w.>.B 2 o X X X o + X @ 6 t t r r r r Y r Q ( ^ / $.$.$.R E E Y Y Y E | $.$. .| $.!.W.n.C.'.].].].].].].].].].].].}.}.{.].'.'.[.[.`.D.Z.Z.D.D.C.C.C.C.C.C.C.C.C.C.n.n.n.n.n.n.n.n.x.x.c.x.b.",
"9 9 H H H H 9 9 9 H 9 9 9 9 9 9 9 9 9 9 9 9 9 9 9 9 9 9 9 9 9 9 9 9 9 9 5 5 5 5 8 8 8 8 8 8 8 8 4 4 4 4 4 4 4 4 5 5 5 5 5 5 5 5 5 5 5 5 8 8 8 8 8 8 8 8 9 9 9 9 9 9 9 9 9 9 9 9 9 9 9 9 9 9 9 9 9 9 9 9 9 9 9 9 9 9 9 9 9 9 9 9 9 9 9 9 5 5 5 5 9 9 9 9 9 9 9 9 H H H H H H H H H H H H H H K H H H H H H H H H H H H H H H H H H H H H H H H H H H H H H H H H H H H H H H H H K L L L ) ) ) ) ) ) ' [ [ [ ' ` z.` [ ~.4XMXAXMXaX<X;Xe.n 2 < > u < # o # # + .     X       . . . :.1XGXGXmXmXeXwXj.i.i.i.i.i.i.u.D m D S :.S n 2 1 * . # # # # # . X X X X X X X X .     X # < z :.r.<XrXuXuX<X;X:X=X>.n o o X X X + O + @ 6 6 6 6 O +                                         X X X X O O O O O O O O X @ @ 7 e r p Q Q Q ( ( ( ( ^ ^ ^ ^ | | +.+.#.#.$.J.K.K.J.K.J.J.K.K.K.J.$.J.$.$.$.$.$.$.$.| T T Y Y Y Y Y Y T E E Y Y 0 Y Y ^ ^ R W Y Y 5 6 6 6 + + # # 7 7 7 7 * w * * # # # # # . . # + # 7 e Q ! o.<.<.1.1.<.%.%.%.@.<.<./ q O + X o o # # ; e p a a a O.o.@.%.%.<.Y.Y.Y.1.Q Q 7 # O                                 X X 3 D 7.g.<X7X>Xg.d.w.>.B i - X X X o + X @ @ 0 t r r r r r r Q ( ^ / $.%.$.| E E Y Y Y E | $.$. . .J.W.W.C.C.'.{.{.{.{.{.{.{.{.{.{.{.{.{.{.{.'.'.'.[.`.`.Z.Z.Z.D.C.C.C.C.C.C.C.C.C.C.n.n.n.n.n.n.n.n.x.x.c.n.z.",
"9 9 H H H H 9 9 9 9 9 9 9 9 9 9 9 9 9 9 9 9 9 9 9 9 9 9 9 9 9 9 9 9 9 9 9 9 9 9 5 8 8 8 8 8 8 8 8 8 8 8 8 4 4 4 8 8 8 8 8 8 8 8 5 5 5 5 5 5 5 5 5 5 5 5 5 5 5 5 9 9 9 9 9 9 9 9 9 9 9 9 9 9 9 9 9 9 9 9 9 9 9 9 9 9 9 9 8 8 8 8 5 5 5 5 8 8 8 8 9 9 9 9 9 9 9 9 H H H 9 H H H H H H H H H H H H H H H H H H H H H H H H H H H H H H H H H H H H H H H H H H H H H H H H J J J H L L L L ) ) ' ' ' ' ' ' ' ' ' ` m.[ ' OX4XmXVXVXMX<X=Xr.Z z < < u u u u < # + X   X + # * o X X > <XMXGXHXaXtX>X:Xi.0.y.y.i.d.i.u.F A m m B N j i < o o # # + + + X X X X X               X # 1 i ;.p.d.1X9X<X=Xt.r.e.;.z - o X X + + + O # # 7 w 6 O O                                     O O + + + + O O O O O O O O + @ @ 7 e p p W W W W Y W ( ( ^ ~ T ^ | +.#.$.$.K.K.T.T.T.L.K.J.K.K.K.K.J.$.$.$.+.+.| ^ ^ ^ R T E E E E T T T T ~ Y q 0 r r r W r q 0 6 + + + + + # # # e e e e y * * * # # # # . . + + # 7 7 p Q o.o.%.<.1.1.1.Y.Y.Y.Y.<.<.=.p 7 O   X X o + # # ; e r O.O.o.@.%.<.<.1.<.<.<.W W r 6 +                                 X X > A 6.;X<X7X>X;X;Xr.>.B 2 o . . X X X X O O 0 0 r r r Y r Y W ( / / $.$.$.| E E Y Y Y T | Y.T.J.#.m.~.W.A.D.].}.{.{.}.}.}.}.}.{.{.{.].].].].].'.'.'.`.`.).Z.D.D.Z.C.C.C.C.C.C.C.N.C.n.n.c.c.c.c.z.z.x.c.c.b.z.",
"9 9 H H H H 9 9 5 9 9 9 9 9 9 9 9 9 9 9 9 9 9 9 9 9 9 9 9 9 9 9 9 9 9 9 9 9 9 9 5 8 8 8 8 8 8 8 8 8 8 8 8 8 4 4 8 8 8 8 8 8 8 8 5 5 5 5 5 5 5 5 5 5 5 5 5 5 5 5 9 9 9 9 9 9 9 9 9 9 9 9 9 9 9 9 9 9 9 9 9 9 9 9 9 9 9 9 8 8 8 8 5 5 5 5 8 8 8 8 9 9 9 9 9 9 9 9 H H 9 9 H H H H H H H H H H H H H H H H H H H H H H H H H H H H H H H H H H H H H H H H H H H H H H H H J J J J L L L L ) ) ' ' ' ' ' ' ' ' ' ` z.[ ' &X4XCXAXAXaX:Xa.v l > > < u u u u > # o + # + . o *     :.d.mXAXAXVXtX>Xh.i.0.6.0.y.i.i.u.r.S B n n N N u u * o # # + X X X     X + X               + # y i b -.8.8.a.r.:.m n B z 1 - X X X + + + O # 7 7 w 6 O O                                   O O O + + + + O O O O O O O O + @ @ 7 r p r p W r r q q U Y Y T T ^ | +.#.$.$.K.K.T.T.T.L.K.J.J.J.J.J.J.J.$.$. .^ R W W W T T E T E E T R T ~ ~ E r 6 0 0 0 0 0 6 6 @ + + + + # # w y y y y y y * * # # # # + . . . . # 7 r a O.o.@.%.%.Y.Y.Y.Y.Y.Y.Y.Y.<.<.o.a @   X X X X + + # e e a O.o.o.@.<.<.<.<.<.o.r p r 6 O                                 X o 3 D w.:XwXyXwX:Xg.7.D n 1 X . . X X o X O 6 0 q r r r r r Y W ( / / $.$.$.| E E Y Y Y Y | Y.T.Y.J.m. X.XW.[.'.}.}.}.}.}.}.}.}.}.{.{.{.].].].].'.].'.`.`.).Z.D.D.Z.Z.C.C.C.C.C.C.N.n.n.n.c.c.c.c.z.z.z.z.z.z.z.",
"9 9 H H H H 9 9 5 9 9 9 9 9 9 9 9 9 9 9 9 9 9 9 9 9 9 9 9 9 9 9 9 9 9 9 9 9 9 9 5 8 8 8 8 8 8 8 8 8 8 8 8 8 4 4 8 8 8 8 8 8 8 8 5 5 5 5 9 9 9 5 9 9 5 9 5 5 5 5 9 9 9 9 9 9 9 9 9 9 9 9 9 9 9 9 9 9 9 9 9 9 9 9 9 9 9 9 5 5 8 8 8 8 8 8 8 8 8 8 8 8 8 8 8 8 9 9 5 5 9 9 9 H H H 9 9 9 9 9 9 9 9 9 9 9 9 H H H H H H H H H H H H H H H H H H H H H H H H H H H H H H H H H H H H L L L L ' ' ' ' ' ' ' ' ' ' ' ` ` ` [ &XnXGXGXGXaXd.7.3 > > < 1 u u u u > # o X < . X 1 o > > t.1XmXVXmXaX8Xj.q.y.6.F w.y.u.y.w.D v v n c b i < * . . o + . X X X                         + # y u i z Z Z :.:.D B m B z > o X X O + + + O 6 7 7 w # +                                   O O + + O O O O O O + + X + + + @ # 7 7 e r r r r r q q q q q Y T T | | #.#.$.H.L.L.T.T.T.L.K.K.H.H.H.J.J.$.+. .R T Y Y Y W T T E E E E ~ ~ ~ ~ W Y q 6 6 6 6 6 6 4 6 # + # # # 7 7 7 7 p p p u p w * # # # # . . . + + # 7 p O.o.o.%.<.Y.U.U.U.T.Y.T.Y.R.R.Y.<.o.t O     X X X X + # e a Q O.o.o.@.<.<.%.@.o.6 0 q #                                   X o 2 >.r.>XwXtXtX<X;X7.:.B 1 o X X o o o X O 6 0 0 r r Y r r Y W ^ / / $.$.$.| T T T T Y Y | Y.Q.T.J.J.!..XXX[.].}.}.}.}.}.}.}.}.}.}.}.{.].].].].].].].`.`.).Z.D.D.Z.Z.C.C.C.C.C.C.C.n.n.m.c.b.b.b.z.z.z.z.z.] ] ",
"9 9 H H H H 9 9 5 9 9 9 9 9 9 9 9 9 9 9 9 9 9 9 9 9 9 9 9 9 9 9 9 9 9 9 9 9 9 9 5 8 8 8 8 8 8 8 8 8 8 8 8 4 4 4 8 8 8 8 8 8 8 8 5 5 9 5 9 9 5 5 5 9 9 9 5 5 5 5 9 9 9 9 9 9 9 9 9 9 9 9 9 9 9 9 9 9 9 9 9 9 9 9 9 9 9 9 5 5 5 8 8 8 8 8 8 8 8 8 8 8 8 8 8 8 5 5 5 5 5 5 9 9 9 9 8 8 8 8 8 8 8 8 9 9 9 9 H H H H H H H H H H H H H H H H H H H H H H H H H H H H H H H H J J H H L L L L ' ' ' ' ' ' ' ' ' ' ' ` ` ` [ 2XNXGXGXGXtXv 3 > > 1 z i u u 1 < > - o X . X > m a.rX<X<XrXMXmXaXyX>Xj.i.y.6.7.y.y.y.y.7.S c c c 2 i 1 * o X . . . X X X X                         + # y u u z b z N -.:.Z B N 1 > o X X O + + + @ # 7 7 y # +                                   O O + + O O O O O O + + X + X X # # 7 q q r r r r q q q q W W E E T |  .#.#.H.H.L.L.W.W.T.L.K.K.H.H.H.#. .| { R T T Y Y Y W T Y E E E E ~ W ~ W W W q 6 6 4 4 4 4 + + + 7 7 7 7 7 7 7 7 p p p p p w * # # # + . . . + + 7 y a o.o.@.<.<.%.U.U.U.T.T.T.T.T.R.R.Y.1.W 6       O O X X # # e a Q O.o.o.<.<.<.o.Q O O # X                                   X o c w.g.wXeXtXyX7X1Xa.8.;.b < X X o o o X @ 6 6 0 t r Y r r Y W ^ ^ / +.$.$.| R T T Y Y Y | Y.T.T.Y.J.2X2X#X.X].}.}.}.}.}.}.}.}.}.}.}.{.].].].].].].].`.`.`.Z.Z.Z.Z.Z.C.C.C.C.C.n.n.n.m.m.b.b.b.b.b.z.] ] ] ] ] ",
"H H H H H H 9 9 9 9 5 5 8 8 8 8 9 9 9 9 9 9 9 9 9 9 9 9 9 9 9 9 9 9 9 9 9 9 9 9 9 9 9 9 9 9 8 8 8 8 8 8 8 8 8 8 8 8 8 8 8 8 5 5 5 5 9 9 9 5 5 5 9 9 5 9 9 9 9 9 9 9 9 9 9 9 9 9 9 9 9 9 9 9 9 9 9 9 9 9 9 9 9 9 9 9 9 9 5 5 8 8 8 8 8 8 4 4 4 4 4 4 4 4 5 5 5 5 5 5 5 5 5 5 5 5 8 8 8 8 8 8 8 8 8 8 8 8 9 9 9 9 9 9 9 9 H H H H H H H H H H H H H H H H H H H H H H H H J K K K L L ' ' ' ' ' ' ' ' ' ' [ [ [ ] ` [ ..2XIXGXGXGXtXA l 3 c b b b i 1 1 < 1 > X X X o > d.pXMXyX7XtXmXMXiXyX>Xg.u.y.y.w.w.w.w.7.S m c l l 2 1 < o o X . X + O X           O O               + + # # 1 z N n n Z :.;.N z i # o X X + + X @ @ @ 6 # # # +                               O O O O O + O O O + + + + O @ @ @ 6 6 6 7 e r e r r r q q q q q Y W ^ ^ +.+.#.#.#.H.H.H.P.P.L.L.L.H.H.H. .{ { R R R Y Y R ^ ^ E E E E E E E W W W W W r 5 5 # # + + # # 7 7 7 7 7 7 7 7 7 7 p p p p p y * * + + . . . . o # 7 p Q o.o.@.<.<.Y.Y.T.T.T.T.T.T.T.R.R.R.R.@.r           X X X @ p a s ! ! o.=.=.o.O.Q O                                           o l a.;XeXeXeXyXwX>Xu.e.S b % . X o o + + @ 6 6 0 t t r r r r W ^ | /  .+.+.| R R T E E E | K.T.T.Y.m.2XzXzX.X{.}.}.}.}.}.}.}.}.}.}.}.].].].].].'.'.'.[.`.Z.Z.Z.Z.Z.Z.C.C.n.n.n.n.n.m.m.b.b.m.b.z.] ] ] ] ] ` ` ",
"9 H H H H H 9 9 9 9 5 5 8 8 8 8 9 9 9 9 9 9 9 9 9 9 9 9 9 9 9 9 9 9 9 9 9 9 9 9 9 9 9 9 9 9 8 8 8 8 8 8 8 8 8 8 8 8 8 8 8 8 5 5 5 5 9 9 9 5 5 5 9 9 5 5 9 9 9 9 9 9 9 9 9 9 9 9 9 9 9 9 9 9 9 9 9 9 9 9 9 9 9 9 9 9 9 9 5 5 8 8 8 8 8 8 4 4 4 4 4 4 4 4 5 5 5 5 5 5 5 5 5 8 8 8 8 8 8 8 8 8 8 8 8 8 8 8 9 9 9 9 9 9 9 9 H H H H H H H H H H H H H H H H H H H H H H J J J K K K L L ' ' ' ' ' ' ' ' ' ' [ [ [ [ ` [ ..&XNXGXAXMXwXA v S m n n M i 1 1 > o o o X > m d.HXPXAXtX>XwXsXaXyXtX:Xj.t.y.w.w.7.>.7.>.m c c l l i < - o o . . X + O X           O O                 O X o ; 1 i z i l z z 1 < 1 # o X + + + X X @ @ # # # # +                             O O O O O O + O O + + + + + + O # 6 6 7 q e e r r r r r r r r q W W W ( ^ | +.#.#.#.#.H.H.P.P.L.L.L.H.H.H. .} { R R R Y E ^ ^ ^ E E E E E E W W W W r r 5 5 O + + # # # # 7 7 7 7 7 7 7 7 7 7 y p p p p p w * + + o o . . o # # p Q o.o.@.<.<.Y.T.T.T.T.T.Q.T.T.R.R.R.R.<.^ O           X X X y u s s ! ! ! =.o.O.a O                                         X l A u.:XyXiXiXiXtX7Xs.r.:.b > o . o + + # @ 6 6 0 q t r r r r E W ^ ^ | | | | | { R E E E | K.T.T.Y.J.2XxXzX.X{.}.}.}.}.}.}.}.}.}.}.}.].].].].].'.'.'.'.`.).Z.Z.Z.C.C.C.C.n.n.n.n.n.m.m.b.m.m.b.z.] ] ] ` ` ` ` ",
"9 9 H H H 9 9 9 9 9 5 5 5 5 5 5 9 9 9 9 9 9 9 9 9 9 9 9 9 9 9 9 9 9 9 9 9 9 9 9 9 9 9 9 9 9 8 8 8 8 8 8 8 4 4 4 8 8 4 4 5 5 5 5 5 5 9 9 9 9 5 5 9 9 5 5 9 9 9 9 9 9 9 9 9 9 9 9 9 9 9 9 9 9 9 9 9 9 9 9 9 9 9 9 9 9 9 9 5 5 8 8 8 8 8 8 4 4 4 4 4 4 4 4 5 5 5 5 5 5 5 5 5 5 5 5 4 4 4 4 8 8 8 8 8 8 8 8 9 9 9 9 9 9 9 9 H H H H H H H H H H H H J J J J H H J J K K K K K L L L L L ' ' ' ' ' ' ' ' [ [ [ [ [ [ ' [ ..&XNXGXVXaX7X6.D 7.S S N n 2 2 1 > > o > 3 3 j.aXPXPXAXyX>XwXaXiXwX7X:Xj.y.w.w.>.>.>.,.S m c l l 2 u 1 # o + + X X + + + +         O O                   O   o - 1 1 1 < - > > > - # X X + + + X X @ @ # # # # +                           O O O O O O O O O + + + + + @ @ @ 6 6 q e e e e r r r r Y Y W W W W ( ( ( ^ | +.+.#.#.#.$.H.J.J.L.L.L.H.$.#.} { { R R R ~ ^ ^ ^ ^ W E E E E E W W W W q q 6 O O + + + + # # # # 7 7 7 7 + # + + 7 p p p d d y * # # # o . o o # 7 p Q o.o.@.<.<.T.T.T.Q.Q.Q.Q.Q.T.T.R.R.R.R.<.6               X ; u d s s ! ! O.O.Q p                                           o b D d.>XyXiXiXiXtX7Xs.t.,.m < * o o + # 6 7 0 0 0 t t r r r r r W ^ ^ ^ ^ | | | | { R E E { K.K.T.T.J.@XzXzX.X}.}.}.}.}.}.}.}.}.}.}.}.{.{.].].].'.'.'.'.`.).Z.Z.Z.C.C.C.C.n.n.n.n.n.m.m.b.z.m.b.] ] ` ` ` ` ` ` ",
"9 9 H H H H 9 9 9 9 5 5 5 5 5 5 9 9 9 9 9 9 9 9 9 9 9 9 9 9 9 9 9 9 9 9 9 9 9 9 9 9 9 9 9 9 8 8 8 8 8 8 8 4 4 4 8 8 4 4 5 5 5 5 5 5 5 9 5 5 5 5 9 9 5 5 9 9 9 9 9 9 9 9 9 9 9 9 9 9 9 9 9 9 9 9 9 9 9 9 9 9 9 9 9 9 9 9 5 5 8 8 8 8 8 8 4 4 4 4 4 4 4 4 4 4 4 4 5 5 5 5 5 5 5 5 4 4 4 4 4 8 8 8 8 8 8 8 9 9 9 9 9 9 9 9 H H H H H H H H H H H H J J J J K K K K L L L L L L L L L L ' ' ' ' ' ' ' ' [ [ [ [ [ [ ' [ ..&XNXGXGXsXtX:Xg.s.>.:.B m 2 3 3 > 3 3 7.1X>XmXHXJXHXAXdX8XwXfXyX8X>X;Xj.r.w.7.>.,.:.:.S n l l 2 1 1 ; + + + X X X + + + +         O O                         X o ; 1 < - - - # o o X X + + + X X O O @ @ # # +                           O O O O O O O O O + + + + O @ @ 6 6 7 e e e r r p r r r Y W W W W W ( ( ^ ^ +.+.$.#.+.+.$.$.J.J.L.L.K.H.#. .{ { { R R R ^ ^ ^ ^ ^ W E E E E E W W r q 5 6 + O O     + + + + + + # # # # + + O O 7 y p p d p p w # # # # . + o # # p Q o.o.@.<.<.T.T.Q.Q.Q.Q.Q.Q.Q.T.T.R.R.R.R.t O             O # y u d s s ! ! Q a e                                           i Z t.wXtXfXfXiXyXwX<Xu.a.>.N 1 * o o + # @ 7 7 0 0 t t r r r r q Y W ~ ^ R R | | | | R E E { $.K.K.Y.J. X.X.X.X}.}.}.}.}.}.}.}.}.}.}.}.{.].].].].'.'.'.[.`.).Z.Z.Z.C.C.C.C.C.n.n.n.m.b.b.b.z.m.b.] ` ` ` ` ` ` ` ",
"9 9 H H H H 9 9 9 9 5 5 5 5 5 5 9 9 9 9 9 9 9 9 9 9 9 9 9 9 9 9 9 9 9 9 9 9 9 9 9 9 9 9 9 9 9 9 8 8 8 8 8 8 5 4 4 4 4 4 4 4 4 4 8 8 5 5 9 9 9 9 9 9 9 9 9 9 9 9 9 9 9 9 9 9 9 9 9 9 9 9 H H H 9 9 9 9 9 9 H H H 9 9 9 9 8 8 8 8 8 8 8 4 4 4 4 4 4 4 4 4 4 4 4 4 4 4 4 4 4 4 4 4 5 5 5 5 5 5 5 5 5 5 5 5 9 9 9 9 9 9 9 9 H H H H H H J J K K L L L L L L L L L L L ' ' ' L ) ) ) ' ' ' ' ' ' ' ' ' ' ' ' ] ] [ [ ' ' ..*XNXGXAXsXtXwX:Xi.w.D S m m c v > > y.>XMXVXGXHXJXHXZXsXyXiXfXyX>X;Xj.d.t.w.>.>.,.;.:.B b 2 2 i < - # + X + + X X X + + O O O   O O O O O                       o # # < > o o o o o . X X + + + + + + + + + + + + O                       O + + + O + @ # # # # # 6 7 q e 7 e r p p p p a W p W W W ( ( ( Q Q ^ ( ^ ^ +.+.$. . . . .$.$.J.J.J.J.Y. . . . .| | | | / / / ^ ^ R E Y ^ W E Y q q 5 5 O O     . . . + + + + + + + + + + + + + # w p p d a a d y * * * # # # # 7 p a O.o.@.%.<.T.T.T.Q.Q.Q.Q.Q.Q.Q.T.T.R.R.R.r O O O           X + ; y u u d s d p +                                         * 3 :.d.tXfXsXfXgXeXeX8Xg.g.w.S > * o + + # 7 r 7 q q t r r t 7 0 0 q E ~ T R R | |  .| R Y Y T $.$.J.J.J.2X.X.X[.}.kX}.}.}.}.}.}.}.}.}.}.{.].].].'.'.'.'.).`.Z.Z.Z.Z.C.C.C.n.C.F.F.n.m.m.z.z.z.z.] ] ] ` ] ] ] ] ` ",
"9 9 9 H H H 9 9 9 9 5 5 5 5 5 5 9 9 9 9 9 9 9 9 8 8 8 8 8 8 8 8 9 9 9 9 9 9 9 9 9 9 9 9 9 9 9 9 8 8 8 8 8 8 5 4 4 4 4 4 4 4 4 4 8 8 8 8 8 8 9 9 9 9 9 9 9 9 9 9 9 9 9 9 9 9 9 9 9 9 9 9 H H H H 9 9 9 9 9 H H H 9 9 9 9 8 8 8 8 8 8 4 4 4 4 4 4 4 4 4 4 4 4 4 4 4 4 4 4 4 4 4 4 5 5 5 5 5 5 5 5 5 5 5 5 9 9 9 9 9 9 9 9 H H H H H H J K K K L L L L L L ) ) ) ) ) ' ' ' ) ) ) ) ' ' ' ' ' ' ' ' ' ' ' ' ] ] [ [ ' ' ..*XNXGXGXBXBXfXyXtXj.u.w.D A v G F u.tXVXKXJXHXHXHXFXSXBXsXiXyXtX>X;Xg.s.t.7.:.:.:.B Z m 2 3 1 < > # # + X + + X X + + + O O O O O O O O O                         X + # # # o o X o X X X X + + + O O + + + + + + O O                     O + + + + @ # 7 7 # 6 6 7 7 r r r r p p a Q Q Q Q Q Q Q ( ( ( ( Q Q ^ ^ ^ ^ +.+. . .| | { | | |  .$.$.J. . . . ........./ | ^ ~ ~ W Y Y r r t r 5 5 + + O   X   X . + +                 O O O O + 7 y p d a Q a p * * * * * * * 7 p a O.o.@.%.%.T.T.T.Q.Q.Q.Q.Q.Q.T.T.T.R.R.R.Q 6 O O O           X # < y u u d s d ; X                                 O     * Z d.>XMXBXBXdXfXiXeXwXk.j.t.S > * o + + # 7 e t t t t t q 0 6 4 6 q Y W T R R |  . .| R Y Y T $.J.J.J.J.@X.X.X[.}.}.lX}.}.kX}.}.}.}.}.}.{.].].'.'.'.'.`.).Z.Z.Z.Z.Z.C.C.c.n.n.n.n.n.m.b.z.z.z.z.] ] ` ` ] ] ] ] ` ",
"9 9 H H H H 9 9 9 9 5 5 5 5 5 5 9 9 9 9 9 9 9 9 8 8 8 8 8 8 8 8 9 9 9 9 9 9 9 9 9 9 9 9 9 9 9 9 8 8 8 8 8 8 5 5 4 4 4 4 4 4 4 4 5 5 5 8 8 8 9 9 9 9 9 9 9 9 9 9 9 9 9 9 9 9 9 9 9 9 9 9 H H H H 9 9 9 9 9 9 H H 9 9 9 9 8 8 8 8 8 8 8 8 5 5 5 5 4 4 4 4 4 4 4 4 4 4 4 4 4 4 4 4 5 5 5 5 5 5 5 5 5 5 5 5 9 9 9 9 9 9 9 9 H H H H H H J K K K L L ) ) ) ) ' ' ' ' ' ' ' ' ) ) ) ) ' ' ' ' ' ' ' ' ' ' ' ' ] [ [ [ ' ' ..*XNXGXHXDXBXmXmXaX<Xi.0.w.w.y.y.y.j.aXHXJXJXJXFXFXSXSXZXsXsXyXtX:Xj.d.u.r.>.S S S B B n 1 > < < < # # + X + X X X O + + + O O O O O O O O                           X X o o o o X X X X X X X + + O O + O X O O O + O O                   O + + + @ # 7 7 7 7 7 7 q r p p a a Q ! Q ! / ! ! Q Q Q Q W ( ( ^ ^ ^ ^ ^ ^ +.+. .| | | T T R R | |  . . . . . . . . . .| | | ~ W Y Y q 0 0 6 6 + + O O       X X X + +   X X X + + + + + + + + + # w p d a a a d < * * * * < * y p a ! o.o.@.%.K.U.T.T.Q.T.Q.Q.Q.Q.R.R.E.R.R.o.r O O O           X + # y y u u u u y +                                     . > A ;XwXmXZXZXhXfXfXiXeXwX:Xs.>.> > # + + # e r r r t r t 0 0 6 O 6 q Y W T R R |  . .{ T T T { $.K.K.J.J.~.W.W.[.}.}.}.}.}.}.}.}.}.}.}.}.{.].].'.'.[.`.`.Z.Z.Z.Z.C.C.C.C.x.c.m.n.n.m.z.z.z.z.z.z.] ] ] ] ] ] ] ] ` ",
"9 9 H H H H 9 9 9 9 9 5 9 9 5 9 9 9 9 9 9 9 9 9 8 8 8 8 8 8 8 8 9 9 9 9 9 9 9 9 9 9 9 9 9 9 9 9 8 8 8 8 8 8 5 5 4 4 4 4 4 4 4 4 5 5 5 8 8 8 9 9 9 9 9 9 9 9 9 9 9 9 9 9 9 9 9 9 9 9 9 9 H H H H 9 9 9 9 H 9 H 9 9 9 9 9 8 8 8 8 8 8 8 8 5 5 5 5 4 4 4 4 4 4 4 4 4 4 4 4 4 4 4 4 5 5 5 5 5 5 5 5 5 5 5 5 9 9 9 9 9 9 9 9 9 9 H H H H J K K K L L ) ) ) ) ' ' ' ' ' ' ' ' ) ) ) ) ' ' ' ' ' ' ' ' ' ' ' ' ] ] [ [ ' ' ..*XNXHXKXGXDXAXDXAXfXj.i.g.;X;X:XyXmXJXKXJXKXJXFXSXDXDXZXsXsXiXyX:Xj.d.u.w.D S B B B B n 2 < < 1 - # # + + X X X + O + + + O O O O O O O O                           O   X o o X X X X X X X X X + O O + + X O O O + + O O                 O + + + 7 7 e e y 7 e e r r p a ! ! ! ! / / ! Q Q Q Q Q ( Q ( ( ^ ( ^ ^ ^ ^ +.+.| | | R T R | | | |  . .$.$.$.$. . . .$.| | | ( Y Y q q 4 O O + X X X X       X X X + + # # # # # # # # # # # # + + 7 w d d a a s y < * y y y < y p a ! o.o.@.%.K.Y.T.T.T.T.Q.T.Q.T.R.R.E.R.R.o.Q 6 O               X # # y p u y y # X                                     . c w.<XtXBXZXDXDXjXfXfXiXeX<Xd.>.3 > # o X @ 7 e t r r t t t t 0 6 6 q Y W T R ^ |  . .{ T E E { K.K.K.J.J.!.W.W.XX}.}.}.}.}.}.}.}.}.}.}.{.].].].'.[.`.`.[.Z.Z.Z.C.C.C.C.n.z.z.b.m.b.b.z.z.] ] ] ] ] ] ] ] ] ] ] ] ` ",
"H H H H H H 9 9 9 9 9 9 9 9 9 9 9 9 9 9 9 9 9 9 8 8 8 8 8 8 8 8 8 8 8 8 8 8 8 8 9 9 9 9 9 9 9 9 5 5 5 5 5 5 5 8 8 8 4 4 8 8 8 8 8 8 8 8 8 8 8 8 8 8 9 9 9 9 9 9 9 9 9 9 9 9 9 9 9 9 9 9 P P P P 9 9 9 9 H H H H 9 9 9 9 8 8 8 8 8 8 8 8 8 8 5 5 5 5 5 5 4 4 4 4 4 4 4 4 4 4 4 4 4 4 4 4 4 4 5 5 5 5 5 9 9 9 9 9 9 9 9 9 H H H H H H K K L L L L ) ) ) ) ' ' ' ' ' ' ' ' ' ' ' ' ' ' ' ' ) ) ) ) ' ' ' ' ' ' ' ' _ ' ' &XnXHXJXHXFXSXSXSXZXwX>XeXeXwX>XsXSXHXKXJXJXLXLXDXDXZXBXBXsXyXyX:X;Xd.u.w.D S B B B B n 1 < < > # # + + + O O O + O O O O O O X X + + O O                           X X X o o X X X X X X X X X X O O O O X X X # + # + + X X X X         O + + + 7 7 6 6 7 q p p p a Q ! ! ! ! ! / ^ Q Q W W W W W W ( W +.+.+.+.+.| ^ ^ T T T Y T T ~ | | | |  .$.$.$.$.$.$.$.Y.Y.<.^ Y q 5 6 6 @ @ + + o . X X     X + + + + + # # # # # # # # 7 7 7 7 7 # 6 q p d d d p < < d d d u u y p a ! o.o.@.%.%.U.Y.T.T.T.T.T.T.T.!.R.R.R.R.1.O.e O               X + # y u u y y # # + X X                                 A u.eXiXBXDXSXDXjXdXfXiXwXwXd.7.3 < # X X @ 7 t t r r r r r t 0 0 0 q Y W ^ ^ | +. .{ { T P T K.K.K.K.K.J.!.W.W.XX{.}.}.}.}.}.}.}.}.{.{.{.].'.'.[.[.`.`.D.Z.C.Z.C.C.n.C.n.z.z.z.z.z.z.z.z.] ] ] ] ] ] ] ] ] ` ] ` ` ",
"H H H H H H 9 9 9 9 9 9 9 9 9 9 9 9 9 9 9 9 9 9 8 8 8 8 8 8 8 8 8 8 8 8 8 8 8 8 9 9 9 9 9 9 9 9 5 5 5 5 5 5 5 8 8 8 4 4 8 8 8 8 8 8 8 8 8 8 8 8 8 8 9 9 9 9 9 9 9 9 9 9 9 9 9 9 9 9 9 9 H P P P 9 9 9 9 H H H H 9 9 9 9 8 8 8 8 8 8 8 8 8 8 5 5 5 5 5 5 4 4 4 4 4 4 4 4 4 4 4 4 4 4 4 4 4 4 5 5 5 5 5 9 9 9 9 9 9 9 9 H H H H H H H K K L L L L ) ) ) ) ' ' ' ' ' ' ' ' ' ' ' ' ' ' ' ' ) ) ) ) ' ' ' ' ' ' ' [ ) ' ( &XnXGXHXHXFXSXSXSXZXDXZXSXSXsXeXZXFXJXJXJXJXFXSXdXdXsXfXiXfXyXtX:X;Xd.u.w.S S B B N N n 1 < < > # # + + + O O O + O O O O O O X X + + O O                         X X X o o o o X X X X X X X X X X X X X X + # ; # # # # + + + + + +     O + + + 7 7 6 6 7 q p p p a Q ! ! ! ! ! Q Q W W r r r r Y W ( ^ ^ / ^ ^ ^ ^ ^ T Y Y Y Y T ~ ^ | |  . .$.$.$.J.J.Y.Y.Y.<.<./ W r q 5 # @ + o . . X X X X X X + + # # 7 7 7 7 7 7 7 7 7 7 7 q q q 7 7 + 6 w q w p w * * y d d d d u u a ! / o.@.@.%.K.Y.Y.T.T.T.T.T.T.!.R.R.R.1.1.o.e X                 X # y u < y y # # + + X                             . 3 d.j.fXBXSXSXSXDXjXdXsXiXtXwX;Xp.b 1 # X + @ 7 r t r r r r r q 0 6 0 q E ~ ^ | +.+. .{ { T T T K.K.K.K.K.J.Q.W.W.XX{.}.}.}.}.}.}.}.{.{.{.].'.'.[.[.[.`.`.D.Z.C.C.C.n.n.n.m.z.z.z.z.z.z.z.z.] ] ] ] ] ] ] ] ] ` ` ` ` ",
"H H H H H H H H H H 9 9 9 9 9 9 H H H H 9 9 9 9 9 9 9 9 8 8 8 8 8 8 8 8 8 8 8 8 9 9 9 9 9 9 9 9 5 5 5 5 5 5 5 5 8 8 5 5 8 8 8 8 8 8 8 8 8 8 8 8 8 8 9 9 9 9 9 9 9 9 9 9 9 9 9 9 9 9 9 9 H H P P 9 9 9 9 H H H H 9 9 9 9 8 8 8 8 8 8 8 8 8 8 5 5 5 5 5 5 4 4 4 4 4 4 4 4 4 4 4 4 4 4 4 4 4 4 5 5 5 5 5 5 9 9 9 9 H H H H H H J J H H K K L L L L ' ' ' ' ' ' ' ' ' ' ' ' ' ' ' ' ' ' ' ' ) ) ) ) ' ' ' ' ' ' ' [ ' I ( &XNXGXGXGXFXSXSXDXSXKXJXJXHXsXiXZXFXJXJXLXLXDXBXfXiXiXiXiXyXtXwX:X;Xd.t.7.S B N N N N N 1 < < > # # + X + O O X X + O O O O O O O O O O O + X                     X X X + # # o o o o o # o # - - - # ; ; ; ; y 1 e e e e # # # # # + X + X # # # # 7 6 6 7 q p p p a Q Q Q Q Q Q Q W Y r r r r r Y Y Y W ^ ( ^ ^ ^ E E E E E T Y ~ ^ |  .| $.$.$.Y.Y.Y.Y.Y.R.<.@.( ( r 7 q 7 # + + o o X . . X X X o + 7 y y p p p p p p p p p p p p p p y q 7 + 7 # w w # # * y d d d d u p a ! o.o.@.@.%.%.Y.Y.T.R.R.R.R.R.T.R.R.Y.<.<.=.p # X X X           X o < y ; y w # # # # + X                           X n >XwXhXZXSXDXDXjXhXsXfXiXtX7X=Xt.n < # X + @ 7 7 t r r r r t q 0 6 0 r E ^ | | +.$. .{ { { { | L.K.K.K.K.Y.T.W.W.XX{.{.}.}.}.}.{.{.{.{.].].'.[.[.[.`.Z.Z.Z.Z.C.C.C.n.n.n.m.z.z.z.z.z.z.z.z.] ] ] ] ] ] ] ] ` ` ` ` ` ",
"9 H H H H H H H H H 9 9 9 9 9 9 H H H H 9 9 9 9 9 9 9 9 8 8 8 8 8 8 8 8 8 8 8 8 9 9 9 9 9 9 9 9 9 5 5 5 5 5 5 5 8 8 5 5 8 8 8 8 8 8 8 8 8 8 8 8 8 8 9 9 9 9 9 9 9 9 9 9 9 9 9 9 9 9 9 9 9 H P P 9 9 9 9 H H H H 9 9 9 9 8 8 8 8 8 8 8 8 8 8 5 5 5 5 5 5 4 4 4 4 4 4 4 4 4 4 4 4 4 4 4 4 4 4 5 5 5 5 5 5 9 9 9 9 H H H H H H J J H H K K L L L L ' ' ' ' ' ' ' ' ' ' ' ' ' ' ' ' ' ' ' ' ) ) ) ) ' ' ' ' ' ' ' ' I ' I &XNXGXGXSXFXSXSXDXFXKXKXKXLXhXdXSXJXJXLXFXZXSXZXwX>X8XtXyXtXwXwX;Xj.d.t.7.S B m m N N b u < 1 < # # + X + O O X + + O O O O O O O O O O O + X                     X X X + # > < < 1 u u u d d s s i i s s s d u y p p y y e e e e 7 7 # # # 7 7 7 7 7 6 6 6 q p p p a Q Q a p p W W W r r q q t t r r Y Y E E E E E E E E E E T Y ^ ^ |  . .$.$.$.Y.Y.Y.Y.<.1.<.( r q 5 + 7 7 # + o o X X X . X X o + 7 7 p p a a ! ! ! ! ! Q Q Q ! ! ! ! a y 7 6 + + + + + # # * d d d d d p a ! ! o.o.@.%.%.K.K.U.T.R.R.R.R.R.R.R.1.1.<.<.a e # o X X X         o # < # y w # # # # # X                           o 7.pXdXFXSXSXjXjXhXsXfXiXtX8X>Xd.e.n < # + + @ 7 7 r r r r r t 0 0 6 0 r W ^ | +.$.$.#.{ { { J.J.Q.T.K.K.K.L.Y.W.W.XX{.{.}.}.}.}.{.{.{.].].].[.[.[.`.).Z.Z.Z.Z.C.C.C.n.n.m.m.z.z.z.z.z.z.z.z.] ] ] ] ] ] ] ` ` ` ` ` ` ",
"H H H H H H H H H H H H H H 9 9 9 9 H H H H H 9 9 9 9 9 9 9 9 9 9 9 9 9 9 9 9 9 9 9 9 9 9 9 9 9 9 9 9 9 9 9 5 5 5 5 5 5 5 5 5 5 8 8 8 8 8 8 8 8 8 8 8 8 8 8 9 9 9 9 H H H H H 9 9 9 H H H H 9 9 H H H H H H H H H H 9 9 9 9 9 9 8 8 8 8 8 8 8 8 5 5 5 5 5 5 5 5 4 4 4 4 4 4 4 4 5 5 5 5 8 8 8 8 5 5 5 5 9 9 9 H H H P P H H H H H H J K K L ) ) L L L L ' ' ' ' ' ' ' ' ' ' ' ' ' ' ' ' ' ' ' ' ' ' ' ' ' ' ' ' ) [ I 2XNXGXAXAXZXZXDXFXKXKXKXKXJXdXfXSXLXFXFXZXdXZXBXh.i.:X>XtXtXwX7X>Xg.s.t.w.D B m m N N b 1 < > - # # # + + O O O + O O + O O O O O O O O O                         . X X o < < u i u i i i s s x s i i i i d u u y y y p p y y y e e e e e 7 7 q 7 q 7 7 7 6 7 6 6 p p p y r q q q q q r r r r r r r r Y Y Y Y Y Y E E E E E E W T ^ | | | $.$.$.Y.Y.<.<.<.<./ W 5 5 5 5 6 7 7 # o o X X X X X X o o # 7 q Q ! ! Q o.o.o.o.o.o.o.o.^ ^ ^ ^ Q p p q 7 + + . . . o # d d d d d p p a Q o.o.@.%.%.%.%.1.Y.Y.Y.R.R.R.R.1.1.<.=.=.p 7 # < < < < * . X . o o o # o o # # # # # # # o X                     o 7.mXZXFXFXDXjXdXfXgXiXeXtX:Xg.a.r.B d y # + @ 7 r t r r r t 7 0 6 6 q Y W ^ | +.$.$.+. .|  .T.Q.!.Y.K.K.K.Y.Y.W..X.X{.{.{.{.{.].].].].].].].[.`.`.`.`.).Z.Z.Z.Z.C.C.c.n.m.m.z.z.z.z.] ] ] ] ] ] ` ` ` ` ` ` ` ` ` ` ' ",
"H H H H H H H H H H H H H H 9 9 9 9 H H H H H H 9 9 9 9 9 9 9 9 9 9 9 9 9 9 9 9 9 9 9 9 9 9 9 9 9 9 9 9 9 9 5 5 5 5 5 5 5 5 5 5 8 8 8 8 8 8 8 8 8 8 8 8 8 8 9 9 9 9 H H H H 9 9 9 9 H H H H 9 9 H H H H H H H H H H 9 9 9 9 9 9 8 8 8 8 8 8 8 8 5 5 5 5 5 5 5 5 4 4 4 4 4 4 4 4 5 5 5 5 8 8 8 8 5 5 5 5 9 9 9 H H H P H H H H H H H J K K L ) ) L L L L ' ' ' ' ' ' ' ' ' ' ' ' ' ' ' ' ' ' ' ' ' ' ' ' ' ' ' ' [ [ ' 2XNXCXMXyXeXsXDXJXKXKXKXKXLXsXfXJXKXLXDXfXfXdXfXu.q.d.;X7X7X7X>X:Xg.s.t.e.>.Z N N N b i < > # # + + X X + O O + + O O + O O O O O O O O O                         X X X o 1 u d i i i s s M M M M s s s s s d u u y y p p y y y y e y e y y y y q q q q q 7 7 7 7 q q q q q q q 7 q q r r r r r r Y Y Y Y Y Y Y Y E E E E E E W ^ | | @.$.$.<.<.Y.Y.<.<.@./ W 5 5 4 5 5 7 7 # # o o X X X X X X o # # 7 p ! ( / / o.o.o.@.@.o.o.=.@.@.@.+./ ! Q a w # + . . . . . y d d y p u p a Q Q o.o.@.%.%.%.<.<.Y.Y.R.1.1.<.<.<.=.=.! 7 + # u u u u 2 1 > o . o o o # # # # # # # # # o X                     m ;XDXFXFXDXjXdXsXiXiXeX8X>Xi.y.D D 1 d u # + @ 7 t r r r r t 7 6 6 6 q Y ^ ^ | +.$.#.#.#.#.$.T.!.T.Y.K.K.K.Y.W..X.X[.].{.{.{.].].].].].].].].[.`.`.`.`.).Z.Z.Z.Z.C.C.c.n.m.m.z.z.z.z.[ ` ` ] ] ] ' ` ` ` ` ` ` ` ` ` ' ",
"H H H H H H H H H H H H H H H H H H H H H H H H 9 9 9 H 9 9 9 9 9 9 9 9 9 9 9 9 9 9 9 9 9 9 9 9 9 9 9 9 9 9 5 5 5 5 5 5 5 9 9 9 8 8 8 8 8 8 8 8 8 8 8 8 8 8 9 9 9 9 H H H H H H 9 H H H H H 9 9 H H H H H H H H 9 9 9 9 9 9 9 9 8 8 8 8 8 8 8 8 5 5 5 5 5 5 5 5 5 5 5 5 5 5 5 5 5 5 5 5 8 8 8 8 5 5 5 5 9 9 9 H H H H H H H H H H H K K L L L L L L L L ' ' ' ' ' ' ' ' ' ' ' ' ' ' ' ' ' ' ' ' ' ' ' ' ' ' ' ' ] ] [ oX-XrXpX;X>XfXDXJXJXKXKXKXLXdXfXLXJXFXZXiXiXfXyXq.0.y.d.<X<X>X:X:Xg.s.t.e.>.Z N N N b 1 < # # # X X + + + O O + + O O + O O O O O O O O O                         X o o o > < u i u i i i s s x x i i i i d u y y y y y y y y y y y y e e y y y 7 p q q q y y y 7 q q q q q q q 7 q r r r r r r r Y Y Y Y Y Y Y Y Y Y E E W W W ^ ^ / @.@.<.<.$.$.@.<./ W q 5 5 5 7 q q q w w * * o . X X X X X . # w w a ! / o.o.o.o.o.@.%.<.<.<.<.<.%.%.@.o./ ! p 7 + . . . . . * < * * y p y p a Q Q +.@.%.%.%.<.<.<.<.<.%.%.<.<.o.O.O.! e # e d i i b b 2 1 < o # # # # # # # # # # # # + X               X o > d.rXAXDXZXBXdXsXfXiXeXwX:Xj.y.>.Z B 1 u y # + # 7 t r r r r t 0 6 6 q r W ^ ^ | +.$.$.#.J.K.Y.!.!.T.L.K.K.K.Y.!..X.XXX].].].].].].].].].].[.[.[.[.[.`.).).Z.Z.Z.Z.C.N.c.n.m.m.z.z.z.] [ [ [ [ [ [ ' ' ' ' ' ' ` ` ` ` ' ",
"H H H H H H H H H H H H H H H H H H H H H H H H 9 9 H H 9 9 9 9 9 9 9 9 9 9 9 9 9 9 9 9 9 9 9 9 9 9 9 9 9 9 9 5 5 5 5 5 5 9 9 9 8 8 8 8 8 8 8 8 8 8 8 8 8 8 9 9 9 9 H H H H H H H H H H H H H 9 H H H H H H H H 9 9 9 9 9 9 9 9 8 8 8 8 8 8 8 8 5 5 5 5 5 5 5 5 5 5 5 5 5 5 5 5 5 5 5 5 8 8 8 8 5 5 5 5 9 9 9 H H H H H H H H H H H J H K K L L L L L L ' ' ' ' ' ' ' ' ' ' ' ' ' ' ' ' ' ' ' ' ' ' ' ' ' ' ' ' ] z.] ..p 4XrXu.q.8XBXJXJXJXKXKXJXjXsXDXSXSXDXfXiXfXyXq.F 6.u.:X>X>X:X:Xg.s.a.e.,.Z N n b i < > # o X X + + + + O + + + O O + O O O O O O O O O                         X o o o o # > < 1 < < u u u u u u u u u y 1 # # # # e e ; ; y y y y y y y y y q p q q q p p p y 7 7 7 7 q q 7 q q r r r r r r r W W W Y Y Y Y Y Y Y W W W W W W ^ ( / @.@./ ( ( W J q 4 4 5 5 q q q q 7 w w * * o . . . . . . o # w p a / / o.o.o.o.o.@.<.<.<.<.<.<.<.1.<.<.<.=.! 7 + + . . . . . * * * w w y y p a Q o.o.%.<.<.<.<.<.1.<.@.@.o.o.O.! ! p + X o d i b M i 2 1 1 * * * * o # # # # # # # # + X               o > v <XyXsXfXsXdXsXfXyXeXwX>Xu.7.A l 1 i X # # + + @ 7 q r r r r t 6 6 6 r Y W W ^ | +.$.$.J.K.T.Q.!.!.T.L.L.K.K.Y.!.2XzX.X[.].].].].].].].[.[.[.[.[.`.`.`.).Z.Z.Z.Z.C.C.c.c.c.m.m.z.z.z.] [ ' [ ' [ [ ' ' [ [ ' ' ' ` ` ` ' ",
"H H H H H H H H H H H H H H H H H H H H H H H H H H H H H H H H 9 9 9 9 9 9 9 9 H H H H 9 9 H H 9 9 9 H H H H 9 9 9 9 9 9 9 9 9 8 8 8 8 8 8 8 8 8 8 8 8 8 8 9 9 9 9 H H H H H H H H H H H H H H H H H H H H H H H H 9 9 9 9 9 9 9 9 9 9 9 9 5 5 5 5 5 5 5 5 5 5 5 5 5 5 5 5 5 5 5 5 5 5 8 8 8 8 5 5 5 5 9 H 9 9 9 H H H H H H H H H H H H K K L L L L L L L L L ' ' ' ' ' ' ' ' ' ' ' ' ' ' ' ' ' ' ' ) ' ' [ [ ] z.] [ / -X4Xa.6.j.iXHXFXJXKXJXHXBXsXsXBXSXZXfXdXfXwXq.6.6.i.;X;X:X:Xj.d.s.t.e.>.S N N b u < > o o X X + + + + + + + + O O O O O O     X X X X + + X                   X X X X o o - < > > < < 1 1 < < u < - - - # o o o # # ; ; e e e y y y y r r e e p p p p p p p p q q q q p W W r W q r q r r Y W ( W W W W W W Y Y W W W W W Y Y W ( ( Q W r q 5 5 5 6 6 6 5 w w w w w w 7 w * # $ $ % % * % o * < y d ! ! / o.o.o.o.@.%.%.%.%.<.<.<.<.<.<.<.<.<.o.a 7 + .   . . . . # # * * y e e p W Q o.@.@.<.<.<.<.<.<.o.o.! ! s p e # X     < i j b i i u 1 > > * * * * w w # # # # # # # #             o S g.yXfXfXsXsXdXfXiXyXwX<X;X7.S c 1 > # + + + O # 6 q r r r q t q 6 6 q r W W ^ ^ | +.+.$.J.Y.T.T.!.Q.Y.J.T.T.Y.Y. XzXzX.X).[.[.[.[.[.[.[.[.[.`.[.`.`.`.`.Z.Z.Z.Z.C.C.C.c.c.c.c.x.z.z.] ` [ [ [ [ [ [ [ [ ' ' ` ' ' ' ' ' ` ",
"H H H H H H H H H H H H H H H H H H H H H H H H H H H H H H H H 9 9 9 9 9 9 9 9 H H H H 9 9 H H 9 9 9 H H H H H 9 9 9 9 9 9 9 9 8 8 8 8 8 8 8 8 8 8 8 8 8 8 9 9 9 9 H H H H 9 9 H H H H H H H H H H H H H H H H H H 9 9 9 9 9 9 9 9 9 9 9 9 5 5 5 5 5 5 5 5 5 5 5 5 5 5 5 5 5 5 5 5 5 5 8 8 8 8 5 5 9 9 H H 9 9 9 9 9 9 9 9 9 9 9 9 H H H H K K L L L L L L L ) ' ' ' ' ' ' ' ' ' ' ' ' ' ' ' ' ' ' ' ) ' ' [ [ ] z.z.[ ~ *X4Xp.y.j.eXZXFXJXJXJXSXdXfXfXsXsXdXZXDXfXwXi.6.6.u.j.;X:X;Xg.d.a.r.>.>.Z N M b u < # o X X X + + + + + + + + O O O O O O     X X X X + + X                   X X X X X o o - # # # o o o o o # o o o o o o X X X # # # ; e e y y y y r r e e p p p p p p p p p p p p W W W r Y q r q r r W W W W W W W W Y Y Y W W Q W W r r r r r r 5 6 6 O 6 6 7 7 7 7 w w w w w w 7 # * # * * % % * * * * y p a ! ! / o.o.o.o.@.%.%.%.%.<.<.<.<.<.<.<.<.<.<.! p 6 O     . . . . # * * # 7 7 r p Q o.o.o.=.=.=.=.=.o.o.! a p p e + X       # d i b i 1 1 1 > > > * * * * * # # # # # # # # + X       N d.7XtXmXmXBXZXdXdXiXyXwX:Xd.t.m c 2 > # X + + X # 7 q p r r r q 7 6 6 6 q Y W ~ ^ ^ | | +.$.J.Y.T.Q.!.T.L.J.Y.T.T.T.@XzXzX.X)._.[.[.[.[.[.[.`.`.`.`.D.Z.Z.Z.Z.Z.Z.C.C.C.c.c.c.c.z.z.z.] ] ` ] [ [ [ [ [ [ [ ' ' ' ' ' ' ' ' ` ",
"H H H H H H H H H H H H H H H H H H H H H H H H H H H H H H H H 9 9 9 9 9 9 9 9 H H H H 9 H H H H H H H H H H H 9 9 9 9 9 9 9 9 8 8 8 8 8 8 8 8 8 8 8 8 8 8 9 9 H H H H 9 9 9 9 H H H H 9 9 H H H H H H H H H H H H 9 9 9 9 9 9 9 9 9 9 9 9 5 5 5 5 5 5 5 5 5 5 5 5 5 5 5 5 5 5 5 5 5 5 8 8 8 8 5 5 5 9 H H 9 9 9 9 9 9 9 5 5 5 5 9 9 H H H K K L L L L L ) ) ) ' ' ' ' ' ' ' ' ' ' ' ' ' ' ' ' ' ' ' ' ' ' [ [ ` ] ] [ U *X4Xa.y.i.>XDXDXJXJXJXFXsXiX8XwXfXBXAXDXsXeXh.6.6.i.j.j.;X;Xd.d.t.e.>.>.Z n M b u 1 # o X X X + + + + + O + + O O O O O O         X X + + +                   X X X X X X o o o o o o o X X o o o X X X o o X X X # # # ; e e e y p y p r p p p p p p p p p p p p p W W W W p W Y Y r r r Y W W Y Y Y Y Y Y Y Y W Q Q W p r 7 7 7 5 6 O O + + # 7 7 7 e e e y w w w * < # * * * < < < < < < < p d ! / ! / o.o.o.o.@.%.%.%.%.%.<.<.Y.Y.Y.Y.Y.1.<.o.p 6 O           . . # # # # 7 e r Q Q O.O.=.=.=.O.! ! Q p p e # X           . > i j i 1 1 < > > * * * * * * # # # # # # # # < X X o o p.1XrXyXmXBXhXZXdXsXyXyX<X;Xp.S 3 1 > o + X + + # 6 q p p r r q 7 6 6 6 6 q Y ~ ( ^ ^ ^ |  .+.J.K.L.T.!.T.L.J.T.T.T.T.2XxXzX.XZ.).).).[.[.[.[.`.`.D.D.D.Z.Z.D.Z.Z.A.A.C.n.c.c.c.c.z.z.z.] ] ] ] ] ] ] ] ] ] ] ` ` ` ` ' ' ' ' ` ",
"H H H H H H H H H H H H H H H H H H H H H H H H H H H H H H H H 9 9 9 9 9 9 9 9 H H H H H H H H H H 9 9 H H H H 9 9 9 9 9 9 9 9 8 8 8 8 8 8 8 8 8 8 8 8 8 8 9 9 H H H H H H H H H H H 9 9 H H H H H H H H H H H H H H H H H H H 9 9 9 9 9 9 9 5 5 5 5 5 5 5 5 5 5 5 5 5 5 8 8 8 8 8 8 8 8 8 8 8 9 9 9 9 H H 9 9 9 9 5 5 5 5 5 5 5 5 9 H H H K K L L L L L ) ) ) ' ' ' ' ' ' ' ' ' ' ' ' ' ' ' ' ' ' ' ' ' ' [ [ ` ] ] [ W *X4X%Xy.G q.fXZXJXJXHXHXsXeXq.i.8XpXmXmXaXyXh.q.q.d.>Xj.;Xj.d.s.t.e.D ,.B n M i 1 > # X X X X O + + + O O + + O O O O O O             + + +                     X X X X X X o o o o o o o o o # o X X X o o o # # ; ; < < e e e y y y p p p p p p p p p p p p p W W W W W W r W q r q r r Y W Y Y Y Y Y Y Y Y Y W Q Q W p r 7 @ @ # @ + + + # # 7 7 # ; ; < < * * * # < # * < < < 1 1 < 1 < y d a ! / / / o.o.+.+.@.@.%.%.%.%.1.1.Y.Y.Y.Y.Y.Y.<.@.Q q O             . . . + + # 7 e p Q ! O.O.O.! ! ! a p y # + X               # 1 i 1 1 < < * * * * * * * * # # # # # # # # #   o b p.9XrXMXmXZXZXZXdXsXaXtX>X=Xa.:.n > > X X + + + @ 6 q p p p r r 7 6 6 6 6 6 q Y ~ ^ ^ ~ ^ R |  .+.J.K.T.T.Y.J.J.Y.T.T.W.2XxXzX.XZ.Z.Z.).[.[.[.[.`.`.D.Z.Z.Z.Z.Z.Z.A.A.A.n.c.c.m.x.z.z.z.] ] ] ] ' ' ' ` ' ' ' ' ` ` ` ` ` ` ` ` ` ",
"H H H H H H H H H H H H H H H H H H H H H H H H H H H H H H H H H H H H H H 9 9 H H 9 9 H H H H H H H H H H H H H H H H H H H H H H H H H H H H H H H H H H H H H H H H H H H H H H H H H H H H H H H H H H H H H H H H H H H H H H H H H H H 9 5 5 5 5 5 5 5 5 5 5 5 5 5 9 9 9 9 9 9 9 9 9 9 9 9 9 9 9 H H H H 9 9 5 5 5 9 9 9 9 5 H H H H K K L L L L L L L ) L L L L ) ) ) L L L L L ) ) ) ) ' ' ' ' ' ' ' ' ] ] ` ' ~ 4XrX%X6.6.0.tXZXHXJXJXHXeX8X6.0.g.wXaXaXaXyX:Xj.h.j.;X;X;Xg.d.a.r.7.D B B N N i u ; # X X X X X X X + + + + + + + +   + +         O O         O O                   X X X o - - < 1 1 1 1 1 - # o X X o # - ; ; y y y p y y y p y y y p p p p p p p p p p p p W W W W Y Y Y r q r r q q q r r W W W W W W W W W W Q W p r e 7 # @ @ X + + + # # # # # # # * * y y y y y 7 * y d d 2 h 2 2 1 u u a ! ( / o.o.+.+.@.@.%.%.%.%.%.K.Y.Y.R.Y.R.R.R.1.<./ r 6 O               X X + X + # 7 p d s s s d d p y # + X                 . . o o < < < < * * # # # # w y y y y y w # # o o < 2 >.u.tXaXBXAXZXZXBXsXpXyX>X1Xd.p.B 2 > o X X + O O 4 5 q y p p r 7 6 6 6 6 6 6 q q ( ^ ^ | | { { |  .#.J.Y.T.K.#.$.K.T.Q.Q.2XcXzX.X[.).[.).`.`.`.`.`.`.D.D.Z.Z.Z.Z.C.A.A.C.C.C.n.n.n.z.z.z.] ] ] ] ] ] ] ] ] ] ] ] ] ] ] ` ` ` ` ` ` ",
"H H H H H H H H H H H H H H H H H H H H H H H H H H H H H H H H H H H H H H 9 9 H H 9 9 H H H H H H H H H H H H H H H H H H H H H H H H H H H H H H H H H H H H H H K K H H H H H H H H H H H H H H H H H H K K K K K K H H H H H H H H H H H H 5 5 5 5 5 5 5 5 5 5 5 9 9 9 9 9 9 9 9 9 9 9 9 9 9 9 9 9 H H H H 9 9 9 5 5 9 9 9 9 9 H H H H K K L L L L L L L ) L L L L ) ) L L L L L L ) ) ) ) ' ' ' ' ' ' ' ' ] ] ` ' ~ 4XnX=Xs.6.G >XaXJXJXHXSX8Xj.G G 0.j.tXyXyXyX8X>X>X;X:X;Xj.d.s.t.e.>.D B N N M i < - # X X X X X X X X + + + + + + +   + +         + +                         X X X o X o - > u i i x i u 1 - ; # X X o - < y y u u u u u u p p y p y p p p p p p r r r r p p Y Y W W Y Y r r Y Y Y Y r r q q q Y W W W W W W W W W r q 7 7 @ # # + + X X o o # # # # # # w * e y e y y 7 * y j j h j h 2 1 d p a ! ( / o.+.+.+.+.%.%.%.%.%.%.K.Y.K.R.U.R.R.R.1.<.o.a 7 +                   X + X + # # y p u p y e # + X O                     X o o * > > > o o o # # # y y y y y y + + o X X b S d.j.yXsXZXDXBXdXsXpXwX>Xd.d.>.D 3 1 - o X + + 5 5 6 5 q p p p 7 6 6 6 6 6 6 0 q q ^ | | | | | { { | +.$.K.K.+.{  .K.T.T.!.zXcXzX.X[.).[.[.`.`.`.`.`.`.D.Z.Z.Z.C.C.C.C.C.C.C.N.C.n.n.x.z.z.z.] ] ] z.z.z.z.z.z.z.z.z.z.z.] ] ] ] ] ] ",
"H H H H H H H H K H H H H H H H H H H H H H H H H H H H H H H H H H H H H H H 9 H H 9 9 H H H H 9 9 H H H H H H H H H H H H H H H H H H H H H H H H H H H H H H K K K K K K K H H H H H H H H H K K K K J K K K K K K K H H H H H H H H H H H H 9 5 5 5 9 9 9 9 9 9 9 9 H H H H H H H H H H H H H H H H H H H H 9 9 9 9 9 9 9 9 9 9 H H H H K K L L L L L L ) ) L L L L L ) L L ) ) L L ) ) ) ) ' ' ' ' ' ' ' ' ] ] ` ' ( 4XnX%Xa.0.6.j.yXJXJXSXDX8Xh.G G G i.wXtXwXyXeXwX<X>X:Xj.d.s.t.r.7.>.Z n n b z i 1 - # X X X X X X X X + O + + + + X X + X     + + + +             X   X X X X X o o # - > 1 u z x x x x i u 1 ; ; ; ; - < y u u u u u s d d p p p p p p p p p p p r r r r r r r r r r r r r r Y Y Y Y Y Y q 6 q q q r r p r r p p q 7 5 6 # # + + X X + + + + + + # # # # y y y y y y y 7 w y j j j j j h 1 d d a ! ( / +.o.+.@.@.%.%.%.%.K.K.K.K.Y.R.R.U.R.R.R.<.@.Q r #                       X X X + # # e ; # + X O                         . X . * * * * # # # # # # y y y y e # < # o o o B D ;XwXaXmXBXZXmXaXiXyX>X:Xa.r.D B < > o X X # 6 5 5 5 q q q q q 7 @ @ @ 6 6 6 0 q q ^ | | | | | R { {  .+.$.$.{ T T $.K.T.!.2XcXzXXX[.[.[.[.[.[.`.`.`.`.D.Z.Z.Z.Z.Z.Z.Z.Z.Z.C.N.C.C.C.c.x.z.S.b.b.b.b.x.z.x.z.z.z.z.z.z.z.z.z.z.z.z.z.",
"H H H H H H H H K H H H H H H H H H H H H H H H H H H H H H H H H H H H H H H H H H 9 9 9 H H H 9 9 9 H H H H H H H H H H H H H H H H H H H H H H H H H H H H H K K K K K K K K H H H K K K K K K K K K K K K K K K K K K H H H H H H H H H H H 9 9 9 9 9 H H H H H H H H H H H H H H H H H H H H H H H H H H H 9 9 9 9 9 9 9 9 9 H H H H K K K L L L L L L ) ) L L L L L L L L ) ) L L ) ) ) ) ' ' ' ' ' ' ' ' ] ] ` [ I cXIX9Xs.s.y.i.k.SXSXKXDXeXj.G 6.0.i.tXtXwXtXwXwX7X>X;Xg.d.u.y.r.7.D B n n b z i 1 - # X X X X X X X X O O + + + + X X X X     + +   +             X   X X X X o o o # > 1 u i i z x x x x u u ; ; ; ; - 1 u u s s s s s s d d p p p y p p p p p p p r q q r r r r r r r r Y Y Y W W W W r q 6 6 6 7 q q q q q q 7 6 @ # # # + + X X X + + + + + + + # # # y y y y y y p 7 w y j M V V V j i d d a ! ( / +.o.+.@.%.%.%.%.%.K.K.K.K.R.R.U.U.R.R.R.1.%.Q p 6 +                         O X + # # + X O O                             . . # # # # # # # # # # y y y y p p u u 1 1 c a.;XuXaXBXsXsXpXyXtXwX>Xg.a.:.Z 2 1 > # o X # 6 7 q q q q q q q 5 @ O O @ 6 6 6 0 q J | | | | | { R R R | +.$.+.T E T  .K.Q.~.2XxX2X[.[.[.[.[.[.`.`.'.`.`.`.).Z.Z.Z.Z.Z.Z.Z.Z.B.B.C.C.N.N.c.x.n.n.n.n.S.x.n.n.x.x.x.n.n.n.n.n.m.m.m.b.b.",
"H H H H H H K K K K J J K K K K K K K K K K K K K K H H H H H H H H H H H H H H H H H H H H H H H H H H H H H H H H H H K K K K K K K K K K K K K K K K K K K K K K K K K K K K K K K K K K K K K K K K K K L L K K K L K K K K K K H H H H K H H H H H H H H H H H H H H H H H H H H H P P P H H H H H H H H H H H 9 9 9 9 9 9 9 H H H K K L L L L L L L L L L L L ) ) ) ) L L ) ) L L ) ) ) ) ' ' ' ' ' ' ' ' ] ] ] ] ' 3XnX4X%Xd.i.u.i.AXHXFXAXyX>X0.G 0.g.tXwXwX8X8X7X7X>X;Xj.s.t.t.e.>.D m n b z z i 1 - X X X X X X X X X O O O O + + + X + + + + +         O + +     X X X X o + o # # - 1 1 u i x x x x x x u 1 ; ; ; ; ; y u u s s s s d u d p p p r e 7 7 7 7 p p p p p r r r q r r W Y W Y Y W W ( ^ W W r 6 6 6 6 6 6 7 7 7 7 # # # + + + + + + + + + o o X + + + + # # p p p y y y y w w * j N V V V b i d d a ! ! / o.o.+.@.@.%.%.%.%.K.K.%.%.K.K.K.K.R.Y.R.Y.<.o.p 6 O                           X X + + X X X X   O                       . . . + # # # * * # # # 7 7 7 d d p u u s 1 Z ,.,XrXMXVXBXmXaXpXtXwX>X:Xd.e.S b i 1 - + X # q q q p p p r p q 6 4 O O O O 6 6 6 0 Y Y | |  . .| { R T T  .+.$.#.{ T T  .Y.~.@X@XzX.XW.[.[.[.[.].'.'.`.`.`.`.).`.`.`.`.`.`.`.`.).).Z.Z.Z.Z.C.M.c.c.n.n.n.n.n.n.n.n.n.n.x.x.x.n.m.m.c.c.c.",
"H H H H H H H H K K J J K K K K K K K K K K K K K K H H H H H H H H H H H H H H H H H H H H H H H H H H H H H H H H H H K K K K K K K K K K K K K K K K K K K K K K K K K K K K K K K K K K K K K K K K K K L L K K K K K K K K K K H H H H K K H H H H H H H H H H H H H H H H H H H H H H P P H H H H H H H H H H 9 9 9 9 9 9 9 H H H K K L L L L L L L L L L L L L L ) ) L L ) ) L L ) ) ) ) ' ' ' ' ' ' ' ' ] ] ] ] ..Y.1.*X%Xd.s.u.i.AXGXGXDXyX>Xq.G q.j.tXtXwX8X>X>X>X>X;Xg.s.r.r.e.:.S n b b z i u 1 # o X X X X X O O O O O O O + + + + + + + + + X       O + +     X X X X o + o # # - 1 u u i i i i i u u 1 - o o o # ; 1 y u u u u u u p p p p r e 7 7 7 7 7 p p p p r r r r q r W W W W Y E W W ( / / o.Q r 6 6 6 # 7 # # # + + + + + + + + + + + X o o o + + + + + # # y u p p p y y w w * j V C C V V j i d d Q ! / o.o.+.@.@.%.%.%.%.K.K.%.K.K.K.K.%.K.Y.R.Y.<.o.p 6 O                               O X X X X X O O   X . .             . .     X + # # # # # # 7 7 7 7 p p p u d z n a.1XMXmXVXmXmXaXaXtXrXrX;Xd.e.;.b < - # + X # 6 q p W W W W W p 5 6 O O O @ @ 6 0 0 r Y ~ | |  . .| { R T R  .+.$.#.{ R T +.Y.2X2X2XzX.XW.[.'.].].].'.'.'.`.`.`.`.`.'.'.'.'.'.'.'.].].`.`.).).Z.Z.C.c.c.c.c.c.c.c.c.n.n.n.c.x.n.n.n.m.m.c.c.",
"H H H H H H H H K K K K K K K K K K K K K K K K K K H H H H H H H H H H H H H H H H H H H H H H H H H H H H H H H H H H K K K K K K K K K K K K K K K K K K K K K K K K K K K K L L L L L L L L L L L L L L L L L L L L L L L L K K K K K K K K H H H H H H H H H H H H H H H H H H H H H H H H H H H H H H H H H H 9 9 9 9 9 9 9 H J J K K L L ) L L L L L L L L L L L ) L L L L L L L ) ) ) ) ' ' ' ' ' ' ' ' ] ] ] ` ....X.*X%Xs.s.u.i.AXSXSXSXiX8Xq.6.i.:XyXtXwX>X:X:X>X:X;Xd.u.w.w.7.D Z b b z i u 1 < # o X X X X X O O O X X O O + + + + + X + + +                   X X X X X + o # # - y u i i u u u u u u 1 - o o o # - < y u y y y y y y e e e e 7 7 7 7 7 7 r r r r p r r r r r Y W W E E Y E W ( / ! O.! e # # # # # # + + + o o o o o o o o X X X o o o + + + + + # w p d p p p y y y w * i M C C m V j i d s a ! / o.+.+.@.%.%.%.%.%.%.%.%.%.K.K.K.K.R.Y.1.1.1.<.Q q +                                   X X X X     X X X X X X                   + + # # # + + 7 7 7 7 u u p u d b ;.;X9XMXMXMXsXaXaXpXyXtX7X%Xe.;.b < o o + + # 7 q q r W W W W W r 6 6 6 O O 6 7 0 q r Y W ^ |  . . . . .R R R  .+.$.+.| { T %.R.2X2X2X2X.XW.[.'.].].].].].].[.[.[.'.'.'.'.'.'.'.].{.{.{.{.].].].[.).Z.Z.Z.C.C.C.C.c.C.c.C.C.c.c.n.n.c.n.n.c.c.",
"H H H H H H H H K K K K K K K K K K K K K K K K K K H H H H H H H H H H H H H H H H H H H H H H H H H H H H H H H H H H K K K K K K K K K K K K K K K K K K K K K K K K K K K K L L L L L L L L L L L L L L L L L L L L L L L L K K K K K K K K H H H H H H H H H H H H H H H H H H H H H H H H H K K K H H H H H H H H H H H H H H J K K K L L ) L L L L L L L L L L L ) ) L L L L L L ) ) ) ) ' ' ' ' ' ' ' ' [ ] ` ` ..I X.*X%Xd.s.y.u.BXSXSXSXiX8Xq.q.j.wXaXtXwX>Xj.j.>X:X:Xd.t.w.w.7.D B b z i i u 1 < # o X X X X X O O O X O O O + + + + X X + + +                   X X X X X o o # # - u u i x u u u u z i u y ; ; ; ; ; ; y y 1 ; ; ; ; # # 7 7 7 7 7 7 7 7 7 7 q q q r r r r r r Y Y W W Y Y W W ( / p p r # # # # + # # + o o X o o X X o o o X + + o o o + + + + + # w p d p p p y y y w * 2 M C S C n b i d d d a ! o.+.+.@.@.%.%.%.%.%.%.%.%.K.U.U.U.Y.Y.Y.1.1.<.! r # O                                   X X X X X X o . + X X X X                 + + + + o o # # # # y y y < M S e.<XrXpXpXpXpXiXyXpXyX<X=X>.S b < # X . + # 6 q q q W W W W W W q 5 4 6 6 6 0 7 q t Y W ^ | |  . .+.+. .| { |  .$.$.+.| R E K.~.&X2X@X2XW.W.[.].].].].].].].].].].].].{.}.}.}.}.}.}.}.}.}.}.{.{.].'.).Z.A.A.Z.Z.C.A.C.C.M.N.M.c.C.N.N.n.n.c.c.",
"H H H H K K K K K K K K K K K K K K K K K K K K K K K K H H H H H H H H H H H H H H H H H H H H H H H H H H H H K K K K K K K K K K K K K K K K K K K K K K K K L L L L L L L L L L L L L L L L L L L L L L L L L L L L L L K K K K K K K K K K H H H H H H H H H H H H H H H H H H H H K K K K K K K K K K K K H H H H H H H H K K L L L L L L ) ) ) ) ' ' ' ' ' ' ' ' ' ' ' ' ' ' ' ' ' ' ' ' ' ' ' ' ' ' ' ' [ ] ` [ [ ( / $X%Xd.s.y.q.BXSXDXAXaXwXi.i.wXyXyXyX>X>Xj.;Xj.j.j.d.t.w.w.>.S B n z i i u u < # o X X X X + + + + X X @ @ @ @ X # O O O O X             + + + X X X X X X X o o # < u d s u u s s x x s s s y ; - ; 1 y y e 7 # # @ @ @ 6 6 7 7 7 7 q q q q q r r Y Y Y r Y Y Y Y Y W ^ W ^ ^ W r q 7 6 # # # # # # # o X X X X X o o o . . + # # # # # # 7 # 6 6 y e e e p p p e e 7 * * < V S S C V j i d d u s ! o.o.+.@.@.%.%.%.%.%.%.%.%.K.K.K.K.R.Y.Y.<.1.<.! p #                                   X . . o o o o o o o * < * o X X         O O     X X X X # y o y ; u d u c e.a.=X;XwXwXyXpXpXpXuXrX;Xa.Z b < o o X + + O 6 q q Y Y W W W E Y 0 6 4 6 6 0 q q t Y E ^ |  . . .+.+.+.+.#.#.#.#.K.%.$.| R R Y.~.@X2X XW.W.A.[.].].].].].].].].].{.{.}.}.}.}.}.}.}.}.}.}.}.}.}.}.].].).).Z.Z.Z.Z.Z.Z.C.Z.Z.Z.Z.C.C.C.N.N.N.C.N.",
"H H H H K K K K K K K K K K K K K K K K K K K K K K K K H H H H H H H H H H H H H H H H H H H H H H H H H H H H K K K K K K K K K K K K K K K K K K K K K K K K L L L L L L L L L L L L L L L L L L L L L L L L L L L L L L K K K K K K K K K K H H H H H H H H H H H H H H H H H H H H K K K K K K K K K K K K H H H H H H H K L L L L L L L L ) ) ) ) ' ' ' ' ' ' ' ' ' ' ' ' ' ' ' ' ' ' ' ' ' ' ' ' ' ' ' ' [ ` ` [ [ ....&X%X%Xd.y.q.ZXSXDXHXZXfX:Xj.yXMXMXyX>X>Xj.;Xj.j.j.d.u.e.w.>.:.B n b i i d u < # o + + + + + + + + # # 6 # @ @ @ @ O O O O +             + + + X X X X X X X X X o # ; u u i s M =.M M M M s s u 1 < < y p y e 7 7 @ @ @ @ @ 6 7 q q q r r r r r r Y Y Y Y Y Y Y Y Q / / Q Q W r q 7 7 # # # # # - # o o X X X X X o . o + + # # w 7 7 w w y y y w p p y y y e e e 7 7 * * > j C S C V V j i d u s ! o.o.o.@.@.%.%.%.%.%.%.%.%.K.K.K.K.%.1.<.<.<.<.! p #                           X X . X o o o o o # # o o o * < * # + + O       O   .   . . X . X 1 < z -.,.p.%X%Xd.t.D F g.:X7XrXrXrX<X1Xa.:.< < o o X X + O O 6 q Y W W W W W Y q 6 4 4 6 0 0 t t Y E ^ |  .+.$.$.$.$.#.#.$.$.H.J.K.K.$.+.| { T.~.@X@X2X.XA.A.[.[.].].].].].{.{.{.}.}.}.}.kXkXkXkXkXkX}.}.}.}.}.}.{.].`.`.`.Z.Z.Z.Z.Z.Z.Z.Z.Z.Z.Z.C.C.C.C.C.C.C.",
"H H H H K K K K K K K K K K K K K K K K K K K K K K K K K K J J J K K K K K K H H H H H H H H H H H H H H H H H H H K K K K K K K K K K K K K K K K K K K K K K L L L L L L L L L L L L L L L L L L L L L L L L L L L L L L L L K K K K K K K K J J K K K J H H J J J J J J J J J J J J K K K K L L K K K K K K K K K K H K K K K K L L L L L L ' ' ' ' ' ' ' ' ' ' ' ' ' ' ' ' ' ' ' ' ' ' ' ' ' ' ' ' ' ' ' ' [ [ [ [ [ ' ..&X%X%Xd.y.q.ZXSXDXSXDXmX8X8XaXMXMXyX>X:X;X;Xj.j.j.d.t.e.8.>.:.B n b z i d u < # o # # # # # # # # 7 7 7 7 # # # # O O O O +             + + + X X . X X X X X X X o # - y u i =.=.=.*.*.=.x s s u y y y y y p r 7 6 6 6 6 6 6 6 q r W p p W W W W W W W W W W W W Q / / Q r q 6 6 7 7 # # * * * * # o X X . . X X . . . + # # y y p p p p a a p a d d p p 7 7 7 7 7 # # o * h C C S C n j u d d s ! o.o.o.@.@.%.%.%.%.<.<.<.%.%.%.%.%.1.<.<.<.=.=.! p # X                         X . * < < * < * * * * o o o > < p w q 6 + O O     . . . X X > > 3 m B 8.p.%X,X1X<X:Xd.7.F d.:XrXrXrX<X;X%Xe.;.< o X X X . + @ 6 5 r W W W W W W Y 0 6 6 6 6 0 t t Y E ^ |  .$.$.$.$.J.J.J.J.J.J.K.K.L.L.K.$.#.+.T.@X2X2X2X.XW.F.[.[.].].].].{.{.}.}.}.}.}.kXkXkXkXkXkXkX}.}.}.}.}.}.{.].'.[.[.[.D.D.D.Z.D.D.Z.Z.Z.Z.Z.Z.B.C.C.D.D.",
"H H H H K K K K K K K K K K K K K K K K K K K K K K K K K K K K K K K K K K K K H H H H H H H H H H H H H H H H K H K K K K K K K K K K K K K K K K K K K K K K L L L L L L L L L L L L L L L L L L L L ) ) L L L L L L L L L L K K K K K K K K K K K K K K K H J J K K K K J J K J J J K K K K L L K K K K K K K K K K K K K L K K L L L L L L ' ' ' ' ' ' ' ' ' ' ' ' ' ' ' ' ' ' ' ' ' ' ' ' ' ' ' ' ' ' ' ' [ [ [ [ [ ' ..&X%X%Xd.y.q.ZXSXDXSXSXDXaXaXmXmXMXyX>X:X;X;X;Xj.j.d.t.e.7.>.:.N n b z i d u < # o # # # # 7 7 # # 7 7 7 7 # # # # O + + + +             +   + X + + X X X X X X X X o # - - y x =.*.*.*.=.x s s s u p p y e p r r q q q 7 6 6 6 5 r W W W W ( W W W W W W Q Q a a r a a p 7 6 # + # # * * * * * * o . . X . . X X o o o # # 7 y p s ! Q ! ! ! ! ! ! Q ! s 7 7 7 7 7 # o . $ j C C C C V b i u u s s O.o.o.o.@.%.%.%.%.<.<.<.<.<.<.1.1.1.<.<.@.o.=.! p # X                     . . X * < 1 1 1 1 < * * * o $ o > y p p w q 6 + O O . . . X % > 2 c 8.d.=X<X9XuXnXrXuX<X;X7.D g.1X9X<X;X%Xp.,.n j o X X X X + + 4 6 q W W W W W Y r 0 6 4 6 6 0 t r Y W ^ |  .$.$.J.J.J.J.J.J.J.K.L.L.L.T.T.K.$.$.#.!.@X X X.XXXA.D.[.[.].].].].{.}.}.}.}.}.lXlXlXlXkXkXkXkX}.}.}.}.}.}.{.].].].[.[.[.[.[.[.D.D.Z.Z.Z.Z.Z.Z.Z.Z.D.D.D.",
"K K K K K K K K K K K K L L L L K L L L L L K K L L K K K L L L L L K K K L L K H H H H H H H H H H H H K K K K K K K K K K K K K K K K K K L L K K K K K K L L L L L L L L L L L L L L L L L L L ) ) ) ) ) ) ) ) ) ) L L L L ) L L K K K K K K K L L L K K K K K K K K K K K J K K K K K K K K L L ' ' L L L L L L L L L L L L ) ) ) ) ) ) ' ' ' ' ' ' ' ' ' ' ' ' ' ' ' ' ' ' ' ' ' ' ' ' ' ' ' ` ` ` ' ` ` ` ] ] ] [ [ I ( &X-X%X%X6.i.AXFXZXDXHXGXBXVXVXmXMXyX7X:X:X;X;Xj.g.d.u.r.8.>.;.m 2 b M M s u < # o # # # * 7 7 y 7 7 7 7 7 5 6 6 # O + + +                   + + + + + . X X X X X X o # - - ; u x *.*.=.=.s s d p p p y y p p W W Q W r r q 6 6 4 q W ( / / o.o.Q Q Q a a Q ! a a p p 7 7 + + # # o * * * < < * # o . . X . . . . # # # # e e y p a ! ! ! ! ! ! ! ! ! ! ! p 7 6 6 6 + . . . % h C C C B N b d u u d s ! ! o.o.o.@.%.%.<.<.<.%.%.%.%.%.<.@.o.o./ ! ! u #                   . . . * < 1 i j j i 2 1 < % * * * * > y p p y y w + O + X . X 2 c c S e.d.<XrXrXuXuXuXrXrX<X1Xd.d.=X1X1X1X%Xp.,.M i > o X X X + O 5 5 q r Y W W W Y Y q 6 6 6 6 0 r r Y E ^ | +.#.H.J.H.J.J.P.P.L.L.L.T.W.Q.Q.Q.L.J.H.#.!.2X XW..X[.Z.[.[.[.].].].].{.{.}.}.}.kXlXlXkXkXlXlXlX}.}.}.}.}.}.}.{.].].].[.[.[.`.`.`.`.`.`.`.`.`.`.`.`.D.D.D.D.",
"K K K K K K K K K K K K K K L L L L L L L L K K L L L K L L L L L L K L L L L K K H H H H H J J H H H H K K K K K K K K K K K K K K K K K K L L K K K K K K L L L L L L L L L L L L L L L L L L ) ) ) ) ) ) ) ) ) ) ) ) L L L L L L K K K K K K K L L L L L L K K K K L K K K K K K K K K K K L L L ' ' L L L L L L L L L L L L ) ) ) ) ) ) ' ' ' ' ' ' ' ' ' ' ' ' ' ' ' ' ' ' ' ' ' ' ' ' ' ' ` ` ` ` ' ' ` ` ] ] ] [ [ ' ..*X5X;X;Xg.g.AXSXhXZXSXHXSXGXAXVXMXyX7X:X:X:X:Xj.d.g.s.r.7.,.Z n 2 z z i i u < # o + # # # w w y y 7 7 7 7 5 6 6 6 O + + +                   + + + + # + o . X X X X o # - - - ; u s s d u y ; ; 7 e 7 q q p W ( ( ( ( W r q q q 0 q Y / @.<.1.<.o.! ! Q a ! s p p 7 # # + + + + # $ * % * < * * o . . . X . . o * < > < < y p p a ! ! / / / / / / / o.o.o.! p 7 6 6 + + . . . & h V V n b j d u u s s ! O.o.o.o.o.@.%.%.%.%.%.%.<.<.<.@.o.o./ ! s s y +                   .   . < i j j V b j j i 1 < % $ * * > u u y u u s y y d M ,.,.a.;X,X<XrXuXnXuXuXrX<X<X<X<X1X,Xd.%Xa.p.e.9.*.N d d < + X X + + + + 5 q r r Y Y Y Y r r q 6 6 6 6 0 Y Y T ^ | +.$.#.H.J.H.J.J.P.P.L.L.W.Q.!.!.!.Q.Q.L.H.H.@X2X.XW..X[.[.[.[.].].].].{.{.{.}.}.}.}.}.kXkXkX}.}.}.}.}.}.{.].{.].].].].'.[.[.[.`.`.`.`.`.`.`.`.`.`.`.`.`.`.`.`.",
"K K K K K K K K K K K K K K K K L L L L L L L L L L L K L L L L L L L L L ) ) L K J J K J K K K K K K K K K K K K K K K K K K K K K K K K K K K K K L L L L L L L L I I I I I I I I I I I I I ' ) ) ) ) ) ) ) ) ) ) ) ) L L L L L L L L K K K L L ) ) ) ) ) ) L L L L L L L L L K K K K K K K L L L ' ' L L L L ) ) ) ) ) ) ) ) ) ) ) ) ' ' ' ' ' ' ' ' ' ' ' ' ' ' ' ' ' ' ' ' ' ' ' ' ' ' [ ' ` ` ` ` ' ' ' ' ] ] ] [ [ ' ..*X,X,X;X;X:XSXSXZXZXSXSXSXGXmXmXMXyX7X>X:X:X;Xd.u.s.a.r.>.:.N b 1 i i u u s u < # + # # # w w y y 7 7 7 7 7 6 7 6 O O + O         O O O O   X + + # # # # # + + X X o # - ; - ; ; ; ; # # @ X # # 7 7 7 7 r W ( / o.@./ ( W Y q q r r Q o.<.<.<.o.Q a p p p y y 7 + + + # # # * * * & > * > * o o . . . . o o * < < < u y p u p p Q ( / o.o.o.o.o.o.o.o.o./ Q p 7 6 + + . . . . 3 V V V b j u u u s s ! O.o.o.o.o.@.@.@.@.<.@.@.<.%.@.o.o.! ! ! s d w X                   .   . d j b V V V M V j h 1 < * * * < < < 1 i j i i N -.e.%X;X<XrXtXuXpXnXnXuXuX9X<X1X1X,X=X=Xs.a.,.Z B *.s x u ; # O   O + + O 5 7 r W Y Y Y r r r t 0 6 6 6 0 t Y Y R | +.$.$.H.H.H.H.J.P.L.L.L.W.Q.!. X X X!.Q.L.J.H.#XzX.XXXXX).[.[.[.].].].{.].{.{.{.{.}.}.}.}.}.}.}.}.}.{.{.].].].].].'.'.'.'.'.'.'.'.`.`.`.`.`.`.`.`.`.`.`.`.`.`.`.",
"K K K K K K K K K K K K K K K K L L L L L L L L L L L L L I L L L ) ) ) ) ) ) L K K K K K K K K K K K K K K K K K K K K K K K K K K K K K K K K K K L L L L L L L L ' ' ' ' ' ' ' ' ' ' ' ' ' ' ) ) ) ) ) ) ) ) ) ) ) ) L L L L L L L L L L L L L ) ) ) ) ) ) ) ) L L L L L L L K K K K L L L L L L ' ' L L L L ) ) ) ) ) ) ) ) ) ) ) ) ' ' ' ' ' ' ' ' ' ' ' ' ' ' ' ' ' ' ' ' ' ' ' ' ' ' ' ' ` ` ` ` ' ' ' ' ] ] ] [ [ ' ..&X%X%X%X>X8XSXHXSXSXDXAXBXBXsXaXpXyX7X>X:X;Xd.t.7.7.7.e.>.:.N i < 1 1 u u d d u # + + # # y y y y e 7 7 7 7 6 7 6 O O O O         O O O O   X o + # # y u y y # + X X # - ; ; ; e # # X O O @ 7 7 7 7 7 7 r W ( / 1.<.<.<./ ( W r q 7 q p r Q ! a p e # # # # # + o o # * * * < < > & > > * * o . X . . . o > < 1 d u u u u p p p Q ( / o.o.o.@.@.o.o.o.o.o./ ! p 7 5 +   .   . < V c b j i u 1 u s s ! O.O.o.o.o.o.@.@.o.o.o.o.o.o.o./ ! ! ! s p w # X                   . . + j V n B C C C V n b h 1 < % * < 1 > 1 b n B ,.a.,X,XrXrXuXuXpXuXrXrX,X%Xe.e.p.p.e.7.D :.B l 2 1 u u # y + + X O     O O # 7 q r W W W r r r q q 0 6 O 6 t Y Y R | +.$.$.#.H.H.H.H.H.P.L.L.W.Q.!. X X X X X!.T.L.P.#X#XI.A.[.[.[.[.].].].].].].].].].{.{.{.}.}.}.}.}.{.{.].].].[.[.'.'.'.'.'.'.'.'.'.'.`.`.`.`.`.`.`.`.`.`.`.`.`.`.`.",
"K K K K K K K K K K K K K K K K L L L L L L L L L L ) ) ) ) ) ) ) ) ) ) ) ) ) ) L L K K K K K K L L K K K K K K K K K K L L L L L L L L L L L L L L L L L ) ' ' [ ' ' ' ' ' ' ' ' ' ' ' ' ' ' ' ) ) ) ) ) ) ) ) ) ) ) ) ) ) ) ) L L L L L L L L ) ) ) ) ) ) ) ) ) ) ) ) ) ) ) ) L L L L L L L L L L L L ' ' ' ' ' ' ' ' ' ' ' ' ' ' ' ' ) ) ) ) ' ' ' ' ' ' ' ' ' ' ' ' ' ' ' ' ' ' ' ' ` ` ` ` ` ` ` ` ` ` ] ` ] ` ` ` [ [ ' Y.$X<X;X<XwXGXHXFXSXAXmXaXsXpXpXpXyXrX<X1X:X=Xa.7.S S :.e.,.N i < u u u d d u y ; # + + + + + + # # # # 7 7 # # # @ + + O O O O O O       X X # # # # p s s p y # X X o # ; e e e # # @ X O @ 7 7 q q q q r W ( o.<.<.<.<.<.=./ Q q 5 q p p p y w 7 # # # # # # # $ * * * * * < < 1 > % . % % . . . % % % < < d u u u d d d d d a Q / o.o.o.o.o.o.o.o.@.<.<.=./ ! r 6 O   .     * 3 h h h 2 2 1 u d ! ! ! ! ! O.O.o.o.o.o.o.o.o.! ! ! ! ! a p y 7 # + X                   . . * i b n m C C C m m n h 1 % o % X 1 1 n m e.p.%X;X,X<X<X<X9X9X9X7X;X%Xp.,.-.-.;.,.,.-.N z i u < 1 > - # o X O O O O O O 6 q r p r W W W r q q q 7 0 6 O 0 r E R R { #.#.#.#.#.#.H.H.H.H.P.L.Q.!. X X X@X@X@X!.W.P.P. XXX).Z._.[.[.].].].].].].].].].{.{.{.{.{.{.{.{.{.].].].].].].].[.[.'.`.'.`.`.`.`.`.`.`.`.`.`.`.`.`.`.`.`.`.`.`.`.",
"K K K K K K K K K K K K L K K K L L L L L L L L I L ) ) ) ) ) ) ) ) ) ) ) ) ) ) ) L L L L K K L L L K K K K K K K K K L L L L L L L L L L L L L L L L ) ) ) ' ' [ ' ' ' ' ' ' ' ' ' ' ' ' ' ' ' ) ) ) ) ) ) ) ) ) ) ) ) ) ) ) ) L L L L ) ) ) ) ) ) ) ) ) ) ) ) ) ) ) ) ) ) ) ) ) ) ) ) ) ) ) ) L L L L ' ' ' ' ' ' ' ' ' ' ' ' ' ' ' ' ) ) ) ) ' ' ' ' ' ' ' ' ' ' ' ' ' ' ' ' ' ' ' ` ` ` ] ] ` ` ` ` ] ] ` ` ` ] ` ` ] ] ` ..*XnXrX9XpXGXHXSXGXAXmXaXaXyXyXtXtXrX<X<X;Xd.a.e.S m B :.;.N u u u u u u d u y # # + + X + X + + + + + + # @ @ @ @ O + O O O O O         X + # ; < # ; s s d y # X X X + # # # 7 7 e e 7 7 r r r p p p r r W ( / <.1.1.1.<.<.=.! y 7 7 7 7 # + # # # # * * * * * % % % % & < 1 3 1 > % . % % . . % % < 1 1 d d d u u d d d d a a Q ! o.o.o.o.o.o.o.o.@.<.<.<./ / Q q +         . % , h h i 1 1 u d a ! ! ! ! ! ! Q ! o.O.O.! ! ! ! a a p e # + + X                       . . * i j b m m C C m m n h 1 > % 1 1 Z ,.d.%X1X1X<X1X;X%Xd.s.d.=Xs.t.D B M i 1 i i M M s d u u < ; # # # X X O O O O O @ 6 q p p p r r p r q q q q 0 0 6 6 0 Y R R +.+.#.#.#.#.#.#.#.#.H.H.P.P.!.@X@X X X X@X#X!.W.P.P.W.XX_._._.'.].].].].].].'.'.].].].{.{.{.{.{.'.'.].'.].'.].'.].].[.[.[.`.'.`.`.`.`.`.`.`.`.`.`.`.`.`.`.`.`.`.`.`.`.",
"K K K K K K K K K K L L L L L K L L L L L L L L L L ) ) ) ) ) ) ) ) ) ) ) ) ) ) ) ) ) ) L L ) ) ' L L L L L L L L L L L L L L L ) L L L ) ) ) ) ) ) ) ) ) ) ' ' ' ' ' ' ` ` ` ` ` ` ` ` ` ` ` ' ' ' ) ) ) ) ) ) ) ) ) ) ) ) ) ) L L ' ' ' ' ' ' ' ' ' ' ' ' ' ' ) ) ) ) ) ) ) ) ) ) ) ) ) ) ) ) L L L L ' ' ' ' ' ' ' ' ' ' ' ' ' ' ' ' ) ) ) ) ' ' ' ' ' ' ' ' ' ' ' ' ' ' ' ' ' ' ' ` ` ` ] ] ` ` ` ` ` ` ` ` ] ] ] ] ] ] ` ..cXNXnXnXMXGXSXDXSXBXdXiXpXtXwX<X<X1X,X;X;X%Xp.8.S B B ;.-.M u u u u u u u u y # # # + + X X X X + + X X X + + + + + + O O O O O         X # ; y u u p d d u 7 7 # + + # # 7 7 7 q q r r r r W W W W W W W W W ( ^ o.=.<.=.=.O.d y w * # # + + # * * * * * * * * % * * * , < 3 2 1 < * . . . . o % > 1 2 i i i i u u d s a a a W Q ! o.o.o.o.@.@.o.o.@.@.<.<.o./ ! r O     . . . . % 1 h i i 1 u p a s ! ! ! ! ! Q Q ! ! s s a p p y 7 # + X X                           . . * i j c c m m m V m c c 2 1 > c B p.=X9XrXrXrXrX<X=X%Xd.s.d.s.>.F n < - o o - < u u y 1 < < o + X X X O O O O O @ 6 7 r p p p r r r r q 5 6 5 5 7 5 6 6 r W ^ | +.+.#.#.#.#.#.#.H.H.H.H.P.P.!.@X@X!.!.!.@X@X X!.Q.W.W.XXXX_._.'.'.'.].].'.'.'.'.'.'.'.].].].].].].'.'.'.'.'.'.'.'.'.[.[.'.`.`.`.`.`.`.`.`.`.`.`.`.`.[.`.[.`.`.[.`.`.`.",
"K K K L K K K K K K K L L L L K L L L L L L L L L L ) ) ) ) ) ) ) ) ) ) ) ) ) ) ) ) ) ) ) ) ) ) ) ) ) L L L L L L ) ) ) L ) ) ) ) ) ) ) ) ) ) ) ) ) ) ) ) _ ' ' ` ` ` ` ` ` ` ` ` ` ` ` ` ` ' ' ' ' _ ) ) ) ) ) ) ) ) ) ) ) ) ) ) ) ' ' ' ' ' ' ' ' ' ' ' ' ' ' ) ) ) ) ) ) ) ) ) ) ) ) ) ) ) ) L L L L ' ' ' ' ' ' ' ' ' ' ' ' ' ' ' ' ) ) ) ) ' ' ' ' ' ' ' ' ' ' ' ' ' ' ' ' ' ) ' ` ` ` ] ] ` ` ` ` ` ` ` ` ] ] ] ] ] ] ` ..&XnXIXMXMXGXDXAXAXmXfXwX>Xj.g.u.e.>.>.,.,.,.e.p.e.:.;.,.*.M i u d u u u u u y # # + + +     X X O X + + + O O O + + + O O O O O         # ; y y s =.=.p u w # + 6 @ O 6 6 e r r p r r r r r W Q Q Q ( W W Y J q r q 7 # + w w * * * * * * * * * * * * * * * * % * < < > < 3 2 2 1 < * . . . . * > < 1 2 i i i 2 i u u d a a a a Q ! o.o.o.o.@.@.o.o.@.@.<.<.<./ / p 6 O     .   . . % 1 i i 1 d d a s ! ! ! Q Q s s s s p p p y e # # X . .                             . . * i j h c c v m v c c c c c m ,.a.<XrXMXMXMXpXnXuX<X%Xd.>.S m 3 3 > o # # # # ; y y < ; ; ; O O O O O O O O 6 0 0 7 q r a p r p r r q 7 5 6 6 6 5 5 0 q Y ^ | | +.#.#.#.#.#.#.#.#.H.H.H.K.K.!.OX!.Q.Q.!.!.!. X X X XW.XX].].].].'.'.].].].].'.'.'.'.'.'.'.'.'.'.'.'.`.`.'.'.'.'.'.'.[.[.[.`.`.`.`.`.`.`.`.`.`.`.`.`.`.[.`.`.`.`.`.`.`.",
"K K L L L L L L L L L L L L L L L L L L L L L L ) ) ) ) ) ) ) ) ) _ _ ) ' ' _ _ ) _ _ ) _ _ _ _ _ _ _ ) ) ) ) ) ) ) ) ) ) _ _ _ _ _ _ _ ) _ _ _ ` ` ] ] ] ] ] ] ] ` ` ` ` ] ] ] ] ] ] ] ` ` ` ` ' ' _ ) ) ) ) ) ) ) ) ) ) ) ' ' ' ' ' ' ' ' ' ' ' ' ' ' ' ' ' ' ' ' ' ' ' ' ' ' ' ' ' ' ' ' ' ' ) ) ) ) ' ' ' ' ' ' ' ' ' ' ' ' ' ' ' ' ) ) ) ) ) ) ) ) ) ) ) ) ' ' ' ' ' ' ' ' ' ' ' ` ` ` ` ` ` ` ` ` ` ` ` ] ` ] ] ] ] ] ` [ ^.4XnXGXGXGXGXBXBXfXiX>X:Xy.6.F m m n b m b B p.p.e.,.;.N M u u u u y y y < ; ; # + X X X X X X O O O O O O O O O O O O O O       O O X # ; y u x =.=.p y e 6 5 5 6 O 6 q p Q Q Q ( W r q r Q Q ( Q Q W r q q 5 7 6 # + + . * $ % % > < > < > > < = = = < * % % > > > > , 1 3 2 i < * . . $ * > < 1 3 2 j j j j i u d d u d a W Q Q / o.o.o.o.o.o.o.@.@.<.<.o.=./ ( q O           . . * d d d d d d s s d d d d d d s s p u y * # + X X . . . .                         . . X < 2 2 3 v c A m F D S >.S B 8.%X<XuXpXnXpXpXpXrX;Xa.,.m 2 3 > - o X o o + + + + + + + + + # @ @ O O O 6 r r r r r r p p p r q q q 5 6 6 6 6 6 q 7 q q E |  . .#. . .#.#.#.#.#.H.H.H.H.K.K.!.Q.Q.T.I.Q.!. X#X2X#X.XXXXX].].].].].].].].].'.'.'.'.'.`.`.`._.'.'.'.'.'.'.'.'.`.`.`.`.`.`.`.`.[.[.[.`.`.`.[.[.`.`.`.`.`.`.`.`.`.`.`.`.`.",
"L L L L L L L L L L L L L L L L L L L L L L L L ) ) ) ) ) ) ) ) ) ) _ ) ' ' _ _ _ _ _ _ _ ) _ _ _ _ _ _ ) ) ) ) _ ) _ _ _ _ _ _ _ _ _ _ _ _ _ _ ` ` ] ] ] ] ] ] ` ` ] ] ] ] ] ] ] ] ] ] ` ` ` ` ' ' _ _ ) ) ) ) ) ) ) ) ) ) ' ' ' ' ' ' ' ' ' ' ' ' ' ' ' ' ' ' ' ' ' ' ' ' ' ' ' ' ' ' ' ' ' ' ) ) ) ) ' ' ' ' ' ' ' ' ' ' ' ' ' ' ' ' ) ) ) ) ) ) ) ) ) ) ) ) ' ' ' ' ' ' ' ' ' ' ' ` ` ` ` ` ` ` ` ` ` ` ] ] ] ` ] ] ] ] ] [ ..<.E.NXCXGXGXAXBXwX>Xj.u.G v 3 2 1 > > > > > b ,.e.9.,.N i 1 u u y y < ; ; # ; # + X X X X X X O O O O O O O O + O O O O O       O O X + ; y u x *.=.! a a p p q 6 4 q p ! o.=.1.1.E.1.=.o.! a Q p p q 5 5 6 6 # # # # $ $ $ = % % , < < < < 1 < < < < < , % % % > % % > < 1 1 u < * . . * * > 1 2 j j j V b b i u u d d d a a Q Q / o.o.o.o.o.o.o.@.@.<.<.o.o./ ! p 6 O       . . . o * d d d p p u u p p e e p p p u y # # o X X   . X . . . . .   .                 . . . > 2 m A w.r.;X<XuXuX9X1X%XD t.;XrXrXuXuXrX9X<X%X>.B b > o o o o o o + + # # # 7 7 # # # # # 4 6 6 6 6 q r r r r r r r r q 7 5 5 6 6 6 6 6 6 7 r q q Y ^ |  . . . .#.#.#. .#.#.H.H.H.H.H.H.Q.Q.T.L.I.Q. X#XzXzXzX.XXXXX].{.{.{.'.].].].].'.'.'.'.'.`.`.`.`.'.'.'.'.'.'.'.'.`.`.`.`.`.`.`.`.[.[.`.`.`.`.`.[.`.`.`.`.`.`.`.`._.`.`.`.`.",
"L L L L L L L L L L L L L L L L L L L L L L L L ) ) ) ) ) ) ) ) ) ) ) ) ` ` ' ' ` ` ` ` ` ` ` ` ` ` ` ` ` ` ` ` ` ` ` ` ` ` ` ` ` ` ` ` ` ` ` ` ] ] ] ] ] ] z.] ] ] ] ] z.] z.z.z.z.] ] ] ] ` ` ` ` _ _ _ _ ) ) ) ) ' ' ' ' ' _ ' ' [ [ ` ` [ [ ' ' ' ' ' ' ' ' ' ' ' ' ' ' ' ' ' ' ' ' ' ' ' ' ) ) ) ) ' ' ' ' ' ' ' ' ' ' ' ' ' ' ' ' ) ) ) ) ) ) ) ) ) ) ) ) ' ' ' ' ' ' ' ' ' ' ' ` ` ` ] ] ] ] ` ` ` ] ] ] ] ` ] ] ] ] ] ] ) X.E.4XNXGXAXAXBX>Xj.i.w.v c 3 1 1 > > 1 > > < j ,.p.;.M i u u u y ; ; # # # # # # X X X X X X O O O O O O O O + O O O O O       O X X + ; y u u s s s a a ! ! p 5 5 5 W W ( o.<.1.E.E.2.1.=.a p w 7 7 7 # # # # # o o $ % % % & , , f 3 3 3 2 3 3 3 3 3 , & % % % % % % > < 1 d < * o . o * < 2 j V n N N n b b u u d d d a a Q Q / o.o.o.o.o.o.o.@.@.@.o.o.=.o./ Q 7 X O       . . . * w d * < < y y y e e e y * * * # o o X . . X . o * o # o . X . . .           . . . . > n >.t.d.1XrXuXpXMXrX<Xd.e.a.%X1XrXrX9X<X,X%Xe.B 2 > X X . X X X X + # # # 6 6 6 7 7 6 6 6 4 6 6 6 q r q r r r r r q q 5 6 6 6 6 6 6 6 6 7 r r r Y W |  . .#. . . . .#. . .#.H.H.H.H.H.H.Q.T.L.L.Q.Q. X#XzXzXzX.XXX_.].{.{.{.{.'.].].].'.'.'.'.'.`.`.`._.`.`.`.`.[.`.`.`.`.[.[.`.[.`.`.`.[.[.`.`.`.`.[.[.`.`.`.`.`.`.`.`._._.`.`.`.",
"L L L L L L L L L L L L L L L L L L L L L L L L ) ) ) ) ) ) ) ) ) ) ) _ ` ` ' ' ` ` ` ` ` ` ` ` ` ` ` ` ` ` ` ` ` ` ` ` ` ` ` ` ` ` ` ` ` ` ` ` ] ] ] ] ] ] z.] ] ] ] ] z.z.z.z.z.z.] ] ] ] ] ` ` ` _ _ _ _ ) ) ) ) ' ' ' ' ' _ ' ' [ [ ` ` [ [ ' ' ' ' ' ' ' ' ' ' ' ' ' ' ' ' ' ' ' ' ' ' ' ' ) ) ) ) ' ' ' ' ' ' ' ' ' ' ' ' ' ' ' ' ) ) ) ) ) ) ) ) ) ) ) ) ' ' ' ' ' ' ' ' ' [ ' ' ` ` ] ] ] ] ` ` ` ] ] ] ] ] ` ` [ [ ] [ [ ..( 2.-XAXGXHXGXwXj.G F l 3 3 1 < > > > > * o 1 B ,.N z i 1 < < < ; # # # # ; e # X X X X X X O O O O O O O O @ O O O O O     O O X X + ; y y ; ; p p p p a ! Q 6 5 5 5 4 q r 6 Q =.<.=.! p # # * # * * + * # # o $ $ % = % & , , f f f f h h h h f 3 3 < & * % % % % % * < < < < * * . o * < 2 j V B B V n n b i u d d d a a Q Q / o.o.o.o.o.o.o.@.@.@.o.o.o.o.o.! p 6 X O       . . . * * * # < < < ; ; ; ; # # # # o . X . X X o * > < > > * # o . X . .           . < *.p.a.;X1X7X7XrXrXpXrX<X:Xd.e.e.e.a.%X%Xp.:.,.N b > % o X X X X X X + + # 6 6 7 7 7 7 5 5 5 6 4 6 6 q q r q r r r r 5 6 6 5 6 4 6 6 6 6 6 6 7 r Y Y E ~ | +.#. . . . . . . . .#.H.H.#.#.#.H.T.L.L.P.!.Q..XzX2X.XXXXX_._.].{.{.{.{.{.].].].'.'.'.'.'.`.`._._.`.`.`.`.`.`.`.`.[.[.`.`.[.`.`.`.`.`.`.`.`.`.[.[.[.`.`.`.`.`.`.`._._.`.`.`.",
"K L L L I ' I L L L L L L L L L L L L L ) ) ) ) ) ) ) ) ` ` ` ` ' ' ' ' ` ` ` ' ` ` ` ` ` ` ` ` ` ` ` ` ' ' ] ] ] ' ' ' ` ] ] ] ] ] ] ] ] ] ] ] ] ] ] ] ] ] z.] z.z.] ] ] ] ] ] ] ] ] ] ] ] ] ` ` ` ' ' _ _ ` ` ` ` ` ` ` ` ] ] ` ` ] ] ] ] ` ] ] ] [ [ ` ` ` ] ' ' ' ' ' ' ' ' ' ' ' ' ' ' ' ' ' ' ' ' ' ' ' ' ' ' ' ' ' ' ' ' ' ' ' ' ) ) ) ) ) ) L L ' ' ' ' ' ' ' ' ' ' ' ' ' ' ' ' ` ` ] ] ] ] ] ] ` ` ` ] ] ] ` ` ] ] ] ` [ ..( X.9.uXMXGXGXmXtX6.m 3 2 3 < < < > > > - - - N ,.B M i 1 - > - # + + # u u y # + X O O O O O O O   O O O + @ 7 7 O         O O + X # # # # 7 7 e 7 p p p p Q r 6 q 5 5 5 5 5 5 q 7 7 # + # # * * * $ $ $ $ $ $ $ = & & & 3 3 3 f h j h h 3 3 3 2 2 1 < > * . . . . X . * * y w w w w + * < i b N B C m n V b i i u d d a a Q Q / o.o.o.o.o.o.o.o.o.<.<.<.<.o.o.! a e # X       . .   . . . X . . + + + + # 7 # + .   . . * > > > > 1 1 < * * * o o o . X . . . X X < ;.,.%X:X<X7X:X<X7XwXrXtXrX<Xd.e.:.:.:.>.,.-.N M i < > o . X X X . X X + @ 6 7 7 7 q q 7 7 7 5 q q q q r r q q Y r q 0 5 4 4 4 4 4 6 6 6 6 6 6 7 r Y E ~ ~ | +.+. .#. . . . . .#.H.H.H.H.H.H.H.I.L.L.T.!.!.#X#X.X.X).)._.].{.{.{.{.{.{.].].'.[.`.).).).`.`.`.`.`.`.`.`.`.`.`.`.`.`.`.`.'.'.'.`.`.`.`.`.`.`.`.`.`.`.`.`.`.`.`.`.`.`.`.`.`.",
"K L L L I I I I L L L L L L ) ) L L L L ) ) ) ) ) ) ) ) ` ` ` ` ' ' ' ' ` ` ` ` ` ` ` ` ` ` ` ` ` ` ` ` ' ' ] ] ' ' ' ' ] ] ] ] ] ] ] ] ] ] ] ] ] ] ] ] ] ] ] ] z.z.] ] ] ] ] ] ] ] ] ] ] ] ] ] ` ` ` ' _ _ ` ` ` ` ` ` ` ` ] ] ` ` ] ] ] ] ` ` ] ] [ [ ` ` ] ] ' ' ' ' ' ' ' ' ' ' ' ' ' ' ' ' ' ' ' ' ' ' ' ' ' ' ' ' ' ' ' ' ' ' ' ' ) ) ) ) ) ) L L ' ' ' ' ' ' ' ' ' ' ' ' ' ' ' ' ` ` ] ] ] ] ] ] ` ` ] ] ] ] ` ] ] ] ] ] [ ' ..( ! 4XuXPXVXAXVXj.F 3 c > < < < > > * - - > M ;.;.M i y - > > # # # ; u s u # + X O O O O O O O   O O + @ # 7 7 O         O O + X + + + # 6 6 6 @ 7 e p p / ! r q 5 5 5 5 5 6 6 6 + + # o o $ * $ * $ $ $ % * = < & , 3 3 f h h h j h 3 < < , 3 1 > > * . . . . . X . * * y d p w w + o < i b N B C m m V b i i u d d a a Q Q / o.o.o.o.o.o.o.o.o.<.<.<.@.o.o.o.Q r 7 X       . . X X . .       X X X X X         . . * 1 2 2 2 2 2 i 1 < * * * o o X o * * % 1 >.%X1XrXuXpXyXrX<X1X<XwXrXwX<X,Xt.>.3 > 1 2 1 < > 1 > # o X X . X X X X + + @ 6 7 q q r q 7 7 7 7 r r r r r r q q Y r q 0 6 5 5 5 6 6 6 6 6 6 6 0 q Y E T | | +.$.+. .#. . . . . .H.H.H.H.H.H.H.H.L.L.L.Q.@X@X2XzX.XXXZ.)._.'.{.{.{.{.{.].'.[.[.`.).).).).).).).).).Z.`.`.`.`.`.`.`.`.`.`.'.'.'.'.`.`.`.`.`.`.`.`.`.`.`.`.`.`.`.`.`.`.`.`.`.",
"K L L L I I L L ) L L L L L ) ) ) L ) ) ) ) ) ) ) ) ) ) ` ` ` ` ' ' ' ' [ [ [ [ [ [ ] ] ] ] ] ] ] ] ] ] ] ] ] ] ] ] ] ] ] ] ] ] ] ] ] ] ] ] ] ] ] ] z.z.z.z.] ] z.z.z.z.] z.] ] ] ] ] ] ] ] ` ` ` ` ` ` ` ` ` ` ` ` ` ` ` ` ] ] [ [ [ [ ] ] [ [ ] ] [ [ ] ` ] ] ' ' ' ' ' ' ' ' ' ' ' ' ' ' ' ' ' ' ' ' ' ' ' ' ' ' ' ' ' ' ' ' ' ' ' ' ) ) ) ) ) ) L L ' ' ' ' ' ' ' ' ' ' ' ' ' ' ' ' ` ` ` ` ` ` ] ] ] ] ] ] ] ] ] ] ] ] ] ] [ ' ' ( 3.4XnXMXmXAXAXpX;XA c 3 < < < > > * > > < i *.,.*.z u - > > # # # y d s s 7 7 + O O O O O O O O O + # 7 # 7 7 O     O O O O + + + + + @ @ 5 @ @ # 6 7 q ! / Q q 5 5 5 5 5 6 6 6 + # o . o % = = = = * & < 3 3 3 3 3 3 h h h h h 2 3 , % % % % % % . X . . . . . . o * * y d d p w + . * i b N B C C m V b i i u s a a Q Q Q / o.o.o.o.o.o.o.o.o.@.@.@.@.o.o.o.O.a e + X       . . . .     .   . . . . .   . . . * < 2 h j j j b V V j 2 1 > > % o o o o 3 m >.;X,XrXuXMXaXpXtX7X>X<X<X<X<X;Xd.7.S > o > 1 1 1 < # o o o X X X X X + + + + @ 7 7 q r q q q q q 7 r Y r r r r q 0 Y q q 0 6 6 0 5 0 0 q 0 0 6 0 0 r E T R  .$.$.$.#.#.#. . . . .#.H.H.H.H.H.H.H.H.L.P.T.!. X#XxXvX.XA.Z.)._._._._.].].].'.[.`.`.).).).).Z.Z.Z.Z.Z.Z.Z.D.D.`.`.`.`.`.`.`.`.'.'.'.'.'.'.`.`.`.`.`.`.`.`.`.`.`.`.`.`.`.`.`.`.`.",
"K K L L L L K K ) L L L L ) ) ) ) ) ) ) ) ) ) ) ) ) ) ) ` ` ` ` ` ' ' ' [ [ [ ` [ [ ] ] ] ] ] ] ] ] ] ] ] ] ] ] ] ] ] ] ] ] ] ] ] ] ] ] ] ] ] ] ] ] z.z.z.z.z.] z.z.z.z.z.z.] ] ] ] ] ] ] ] ` ` ` ` ` ` ` ` ` ` ` ` ` ` ` ` ] ] [ [ [ [ ] ] [ [ ` ] ] ] ] ] ] ] ' ' ' ' ' ' ' ' ' ' ' ' ' ' ' ' ' ' ' ' ' ' ' ' ' ' ' ' ' ' ' ' ' ' ' ' ) ) ) ) ) ) L L ' ' ' ' ' ' ' ' ' ' ' ' ' ' ' ' ` ` ` ` ` ` ] ] ] ] ] ] ] ] ] ] ] ] ] ] [ ' ' I U 4XnXnXtXpXpXmXMX=XS 2 < < < > > * > > < z N ;.-.M u ; > > # # ; u s ! s y 7 + + + + + O O O O + @ 7 7 # 7 7 O     O O O O + + + + + + 4 4 O O @ @ 6 5 p Q p 7 5 5 5 5 6 6 6 # # o o . . % = = = % = < 2 3 2 h 2 2 h h h h f 3 3 & % % % % % % . X . . . . . . . o o * y d a a d * + * i b N B C C V V b i d d s s a Q Q Q ! o.o.o.o.o.o.o.o.o.o.o.@.@.o.o.o.O.a p # X                           . .   X . * > 1 , h h V V V V n n b h 2 3 3 > o > m ,.s.rXrXMXMXmXaXaXpXpXrX<X<X<X;Xd.s.>.C 3 , o o . # > < u o X X X X X O O O + + O O @ 7 7 r r r q q q q q q q q q r r t 0 Y q q 0 q q q q q q q 0 0 6 6 0 Y Y |  . .K.K.J. . . . . . .#.#.H.H.J.H.H.H.P.P.L.L.Q.@X#X#XxXxXXXA.A.).)._._._.'.'._._.`.`.`.Z.Z.Z.Z.Z.Z.Z.Z.Z.Z.Z.D.D.`.`.`.`.[.`.`.`.'.'.'.'.'.'.`.`.`.`.`.`.`.`.`.`.`.`.`.`.`.`.`.`.`.",
"K K L ) ) L K K L ) ) ) ) ) ) ) L L L L ) ) ) ) ) ) ) ) ` ` ` ` ` ` ` ` [ [ ` ` [ [ ] ] ] ] ] ] ] ] ] ` ] ] ] ] z.z.] ] ] ] z.] ] ] ] ] ] ] ] ] ] ] ] ] ] ] ] ] ] ] ] z.z.z.] ] ] ] ] ] ] ] ` ` ] ] ` ` ' ' ` ` ` ` ` ` ] ] ] ] ] ] ] ] ] ] ] ] [ [ ] [ [ [ ] ] ` ` ` ` ] ] ' ' ' ' ' ' ' ' ' ' ' ' ' ' ' ' ' ' ' ' ' ' ' ' ' ' ' ' ' ' ) ) ) ) ) ) ) ) ' ' ' ' ' ' ' ' ' ' ' ' ' ' ' ' ` ` ` ` ] ] ] ] ` ` ] ] ] ] ] ] ] ] ] ] [ [ [ [ ..E.4XIXrXrXtXMXMXrXt.> 1 < < < < < > > < M N p.,.N 1 < o # # # < s s s s y # # + + + + + + O O # p y 7 7 7 @ O     O O O O O O O O + # 5 6 6 6 6 6 0 7 7 7 7 7 7 5 6 # # # # * * * * * * % % % , < 3 2 h h h j h h h h h h f 3 3 & % % % % . . X . . . . . . . . . # # y p p p w 7 # * 1 j n B S C C m n j i i s d a Q Q Q ! Q o.o.o.o.o.o.o.o.o.o.o.o.o.o.o.O.a p ; X                             X . . 3 h h V V v v V V V V B m v h c , > 3 X m >.;X<XuXMXMXaXaXpXyXyXtXtX7X1X;Xa.e.S B h 3 > * o o o + + X X X X O O X X + + O O @ 6 7 7 q r r q 5 6 6 6 6 q q r r r r r r r r r r r r r r r r r 0 0 0 0 t Y T | +.K.T.T.J.m.m.m. . . .H.H.H.H.P.L.I.I.Q.Q.I.Q. X#X#X2X#X#XA.C.A.Z.Z.Z.Z.Z.).).).).Z.Z.Z.Z.Z.Z.Z.Z.Z.Z.Z.Z.Z.Z.D.D.Z.Z.`.`.`.`.`.`.`.`.[.[.'.'.`.`.`.`.`.`.`.`.`.`.`.`.`.`.`.`.`.`.`.",
"K K L ) ) L K K L ) ) ) ) ) ) ) L L L L ) ) ) ) ) ) ) ) ` ` ` ` ` ` ` ` [ [ ` ` [ ` ] ] ] ] ] ] ] ] ] ] ] ] ] ] z.z.] ] ] ] z.z.] ] ] ] ] ] ] ] ] ] ] ] ] ] ] ] ] ] z.z.z.z.] ] ] ] ] ] ] ] ` ` ] ] ` ` ` ' ` ` ` ` ` ` ] ] ] ] ] ] ] ] ] ] ] ] [ [ ] ] [ [ ] ] ` ` ` ` ` ` ' ' ' ' ' ' ' ' ' ' ' ' ' ' ' ' ' ' ' ' ' ' ' ' ' ' ' ' ' ' ) ) ) ) ) ) ) ) ' ' ' ' ' ' ' ' ' ' ' ' ' ' ' ' ` ` ` ` ] ] ] ] ` ` ] ] ] ] ] ] ] ] ] ] ] [ [ [ ..U *XIXuXMXrXtXpXpX1Xm 1 u 1 < < < < > < M N p.,.*.z 1 u u d d d s s u u y # # # # # # X @ X X 7 s p e 7 # + O     O O O O O O O O # 6 q 7 7 7 7 7 7 7 7 7 7 6 6 7 # # # # * < < < < 1 < 1 < < 3 f h h h V V V V h h h h f 3 , 3 & & % % % % % . . . X o + # # # # # # w w w w w + + # 1 j n Z ;.S C m n b i s s d s Q Q Q Q Q o.o.o.o.o.o.o.o.o.o.o.o.o.o.o.! a e # X                                 & h V V C C C C C C C C C C V V c , 3 v m s.;XuXuXMXMXaXaXiXyXyXyX<X:Xd.a.e.:.N n 2 > % . . o o + + + @ # @ X X X @ @ @ O O @ 6 7 q r r r q 5 6 6 6 6 6 q q q q q q t t r r r r r r r r r t t 0 0 0 0 Y T R  .$.K.Q.W.J.H.H.H.H.m. .H.H.H.P.L.Q.!.!.Q.Q.Q.!.@X#X2X2XW.m.m.c.A.Z.Z.Z.Z.Z.Z.Z.Z.Z.Z.Z.Z.Z.Z.N.N.N.C.Z.Z.Z.Z.Z.D.D.Z.Z.`.`.`.`.`.`.`.`.`.[.'.'.`.`.`.`.`.`.`.`.`.`.`.`.`.`.`.`.`.`.`.",
"K K L ) ) L K K L ) ) ) ) ) ) ) L L L L ) ) ) ) ) ) ) ) ` ` ` ` ` ` ` ` ` ` ` ` [ [ ] ] ] ] ] ] ] ] ] ] ] ] ] ] z.] ] ] z.z.z.z.] ] ] ] ] ] ] ] ] ] ] ] ] ] ] ] z.z.z.z.z.z.] ] ] ] ] ] ] ] ] ` ] ] ] ] ` ` ` ` ` ` ` ` ] ] ] ] ] ] ] ] ] ] ] ] [ [ [ ] [ [ ] ] ` ` ` ` ' ' ' ' ' ' ' ' ' ' ' ' ' ' ' ' ' ' ' ' ' ' ' ' ' ' ' ' ' ' ' ' ) ) ) ) ) ) ) ) ' ' ' ' ' ' ' ' ' ' ' ' ' ' ' ' ` ` ` ` ] ] ] ] ` ` ] ] ] ] ] ] ] ] ] ] ] ] [ [ ..I &XUXuXrX<X<X<XrX<Xr.B i u 1 < < < < < M N p.9.,.*.1 d i d s d s u y # # # # # # # # # # # # y ! s p 7 @ O       O O O   O O O 5 6 q q q q q e 7 7 7 7 7 7 # # # # # # < < 1 1 2 3 3 3 3 3 3 h h h V V V C C V V h h h f , , 3 3 2 h 2 1 > > % . . . # # 7 7 7 7 w w w w w w w + + . * 1 n Z ;.D C m n b j s s s s a ! ! ! ! o.o.o.o.o.o.o.o.o.o.o.o.o.o.Q Q a e @                           X     o h C C C C F F F F 4.F F S V v v g 3 v A 7.g.:XtXpXMXMXpXpXyXyXwXwX:Xg.r.,.:.N b 1 > o X o o o + + + # # 6 7 7 6 6 0 7 6 0 0 7 7 q r r r q 5 6 6 4 4 6 6 6 6 0 0 0 0 0 0 t t t t r r r r t t t t 0 0 Y T R { #.J.T.!.Q.P.P.H.H.H.H.H.H.P.L.Q.!.!.@X@X!.Q.Q. X#X2XzX#XI.m.S.x.c.C.C.Z.Z.Z.Z.Z.Z.C.C.C.C.C.N.N.N.C.C.C.C.C.C.C.Z.Z.Z.).`.`.`.`.`.`.`.`.`.[.'.'.`.`.`.`.[.[.[.[.`.`.`.`.`.`.`.`.`.`.`.",
"K K L ) ) ) L L L ) ) ) ) ) ) ) L L L L ) ) ) ) ) ) ) ) ` ` ` ` ` ` ` ` ` ` ` ` [ [ ] ] ] ] ] ] ] ] ] ] ] ] ] ] ] ] ] ] z.z.z.z.] ] ] ] ] ] ] ] ] ] ] ] ] ] ] ] z.z.z.z.z.z.] ] ] ] ] ] ] ] ] [ ] ] ] ] ` ` ` ` ` ` ` ` ] ] ] ] ] ] ] ] ] ] ] ] [ [ ] ] [ [ ] ] ` ` ` ` ' ' ' ' ' ' ' ' ' ' ' ' ' ' ' ' ' ' ' ' ' ' ' ' ' ' ' ' ' ' ' ' ) ) ) ) ) ) ) ) ' ' ' ' ' ' ' ' ' ' ' ' ' ' ' ' ` ` ` ` ] ] ] ] ` ] ] ] ] ] ] ] ] ] ] ] ] ] ] [ ` ' ..1.p.%Xa.a.d.1X;Xa.e.*.i 1 1 1 < < < M N p.p.2.-.i d i i s u < # # + + + + X + + # # 7 7 7 p =.! s 7 + O       O O O   O O O 6 5 q r q e e e e 7 7 # # @ + # + + # > < 1 2 2 2 2 2 h h h h h h v V V V V C C V h h f , , , 3 h j j j j 2 1 < * * * # w w w w w w w # # 7 w 7 + . . . * h B :.S C B m b b s s s s a Q Q Q Q o.o.o.o.o.o.o.o.o.o.o.o.o.O.Q a r 7 X                           X   o M C 4.4.C 4.4.4.F 4.4.w.w.F v g , G G y.d.d.:X:XrXyXaXMXaXyXyXwX>Xj.i.r.S m b u < > * o . o + + + + + + 6 q q q q q q q 7 7 t r r r r r t 7 7 6 6 6 6 4 4 6 6 6 6 6 6 0 0 r t t t r r r r t t t t 0 0 E {  . .J.L.W.!.!.P.P.P.P.H.H.H.P.P.Q.!.OX@X#X@X!.!.!.@X#XxX2X Xm.m.S.n.C.N.C.C.Z.C.C.C.C.C.C.M.C.N.N.N.C.C.C.C.C.C.C.C.Z.Z.Z.Z.`.`.`.`.`.`.`.`.`.`.`.`.`.`.`.`.[.[.[.[.`.`.`.`.`.`.`.`.`.`.Z.",
"J K L ) ) _ ' ' ' ' ' ' ' ' ' ' ' ' ' ' ' ' ' ' ' ' ` ` ' ' ' ' _ _ ` ` ` ` ` ` ' ' ` ` ` ` ` ` ` ` ] ] ] ] ] ] ] ] ] ] ] ] ] ] ] ] ] ] z.z.z.] ] ] ] ] ] ] ] ] z.z.z.] ] ] ] ] ] ] ] ] ] ] ] ] ] ] ] ] ] ] ] ] ] ] ] ] ] ] ] ] ] ] ] ] ] ] ] ] ] ] ` ` ] ] ] ] ` ` ` ` ' ' ' ' ' ' ' ' ' ' ' ' ' ' ' ' ' ' ' ' ' ' ' ' ' ' [ [ ' ' ' ' ) ) ) ) ) ) ) ) ' ' ' ' ' ' ' ' ` ` ` ` ` ` ` ` ` ] ] ] ] ] ] ] ] z.z.z.z.z.z.] ] ] ] ] ] ] z.] ` ` ] Y.&X-Xe.a.d.=X=X;X=Xm 3 3 2 2 1 1 < 2 N ,.p.p.2.z i u u u < # o X X X X X O + + O + @ 6 7 p ! O.! 7 O O           O O O O O 6 7 q r r r p p y 7 + + + + X + + # o * < 1 2 2 h h h h h c V V V C C C V V V V V h h f f f f j V V M V V b j 1 < > < w w p p p p p p y e 7 7 O O   . . . 1 n B S C m V N M j s s a a Q Q Q Q Q Q ! o.! ! ! o.o.O.Q W Q a a r r @ O                               X n C 4.4.4.4.4.4.4.4.0.0.4.G G v G w.i.d.i.;X;X>XwXyXaXsXaXpXwX>Xd.t.7.S m z 1 - o # # # # + + + + + + # 7 q r r r r r r r Y W W W W Y r q 6 6 6 6 4 4 4 4 6 6 0 6 6 6 0 0 r r Y Y Y Y Y t t t t t 0 Y E T { #.J.L.Q. X!.I.P.I.Q.I.L.L.L.L.!.!.@X@X@X@X!.Q.!.@XxXxX XW.A.A.x.c.c.N.N.C.C.Z.C.C.N.c.c.c.c.c.c.c.c.c.c.c.c.c.Z.A.Z.Z.Z.).`.`.`.`.`.`.`.`.`.`.`.`.`.`.).).).).`.`.).).`.`.D.D.D.D.D.D.Z.",
"J K L ) _ _ ' _ ' ' ' ' ' ' ' ' ' ' ' ' ' ' ' ' ' ` ` ` ' ' ' ' _ _ ` ` ` ` ` ` ` ' ` ` ` ` ` ` ` ` ] ] ] ] ] ] ] ] ] ] ] ] ] ] ] ] ] ] z.z.z.] ] ] ] ] ] ] ] ] z.z.z.z.] ] ] ] ] ] ] ] ] ] ] ] ] ] ] ] z.z.] ] ] ] ] ] ] ] ] ] ] ] ] ] ] ] ] ] ] ] ] ` ] ] ] ] ` ` ` ` ' ' ' ' ' ' ' ' ' ' ' ' ' ' ' ' ' ' ' ' ' ' ' ' ' ' ' [ ' ' ' ' ) ) ) ) ) ) ) ) ' ' ' ' ' ' ' ' ` ` ` ` ` ` ` ` ] ] ] ] ] ] ] ] z.z.z.z.z.z.z.z.z.] ] ] ] ] z.] ` ` [ G.&X-X5Xp.a.=X;X,X;Xd.>.B l 2 2 2 < 2 M -.9.p.2.M i d u < # o X X X X X X O O O O + @ 6 7 p a ! ! 7 O O           O O O O 5 5 q q r r r p p q # + X X O O o o o o * < 1 2 h g , , , h h h v V V C C C C V h h h f f , f h h C C C C B b j u 1 < y p p d d p p a p p e e 7 O +     . . . 2 V B C m n M j j s s d a Q Q Q Q Q Q Q Q ! ! ! ! ! Q Q a a p r e 7 O O                               X n C 4.5.4.4.0.0.0.y.4.4.0.4.0.i.:X>X>X>X:X:X1XwXyXyXyXtX7X>Xd.u.D S m b 2 1 > o X + + + + + + + + + + 6 q r r W E E E W ^ ^ ( / ^ ( W r 0 6 6 @ O @ 4 4 6 6 6 6 6 6 6 0 q r r r r r t t t t t t t 0 Y T { { #.J.L.Q. X XW.I.!.!.Q.Q.Q.Q.T.Q.!.!.@X@X@XQ.I. X@X2X2XI.m.m.m.c.c.c.c.N.C.C.Z.F.F.C.C.c.x.x.x.c.c.c.c.c.c.c.c.C.C.Z.Z.Z.Z.).).`.`.`.`.`.`.`.`.`.`.).).).).).).).).).).).Z.Z.Z.Z.Z.Z.Z.Z.",
"K K ) ) _ _ _ _ ' ' ' ' ' ' ' ' ` ` ' ' ' ' ' ' ' ' ` ` ' ' ' ' _ _ ` ` ` ` ` ` ` ` ` ` ] ] ` ` ` ` ] ] ] ] ] ] ] ] ] ] ] ] z.z.z.z.] ] z.z.z.] ] ] ] ] ] ] ] ] z.z.z.z.] ] ] ] ] ] ] ] ] ] ] ] ] ] ] ] z.z.z.] ] ] b.z.] z.] ] ] ] ] ] ] ] ] ] ] ] ` ` ] ] ] ] ` ` ` ` ' ' ' ' ' ' ' ' ' ' ' ' ' ' ' ' ' ' ' ' ' ' ' ' ' ' ` ` ' ' ' ' ) ) ) ) ) ) ) ) ' ' ' ' ' ' ' ' ` ` ] ] ] ] ` ` ] ] ] ] ] ] ] ] z.z.z.z.z.z.z.z.z.z.z.z.] ] ] ] [ [ z...( 3XrX2.B D %X;X1X<Xs.D B l 2 2 2 2 b *.,.p.2.*.x x d < o X X X     X X O O + O + @ # 7 y y p s 7 O O   O O O O O O O O 7 q r r r r r r p 7 + O         X o o o * 1 3 2 v h g , , , , , , h h h V C C C h h f , 3 3 h j C ;.>.;.S B n b i u u u u p d p p d a a d p p y # X X . . . . > 2 n B V N M j j s s d a a Q Q Q Q Q a Q Q s s s s a a p p e e 7 @ O                                 X b C 4.y.y.y.0.0.0.i.4.F 0.d.:XwXtXrX7X7X<X7X7XrXtXtXwX>X;Xd.t.w.S m h 1 < > # X X + + + + + + # + + + 7 q W W ^ ^ ^ | | +.+.+./ ^ W Y 0 6 4 O O + + # @ @ @ @ 6 6 6 0 0 r r t t t Y Y 0 0 0 0 0 0 0 Y E {  .#.J.Y.Q. X X X X X@X X!.Q.T.L.L.T.!.!.@X!.Q.I.L. X@X!.m.S.S.b.c.c.c.c.c.C.A.A.F.F.C.C.c.c.c.c.c.c.c.c.c.c.n.c.N.N.C.C.Z.Z.Z.Z.Z.Z.Z.Z.D.D.`.`.D.`.).).).).).).Z.Z.Z.Z.Z.Z.Z.Z.Z.C.C.C.C.",
"K L ) _ _ _ _ _ ' ` ` ' ' ' ' ' ` ` ` ' ' ' ' ' ' ' ` ` ' ' ' ` _ _ ` ` ` ` ` ` ` ` ` ` ] ] ] ] ] ] ] ] ] ] ] ] ] ] ] ] ] ] z.z.z.z.] ] ] ] z.] ] ] ] ] ] ] ] ] z.z.z.z.] ] ] ] ] ] ] ] ] ] ] ] ] ] ] ] z.z.z.z.b.b.b.z.] z.] ] ] ] ] ] ] ] ] ] ] ] ` ` ] ] ] ] ` ` ` ` ' ' ' ' ' ' ' ' ' ' ' ' ' ' ' ' ' ' ' ' ' ' ' ' ' ' ` ` ' ' ' ' ) ) _ _ ) ) ) ) ' ' ' ' ' ` ` ` ` ] ] ] ] ] ] ] ] z.z.z.z.z.z.z.z.z.z.z.z.z.z.z.z.z.z.z.z.] ] ] ] ] z.[ ( / +X3.-.b :.r.d.;X1Xs.7.Z l 2 z 2 z N N 2.2.*.M M d # o X X X     X X O O O O + @ # 7 y 7 7 p 7 + O   O O O O O O O O 7 q r p r r r r q 6 +           X . . X * < 3 h C C v g , , % % % % , , f h V C h f & & 3 f j V ;.,.5.:.S B m b z i u u d a a a s s s s s d p e # X X . . . . % % b V V N M j s s u d a a a Q Q Q Q a a a s s s s a p p y e 7 # +                                   X b C 4.f.i.y.y.y.y.0.u.j.7XrXaXMXaXpXtXrXyXuXrX7X7X>X:Xg.s.e.D S c 2 1 < > - # X + + O + O + O # + # 6 q q ^ ^ ^ | +.+.$.$.$.$.+.| T t 6 6 4 O @ + + X X O @ @ @ 6 0 0 t Y Y t t t t t 0 0 0 0 0 0 0 Y E {  .#.J.Y.!. X X X X#X#X#XQ.Q.L.H.P.I.Q.!.!.Q.I.L.#X#XQ.S.] ] S.z.z.c.c.c.c.C.C.A.F.A.C.c.c.c.c.c.c.c.c.c.c.c.c.c.c.N.C.C.N.B.Z.Z.Z.Z.Z.Z.Z.D.D.`.D.D.Z.Z.Z.Z.Z.Z.Z.Z.Z.Z.Z.C.C.C.N.N.N.N.N.",
"' ' [ ` ] ] ] ] ] ] ] ] ] ] ] ] ` ` ` ` ` ` ` ` ] ] ] ' ` ' ' ' _ _ _ _ _ _ ` ` ` ` ` ` ` ` ` ` [ [ [ ` [ [ [ [ ] ] ] ] ] ] ] ] ] ] ] ] ] ] ] ] ] ] ] ] ] ] ] ] b.z.z.] z.z.] ] ] ] ] ] ] ] ] ] ] ] ] ] z.z.z.z.z.z.z.z.z.z.z.z.z.z.] z.] ] ] ] z.] ] ] ] ] ` ` ] ] ` ` ' ' ' ' ' ' ' ' ' ' ' ' ' ' ' ' ' ' ' ' ' ' ' ' ` ` ` ` ' ' ' ' _ _ _ _ _ _ _ _ ' ' ` ` ` ` ` ] ] ] z.z.z.z.z.z.z.z.z.z.x.x.x.x.x.x.x.x.z.z.z.z.z.z.z.z.z.z.[ ] ] ] ] [ ..U ^.3.3.o b D ;X;X,X9X=X,.n z z b b N *.2.p.*.=.M u # o X X X         O O O O O + # 7 y p p p e X O   O O O O O O O O 6 5 q q q q 7 7 @ O O O           . . . $ % , S 4.F C v h , , % % % % % , h j j h & % % , f V ;.>.5.w.>.S A m b b z i i s a a a ! ! ! Q O.a a p e # + . . . . . > 1 j b M M j s d u p p a d d d d d d p p u u u u p y # # # + X       . . .                       . o c C F 4.t.0.u.0.0.i.:X<XtXaXaXMXMXaXaXMXuXrX7X:X;X=Xd.a.7.:.B b 1 < > o o + + + O O O O O O O 6 q q r W ^ +.+.+.+.+.+.$.$.$.| T Y 0 0 4 4 O O @ @ @ @ @ 6 6 6 q t E E Y Y Y Y E Y Y 0 0 0 0 0 0 0 0 Y E { #.#.J.Y.Q. X X X X#X#X@XQ.I.P.H.H.L.Q.!.Q.Q.I.P.zXzXI.m.S.b.b.b.z.c.c.c.c.x.n.n.n.n.c.x.c.c.c.c.c.c.c.b.b.b.b.m.n.c.N.N.C.C.C.C.Z.Z.Z.Z.Z.Z.D.D.Z.Z.Z.Z.Z.Z.Z.Z.C.C.C.C.C.C.C.C.C.C.C.C.C.",
"' ' [ ] ] ] ] ] ] ] ] ] ] ] ] ] ` ` ` ` ] ` ` ` ] ] ] ' ` ' ' ' _ _ _ _ _ _ ` ` ` ` ` ` ` ` ` ` [ [ [ ` [ [ [ [ ] ] ] ] ] ] ] ] ] ] ] ] ] ] ] ] ] ] ] ] ] ] b.m.b.z.z.] z.] ] ] ] ] ] ] ] ] ] ] ] ] ] ] z.z.z.z.z.z.z.z.z.z.z.z.z.z.z.z.] ] ] ] z.] ] ] ] ] ` ` ] ] ` ` ' ' ' ' ' ' ' ' ' ' ' ' ' ' ' ' ' ' ' ' ' ' ' ' ` ` ` ` ' ' ' ' _ _ _ _ _ _ _ ' ' ' ` ` ` ] ] ] ] z.z.z.z.z.z.z.z.z.z.z.x.x.x.x.x.x.x.x.z.z.z.z.z.z.z.z.z.z.z.] ] ] ] ] [ ' ( E.$X3.b A D 7.t.1X1X,Xa.;.N b z z *.p.p.,.*.M u # o X X X                 O @ # 7 y p p p y # +   O O O O O O O O O O 4 6 6 6 6 6 @ O O O         X X . . . % > C e.d.s.4.C h , , % % % % % < 2 j 2 & % % & h C ;.5.w.w.D F S m n b b z i d a a a ! ! Q Q O.x a a y # + . . . . . X % > i j j j i d u y p p p p p p p p p p p y y w * # o . X . .         . .                     . . o c v S A F y.u.i.:X>XrXyXpXpXaXaXaXMXyXrX:X;Xg.s.y.7.>.S n B b 1 < > # # o + # + O 5 5 4 4 4 5 5 q r W ( ^ +.+.+.+.+.+.+.| ^ Y Y 0 0 4 4 O O 6 6 6 6 0 0 0 0 r E E R R R R R E E E Y Y Y t 0 0 Y Y Y Y T | #.J.P.L.Q.!. X X#X#X#X@XQ.I.P.H.H.P.Q.!.Q.Q.I.I.!.W.S.m.b.b.b.b.x.x.c.c.x.x.x.n.c.x.c.z.b.b.b.b.b.b.b.b.b.b.b.b.m.n.c.N.C.C.C.C.N.N.C.C.Z.Z.Z.Z.C.C.Z.C.A.A.C.C.C.C.C.C.C.C.C.C.C.C.C.C.C.",
"[ [ [ ] z.z.] ] z.z.z.z.] ] ] ] ] ] ] ] ] ] ` ` ` ` ] ` ` ` ` ` _ _ _ _ _ _ ` ` ` ` ` ` ` ` ` ` ` ` ` ` [ ] [ [ [ [ ] ] ` ` ` ` ] ] ] ] ] ] ] ] ] ] ] ] ] ] b.m.b.z.z.] z.z.] ] ] ] ] ] ] ] ] ] ] ] ] ] z.z.z.z.x.x.z.z.z.z.z.z.z.z.z.z.z.z.] ] ] ] ] ] ] ] ] ] ] ] ` ` ' ' ' ' ' ' ' ' ' ' ' ' ' ' ' ' ' ' ' ' ' ' ' ' ` ` ` ` ` ` ' ` _ _ ` ` ` ` ` ` ` ` ` ` ] ] ] ] z.z.z.z.z.z.z.z.z.x.x.x.x.x.x.x.x.x.x.x.x.x.x.x.x.x.z.z.b.b.z.z.z.z.z.] [ ' L ~.*X*X,.v m A :.=X,X4X,X,.e.;.M z N 2.p.,.*.s u # o X X X + O             + @ # 7 y p p p p e X O O O + + + + O @ O O O O O O O O @ O O O         # # o o . > % h 4.=X=Xy.w.G c g , % % . . $ * < < * * * % h C >.w.y.w.4.F S A m n n b z d d d d x a Q Q O.a s a y # X . . . . . . . . * i j i i d u p y e e e e e e e y y w w * # o . . . . . . . . . . . . .                       o 2 v S F 0.t.d.j.>X7XtXtXuXpXMXMXpXMXrX:Xd.s.y.7.w.D D Z n b 1 < > # # X + X @ @ 4 5 5 5 5 5 q q Y W ^ ^ | +.+.+.+.+.^ ~ E J 0 4 4 4 4 4 4 6 6 7 r q r J Y Y R +.| | { { { | { R E Y E E E Y Y Y Y J E R  .#.J.P.L.I.Q. X X X#X#X@XI.L.H.H.H.P.Q.!.Q.Q.I.I.P.b.] m.b.b.b.z.z.x.c.c.x.x.z.x.x.z.z.z.b.b.b.b.b.b.b.b.z.z.b.z.c.c.c.c.N.C.N.N.N.N.N.C.C.C.C.C.C.C.C.C.C.C.C.C.n.c.c.c.c.c.c.c.c.c.c.c.c.",
"[ [ [ ] z.z.z.] z.z.z.z.] ] ] ] ] ] ] ] ] ] ` ` ` ` ` ` ` ` ` ` _ _ _ _ _ _ ` ` ` ` ` ` ` ` ` ` ` ` ` ` [ [ [ [ [ ] ] ] ` ` ` ` ] ] ] ] ] ] ] ] ] ] ] ] ] ] ] ] b.z.z.z.z.z.] ] ] ] ] ] ] ] ] ] ] ] ] ] z.z.z.z.x.x.z.z.z.z.z.z.z.z.z.z.z.z.] ] ] ] ] ] ] ] ] ] ] ] ` ` ' ' ' ' ' ' ' ' ' ' ' ' ' ' ' ' ' ' ' ' ' ' ' ' ` ` ` ` ` ` ` ` _ _ ` ` ` ` ` ` ` ' ` ` ] ] ] ] z.z.z.z.z.z.z.z.x.x.x.x.x.x.x.x.x.x.x.x.x.x.x.x.x.x.z.z.b.b.b.b.z.z.z.[ [ [ ] ..Y.4X,X>.m c l 8.D %X1X=X=Xp.;.N 1 -.2.-.*.s u # o X X X X O             + # # 7 y p p p p y # O O O + + + + + O O O O 6 O O O @ @ + O O         # # * * . , % , w.=X;Xg.s.0.C c h > % . . o o * * * * > % j C >.w.y.y.0.F F A m m n n z d d d d a a Q Q O.Q a a y # + .   . . . .   . . * i i d d u u y y e e e e e e ; w * * * . . . . . . $ * * < < < . . . .                     o l m 7.t.g.j.<XwXtXtXpXuXuXuXpXuX<X;Xr.D A A A A S v c z 2 1 < > # + + + O O 4 6 6 5 5 5 5 q J W W ( ^ +.| +.+.+. .^ ^ Y q 0 4 4 4 4 4 O 4 6 7 t r Y Y E E T $.K.#.#.#.#.#.#.+.{ { R R R T T T T T T R { +.J.J.L.L.I.W.!. X X X@X XL.P.H.} H.H.T.Q.Q.Q.I.I.W.b.] b.b.z.b.z.z.x.c.c.z.b.z.z.z.z.z.z.b.b.b.b.b.b.b.b.b.b.z.z.c.m.c.c.c.N.N.N.N.N.N.N.C.C.C.C.N.N.C.C.C.n.n.n.c.c.c.c.c.c.c.c.c.c.c.c.c.",
"[ [ [ ] z.z.z.] z.z.z.] ] ] ] ] ] ] ] ] ] ] ] ] ] ] ] ` ` ` ` ` _ _ ' ' ' ` ` ` ' ' ' ` ` ` ` ` ` ` ` ` ` ` ` ` [ [ [ [ [ [ ` ` [ [ ` ` ] ] ] ] ] ] ] ] ] ] ] ] ] ] z.] z.] ] ] ] ] [ [ ] ] ] ] ] ] ] ] ] ] ] z.z.z.z.x.x.z.z.z.z.z.z.] ] ] ] ] ] ] ] ] [ [ ] ] [ [ [ [ [ [ [ [ [ [ [ [ ' ' ' ' [ [ [ ' ' ' [ [ ' ' ' ' ' ' ` ` ` ` ` ` ` ` ` ` ' ' ` ` ` ` ] ] ] ] ] ] z.z.z.z.z.z.x.x.x.x.x.x.c.c.c.c.m.c.c.c.x.x.z.z.z.z.c.x.z.z.z.z.z.z.z.z.] [ [ [ <.*X4X$XB l l A A %X,X=X,X%X9.B N *.,.2.*.d u # # o X X X X X X     O O + # e p e e p a p e e e # + + + + + + O O O O O O 4 O O + O O           . j s * . . % g C d.;Xj.g.u.w.C h 1 * o o o # # * * # * * 3 b e.t.s.t.0.F F A A m n b z u d d a s ! Q ! Q Q Q a p e #     . . . .     . . * u u p y 7 7 e e ; e < ; # # d * * . . . $ % $ % % 3 j j s d * . X . + o           X X 1 2 :.7.u.d.;X:XwXyXuXtXuXuXrXuX<X1Xd.y.F v v m m m B l 2 2 < > - # # + + + @ O 6 5 q q q q J Y W ^ ^ | | ^ +.+.| | ^ R E Y q 0 6 4 4 4 4 4 6 0 q r Y Y T {  . .K.L.J.#.#.#.#.#.#.$.#. . .{ { R R R R R {  .+.J.J.P.L.I.I.!. X X X XQ.L.P.H.H.H.Q.Q.I.Q.Q.P.W.m.] ] ] z.z.z.z.z.z.v.v.z.z.z.z.z.z.z.z.z.z.z.z.b.b.b.b.b.b.b.b.c.c.c.c.c.c.c.c.c.c.c.c.c.c.c.c.c.c.c.c.c.x.x.x.x.z.z.z.x.x.x.x.x.x.x.c.c.",
"[ [ [ ] z.z.z.] z.z.z.] ] ] ] ] ] ] ] ] ] ] ] ] ] ] ] ` ` ` ` ` _ _ ' ' ` ` ` ` ' ' ` ` ` ` ` ` ` ` ` ` ` ` ` ` [ ` [ [ ` [ ` ` [ [ ` ` ` ] ] ] ] ] ] ] ] ] ] ] ] ] z.] z.z.] ] ] ] [ [ ] ] ] ] ] ] ] ] ] ] ] z.z.z.z.z.x.z.z.z.z.z.] ] ] ] ] ] ] ] ] ] [ [ ] ] [ [ [ [ [ [ [ [ [ [ [ [ ' ' ' ' [ ' ' ' I I ' ' I ' I I ' ' ' ' ` ` ` ` ` ` ` ` ' ` ` ` ` ` ] ] ] ] ] ] ] z.z.z.z.z.x.x.z.z.x.x.c.c.c.c.m.m.c.c.x.x.z.z.z.z.c.c.z.z.z.z.z.z.z.z.] ] [ [ ..E.3X-X8.A l l > :.8.%X,X%Xp.;.-.,.3.3.*.s u # # o X X X X X X         + # e p e e p a p e e d p # O + + + + O O O O O O O O O O O             . y d M 2 % % , h d.j.h.j.f.y.S V 2 < * # # + # # # # # $ . > e.r.s.u.0.0.F F A m n b z d u d a s ! ! Q ! Q Q Q p y # + . . . .       . . . # < y * 7 7 # ; ; ; ; - o o $ $ . . . $ % % , 3 j j M j j d < o X X           X - 1 b 8.a.;X:X:X>X>X7XrXtXrXrX<X;X%Xa.7.A c v c c c c v n n 3 1 < - o o o + # # # 6 6 5 q r Y W W W ( ^ ^ ^ ^ ( ^ ^ ^ ^ ^ R E Y q 0 6 6 4 6 6 6 6 0 q r r W ^ | +.$.H.L.P.J.J.H.H.H.H.J.J.J.J.H. . .| | | |  .|  .#.J.J.P.P.I.I.Q.!.!. X XQ.P.H.H.H.P.!.Q.Q.Q.Q. XW.m.] ] ] z.z.z.z.z.z.v.v.z.z.z.z.z.z.z.z.z.z.z.z.b.b.b.b.b.b.b.b.c.c.c.c.m.c.c.c.c.c.c.c.c.c.c.c.c.c.c.c.x.x.x.x.z.z.z.z.x.x.x.x.x.x.x.x.x.",
"[ [ ] ] z.z.z.] z.z.z.z.] ] ] ] ] ] ] ] ] ] ] ] ] ] ] ] ` ` ` ` ' ' ' ' ` ` ` ` ' ' ' ' ` ` ` ` ` ` ` ` [ [ ` ` ` ` ` ` ` ' ' ' ` ` ` ` ` ` ` ` ` ` ` ` ` ` [ ] ] ] ] ] ] ] ] ] [ [ [ [ ] ] ] ] ] ] ] ] ] ] ] z.z.z.z.z.z.z.z.z.z.z.z.z.z.z.] ] ] ] ] ] [ [ [ ] [ [ [ [ [ [ [ [ [ [ [ [ ` ` ' ' ' I I I U U U U U U I I U I ' ' ' ` ` ` ` ` ` ` ` ` [ [ [ ` ] ] ] ] ] ] ] ] z.z.z.z.z.z.x.z.x.x.c.c.c.c.c.c.c.c.c.c.c.c.m.c.c.m.z.z.x.x.z.z.z.z.] ] ] [ ..Y.&X-X9.n l l c Z :.%X=X%Xa.,.,.,.,.,.2.=.s # # # + X X X   X         + # e p e e p d a r e d a p 6 O + + + + O O O O O O O O O               . X * 2.-.1 % , g f.j.j.j.i.f.F C j 1 > < # # + # # # # o X . ;.e.f.s.y.0.F F A m m n b i s d s s ! ! ! Q Q ! ! a p 7 +             . . . . . o # + + + # # # # # o X X . . $ $ & , , f v V C C V M M i 1 * X X     X X X > c D r.d.;X:X:X<XwXrXyXrXrX<X1X=Xa.t.,.B c c c l l c l l c c > > - X o o + # 6 5 7 7 7 q r W W W W ( ( ( W W W W W ^ ^ ^ W E r r 0 6 0 0 0 0 0 0 0 r Y Y W ( ^  .$.K.L.P.L.L.P.J.P.K.P.L.L.I.L.L.P.J.H.H.H.$.#.+.#.J.J.J.J.P.L.I.I.Q.!.!.!.I.P.H.H.H.I.!.Q.!.!.!. XW.] ] z.z.z.z.z.z.z.z.z.z.z.z.z.z.z.z.z.z.z.z.z.z.z.z.z.z.z.z.z.z.c.c.c.x.c.c.c.c.c.c.m.m.x.x.c.c.x.x.c.c.x.z.z.z.z.z.z.z.z.z.z.z.x.x.z.z.z.",
"[ [ ] ] z.z.] ] z.z.z.z.] ] ] ] ] ] ] ] [ ] ] ] ] ` ` ` ` ` ` ` ' ' ' ' ` ` ` ` ' ' ' ' ` ` ` ` ` ` ` ` [ ` ` ` ` ` ` ` ` ' ' ' ` ` ` ` ` ` ` ` ' ' ' ` ` ` ` ` [ [ [ ` [ ] ] [ [ [ [ [ ] ] ] ] ] ] ] ] ] ] ] z.z.z.z.z.z.z.z.z.z.z.z.z.] ] ] ] ] ] ] ] [ [ [ ] [ [ [ [ [ [ [ [ [ [ [ [ ` ` ` ' ' ' I I U U U U U U U U U I ' [ ' ` ` ` ` ` ` ` ` ` [ [ [ [ ] ] ] ] ] ] ] ] z.z.z.z.x.z.z.z.x.x.c.c.c.c.c.c.c.c.c.c.c.c.c.c.c.c.z.z.x.x.z.z.z.z.z.z.z.] ] G.^.&X,Xp.;.n :.c c a.%X%X%X9.*.,.2.p.p.*.=.y # # + X   X             O 6 q p e e p d a r e d s a p 6 @ @ + + O O O O O O O O O               .   * $Xp.B , , , 4.u.j.j.i.f.4.S b 2 < < < # # # # # # # # . 3 7.a.s.r.0.F A A m m n b i s d d s s ! Q Q / ! Q Q p y # . .     . . . . . .     .       X + + + o X     . % & , h h v v C C C C V V N j 2 > X X X o - > v F s.:X7XrXwXyXpXpXpXpXtX<Xd.r.D S n l h h 2 2 2 2 2 2 2 2 l l > > o o X + # 6 7 7 q q q r W Q ( ( Q Q W Y q q Y Y Y E E Y Y Y r 0 0 6 0 0 0 0 0 Y Y Y Y W ( ^ ^ | +.J.L.P.L.L.L.P.L.L.I.W.Q.Q.Q.Q.W.L.P.J.J.K.J.$.J.K.K.J.J.H.P.L.I.Q.Q.Q.Q.I.H.H.H.L.Q.!.!. X3X@XP.m.] z.z.z.z.z.z.z.z.z.z.z.z.z.z.z.z.z.z.z.z.z.z.z.z.z.z.z.z.z.z.z.c.c.c.c.c.c.c.c.c.c.c.m.z.z.c.c.x.x.c.z.z.z.z.z.z.z.z.z.z.z.z.z.z.z.z.z.z.",
"[ [ ] z.z.z.] ] ] z.] z.z.] ] ] z.z.] ] [ [ [ [ ` ` ` ` ` ` ` ` _ _ _ _ _ _ _ _ _ _ _ _ _ _ _ _ ` ` ` ` [ [ ' ' ' ` ` ` ` ` ` ` ` ` ` ` ` ` ` ` ` ` ` ` ` ` ' ' ` ` ` ` [ ] ] ] [ [ [ [ ] ] [ ] ] ] ] ] ] ] ] ] z.z.z.z.z.z.z.z.z.] ] ] ] ] ] ] ` ` ` ] [ [ [ [ [ [ [ [ [ [ [ [ [ [ [ [ [ [ [ [ [ [ ' I I U U U ( p U U I I ` ` [ ] [ [ ` ` ` ] [ [ [ [ [ [ [ [ ] ] ] ] ] ] ] z.z.z.z.z.x.x.x.x.x.x.z.z.x.z.m.m.c.c.c.c.n.n.n.n.c.c.c.c.x.z.z.z.z.z.z.z.] ..$.~.-X$X9.N ;.c 3 8.%X=X%X$X;.M *.2.2.2.*.d u # + X   X X X O O O O O + 7 e e e p p p p p p a s s p q 6 @ O +   O O O O O O                   . + 3.%X;.h , g F i.:Xj.l.i.w.F B b 1 u u y # # # # # # # X X m e.t.w.y.F A m m m n b x s u d s s ! Q Q ^ Q ! Q p y # .               .         . . .               X , f h V C C C C C C C C S C m V c 3 > > o > 2 :.w.h.j.7XwXyXiXiXsXaXMXtX<Xd.a.>.m b c b n b 2 2 1 1 1 1 z 2 1 < < > # + + # 7 7 q r r W Q W W Q ( Q Y q 0 q r r r r r Y r r r t r q 0 0 0 q q q Y Y E E ~ ~ ^ ^ ^ |  .#.H.P.L.L.L.L.I.I.Q.Q.!.!.!.!.!.!.L.L.L.L.K.K.K.K.L.H. .H.H.P.L.I.Q.Q.Q.L. .} P.L.@X!.!.@XxX2X} ] z.z.z.z.z.z.z.z.z.z.z.z.z.z.z.z.z.z.z.z.z.z.z.z.z.z.z.z.z.z.z.z.v.v.z.z.x.x.x.x.x.x.z.z.z.z.x.x.z.z.z.z.z.z.z.z.z.z.z.z.z.z.z.z.z.z.z.z.z.",
"[ [ ` z.z.z.] ] ] ] ] ] ] ] ] ] ] ] ] ] [ [ [ [ ` ` ` ` _ _ _ _ _ _ _ _ _ _ _ _ _ _ _ _ _ _ _ _ ` ` ` ` [ [ ' ' ' ' ` ` ` ` ` ` ` ` ` ` ` ` ` ` ` ` ` ` ` ` ` ' ` ` ` ` [ [ [ [ [ [ [ [ ] ] ] ] ] ] ] ] ] ] ] ] ] ] z.z.] z.z.] ] ] ] ] ] ] [ [ ` ` ` ` [ [ [ [ [ [ [ [ [ [ [ [ [ [ [ [ [ [ [ [ [ [ ' I U U U p d p p U I U ` ` ` ` [ ] ` ` ] ] [ [ [ [ [ [ [ [ ] ] ] ] ] ] ] z.z.z.z.z.x.x.x.x.x.z.z.x.x.z.c.m.c.c.c.c.n.n.n.n.c.c.c.c.x.x.b.z.z.z.z.z.z.] ..^.E.-X-XN ;.Z l l l e.%Xp.2.i > M 3.$Xp.=.s w + X X X X X O O O O O O + 7 7 e e p p p p p p a s p p 6 @ O     O O O O O O                 .     * N a.>., g G 0.j.j.l.i.y.7.S n 2 u u y y # # # # # # o X > B e.t.y.0.F A m m n b x s u u d s Q Q Q ^ Q ! a p y # X                         .   .         X X > 2 h V C C F F G G G G F F F S V V c 3 c c B >.7.s.j.>X7XyXiXsXhXBXmXsXpX:Xd.D m l c 2 2 b b b i 1 1 1 1 1 u u < < < < # # 7 q r r r W W W ( ( W W Y Y q 0 0 q r r r r r r Y Y r r r r r Y r Y Y Y E E ~ ~ ~ ~ ^ ^ | |  .#.H.P.P.L.L.L.Q.Q.Q.Q.!.!. X X X!.I.L.L.P.K.K.K.K.K.H.} } H.J.P.L.L.I.L.L.} } W.!. X X#X2XcX2Xm.' z.z.z.z.z.z.] z.] z.z.z.z.z.z.z.z.z.] ] z.z.z.z.z.z.z.z.z.z.z.z.z.z.z.z.x.x.x.x.x.x.z.x.z.z.x.x.z.z.z.z.z.z.] ] ] ] ] ] z.z.z.z.z.z.z.z.z.",
"' ` ` ] z.z.] ] ] ] ] ] ] ] ] ] ] ] ] ] ` ` [ [ ` ` ` ' _ _ _ _ _ _ _ _ _ _ _ _ _ _ _ _ _ _ _ _ ` ` ` ` ' ' ' ' ' ' ' ' ' ' ' ' ` ' ' ' ' ' ' ' ' ' ' ' ' ' ' ' ' ' ' ' [ [ [ [ [ [ [ [ ] ] [ ] ] ] ] ] ] ] ] ] ` ] ] ] ] ] ] ] ] ] ] ] ] ` [ [ ` ` ` ` [ [ [ [ [ [ [ [ [ [ [ [ [ [ ` ` [ [ [ [ [ ' ' I U ( d d d d w w U U I ` ] ] ] ] ] [ ] ] [ [ ] ] ] ] ] ] ] ] ] ] z.z.] z.z.z.x.x.x.x.x.x.c.x.x.x.z.z.c.c.c.c.m.m.n.n.n.n.c.c.c.c.c.c.b.b.x.x.x.x.z.b.] G.<.4X4Xp.a.,.A l - B 8.p.p.b * < d 2.p.,.=.u # X X X X X O O O O O O O + @ 7 e e p p p p e p s a Q 7 @ O     O O O O O O                   . + * ;.%Xp.V v G 0.:Xj.j.i.y.w.F m b u u u < * * w w 7 # # X . 3 :.a.r.w.F A A m n b z s u u d s Q Q Q ^ Q ! a p y # X                                       X * i N V C F F 4.4.4.4.4.4.4.4.F G C v c v m D r.s.d.;X>XwXyXiXdXBXBXBXdXpXwXd.w.m c l 1 1 i b M M i u 1 1 1 u u < > > # 7 e e r r W W W W W W W Y Y r q q 0 0 q Y Y Y Y Y Y Y Y Y Y Y Y Y E E E E E E T ~ T T T ^ ^ R R |  . .H.J.P.L.L.I.I.I.I.Q.!.!. X X X!.!.L.P.P.P.K.K.K.J. .} {  .H.K.L.L.L.P.P.} H.!.!.!. X2X3X XW.b.] z.z.z.z.z.z.] ] z.z.z.z.z.] ] ] z.z.z.z.] ] z.z.z.z.z.z.z.z.v.z.v.v.z.z.x.x.z.x.x.x.z.z.z.z.z.z.z.z.z.] ] ] ] ] ] ] ] ] ] ] ] ] ] ] ] ] ] ",
") ` ` ] ] ] ] ] ] ] ] ] ] ] ' ' ` ` ` ` ' ' ' ' ` ` ` ' _ _ _ _ _ _ _ _ _ _ _ _ _ _ _ _ _ _ _ ` ` ` ` ` ' ' ' ' ' ' ' ' ' ' ' ' ` ' ' ' I ' ' ' ' ' ' ' ' ' ' ' [ ' ' ' [ [ ' ' [ [ [ [ ] ] [ [ ] ] ] ] ] ] ] ] ` ` ` ` ` ` ] ] ] ` ] ] ] ` ` [ ` ` ` ` [ [ [ [ [ [ [ [ [ [ [ [ [ [ ` ` [ [ [ [ [ ' I U ( d d d 3 = d d ( X.....] ] ] ] ] ` [ ] [ [ ] ] ] ] ] ] ] ] z.z.z.z.z.z.z.z.x.x.x.x.x.x.x.x.x.x.x.z.c.c.c.c.m.m.n.n.n.n.c.c.c.c.c.c.b.b.z.z.x.x.x.b.z.G...cXnX-X%X=X=XD 3 > 3 ;.,.,.b > X u *.2.3.j y + X X X X O O O O O O O O @ @ e e e e e e q p a a ! r 6 O O   O O O O O O                 .       < 8.a.5.F G G i.k.j.h.t.y.>.S n i u u < * w w w 7 # # . . . c e.a.w.D A A m n b z i u u d s a ! Q Q Q Q a p y # X                                     .   o j m v G F 4.y.0.0.0.0.0.0.0.0.F G G D 0.s.;X;X:X1XrXtXpXsXBXBXBXdXfXwXj.i.F A 3 2 1 1 1 i b M M i d u u u u u y < # # 7 r r p W W Q Q W W W Y r r q q q q r Y Y E E E Y Y Y Y Y Y Y E E E E E E ~ ~ T T T T R R | R { |  . .H.J.P.L.L.I.I.I.Q.Q.!.!. X X X X!.Q.L.L.P.P.J.H.H.} T {  . .H.K.P.P.K.K.P.L.!.!.!.@XvXbXW.m.m.z.z.z.z.z.z.z.] ] ] z.z.z.] ] ] ] ] ] ] z.] ] z.z.z.z.z.z.z.z.v.z.v.v.z.z.x.x.z.z.x.x.z.z.z.z.z.z.z.z.z.] ] ] ] ] ] ] ] ] ] ] ] ] ] ] ] ] ] ",
"I ' ' ' ` ` ' ' ' ' ' ' ' ' ' ` _ ' ' ' ' ' ` ' _ _ _ _ _ _ _ ) ) ) ) ) _ _ _ _ ) ) ) ) ` ` ` ` ' ' ' ' ` ` ` ` ` [ ' ' ) ) [ [ [ ' ) L L L L L ) ) ) ) ' ' ' ' ' ' ' ' ` ` [ ' ' ' ' ' [ [ [ [ [ [ [ [ ] ] ] ] ] ] ] ] ` ` ` ] ] ] ] ] [ [ [ [ [ [ [ [ [ [ [ [ [ [ [ [ ] ] ] ] ` ` ` ] [ ] ] [ [ ' I U d d d 3 3 & = j X.X...[ ] ] ] ] ] ] ] ] ] ] ] ] ] ] z.z.z.z.z.z.z.z.z.z.x.x.x.x.x.x.x.x.x.x.x.c.x.x.c.c.c.c.n.n.n.n.c.c.m.c.z.z.z.x.x.x.c.c.c.x.x.c.z.] H 3XnX4X%X4XnX%X7.c c b m Z N 1 X o s *.2.3.s 7 # + +   O O X + O O + + X @ e p e e e r 7 e W / o.Q 7 q O   O O     O O                           b ,.a.D G G y.j.:Xh.i.y.D A c 2 u < < y y w q 7 # + +   X < B 8.e.>.A A m m b z i d p d s s Q a a a a p y # o X                                       . 2 h C G 4.0.y.i.i.q.0.0.0.0.0.0.G G u.i.g.:X1X>X>X7XrXpXMXmXMXmXsXyXwX:Xi.w.F v c l 2 1 2 i z z i u u u y y 7 7 7 7 7 e r r W W W Q W W E Y Y r r 0 0 0 r Y Y E E T T Y T T T T T R T R R T T ~ ~ T T T T R R R { { { { {  .#.H.J.P.P.P.L.L.L.I.Q.!.!. X X X X!.Q.Q.I.L.L.H.H.H.{ T { }  .H.H.J.J.K.K.P.Q. X X!.@XcXvXm.m.m.S.n.x.z.z.z.z.z.z.] ] ] ] ] ] ] ] ] ] ] ] ] z.z.z.z.z.z.z.z.z.z.z.z.z.z.z.z.z.z.z.z.z.z.z.z.z.z.z.z.z.] ] ] ] ] ] ] ] ] ] ` ` [ [ ] ] ] ] ] ",
"I I ' ' ` ` ' _ ' ' ' ' _ _ ' ' _ ` ' ' ' ' _ _ _ _ _ _ _ _ ) ) ) ) ) ) _ _ _ _ ) ) ) ) ` ` ` ` ' ' ' ' ` ` ` ` [ [ ' ' ) ) [ [ [ ' ) L L L L ) ) ) ) ) ' ' ' ' ' ' ' ' ` ` ' ' ' ' ' ' [ [ [ [ [ [ [ [ ] ] ] ] ] ] ] ] ` ` ` ` ` ` ` ` [ [ [ [ [ [ [ [ [ [ [ [ [ [ [ [ ] ] ] ] ` ` ] ] [ [ ] [ [ I U U w d < < 3 & = j X.X...[ [ ] ] ] ] ] ] ] ] ] ] ] ] z.z.z.z.z.z.z.z.z.z.z.x.x.x.x.x.x.x.x.x.x.x.x.x.x.c.c.c.c.n.n.n.n.c.c.c.c.z.z.x.x.x.x.c.c.x.x.x.x.x.z.Y...&XnXnXrXnXnXnXrXd.> 3 m Z m i o o d *.3.=.d 7 + +   O O X X O O + + X 7 e p e e r r q r Q / <./ r 6 O O O O     O O                         X 2 p.a.w.A A w.t.j.d.u.y.4.A c 2 1 < < y w 7 q 7 6 # +   X X > Z e.7.m A m m b x i d u u d p d p a a p p < # X                                         . n F 4.0.q.i.i.l.l.l.i.i.4.4.G F i.j.>X<XwXtXtXyXpXpXaXMXaXpXtXwX<X:Xd.i.7.F A v c l 2 2 i z z i d u y y 7 7 7 q q q r r p W W W W W W E Y Y 0 0 0 0 0 0 Y E E ~ T T T T R R R ^ ^ ^ | | | | | ^ ^ | | | | | | | { { { {  .+.$.J.H.H.H.H.H.H.H.P.I.Q.!.!. X X X!.!.!.!.!.Q.L.P.J. .} { }  .H.H.J.J.J.P.I.Q.!.!.#X2X X XS.S.S.S.x.x.x.z.z.z.z.z.] ] ] ] ] ] ] ] ] [ [ ] ] ] z.z.z.z.z.z.z.z.z.z.z.z.z.z.z.z.z.z.z.z.z.z.z.z.z.z.z.] ] ] ] ] ] ] ` ` ` [ ` ` ` ` [ ] ] [ ` ",
"I I ' ' ` ` _ _ ' ' ' ' _ _ _ _ ) ) ' ' _ _ _ _ ' ' ' ' _ _ _ _ ) ) ) ) _ _ _ _ _ _ _ _ ` ` ` ` [ ' ' ' ` ` ' [ ' ' ' ' ) ) [ [ [ ' ) ) ) ) ) ) ) ) ) ) ` ` ` ` ' ' ' ' ` ` ' ' ' ' ' ' [ [ [ [ [ [ [ [ [ [ [ [ ` ` ] ] ] ] ] ] ` ` ` ` [ [ [ [ [ [ [ [ [ [ [ [ [ [ [ [ ] ] ] ] ] ] ] ] ] ] ] ` ' I U p w * * & & = k j X.X...[ [ ] ] ] z.z.z.z.z.z.z.z.z.z.z.z.z.b.b.b.z.z.z.z.x.x.x.x.x.x.x.x.z.z.z.z.x.x.c.c.c.c.n.n.n.n.c.m.c.c.z.z.z.z.z.z.z.z.z.z.z.z.z.z.[ U Y.3X4X4X4XuXnXMXrX> > 3 m Z l < - u s =.=.=.u + X   O O X X O O + + X 7 e p p p p p r p Q o.1.<.o.7 6 O O O O O O O O O                       - ;.e.e.S A 0.u.j.d.u.y.4.A c 2 1 < < < y y q 7 6 # + . . X X 3 :.>.m B m m b M s d u p p p p p p p y < # o X .                                       . ;.y.f.i.l.l.j.l.l.i.i.q.0.0.q.j.>XeXwXyXyXpXyXpXyXyXtXtXwX>X1Xj.g.s.u.w.F A m n b l l i z z i u y y 7 7 7 7 7 7 q r r r W W W Y Y Y Y Y Y 0 0 0 Y Y Y Y E T ^ ^ | | | { {  .| | | |  . . . .| | | |  . .#.+.+.+. .{ { { +.$.$.J.J.H.#. . . . .m.H.L.Q.!.!.!.!.!.!. X X!.Q.T.P.J. .{ { }  .H.H.H.H.H.H.L.L.Q.Q.zXzX#XI.S.S.S.S.S.x.x.x.z.z.z.z.] ] ] ] [ [ [ [ ] ] ] ] ] ] ] ] ] ] ] ] ] z.z.z.z.z.z.z.z.z.z.z.z.z.z.z.z.] z.] ] ] ] ] ] ] ` ` ` ` ` [ ` ` ` ` [ [ [ [ ` ",
"I I ' ' ` ` _ _ ' ' ' ' _ _ _ _ _ ) ' ' _ _ _ _ ' ' ' ' _ _ _ _ ) ) ) ) _ _ _ _ _ _ _ _ ` ` ` ` ` ` ' ' ' ' ' [ ' ' ' ' ) ) ' [ [ ' ) ) ) ) ) ) ) ) ) ) ` ` ` ` ' ' ' ' ` ` ' ' ' ' ' ' ' ' [ [ ] ] ] ] ] ] ] ] ` ] ] ] ] ] ] ] ` ` ` ` [ [ [ [ [ [ [ [ [ [ [ [ [ [ [ [ ] ] ] ] ] ] ] ] ] ] ] ` ' I U r w w * % = = k j X.X...[ [ ] ] ] z.z.z.z.z.z.z.z.z.z.z.z.z.c.c.c.x.x.x.x.x.x.x.x.x.x.x.x.z.z.z.z.x.x.c.c.c.c.m.m.n.n.c.m.c.c.z.z.z.z.z.z.z.z.z.x.z.z.z.z.] ..U / $X*X$X4XMXMX<Xc > > 3 m b N i o < u =.=.! # X X O O X X O O + + X # e p d d a a p W ! o.<.<.<.Q 7 O O O O O O O O O                           B p.S C D F s.d.s.y.0.A c c 3 3 < > y y q 7 6 # + . .     X c m :.B N n b M i d u p p p p y y y y < # X . .                                     .   ;.f.s.g.l.j.j.i.i.q.q.G q.l.tXyXiXaXiXaXpXiXyXtX:X;Xd.t.w.7.r.7.y.y.7.F m B B n b z i i z i u u y 7 7 6 5 7 7 q q r r Y W W W Y Y Y Y Y Y 0 0 0 Y Y Y Y T ^ ^ | |  . .{ {  . . . . . . . . . . . . .+.#.$.$.$.$.$.#.#.#.$.$.K.K.J.J.$.#. . . . .H.H.L.I.Q.Q.!.!.!. X X!.Q.L.K.J. .{ { }  .H.H.H.H.H.H.I.Q. X@XzXcX#XI.S.S.S.S.x.x.x.z.z.z.z.z.z.] ] ] [ [ [ [ ] ] ] ] ] ] ] ] ] ] ] ] ] ] ] ] ] ] ] ] ] ] ] ] ] ] ] ] ] ] z.] ] ] ] ] ] ] ` ` ` ` [ [ ` ` ` ` ` [ [ [ ` ",
"K L ) _ ' ` _ ) _ ] _ _ _ _ ` ` ' ' ` ` ` ` ` ` ' ' ` ` ` ` ` ` ' ' ' ' ` ` ` ` ' ' ` ` ` ` ` ` ` ` ` ` ` ` [ [ ` ` ' ' ' ' ' ' ' ' ' ) ) ) ) ) ) ) ) ) ) ) ) ) ' ' ' ' ' ' ' ' ` ` ' ' ' ' ' ' ] ] ] ] ] ] ] ] ` ` [ ] ] ] ] ] ] ] ] ] [ [ [ [ [ [ [ [ [ [ [ [ [ [ [ [ [ [ ` ` ] ] ] ] ] ] ] [ [ ' I U p w w * = f j j X.X.I [ [ [ ] ] z.z.z.z.z.z.z.z.x.x.c.n.c.x.x.x.x.c.c.c.x.c.c.c.x.x.x.x.m.m.c.c.c.c.c.c.c.c.c.c.c.c.m.m.c.m.c.c.c.c.c.c.c.c.c.c.z.z.x.z.z.[ I ( E.&X*X4XnXMXuX:.3 > > l b n M 1 # < s =.s y + X O O O O O + @ 7 7 7 7 e p a ! ! Q Q / =./ =./ W 7 6 @ X O O O O O O O O O                   X < ,.>.S D F a.d.s.s.w.A c c l 3 < > < y w 7 6 # X .     . X > b B B n b j i 1 < y y y y y e # # o * . . . .       . . . X . X .   . .           . . p.y.j.:Xk.i.0.G G G q.q.:XtXaXdXaXsXsXsXaXaXwX<Xd.s.w.S m v n :.:.:.:.B m n n N N M z z i u y # # 7 7 7 q r r Y W Y Y Y W W E Y Y Y Y Y Y Y Y Y E E T R { |  . . . . . . . . . .#. .+.+.+.+.+.+.#.$.J.H.J.K.K.K.K.J.J.J.J.K.K.K.K.K.$.$. . . . . .m.H.L.I.Q.!.!.!.!.Q.I.P.J.J.J.H.$.#.#.H.P.P.P.J.P.P.L.Q.@X X X#XP.S.m.S.S.x.x.x.c.c.v.v.z.z.z.z.] ] [ [ ] ] [ [ [ [ [ [ [ [ [ [ [ [ [ [ [ [ ] ] ] ] [ [ ` ` ] ] ] ] ] ] ] ] ` ` ] ] ] ] ] ] ] ] ] ] ] ] ] ] ] ] ] ] ` ",
"K L ) ) ' ' ) ) _ ] _ ] _ _ ` ` ' ' ` ` ` ` ` ` ' ' ` ` ` ` ` ` ' ' ' ' ` ` ` ` ' ' ` ` ` ` ` ` ` ` ` ` ` ` [ [ ` ` ' ' ' ' ' ' ' ' ' ) ) ) ) ) ) ) ) ) ) ) ) ) ' ' ' ' ' ' ' ' ` ` ` ` ` ' ' ' ` ` ` ` ` ` ` ` ` ` [ [ ] ] ] ] ] ] ] ] [ [ [ [ [ [ [ [ [ [ [ [ [ [ [ [ [ [ ` ` ] ] ] ] ] ] ] ] [ [ ' U U U w w j j j j ( ( I ` [ [ [ ] z.z.x.x.x.x.x.x.c.n.n.n.n.x.x.c.c.c.c.c.c.c.c.c.x.x.x.x.m.m.c.c.c.c.c.c.c.c.m.m.c.c.c.c.n.m.c.c.c.c.c.c.c.c.c.c.x.x.z.z.z.] ] ..<.&X-X-X%X;X1X=Xd.3 l c c B N i 1 1 u s s s # + X O O O O @ 7 7 7 @ @ 7 r d ! ! Q W Q Q W ( W r 7 6 6 @ O O O 6 0 6 @ O O O                   X o c S S A >.t.s.s.r.F m v c 3 > > < w 7 7 6 # X .     . X X > j N M j i 1 < > * # # # 7 # o . . . . . . . . . . % > 1 i d * . . . .       .   . . B t.d.i.4.G G v G 0.h.8XaXsXBXBXdXdXsXaXyX>Xu.w.S B c c c c b B B B B B n b b z z i i u y 1 ; 7 7 7 q r r Y W W W Y Y W W E E E E E T Y Y Y E T T { |  .+.+.+.#. . . . . . . . . .#.#.#.+.#.#.$.J.J.J.J.K.K.K.K.K.J.#.#.$.$.$.$.$.$.$.J.#. .} { { } } P.I.!.!.!.!.!.Q.L.H.H.H.J.K.K.H.K.L.L.L.P.P.P.P.I.!.2XcXxX#XS.S.m.m.n.x.x.c.c.c.b.v.z.z.z.z.] ] [ [ ] ] [ [ [ [ [ [ [ [ [ [ [ [ [ [ [ [ [ ] ] ] [ [ ` ` ] ] ] ] ] ] ] ] ` ` ] ] ] ] ] ] ] ] ] ] ] ] ] ] ] ] ] ] ` ",
"K K L ) _ _ ) ) _ ] ] ] _ _ ] ] ' ' ` ` ` ` ` ` ` ` ` ` ` ` ` ` ` ` ` ` ` ` ` ` ` ` ` ` ] ] ] ` [ [ [ [ [ ` [ ' ` ` ` ' ' ' ' ' ' ' ' ' ) ) ) ) ) ) ) ) ) ) ) ) ' ' ' ' ' ' ' ' ' ' ' ` [ [ [ ' ` ` ` ` ` ` ` ` ] ] ] ] ` ` ] ] ] ] ] ] [ [ [ [ [ [ [ [ [ [ ] ] [ [ [ [ [ [ ` ` ] ` ] ] ] ] ] ] ] [ [ [ I U U ( j j j d d U I ' [ [ ] ] b.m.c.c.n.m.m.m.n.n.n.n.c.c.c.c.c.c.c.c.c.c.c.c.c.c.c.c.c.c.c.c.m.c.c.c.c.c.c.c.c.c.c.c.n.n.c.c.c.c.m.c.c.m.m.m.x.x.x.x.x.z...[ ( +X-X*Xe.%X;X1X;Xc 2 l l ;.;.b M i d s s s u + + O O O + # 7 e 7 @ X # e a ! ! ! p q q q q r q 7 6 6 6 6 6 0 r W r 7 7 O O                     . > n S D A S e.r.y.D A m c l 1 < > < 7 7 6 @ X         X X X - u j i 1 < * # # + + + + X X X . . . % % % % , , , g c n M d # . .       . . . . . , 7.u.4.G G G 6.i.j.>XeXsXmXBXBXdXdXfXaX7Xj.w.S n N i 2 2 2 b n n n n n b z i i u 1 1 < ; e e e r r r W W W W W W W W W W E E ~ ~ T T R R R R |  .#.J.K.J.H.H.#.H.H.#. . . . .#.#.#.#.H.$.J.J.J.P.P.L.P.K.K.K.J.H.#.#. . . . .+.#.+.+.$.J.#. .{ { } } H.I.!. X!.!.Q.I.P.m. .#.H.K.T.K.L.L.L.L.L.P.P.P.Q.@X2XvXxX#XP.S.m.m.n.m.c.c.c.c.c.b.b.b.z.z.] ] [ [ ] ] [ [ [ [ [ [ [ [ [ [ [ [ [ [ [ [ [ [ [ [ [ [ ` ` ] ] ` ` ] ] ] ] ] ` ` ] ] ] ] ] ] ] [ ] ] ] ] ] ] ] ] ] ] ",
"K K L ) _ _ ) ) _ ] ] ] _ _ ] ] ' ' ` ` ` ` ` ` ` ` ` ` ` ` ` ` ` ` ` ` ` ` ` ` ` ` ` ` ] ] ] ] [ [ [ [ ` ` [ [ ` ` ` ' ' ' ' ' ' ' ' ' ) ) ) ) ) ) ) ) ) ) ) ) ' ' ' ' ' ' ' ' ' ' ' ' [ [ [ [ ` ` ` ` ` ` ` ` ] ] ] ] ` ` ] ] ] ] ] ] [ [ [ [ [ [ [ [ [ [ ] ] [ [ [ [ [ [ ` ` ` ` ] ] ] ] z.z.] ] [ [ [ I X.X.j f = $ w w U I ' [ [ ] m.n.n.n.n.m.m.n.n.n.n.n.c.c.c.c.c.c.c.c.c.c.c.c.c.c.c.c.c.c.c.c.m.m.c.c.c.c.c.c.c.c.c.c.n.n.c.c.c.c.m.c.c.m.m.m.x.x.x.x.x.z.z.[ ..^.&X&X$X,XrX1X=Xe.S S 8.%X%Xp.-.M M s d s s < X O O O @ 7 7 y e @ X @ 7 e a ! ! p 6 5 5 q q q q 6 6 6 0 6 Y ^ o.Q W r @ O                         . X Z m c S S 7.7.F A v l 1 < < < w 7 # X O           X X X X 2 1 < * o . X X O O X X . X . , , , g h v C C C C C C j i < . . .     . . . . . , m 0.q.d.i.h.j.k.>XtXyXmXBXDXDXBXaX8Xj.w.F A n 2 j 1 1 2 i b b b b b b z z u 1 ; # # # ; e y p p p W W W W Y Y Y E W W Y E T ~ ~ | | | | |  . .J.K.K.T.L.K.H.H.H.H.#. . . . .#.#.#.#.$.H.H.J.L.L.L.L.L.P.P.J.H.H.#. .} { { |  . .| | +.$.$.#. . . . .H.I.!. X!.!.Q.L.H.} }  .#.K.T.T.T.L.L.T.T.L.P.P.#X2X X XI.P.S.S.m.x.n.m.c.c.c.c.c.b.b.b.z.z.] ] [ [ ] ] [ [ [ [ [ [ [ [ [ [ [ [ [ [ [ [ [ [ [ [ [ [ ` ` ] ] ` ` ` ` ] ] ] ` ` ` ] ] ] ] ] ] [ [ ] ] ] ] ] ] ] ] ] ",
"L I ' ' ' ' ' ' ` ` ` ` ` ` ` ` ` ` ` ` [ [ [ [ ] ] ] ] ` ] ] ] ` ` ] ] ` ` ` ` [ [ [ [ _ ] G.G.[ [ [ [ [ [ ` ` ` ` ' ' ' ' ' ' ' ' ` ` ` ` _ _ ) ) ) ) _ _ _ _ ) ) ) ) ' ' ' ' ` ` ] ] ` ` ` ` ] ] ] ] ` ` ] ] ] ] ] ] ` ` ] ` ` ` ] ] ` ] ] ] ] ] ] ] ] ] ] ] ] ] ] ] ] ] ] ] ] ] ] ] ] ] z.] [ [ [ [ [ [ X.X.j h = = * w w 9 J ' [ z.m.m.m.m.m.m.n.n.C.C.n.n.c.c.c.c.c.c.c.c.c.c.c.c.c.c.c.c.c.c.c.c.c.c.c.c.c.c.c.c.c.c.c.c.m.m.c.c.c.c.c.c.c.c.c.c.x.x.x.x.x.b.] [ ..$.^.*X*Xp.=X9X;Xt.t.>.p.,X1X%Xp.1 1 z i s d y # X + + X # e e y 7 7 7 7 y a ! Q r 5 6 6 6 6 q t 7 0 6 0 0 R $.<.@.Q t @ O                             1 c m m m m m A A c l 2 1 < < y e 7 # X   + +     X     > 3 = * $ . .           . . . 2 f V C C C F F F F G G G V j 1 .   . . .   . . < 3 S 4.j.:XwX8X:X:Xj.8XyXsXAXAXVXVXaXtX;Xa.Z c l 2 2 2 2 l z z z i i z z z i u 1 ; # # # 7 e e p p p W W W Y r Y Y Y E T T T T ~ ~ { { | |  . .J.Y.T.Q.Q.T.T.K.J.$.$.$.#. . . . . .#.#.#.$.J.J.J.P.L.L.W.L.L.P.P.H. .{ { { { T T T { { | +.$.%.K.#.#. .H.P.Q.!. X!.!.W.P.m.} }  .#.K.T.T.T.T.I.I.Q.Q.T.T.#XxX#X XP.m.S.S.n.n.n.x.x.x.x.x.x.z.z.z.z.] ] ] [ [ [ [ [ [ [ [ [ [ [ [ [ [ [ [ [ [ [ [ [ [ ` ` ` ` ` ` ` ` ` ` ` ` ] ` ] ] ] ] ] ` ` ` ] ] ] ] ] ] ] ] ] z.z.z.z.",
"L ' ' ' ' ' ' ' ` ` ` ` ` ` ` ` ` ` ` ` [ [ [ [ ] ] ] ] ] ] ] ] ` ` ] ] ` ` ` ` [ [ [ [ ] m.F.W.] [ [ [ [ [ ` ` ' ` ' ' ' ' ' ' ' ' ` ` ` ` _ _ ) ) ) ) _ _ _ _ ) ) ) ) ' ' ' ' ` ` ` ] ` ` ` ` ] ] ] ] ` ` ` ` ] ] ] ] ` ` ] ` ` ] ] ] ] ] ] ] ] ] ] ] ] ] ] ] ] ] ] ] ] ] ] ] ] ] ] z.z.z.z.z.[ [ [ ....( X.X.j h & $ = * + + q I [ z.m.n.n.n.n.n.n.n.C.C.n.n.c.c.c.c.c.c.c.c.c.c.c.c.c.c.c.c.c.c.c.c.c.c.c.c.c.c.c.c.c.c.c.c.m.c.c.c.c.m.m.c.c.c.c.c.x.x.x.x.x.b.z.] ......~.E.%X,XrX<Xa.a.;X1XuXuXrX,X-.i 1 z i u u w + + X + + # e y y e y p a Q ! W q 5 q q q q q q q 0 0 0 T $.T.<.@.^ t @ O                               X o 3 l c c v v n b 2 1 < < y 7 y y # p u 7     X   > V C 3 $ . . .             . * j V F 4.4.4.4.4.4.4.4.4.F C h 3 . * . . . # > 1 ,.e.1XtXmXaXaXyXwXwXtXiXAXAXAXMXrX7Xg.s.A Z n b n n n b b b b b z z b z z i 1 > - ; # 7 7 e e p p p W Y Y r r r r 0 0 J Y T T { { ~ { | |  .J.Y.T.T.Q.Q.Q.Q.T.L.K.$.$.#. . . . . . . .#.#.$.J.J.K.L.L.W.W.I.L.P.P.J. .{ { { { T T T T T R | | +.$.$.J.J.P.L.Q. X X!.!.W.P.H.} }  .#.K.T.T.T.T.I.W.Q.Q.Q.!.#XxXvXxXm.S.S.n.n.n.c.c.x.x.x.x.x.x.z.z.z.] ] ] [ [ [ [ [ [ [ [ [ [ [ [ [ [ [ [ [ [ [ [ [ [ ` ` ` ] ] ] ] ] ` ` ` ` ] ] ] ] ] ] ] ] ] ] ] z.z.z.z.z.z.z.z.z.z.z.z.",
") ) ' ` ` ` ' ' ` ` ] ] ` ` ` ` ` ` ` ` ] ] ] ] ] [ ] ] ] ] ] ] ] ] ] ] ] ] ] ] ] ] ] ] b.m.b.z.] [ [ [ [ [ [ ` ' ' [ ' [ [ ' ' ' ' ` ` ` ` _ _ ) ) ) ) _ _ _ _ ' ' ) ) ' ' ' ` ` ] ] ] ] ] ] ] ] ] ] ] ] ] ] ] ] ] ] ] ] ] ] ] ] ] ] ] z.z.z.z.] ] z.z.z.z.z.z.z.z.z.z.z.z.z.z.z.z.z.z.z.z.b.b.z.[ ..X.X.X.X.X.j = $ $ $ * * + 5 U ..m.n.N.N.N.n.n.n.n.C.C.n.n.N.N.N.N.c.c.c.c.c.c.m.c.c.c.c.c.c.m.c.c.c.c.n.n.c.c.c.c.c.c.c.c.m.c.c.c.c.c.c.c.c.c.c.c.x.x.x.x.x.z.z.] [ ..I <.<.-X,X9X<Xs.t.,X<X9XrXuXrXp.B b i i d u y # + X + + # e p p p p p a a Q r r q q q q q q r r Y E ~ $.Y.Q.Y.$.^ r 4                                 X o > > 3 3 2 l l l 1 < y y y y w < < *.*.d X X X . n F 4.v % . . . .           . < V C 4.4.4.q.q.q.q.q.0.0.0.G V , % .   . % > c D ;X1XyXMXZXBXBXsXiXfXsXsXBXBXaXyX:Xg.w.6.A b b n N N N N N N b b z z z i 1 < - ; ; 7 7 e e e p p p r r Y Y r r r q 0 Y Y T R | | | |  . .J.Y.T.T.T.T.T.T.T.T.T.K.J.$.#. . . . . . . . . .#.#.#.$.J.J.P.L.L.I.L.P.P.J. .{ { T T T T T E E T T R | +. .$.J.L.L.Q. X X X!.Q.P.H.} }  .#.K.T.T.T.T.Q.T.Q.!.!. X#X2X XS.S.S.n.n.n.c.c.n.c.m.n.x.x.x.z.z.z.] ] ] [ [ ] ] [ [ [ [ [ [ [ [ [ ] ] ] ] ] ] ] ] ] ] ] ] ] ] ] ] ] ] ] ] ] ] ] ] ] ] ] z.z.] ] z.z.z.z.z.z.z.z.z.z.z.z.z.",
") ) ` ` ] ] ` ` ` ` ] ] ] ` ` ` ] ] ` ` [ [ ] ] [ [ ] ] ] ] ] ] ] ] ] ] ] ] ] ] ] ] ] ] z.z.z.z.] ] ] [ [ [ [ [ ` ' [ [ [ [ ' ` ' ' ` ` ` ` _ _ ) ) ) ) ) ) _ _ ' ' _ _ ' ` ' ' ] ] ] ] z.z.] ] ] ] z.z.z.z.z.z.] ] z.z.z.z.z.z.z.z.] ] z.z.z.z.z.z.z.z.z.z.z.z.z.z.z.z.z.z.z.z.z.z.z.z.z.z.c.b.v...X.X.X.X.3.3.C h = j h < * # + U ' m.c.N.N.N.C.C.C.C.C.C.C.C.N.N.c.c.c.c.c.c.c.c.m.m.c.c.c.c.m.m.c.c.c.c.n.n.c.c.c.m.c.c.c.c.c.c.c.c.c.c.c.c.c.c.c.c.x.x.x.x.c.b.z.] [ [ ) ..=.*X5X4X1X;Xa.a.;X=X;X<X9X%Xp.,.N i u u u w + + + + # e y p s p p p p q r r r q r r r W Q ( / +.Y.T.W.W.Y. .| Y 4                               . .     X . o > > o - 1 u < y w w * * > 2.;.j X X . X S y.l.y.C , % .   .       . o h C y.i.l.l.l.l.l.l.i.q.q.q.F v g > > o 3 A r.:XwXaXmXBXZXSXSXHXHXSXZXZXBXfXyX:Xj.w.6.v v c 2 N N z N N N N N M b i 1 < - - - # ; e e r r r r p p r r Y q q q q q Y Y T | | |  . . . .J.Y.T.T.T.T.T.T.T.T.T.T.K.J.+.+. . . . . . . . . . . . . . . .H.J.P.P.W.L.P.P.J. .{ { T T T T T E E E Y Y R R {  .$.P.L.!. X X X!.I.P.m.} }  .#.K.T.T.U.L.T.T.Q.!. X#X XI.I.m.S.n.c.C.c.c.c.c.m.m.c.x.x.x.x.z.z.] ] ] ] [ ] ] [ ] ] ] ] ] ] ] ] ] ] ] ] z.z.] z.] ] ] z.z.z.z.z.z.z.] ] ] ] z.z.z.z.z.z.z.z.z.z.z.z.z.z.z.z.z.z.z.z.z.z.",
"[ [ ] ] z.z.] ] ] ] ] ] ] ] ] ] ] ] ] ] ] ] ] ] ] ] ] ] ] ] ] ] ] ] ] ] ] ] ] ] ] ] ] ] z.z.] ] ] ] ] ` ` [ [ [ ` [ [ [ [ [ ' ' ' ' ` ` ' ' ` ` ) ) ) ) ' ' ' ' ' ' ` ` ` ` ` ` ] z.z.z.z.z.z.z.z.z.z.z.z.z.z.z.z.z.z.z.z.z.z.z.z.z.z.z.z.z.z.z.z.x.z.z.z.z.z.x.z.z.x.z.b.z.z.z.b.b.c.c.c.c.c.b.m.X.X.X.3.3.3.5.C h h C V 2 * * # p ( ] m.N.N.N.C.C.C.C.C.C.C.C.C.C.N.c.c.c.c.c.c.c.c.c.c.c.c.c.c.c.m.n.n.n.n.n.n.m.m.m.n.n.n.n.c.c.c.c.c.c.c.c.m.c.c.c.x.x.x.x.c.b.z.] ] ] [ ' ..$X$X5X,X1X%X=X=Xt.a.1X4X,Xa.p.,.N M u s u # X X + # p y a s p p q q q r W r r r W Q Q ^ / / / Y.W.W.^.Y. ...J 0 O                                         X o o o # # * # # # * $ % j e.e.S . . . , f.l.l.l.0.C % % . .       . * h w.i.j.l.l.l.l.l.l.l.l.i.0.4.C g > , v G i.j.wXaXmXBXZXDXSXFXJXKXSXDXdXfXeX7Xg.u.A A A n n b b N M N M M z M z i u > - - ; ; ; e e r r r r r r r q r r Y q Y Y E T | |  . .J.J.J.H.J.P.Y.Y.T.T.T.T.T.Y.Y.K.J.$.$.$.+. . .{ { { | | | | | | { { { {  .H.J.P.L.I.L.L.J. .| { { { { { T E E Y Y Y Y R {  .#.J.L.W. X X X!.I.H.m.} } }  .#.K.K.$.K.T.!.Q. X#XzX.XA.S.A.C.C.N.N.c.n.c.c.m.c.c.x.c.x.x.z.b.z.z.z.] ] ] ] [ z.z.z.z.z.z.z.] z.z.z.z.z.z.z.z.z.z.z.z.z.z.z.z.z.z.z.z.z.z.z.z.z.z.z.z.z.z.z.z.x.x.x.x.x.x.x.x.x.x.x.x.",
"[ [ ] z.z.z.z.] ] ] ] ] ] ] ] ] ] ] ] ] ] ] ] ] ] ] ] ] ] ] ] ] ] ] ] ] ] ] ] ] ] ] ] ] z.z.] ] ] ] ] ] ` ` [ [ ` [ [ [ [ [ ' ' ' ' ` ` ' ' ` ` ) ) ) ) ' ' ' ' ' ' ` ` ` ` ` ] z.z.z.z.z.z.z.z.z.z.z.z.z.z.z.z.z.x.z.z.z.z.z.z.z.z.x.x.z.z.z.z.x.x.x.x.c.c.c.c.c.c.x.x.c.v.z.z.c.c.c.c.c.c.c.v...X.X.X.j j C h h f k h j 2 % * w ( ..m.C.Z.Z.Z.Z.Z.Z.C.C.C.C.C.C.C.C.c.c.c.c.c.c.c.c.c.c.c.c.c.c.c.n.n.n.n.n.n.m.m.n.n.n.n.n.n.c.c.c.c.c.c.c.c.m.m.c.c.x.x.x.z.c.b.z.z.z.z.] [ I <.3.,X4XrX1X%Xd.D A a.,X1X%X,.-.-.2.M M s s y + + # p ! O.s y p w q q r r r r r W Q Q ^ / ^ ^ Y.Y.W.W.Y.....J 0 O                                             X X . . + + + . . . . B =Xd.4.% . . g l.l.l.l.i.F , % . . .       * V f.j.k.k.k.k.k.k.k.k.l.i.0.y.G v F 0.d.:XtXyXmXZXSXZXDXFXHXJXSXDXdXsXyXeXk.:Xd.u.6.Z A B n N M M M M x i d u u u < - ; ; ; ; e e q r r r r r r q q 0 q q Y ~ | +.$.$.J.Y.Y.Y.L.L.L.L.L.L.L.Y.T.T.T.T.K.K.$.$.$.+. .| | R R R R { R R R R { { { { {  .H.J.P.L.W.W.L.J.#. .{ { { { { E T E Y Y Y Y T R {  .J.I.W. X X X!.I.m.m.} } } { { #.%.#.K.T.!. X#XzXcX.XA.x.C.C.C.N.N.c.n.c.c.c.c.c.x.c.x.x.x.b.z.z.z.z.z.b.b.z.z.z.z.z.z.z.z.z.z.z.z.z.z.z.z.z.z.z.z.z.z.z.z.z.z.z.z.z.z.z.z.z.z.x.x.z.z.z.x.x.x.x.x.c.c.c.c.c.c.x.x.x.",
"[ [ ] z.z.z.z.z.] ] ] ] ] ] ] ] ] ] ] ] ] ] ] ] ] ] ] ] ] ] ] ] ] ] ] ] ] ] ] ] ] ] ] ] ] ] ] ] ] ] [ [ ` ` ' ` ` ` [ [ ' ' ' ' ` ` ` ` ' ' ' ' ) ) ) ) ' ' ' ' ] ] ] ] ] ] ] z.z.x.x.x.x.x.c.c.c.c.c.c.z.z.z.x.x.x.x.x.z.z.z.z.x.x.x.x.z.x.x.x.x.x.c.x.c.c.c.c.c.c.c.c.c.x.x.x.c.c.c.c.c.c.N.v...X.X.j = k h h k & & f f , % * W ..m.F.D.`.'.'.`.D.D.D.Z.Z.N.N.C.C.C.c.c.c.c.c.c.c.c.c.c.c.n.n.c.c.n.n.n.n.n.n.n.n.n.n.n.n.n.n.m.m.n.c.m.c.c.c.c.c.c.c.x.x.x.x.x.x.z.z.z.z.z.] I ( =.4X4XuX9Xd.d.F A 7.%X<X,Xe.N N -.M M s s s # + X p ! O.s y y y r q r r r r r W Q Q ( ( ( ^ | J.Y.Y.Y.....W 0 O                                                 . . . . . . $ . % 5.=Xg.y.g g g y.k.k.k.k.l.0.c , . .       X % c s.>X6XqXqXqX0Xk.k.k.l.l.i.F G G d.j.8XwXyXfXBXZXDXSXHXJXHXHXBXdXiXeX8X>Xg.d.r.r.7.D D Z B N =.M M i d u y < ; # # ; ; ; ; e e r r r Y Y r r q 0 0 0 J Y R | +.$.$.$.K.Y.L.L.I.L.I.L.L.L.L.L.L.Y.Y.J.$.+.+.| | | R T T T T T T T T ^ R R R { { { }  .m.J.P.I.Q.Q.T.K.J.#. . . .{  .T T E Y t t Y Y R R | #.P.W.W. X X!.I.m.m.} } } } { { #.+.$.Q. XQ.zXzXxXXXC.c.c.C.C.B.C.c.n.n.n.c.c.c.x.c.x.x.x.b.b.z.z.z.b.b.b.v.v.v.v.z.z.z.z.z.z.z.z.z.z.z.z.z.z.z.z.z.z.z.z.z.z.z.z.z.z.z.z.x.x.x.x.x.x.x.x.c.c.c.c.c.c.c.c.n.n.n.n.n.",
"[ [ ] z.z.z.z.z.z.] ] ] ] ] ] ] ] ] ] ] ] ] ] ] ] ] ] ] ] ] ] ] ] ] ] ] ] ] ] ] ] ] ] ] ] ] ] ] ] ] [ [ ` ` ' ` ` ` [ [ ' ' ' ' ' ` ` ` ' ' ' ' _ _ _ _ ' ' ' ' ] ] ] ] z.z.z.z.x.x.c.c.c.c.n.c.c.c.c.n.z.x.x.x.x.x.x.x.x.x.x.x.x.x.x.x.x.x.x.x.x.x.x.x.n.n.c.c.c.c.c.x.c.c.c.x.c.c.c.c.c.c.c.v.X.X.( d j C f k k f f , 3 = = w ( m.G.D.`.].].].[.[.`.`.Z.Z.N.N.N.C.n.c.c.c.c.c.c.c.c.x.n.n.n.n.c.c.n.n.n.c.C.C.c.c.c.c.c.c.c.c.c.c.c.c.m.m.m.c.c.c.c.c.x.x.x.x.z.x.z.z.z.z.z.z.L ~ ! *X4XuX<X;X;Xs.D D d.1X1X=X>.n N M i u d u p + X e y a a p y y p q r r W W W W Q Q W W W ~ ^  . .Y.Y.....U 0 O                                                 . . . . . . . . , f.;X:Xj.4.v y.6X6XeX0Xk.q.q.v , . .       o . > y.k.k.qXqXqXqXk.k.k.k.l.G 3 y.j.yXiXyXeXyXfXZXDXHXSXSXZXmXsXeXwXk.:Xh.i.0.y.D 7.S :.;.-.-.*.=.=.=.u u < # # # # # e e e e e e r r Y Y Y r r 0 0 0 Y E ^ ^ | | |  .#.J.J.L.L.L.L.L.L.L.L.L.L.L.Y.K.$.$. .| ^ R T T T T T T T T T T ^ R R R { { { } } H.H.P.Q.Q.Q.T.L.J.#. . . . . .{ T E Y t t Y Y E { | #.J.W.W. X X!.I.P.m.} } } } { { { +.K.!.@X#XvXvX.XA.C.C.C.C.C.N.C.c.n.n.n.c.c.c.x.c.x.x.x.v.b.b.b.b.b.b.b.v.v.v.v.x.x.z.z.z.z.z.z.z.z.z.x.z.z.z.z.z.z.z.z.z.x.z.z.x.x.x.x.x.c.c.c.c.c.c.c.c.c.c.c.c.c.c.c.n.n.n.n.n.",
"[ ] z.z.z.z.z.z.z.z.] ] ` ` ] ] ] ] ] ] ] ] ] ] ] ] ] ] ] ] ] ] ] ] ] ] ] ] ] ] ] ] ] ] ] ] ] ] ] ] [ [ [ [ [ [ [ [ [ ' ' ' ` ` ' ' ` ` [ ` ` ` ] ] ] ] ` ] ] ] ] z.z.z.z.z.z.z.x.x.x.x.c.c.c.c.c.c.c.c.c.c.n.n.n.n.n.n.C.C.C.C.C.n.n.n.n.n.n.n.n.n.n.n.n.n.n.n.n.c.c.c.b.b.b.b.b.b.v.v.v.c.v.[ ( ( s j j j h k k f f h d d p U ..m.F.F.].'.'.'.].].].[.`.).Z.B.N.C.C.C.n.m.m.c.c.c.c.c.n.n.m.m.m.m.n.n.n.C.C.C.N.N.N.N.N.N.N.N.C.C.N.N.c.c.c.c.z.x.x.z.z.z.x.x.z.z.z.z.z.z.z.z.] [ ..E.-XuXrX<X1X=Xt.S r.1X<X,X%X;.b z i s s s p # + # 7 y p p p p p p r p W W p p W W W Y W W ~ | | $.$...^ W 7 X O O                                                       . . . % f.6X>Xl.4.v q.6XeXeX0Xk.l.0.G g o . .     .   . y.k.qXqXqXqXqXeXk.k.i.4.v v k.wXsXsXiXiXiXsXZXDXSXSXdXsXeXwX>Xj.h.d.i.y.6.D D D ;.-.-.*.*.M s s u p y e 7 # # 7 e e p e r r r r r Y Y Y Y Y Y Y T ^ ^ ^ | | | { {  .#.J.L.L.L.L.L.L.L.L.L.L.L.L.K.$.+. .| | ^ R R E T T T T T T T T R R R { { {  . .H.L.Q.!.!.!.Q.J.H.J.#.#.#.#.#. .R T T E Y T T R |  . .m.W.W.!. X XQ.P.H.H. .{ {  .#.{ { OX@X@X2XbXvX.XA.A.A.C.D.C.C.C.n.n.n.n.m.m.m.c.c.c.c.c.c.c.c.c.c.c.c.c.c.c.c.c.N.N.c.c.c.x.x.x.c.c.c.c.c.c.c.c.c.c.c.c.c.c.c.c.x.x.x.x.c.c.c.c.c.c.c.c.c.c.c.c.c.c.c.c.n.n.n.n.m.",
"[ ] z.z.z.z.z.z.z.z.] ] ` ` ` ` ] ] ] ] ] ] ] ] ] ] ] ] ] ] ] ] ] ] ] ] ] ] ] ] ] ] ] ] ] ] ] ] ] ] [ [ [ [ [ [ [ [ [ ' ` ' ' ' ' ' ' ' [ ` ` ` ] ] ] ] ] ] ] ] z.z.z.z.z.z.z.z.x.c.x.x.c.c.c.c.c.c.c.c.c.c.c.n.n.n.n.n.C.C.N.N.C.n.n.n.n.n.n.n.n.n.n.n.c.c.c.n.b.z.m.] [ [ ..[ ] [ m.m.m.m.....( X.X.3.C j f = k k f j ! X.......G.F.F.].].'.'.'.].].'.`.).).B.N.N.C.N.n.m.c.c.N.N.N.N.c.n.m.m.n.n.C.C.C.C.Z.Z.Z.Z.Z.Z.Z.Z.Z.Z.Z.C.N.N.N.c.c.c.x.x.x.x.z.z.x.z.z.z.z.z.z.z.z.z.z.] ..<.1.-X4XnX<X:Xg.7.p.1X<X1X,Xa.;.b z *.*.=.x y # # # 7 p ! ! ! ! a Q Q ! Q Q p p p Y Y Y Y W W ^ / @.../ W r X X X                                                         . V 5.;XwX>Xl.4.v k.eXgXgXqX0Xl.q.G v , X X         . r.k.qXqXqXqXqXk.l.q.G G 4.i.yXsXBXsXdXdXBXhXdXsXfXyX8X8Xk.g.i.0.6.w.w.>.A Z Z B N N M x x s u y e e e e 7 7 e e r p p r r r t t q q J Y Y Y ~ ^ | | | | | | | { { {  .J.L.L.L.L.L.L.L.L.L.L.L.K.$.+. .| ^ R R T Y E E E E E E Y Y W W R R { {  .#.H.J.I.Q.!.!.Q.T.H.H.#.#.#.#.#.#.+.{ T T E T T T { |  .m.m.W.!. X!.!.Q.I.P.P.H.H.#.#.{ { J.@X#XzXcXxX.XD.Z.Z.D.C.D.C.C.C.N.n.c.n.m.m.m.c.N.N.N.N.N.N.C.C.C.C.C.C.N.N.N.N.C.C.C.C.C.c.c.c.c.c.c.c.c.c.c.c.c.c.c.c.c.c.c.c.x.c.x.x.c.c.c.c.c.c.c.c.c.c.c.c.c.c.c.c.n.n.n.n.n.",
"[ ] z.z.z.z.z.z.z.z.] ] ` ] ] ] ] ] ] ] ] ] ] ] ] ] ] ] ] ] ] ] ] ] ] ] ] ] ] ] ] ] ] ] ` ] ] ] ] [ [ [ [ [ [ [ [ [ [ [ ` ' ' ' ' ' ' ' ` ` ` ` ] ] ] ] ] ] ] ] z.z.z.z.z.z.z.z.c.c.c.c.c.c.c.c.c.c.c.c.N.N.N.c.C.n.n.n.C.C.C.C.C.C.C.C.C.C.C.C.n.n.m.b.m.m.m.....X.X.X.X.X./ X.................X.X.3.3.C j f = & k j s X.X...G.G.G.F.F.[.'.].].'.{.'.'.`.`.Z.N.N.N.C.N.N.c.c.c.C.Z.C.C.C.n.C.C.C.C.A.Z.Z.Z.D.D.Z.`.).).).Z.Z.Z.Z.C.C.C.c.n.c.m.x.x.x.x.z.x.z.z.z.z.z.z.z.z.z.z.z.] [ ..<.3XnXnXnX9X;Xa.%X,X4X1X;X%X:.b i *.*.*.=.u ; X + 7 p ! =.=.=.! ! ! Q Q p p p p r Y Y Y Y W W ( / / / Q e @ + +                                                         . :.:XeXeXk.q.4.4.0XeXgXgXqX0Xl.q.G v , % X X .     . F j.eXeXeXeX>Xk.q.G v v G d.yXaXmXBXZXZXZXsXfXiXyXwXj.g.i.y.6.F D S D Z n n n z z i i u y y e e e e e e e e e r r r r r r r t t q 0 J T R |  .+.+. .+. .+.| | { { { } H.J.L.L.L.L.L.L.L.L.L.K.K.+. .| R R W W Y Y Y Y Y Y Y Y Y Y E W W R {  .#.H.H.P.T.Q.!.Q.W.J.H.#.#.#.#.#.#.#.$. .R T E T T T {  . .H.J.W.!.!.!.!.!.Q.L.L.P.H.#. . .#.!.@X XzXvX.X[.[.Z.D.D.D.D.D.C.C.C.C.C.n.n.n.n.C.C.N.C.C.C.C.C.C.Z.Z.Z.Z.Z.Z.Z.Z.Z.Z.Z.Z.Z.C.C.C.N.N.c.c.c.c.c.c.c.c.c.c.c.c.c.c.c.c.c.c.c.c.c.c.M.M.c.M.N.N.c.c.n.n.n.n.n.n.C.C.n.",
"[ ] z.z.z.z.z.z.z.z.z.] ] ] ] ] ] ] ] ] ] ] ] ] ] ] ] ] ] ] ] ] ] ] ] ] ] ] ] ] ] ] ] ] ] ] ] ] ] [ [ [ [ [ [ [ [ [ [ [ ` ' ' ' ' ' ' ' ` ` ` ` ] ] ] ] ] ] ] ] z.z.z.z.z.z.z.z.c.c.c.c.c.c.c.c.c.c.c.c.c.c.c.c.n.n.n.n.n.n.n.n.m.m.m.m.m.m.m.m.b.b.m.] ........X.<.1.3.3.=.=.<.<.X...( ( ( ( ( X.=.3.*.j j h f k = j ( X...m.m.G.G.F.F.[.[.[.].].'.'.'.`.`.Z.N.N.N.C.N.N.N.N.N.Z.Z.Z.Z.C.C.C.C.D.D.D.D.`.`.`.[.`.`.`.`.`.`.`.`.N.C.N.N.N.n.c.m.x.x.x.x.z.z.z.z.z.z.z.z.z.z.z.z.z.] ] ..X.E.$X4X4X1X=X;X,X1X<X,Xe.p.>.z i 1 s 3.2.2.=.; # 7 y d =.=.=.=.s p p r r p p p p r r r r W W W ( / ( Q e @ + +                                                         . :.<XiXwXk.q.q.qXgXgXgXgXqXqXk.l.0.F v > X X .   . X v q.0XeXqXwXl.q.G G F 0.0.j.wXyXAXAXAXmXfXeXk.h.i.u.0.6.G A G A A B Z B l z l 2 1 u y < ; e 7 e e e e r r e r r r r t t q q q r Y Y ~ | +.$. .+.+.+.+.+.+.| | { { { }  .H.L.I.I.L.I.L.L.L.L.K.$. .| R T Y Y Y E t r r Y Y Y Y Y Y Y E W R { #.H.J.H.L.T.I.Q.I.L.H.#. . .#.#.#.#.#.$.+.{ E T E T { {  . .H.J.Q.!.!.!.!.!.Q.Q.Q.T.L.#. .K.Q.@X@X#XvXvXXXZ.Z.D.D.D.D.D.D.Z.C.C.C.C.C.c.c.c.N.Z.Z.Z.Z.Z.Z.Z.Z.Z.Z.D.D.Z.).).).`.`.`.).Z.Z.Z.N.C.C.N.c.c.c.c.c.c.c.c.c.c.c.c.c.c.c.c.c.c.c.c.c.M.M.M.M.N.N.N.c.C.C.C.C.C.C.C.C.C.",
"] ] z.z.z.z.z.z.z.z.z.z.z.] ] ] ] ] ] ] ] ] ] ] ] ] ] ] ] ] ] ] ] ] ] ] ] ] ` ` ] ] ] ] ] ] ] ] ] ] ] ] [ [ [ [ [ [ [ [ ` ` [ [ [ ` ` ` ] ] ] ] ] ] ] ] ] ] ] ] z.z.z.z.z.z.z.z.b.c.c.c.c.c.c.c.c.c.c.c.c.n.n.m.n.m.m.m.m.m.b.m.........................( ( ( ! ! =.3.3.3.3.3.3.3.3.3.=.=.=.! s ! ! M M j h h h h d w p ( X...m.G.G.G.F.F.[.[.[.[.'.].`.`.`.D.Z.Z.Z.Z.Z.N.N.Z.Z.B./.).Z.Z.Z.D.D.D.D.`.[.[.[.'.'.].].].'.].`.`.`.Z.C.N.C.C.c.c.x.x.x.x.x.x.x.x.x.z.z.z.z.z.z.z.z.z.z.] ] ..<.E.3X4X4X=X,X1X,X9X<X8.Z :.l 2 1 u =.2.2.*.< u e ; u s x =.=.s y 7 7 e p p p p p p p p p W Q W ( ( Q y 7 # X + +                                                     . S wXiXeXk.q.l.gXgXgXgXgXqXqXk.k.i.0.v c > X   . . . c 0.eXwXk.k.i.0.q.i.y.d.d.j.>XyXVXAXmXpXtX:Xd.y.F 7.D A A m m n n N N b z i 1 1 1 e e e e e r r r r r r r r r r r q q q q q Y E E R ^  .+.+.+.$.+.$.$.$.+.+. .{ { {  .H.H.W.I.I.L.T.T.T.Q.L.K.$. .| T Y Y E r r t Y Y Y Y Y Y Y Y Y Y E R {  .#.H.H.L.T.T.Q.L.P.H.} } { { #.#.#.#.+.+.| { T E T { #.#.#.J.Y.!.!.!.!.!.@X!.Q.T.K.#.} L.Q.!.@X#XzXvXxX.X).B.`.`.`.D.D.Z.Z.Z.Z.Z.Z.C.C.C.D.D.Z.Z.D.D.`.`.`.`.`.`.`.`.[.[.[.'.'.'.'.[.`.Z.Z.C.C.C.C.c.c.c.n.c.c.c.m.m.c.c.c.c.c.c.c.c.N.N.n.n.N.N.n.n.C.C.C.C.C.C.C.C.C.C.C.C.C.",
"[ ] z.z.z.z.z.z.z.x.z.z.z.z.z.] ] ] ] ] ] ] ] ] ] ] ] ] ] ] ] ] ] ] ] ] ] ] ` ` ] ] ] ] ] ] ] ] ` ` ` ` ` ` ` ` [ [ [ [ ` ` ` [ [ ` ` ` ] ] ] ] ] ] ] ] ] ] ] ] z.z.z.z.z.z.z.z.b.b.b.b.b.b.m.m.n.n.n.n.b.m.m...................( ! ! ( ( ( ! ! ! Q Q Q d d d d d j =.M M N N *.2.2.,.3.3.*.M s s d d i h h h h j j j ! X.X.....X.$.G.G.G.F.F.F.F.F.F.F.F.F.F.F.D.D.D.D.D.D.`.`.'.'.'.`.[.[.[.[.[.[.[.[.'.'.'.'.'.].].'.].'.'.`.Z.Z.N.N.C.N.c.x.z.z.z.z.z.z.z.z.z.z.z.z.z.z.z.z.z.z.] ] [ ( X.E.9XnXrX%X%X<XuX1Xe.l n l 2 1 1 x d 2.2.*.=.p ; y y u s =.d y e # 7 y p p p p p p p p p p p p p p y 7 # X + + + +                                                   p.uXaXqXqXqXl.qXgXgXgXgXqXqXk.k.l.i.G v , % X . . . c 0.j.q.0.0.i.>XiXyXyXyXwX:X:X7XyXtX>Xg.s.y.F A v m n b b c l z z z i i u u 1 1 ; e e e e r r r r r r r Y r r q q 0 9 q q Y E R ^ ^ | +.+.+.+.$.#.$.$.$.+.$.$.$.#.H.H.P.L.W.W.W.W.I.I.T.T.L.J.#. .R T Y r t t t t r r r Y t t t t Y Y Y E R  .#.H.H.L.T.I.I.H.H.} }  . . . . . .#. . .{ T E E T { #.#.$.K.T.!.@X X!.Q.L.J.H.#. . .P. X@X X#XzXxXzX.XA.).'.`.`.`.`.`.Z.Z.Z.Z.Z.Z.Z.Z.Z.D.D.Z.Z.D.D.`.`.`.`.`.`.`.`.[.[.[.'.'.'.'.[.`.Z.Z.C.C.C.n.c.c.c.n.c.c.c.c.c.c.c.c.c.c.c.c.c.N.N.n.C.N.N.n.n.C.C.C.C.C.C.C.C.C.C.C.C.C.",
"[ ] z.z.z.z.z.z.x.x.z.z.z.z.z.z.] ] ] ] ] ] ] ] ] ] ] ] ] ] ] ] ] ] ` ] ` ` ` ` ` ` ` ` ] ] ` ` ` ` ` ` ` ` ' ' ' ' ' ' ' ' [ [ [ [ ` ` ] ] ] ] ] ] ] ] ] ] ] ] z.z.z.z.z.z.z.z.b.b.b.b.b.b.m.m.m.m.m......./ / / ! ! ! ! s s s d d u u u u u u u u u u 1 1 1 < 1 i i u 2 b n B ;.,.,.,.,.3.*.M i u d 1 2 h 3 h j j =.=.=.=.=.o.X./ X...............G.G.G.G.G.F.F.D.D.D.[.[.[.'.'.'.'.].'.[.[.[.'.'.'.'.'.'.{.{.{.'.'.'.'.'.`.`.Z.Z.N.N.C.C.c.x.z.z.z.z.z.z.z.z.z.z.z.z.z.z.z.z.z.z.z.] ..I I X.-X4X4X1Xd.rXtX<Xr.- > l 2 i 1 u 1 *.2.*.-.d - ; 1 y u s s y ; # # y p u p p p p e e e r p p p p y 7 # @ + + + + +                                               . . G wXgXqXqXk.k.qXgXgXgXqXqX0Xk.l.l.0.F V > . . . . h 0.i.0.q.q.k.eXdXmXBXmXyX>Xj.j.j.g.s.w.w.A c 3 3 2 i i 2 2 2 2 2 u y y y 1 ; ; e e e e r q q r r r Y Y W Y J q J J J Y W ^ ^ ^ ^ ^ | +.+.+.+.$.$.$.$.$.$.$.$.K.K.K.L.T.T.Q.Q.Q.W.I.L.L.L.K.H.#. .R T Y t t t t t r r t r t Y Y Y Y Y Y Y R { #.H.H.L.I.L.L.H. .} } {  .{  . . . .{ T T T E E T {  .#.K.T.T.!.!.Q.H.#. . .#.{  .K.!.@X@X!.2XcXcXzX.XXX].'.`.`.`.`.`.`.Z.Z.Z.Z.Z.Z.Z.Z.Z.Z.Z.).`.`.`.`.`.`.`.`.`.`.[.[.[.[.[.[.[.[.`.Z.Z.C.C.C.C.C.c.c.c.c.c.c.c.c.c.c.c.c.c.c.c.c.N.N.N.N.N.C.n.n.C.C.C.C.C.C.C.C.C.C.C.C.C.",
"[ ] z.z.z.z.z.z.z.x.z.z.z.z.z.z.] ] ] ] ] ] ] ] ] ] ] ] ] ] ] ] ] ] ` ` ` ` ` ` ` ` ` ` ` ` ` ` ` ` ` ` ` ` ` ` ' ' ' ' ' ' [ [ [ [ ` ` ] ] ] ] ] ] ] ] ] ] ] ] z.z.z.z.z.z.z.z.b.b.b.z.m.m.m...G.G.X.X./ ! ! s s s i i i u u 1 1 1 1 1 < > < < 3 3 3 3 > > > > 1 i 2 1 2 b n m B B B -.-.-.-.N b i 1 1 1 3 3 < 2 i M M =.=.=.M s s ! ! ! Q ! ! ! / ..X.G.G.G.G.F.F.F.F.[.[.].].].].].].'.'.'.'.'.'.'.'.'.'.{.{.{.{.{.'.].`.`.`.Z.Z.N.N.C.C.c.x.z.z.z.z.z.z.z.z.z.z.z.z.z.z.z.z.z.z.z.] m.[ I ( $XnXNX<X;X<XwXtXrXm > b 2 2 1 1 - x *.3.-.x - o - 1 1 u u y ; # # < y u u p p p e 7 7 7 7 q e 7 e 7 # @ + + + + +                                               . . , j.gXeXqXl.l.qXgXgXgXqXqX0X0Xk.l.q.0.C , % . . . c G 0.0.k.wXdXZXHXJXKXGXyX:X0.F A m v c l 3 2 2 1 1 1 1 1 1 1 1 1 < ; e e ; ; e e e r r r q q r r Y Y Y Y Y J J J Y ( | @./ ^ ^ ^ | |  .+.+.+.$.$.$.$.$.$.K.K.K.K.K.L.T.T.Q.Q.W.I.L.P.L.L.J.H.#.| R E Y t t t t t r r r r t t t t Y Y Y Y T {  . .H.P.L.L.I.P.H.} { { { {  . . . .{ T T E T T T { #.K.T.Q.T.T.$.{ } }  . .$. .H.!.@X X@X#X#XzXzXXXXX_.).).`.`.`.`.`.`.).Z.Z.Z.Z.Z.Z.Z.Z.Z.Z.).`.`.`.`.`.`.`.`.`.`.[.[.[.[.[.[.[.[.D.Z.Z.C.C.n.C.C.c.c.c.c.c.c.c.c.c.c.c.c.c.c.c.c.N.N.N.N.N.C.n.n.C.C.C.C.C.C.C.C.C.C.C.C.C.",
"[ [ ] z.z.z.z.z.z.z.z.z.z.z.z.z.] ] ] ] ] ] ] ] ] ] ] ] ] ] ] ] ] ] ] ] ] ] ] ] ] ] ] ] ] ] ] ] ` ` ` ` ` ` ` ` ' ' ' ' ' ` ` [ [ ` ` ` ] ] ] ] ] ] ] ] z.z.z.z.z.z.z.] [ [ [ [ b.b.z.m.........X.X.X.X.! s i i i i i i i i 1 1 1 1 1 1 3 3 1 3 1 1 1 1 < < 1 1 1 1 1 1 2 j b n n N N N N N N N M j 1 1 1 < < < < < u i u u u u u u y y y p u d s ! / / ....$.G.G.G.F.F.D.[.[.].].].].].'.`.`.'.].].].].].].{.{.{.{.{.].'.`.`.`.Z.Z.N.N.C.C.c.c.x.z.z.z.z.z.z.z.z.z.z.z.z.z.z.z.z.] ] ] ] [ ] ..2.NXCXuX1X<XrXpXuXe.3 > z z i i u 1 *.p.9.*.1 - - - < i u y 1 - - < y u u u u p y # # # # 7 7 # 7 7 # # + + + + + +                                                 . :XaXiXeXk.l.qXgXgXgXqXqXqX0Xk.l.i.y.G c > % . . S u.i.j.8XiXDXSXJXKXJXAXtX:XF v v l l l l 2 i 1 < < 1 1 u u y y ; ; 7 e 7 7 7 e e e q r r r r r r Y Y Y Y Y Y Y T ~ | $.@.@.+.| | R | |  . .+.$.$.J.$.K.K.K.K.K.K.L.L.T.T.T.T.L.L.P.P.P.P.H.#.#. .| T J q t t t t t t t t t t t t t t Y Y E T } }  .H.P.L.I.L.H. . . . .#.#. . .{ } { T T E T T { { K.T.T.K.#.{ { T T {  .} #.T.!. X!. X#XzXzX#XXXA.).)._._._.`.`.`.`.`.D.D.D.D.D.Z.Z.D.D.D.D.D.D.`.`.`.`.[.[.`.`.[.[.[.`.`.`.`.D.Z.C.C.C.n.n.c.c.c.c.n.n.c.c.c.c.c.c.c.c.n.n.n.c.c.c.c.c.c.n.c.c.N.N.C.C.C.C.C.C.C.C.C.C.C.",
"[ [ ] z.z.z.z.z.z.z.z.z.z.z.z.z.z.z.z.z.z.z.z.z.] ] ] ] ] ] ] ] ] ] ] ] ] ] ] ] ] ] ] ] ] ] ] ] ` ` ` ` ` ` ` ` ` ' ' ' ` ` [ [ [ [ ` ` ] ] ] ] ] ] ] z.z.z.z.z.z.] ] [ [ ..[ [ [ ] ....( / / X.X.o.! O.s i i i 2 2 2 2 2 2 1 1 1 1 1 3 3 3 3 3 1 1 1 1 < < 1 1 1 1 1 1 2 i j j j j b b b b b j i u i j j j i 2 1 < < 1 > > > > - - - - - < 1 u i s O.O./ / / ......G.G.G.F.F.F.D.D.[.[.[.`.`.'.'.].].].].].].{.{.{.{.].'.`.`.Z.Z.Z.N.N.C.C.c.c.x.z.z.z.z.z.z.z.z.z.z.z.z.z.z.z.] ] ` ` ] ] ] ' ( -XnXNXnX1XtXMXMXrXa.b z b z z i u M ,.$X$X2.u 1 1 < 1 u u u 1 ; 1 u u u u u p y # # + + # # # # w y 7 7 7 7 7 # + + X                                           . . =XrXeXeX0Xl.qXgXgXgXgXqXqXk.k.l.i.0.G c g , m 7.;X:X:X<XyXdXJXKXKXHXmXyX:Xd.G v c l l z i u 1 < < < 1 1 1 y e ; # # # 7 7 7 7 e e e e r r r r r r Y Y E T T T ~ | | $.$.$.$.$. .| | |  . .+.$.$.K.K.J.K.K.K.K.K.K.L.L.L.L.T.T.L.L.P.P.P.P.H.H.#. .| T J q t t t t t t t t t t t t 0 t t Y E T { }  .H.P.L.I.I.P.H.#.#.#.#.H.#. . .} { { T T T { #.K.T.T.#.{ { T T T { } } #.T.!.!.!.Q.#XxXxXzX#XA.A.)._._._._.`.`.`.`.D.D.Z.D.D.Z.Z.Z.Z.D.Z.Z.D.D.D.D.`.`.`.`.`.`.`.`.`.`.`.).Z.Z.C.C.C.C.n.n.c.c.c.c.n.n.c.c.c.c.c.c.c.c.m.n.n.c.c.c.c.n.c.c.c.c.N.C.C.C.C.C.C.C.C.C.C.C.C.",
"[ ] ] z.z.z.z.z.z.z.z.z.z.z.z.z.z.z.z.z.z.z.z.z.z.] ] ] ] ] ] ] ] ] ] ] ] ] ] ] ] ] ] ] ] ] ] ] ` ` ` ` ` ` ` ` ` ` ` ` ` ` ` ` ` ` ` ` ] ] ] ] z.z.z.z.z.z.z.z.[ [ [ [ ....( ( ( ( / ! s s i i i j i i i i i i 2 2 2 2 2 1 1 1 1 1 1 1 3 3 3 3 3 3 3 3 < < 1 1 1 1 1 1 1 1 2 2 i i i u 1 1 1 1 < < 1 j b b j i i 1 1 1 < < < < < 1 1 < < 1 2 i z x M =.O.! ! / / / / ......m.m.m.m.G.F.F.F.F.D.[.[.].].].].].{.{.{.{.].[.`.`.Z.Z.Z.C.C.C.C.c.c.x.z.z.z.z.z.z.z.z.z.z.z.z.z.z.z.] ` ` ` [ ` ` ' ( *XnXCXMX,X<XtXuXnX<XB z N N M x i z N ,.%Xp.M z i i u 1 u u 1 1 u u i u u u u y ; # # o + + + # # # y y u u y y # + o X                                       +     S 7XwXwX0Xk.l.qXgXgXgXqXqXk.k.l.q.0.G v m c 4.d.tXtXwXwXiXZXJXKXHXAXtX<X:Xt.G m c l l i z 1 < 1 > # # - - ; # 7 7 7 7 7 7 e e e e e r r r r r r Y Y E T T R R | $.$.K.K.$.$.$. . .|  . .$.J.J.K.Y.Y.K.K.K.K.K.L.L.L.L.L.T.L.L.L.L.L.P.P.P.H.H.#. .| T J 0 t q q q 0 0 6 6 t t 0 0 0 0 0 0 E T T }  .H.P.L.I.I.L.H.H.H.H.H.H.H.H.H. .} } } }  .H.L.L.T.$.T T T T T T } } H.T.!.!.!.!. X2XxXcX#X.XA.A.).)._.).).`.`.`.D.`.`.Z.Z.Z.Z.Z.Z.D.Z.Z.Z.Z.Z.Z.Z.Z.Z.D.D.D.Z.).).).Z.Z.Z.Z.Z.C.C.C.C.n.n.c.c.c.c.n.n.c.c.c.c.c.c.c.c.c.c.c.c.c.c.n.n.c.c.c.c.N.C.C.C.C.C.C.C.C.C.C.C.C.",
"[ ] ] ] ] z.z.z.z.z.z.z.z.z.z.z.z.z.z.z.z.z.z.z.z.] ] ] ] ] ] ] ] ] ] ] ] ] ] ] ] ] ] ] ] ] ] ] ` ` ` ` ` ` ` ` ` ` ` ` ` ` ` ` ` ` ` ` ] ] ] ] ] ] ] ] z.z.z.] [ ' ' ( ( ( ( ! a s s i i i 2 2 2 2 2 2 2 i i i 2 2 2 2 2 1 1 1 3 1 1 3 3 3 3 3 3 3 3 3 1 3 1 1 1 1 1 1 1 1 1 1 1 1 1 < < < < < > > < i i i i i i i i 1 1 i 2 i i z z z z z b b z z M M x s s s s s s ! ! ! / / ......m.m.G.F.F.D.D.[.[.[.[.].].].].].].[.`.Z.Z.Z.Z.C.C.C.N.c.c.x.z.z.z.z.z.z.z.z.z.z.z.z.z.z.z.] ` ` ` ` ` ` ' H E.4XCXNXrX<X:X:XnXMX%XN N N M N M z i N %X-Xp.,.*.M x i 1 u 1 1 u i i d u u u y ; # o o o o o + # # < u u u u u < # # o X X                                   +   . . V 7XwXl.q.G q.gXgXgXeXqXk.k.l.q.0.G v F y.wXaXmXaXwXeXsXsXmXaXyXwXf.t.y.w.A B b l z i i < u < - o o # # # # # # e e e e e e e e q q e r r r Y Y E T T R | | $.Y.J.K.K.$.$.#. . . . .$.$.J.J.K.Y.K.K.K.K.K.K.L.L.L.L.L.L.L.L.L.L.L.P.P.P.H.H.#. .| T J 0 q q q 6 6 6 6 6 6 6 6 6 0 0 0 0 Y T T } H.H.L.L.I.I.I.P.P.K.J.P.P.P.H.H.H.H.} } H.L.Q.!.K.{ T P P T T T } } H.L.!.!.!.@X2X3XxXzX#XI.I.A.A.)._.).).).`.`.`.D.`.`.Z.Z.Z.Z.Z.Z.Z.Z.Z.Z.C.C.Z.Z.Z.Z.Z.Z.Z.Z.Z.Z.Z.Z.Z.B.B.B.Z.C.C.C.n.n.c.c.c.c.n.n.c.c.c.c.c.c.c.c.c.c.c.c.c.c.n.c.c.c.c.c.C.C.C.C.C.C.C.C.C.C.C.C.C.",
"[ ] ] ] z.z.z.z.z.z.] ] z.z.z.z.z.z.z.z.z.z.z.z.z.z.] ] ] ] ] ] ] ] ] ] ] ] ] ] ] ] ] ] ] ] ] ] ` ` ` ` ` ` ` ` ` ] ] ] ] ` ] ` ` ` ` ` ` ` ` ` ` ` ' ' ' _ _ ) ' I U U ( X.X.=.=.M M M b b h 2 2 2 2 2 1 u d d i 2 1 2 2 1 < > 3 3 3 3 3 3 1 1 1 < 1 1 1 1 3 3 1 1 1 1 1 1 < < < < < < < < < < > > > < < u u u i i u u i i b z i z b b n N N N n b z z i i i i i s s s s s ! ! ! ( ........m.n.C.F.F.F.D.`.[.[.[.[.`.`.`.Z.Z.Z.Z.B.N.N.N.c.c.c.x.x.x.x.z.z.x.x.z.z.z.z.z.z.z.z.] ] ] ] ` ` ` ` I E.*XnXnXuX,X;Xd.uXnX4X%X*.N N N z i 2 b p.%X%Xp.2.-.*.b i 1 u i i z b i d u u < 1 - o o o o o o # # < u d s s d u < # o X o X                                     . . , <X7Xj.l.4.0.eXfXgXgXeXqXk.l.q.G G G i.:XmXVXsXiXeXeXyXtXwX>X>Xs.y.D F S A B N z z i u u u < # o o X X 7 7 7 e e r e e e e r r r t t t t r Y E T R | |  .$.J.K.K.K.K.J.J.H.m. . .J.J.K.K.K.Y.Y.K.K.L.K.K.K.L.L.L.L.T.T.L.L.L.L.L.P.P.P.P.H.H. .| T Y 0 6 6 6 6 6 6 6 6 6 6 6 6 6 0 t Y Y T {  .H.L.I.I.I.I.I.I.I.L.I.I.I.L.T.I.L.H.H.I.Q. X@XQ.K.{ E T P T }  .} P.!.!.@X@X@X2X2XxXxXzX#XW.A.A.Z.).).`.`.`.`.).).Z.Z.Z.Z.Z.Z.Z.Z.Z.N.N.Z.Z.Z.Z.Z.Z.Z.Z.Z.Z.Z.Z.Z.Z.Z.Z.Z.Z.Z.Z.C.C.C.C.n.n.n.n.n.c.c.c.c.c.c.c.c.c.c.c.c.c.c.c.c.c.c.c.c.c.c.c.C.C.C.C.N.C.C.C.N.N.C.C.C.",
"[ ` ] ] z.z.z.z.z.] ] ] z.z.z.z.z.z.z.z.z.z.z.z.z.z.] ] ] ] ] ] ] ] ] ] ] ] ] ] ] ] ] ] ] ] ] ] ] ] ] ] [ [ [ [ ] ] ] ] ] ` ` ` ` ` ` ` ` ` ` ` ) ) ) L L L L I U ~ ( ( =.=.=.*.j h 2 2 2 1 3 3 3 3 > > > < < < < > < 1 1 1 < > 3 1 1 1 1 1 1 1 1 < < < 1 1 3 3 < < < < < < < < < < < < < < < < < > > > > > < u 1 1 1 1 < 1 i z M N N N N N N N b z z i 1 1 i i i u i i i i s s s ! ! ( / ........m.m.m.A.C.A.Z.Z.Z.Z.Z.Z.Z.C.C.B.B.N.N.N.M.c.c.x.x.x.x.z.z.z.z.z.z.z.z.z.z.z.z.] ] ] ] ` ` ` ' K I ( $X5XrXrX<X:X=X;XrX4X%Xp.:.Z N z z l :.p.%X%Xa.9.;.-.N z i i z b N M i u i u 1 < > o o o X o o > < i s M M M i u u > . # X X X                                 . . % f.d.f.G G G 0XgXeXeXeXk.k.l.0.4.y.j.yXmXGXZXaXyXwX>Xk.i.0.G F F A A A B B n N z x s y u < # # o o o X 7 7 e e e e 7 7 7 7 7 7 q q q q r Y E R ^ |  . .$.J.K.K.K.K.K.K.L.J.J.J.J.P.Y.Y.Y.Y.Y.Y.Y.Y.L.K.K.K.L.L.L.L.T.T.L.L.L.L.L.P.P.L.P.J.J.+.| R Y 0 6 6 6 6 0 0 t t 0 0 0 0 t Y E T R  .#.H.P.I.I.I.I.I.Q.Q.Q.I.Q.Q.Q.Q.Q.Q.!.Q.Q.!. X X!.H.#.T P T T T }  .J.Q.!.Q.@X2X2X2XxX3X2X X XI.A.A.Z.`.`.`.`.`.`.).Z.Z.Z.Z.Z.Z.Z.Z.D.Z.C.C.Z.Z.Z.Z.Z.Z.Z.Z.Z.Z.Z.Z.Z.Z.Z.Z.Z.Z.Z.Z.C.C.C.C.n.n.n.n.n.c.c.c.c.c.c.c.c.c.c.c.c.c.c.c.c.c.c.c.c.c.c.c.C.C.C.C.C.C.C.C.N.N.C.C.C.",
"[ ] ] ] z.z.z.z.z.z.] ] z.z.z.z.z.z.z.z.z.z.z.z.z.z.z.] ] ] ] ] ] ] ] ] ] ] ] ] ] ] ] ] ] ] ] ] z.z.] ] ] ] ] ] ] ] ] ] ] ] ] ] ] ] ] ] ` ` ` ' I U J J J U ( / ! s j j ;.;.B B c c c c c c c c c c c c c c c c c b b b n b h 2 2 2 2 1 1 1 1 1 1 < < < 1 1 1 1 < < < < < < < < < < < < < < < < < < > - o - - > < < < > > < < u i z M M N N N M z i 1 < < < < < < u i i i i u u d d s s a a a Q ! ( ( ........m.C.C.C.C.C.C.N.N.N.N.N.M.N.M.c.c.x.x.x.x.z.z.z.z.z.z.z.z.z.z.z.z.] ] ] ] ] ] ] [ [ I 9 <.2.4XuXrX<Xp.a.<X9X5Xp.9.:.Z N n z -.e.,X,X=X%Xe.8.;.B b b b n N N z i z z i 1 1 > o o o o - < < M M M N N N N M M < < o X X X X                               . . j ;.4.G G G wXiXeXeXqXk.l.q.0.i.:XtXmXAXAXmXyXeX>Xj.y.6.G v A V m m m B m N N x s u p y # # # # # # # 7 e e e 7 7 7 7 0 0 0 0 0 0 q t Y E ^ ^  .$.$.K.J.J.K.J.L.L.L.L.L.T.T.Y.Y.Y.T.T.K.L.L.L.L.L.T.L.T.T.T.T.L.L.L.T.L.L.L.L.L.L.L.L.L.J.J.#. .R Y Y 0 0 0 0 t t t t Y Y Y Y T T ^ | +.$.K.L.L.T.I.I.W.Q.Q.Q.Q.Q.Q.Q.Q.Q.!. X X!.!. X X XQ.P.H. .T  . .H.P.W.!.!.!.@X#X3XxXzXzX#X!.!.I.A.A.Z.Z.`.`.`.`.`.`.).Z.Z.Z.Z.D.D.Z.Z.F.D.Z.Z.Z.Z.Z.Z.Z.Z.Z.Z.D.D.Z.Z.Z.Z.Z.Z.Z.Z.Z.Z.C.C.C.C.n.n.n.n.n.n.c.c.c.c.c.c.c.c.c.c.m.m.c.c.c.c.c.c.n.n.c.c.C.C.C.C.N.C.C.C.N.N.C.C.C.",
"[ ` ] ] z.z.z.z.z.z.] ] z.z.z.z.z.z.] ] ] ] ] ] ] ] ] ] ] ] ] ] ] ] ] ] ] ] ] ] ] ] ] ] ] ] ] z.z.z.z.z.z.z.[ [ z.b.b.b.z.z.z.] n.m.m.m.` ` ' ' U r q q W / =.=.2.,.,.,.,.D S A m m m m S S S S F F F F F F F D :.:.,.,.;.S B N 2 2 2 1 1 1 1 1 1 < < < 1 1 1 1 < < < < < < < < < < < < < < < < < < > > - o o - > > > > o - > > - - 1 1 - - - < 1 < ; - - o o o - < 1 1 i i u u 1 u u u u u u u d d s ! ! ( ( ..b.n.c.M.N.N.N.N.N.N.N.M.M.c.c.c.x.x.x.x.z.z.z.z.z.z.z.z.z.z.z.z.z.] ] ] z.z.z.] ` ` H U 2.4X%X4XnX;Xa.a.=X9X,X%X8.:.Z Z -.:.8.-X1X,X,X%Xa.e.:.B b n m B B b i b b z i 2 1 > o o - > < 1 b N N B B B *.-.;.M M 1 > o X X X X                       . . . . , V V G G v G q.0.G G 0.G q.>XwXmXmXAXAXrX>X:Xd.y.F 3 3 3 3 c c n m B N N N N x s u p 7 # 7 7 7 7 7 7 e e e r 7 7 6 6 0 0 0 0 0 q 0 t E R ^  .$.$.K.K.J.J.J.J.K.P.L.L.T.T.W.T.W.Y.T.L.L.L.L.L.L.L.U.U.T.T.T.T.L.L.L.L.L.L.L.L.L.L.L.L.L.K.J.$. .R E Y 0 0 0 0 E E E E E T T E ^ | | +.$.K.K.T.T.I.I.I.Q.!.Q.!.!.!.!.!.!.!. X X X!.!. X@X X X!.Q.L.P.Q.Q.!. X@X!.@X#X3XxXcXzX@X XW.P.I.A.A.C.Z.`.).`.`.`.`.).).Z.Z.Z.Z.D.D.D.Z.F.F.D.Z.Z.Z.Z.Z.Z.Z.Z.Z.D.D.Z.Z.Z.Z.Z.Z.Z.Z.Z.Z.N.C.C.C.n.n.n.c.c.c.c.c.c.c.c.c.c.c.c.c.c.m.c.c.c.c.c.n.n.n.n.n.C.C.C.C.C.C.C.C.N.N.C.C.C.",
"[ ` ] ] z.] z.z.z.z.z.z.z.z.] ] ] ] ] ] ] ] ] ] ] ] ] ] ] ] ] ] ] ] ] ] ] ] ] z.z.z.z.z.z.z.z.z.b.b.v.v.z.b.z.z.b.b.c.c.c.x.v.v.b.b.z.] K H U U ( / o.=.3.3.2.2.p.t.t.t.e.7.>.S D D F D >.>.7.7.w.w.w.w.t.t.t.t.e.,.,.,.;.;.-.B b z i i 2 1 1 1 1 < < < 1 1 1 1 1 < < < < < 1 1 < < < < < < < < < < < > > - - > > > - - > > > - - ; 1 1 - - - - - - - - - - - - - - 1 u u u u 1 1 1 1 1 y u u u d d a a Q ( ( ( m.n.n.c.M.M.N.M.N.N.N.c.c.x.x.x.x.x.x.x.x.x.x.x.x.x.x.x.z.z.z.z.z.z.b.b.z.z.z.z.] [ [ ( X.*X$X%X1X4X,X8.%XrX1X=X8.A n m D >.8.,X1X,X,X%X%Xa.9.;.Z Z Z Z -.n b b b b N N i > o o > > < 2 n N *.;.:.,.,.,.,.;.*.N 1 1 < < < u u u #                   . . . > , v v v l l c l l v G q.wXyXaXmXDXmXyXj.s.w.F A c 3 3 1 1 1 z z z z z z z x x u y ; 7 7 7 7 r r 7 7 7 7 6 0 6 6 6 6 0 0 t r r Y E R ^ | $.Y.Y.K.K.$.$.J.H.H.J.K.L.L.T.Q.W.W.W.W.L.L.L.U.U.L.L.L.T.T.U.U.U.U.L.K.K.J.K.K.K.K.K.K.L.L.L.L.K.K.$.+.R Y Y 0 0 0 T T T T R | | | |  .+.$.K.K.L.L.L.L.L.L.Q.!. X!.!.Q.Q.Q.!.!. X X X X!. X X@X@X@X XI.I.!. X@X@X X X@X3XcXvXxX2X!.!.W.W.I.A.C.A.Z.).).`.`.).).).).Z.Z.Z.Z.Z.Z.Z.Z.Z.Z.D.Z.Z.Z.Z.Z.D.D.Z.Z.Z.Z.Z.Z.Z.Z.Z.Z.Z.Z.Z.C.C.C.C.C.C.C.C.C.C.N.N.c.c.c.c.c.c.c.c.c.c.c.c.m.n.n.n.n.c.c.c.n.C.C.C.C.N.N.N.N.N.N.N.N.N.",
"[ ` ] ] z.] z.z.z.z.z.z.z.z.] ] ] ] ] ] ] ] ] ] ] ] ] ] ] ] ] ] ] ] ] ] ] ] ] z.z.z.z.z.z.z.z.z.b.z.v.v.b.b.b.z.b.b.c.c.c.c.c.b.z.] ....J q W Q E.E.+X$Xp.p.p.a.t.e.7.D >.7.e.r.r.p.t.p.p.p.p.t.t.t.p.p.t.a.a.a.e.,.,.,.:.:.;.;.B N N b z 2 1 1 < < < < 1 1 1 1 1 < < < < < 1 1 < < < < < < < < < < < > > - - > > > - > > > > - - ; 1 u 1 1 u u u u u u 1 1 1 1 1 1 1 1 y ; # # # # # # # < y u u p p p a Q ! ( ..] b.z.n.c.c.c.c.c.c.c.c.x.x.x.x.x.x.x.x.x.x.x.x.x.x.x.z.z.z.z.x.x.n.x.z.z.z.z.z.[ [ ../ ! =.$X,.1XuX=X,X1X1X%X7.7.D v B 8.p.%X,X,X,X%X%X%Xp.8.:.:.:.:.:.B N N N B Z ;.N 1 > > > < 1 z N *.,.,.>.>.e.e.p.p.p.e.;.N N N N N =.=.=.=.s u * * o o . % 3 3 h V v m v G 0.0.y.0.0.q.i.yXaXsXmXZXmX<Xd.G A c c V b 2 1 1 1 u u u u u u u i i u y ; 7 q q q r r r q 7 7 7 6 6 0 0 0 0 0 r Y Y E ^ ^ +.<.Y.R.R.Y.K.+. .#.J.#.H.H.K.K.L.T.Q.Q.Q.Q.W.L.L.K.U.U.U.L.L.T.T.U.U.U.U.K.H.$.#.#.#.#.#.H.J.L.L.L.T.T.T.Y.K.$.+.+.+.+.+. . . . .+.+.+.| | |  .+.K.K.K.K.P.P.P.P.I.Q.!.Q.T.T.T.T.H.P.P.I.!.!.!.!.!.!.!.!.I.L.Q.@X2X2X#X@X@X2XxXvXcX XW.W.W.W.A.A.A.A.A.Z.Z.).`.`.).).).Z.Z.Z.Z.Z.Z.Z.Z.Z.Z.Z.Z.Z.Z.Z.Z.Z.D.D.Z.Z.Z.Z.Z.Z.Z.Z.Z.Z.Z.Z.Z.Z.Z.Z.Z.Z.C.C.C.C.C.N.C.C.N.N.c.c.c.c.c.c.c.c.c.c.n.n.c.n.c.c.c.n.C.C.C.C.N.N.N.N.N.N.N.N.N.",
"[ ` ] ] z.z.z.z.z.z.z.z.z.z.] ] ] ] ] ] ] ] ] ] ] ] ] ] ] ] ] ] ] ] ] ] ] z.z.z.z.z.z.z.z.z.z.z.z.z.v.c.c.c.c.c.z.b.c.c.c.b.z.[ ..( ! Q p d s s ,.,.,.,.,.>.8.e.e.w.D S D ,.8.e.e.e.e.e.p.p.p.r.r.r.p.p.p.p.p.p.e.8.>.,.:.:.:.:.,.;.-.B N i 2 1 1 1 < < 1 1 1 1 1 1 < < < < 1 1 < < < < 1 1 1 1 1 1 < < - - - - ; ; - - ; - - - - - 1 1 u u i i u u i i u u u u 1 1 1 1 ; # # X X X o o # # ; 1 < y y y p a a ( ( ( ( ....] b.b.b.b.m.c.x.x.x.x.x.x.x.x.x.x.x.x.x.x.x.x.z.z.x.x.x.x.x.x.x.x.x.x.x.z.] ..( ! 1.$X*.p.-X%X,X,X1Xs.e.a.r.A D 8.p.p.%X=X=X%X%X%Xa.p.8.8.8.8.>.;.B B Z Z ;.,.;.b 1 1 > < i N B ;.,.,.>.e.e.r.r.s.s.p.e.D Z S ;.;.;.;.,.,.,.,.;.B m n m m F D F 0.F 0.0.j.:X>X:Xi.q.i.j.iXaXZXAXBXyXh.y.v v 3 c m m 2 1 1 1 1 1 1 1 1 1 u u u u y e # r r r r r r 7 7 0 7 7 7 t t r q Y Y E ^ ^ +.%.Y.R.R.R.Y.K.+. . .+.#.#.#.$.J.K.L.T.Q.!.!.Q.T.L.L.U.U.U.U.U.U.U.L.U.K.K.K.H.#. .} {  . . . .#.H.K.L.T.T.T.R.T.Y.J.K.K.K.K.J.J.J.$.+.+. .| R |  .+.$.J.J.H.H.H.H.P.P.I.L.J.H.H.H. .}  .P.I.Q.Q.!.!.!.Q.L.L.P.I. X#X2X2X#X@X2XxXcXcX2XW.W.W.W.A.C.C.A.A.Z.Z.Z.).`.`.).).Z.Z.Z.Z.Z.Z.Z.Z.Z.Z.Z.Z.Z.Z.Z.Z.Z.Z.D.Z.D.D.D.D.D.D.D.D.D.D.D.D.D.D.Z.Z.Z.Z.Z.Z.C.C.C.C.C.C.C.C.N.c.N.c.c.C.c.c.c.c.c.c.c.c.c.c.N.N.C.N.N.N.N.N.C.C.C.C.N.N.N.",
"[ ` ] ] z.z.z.z.z.z.z.z.z.z.] ] ] ] ] ] ] ] ] ] ] ] ] ] ] ] ] ] ] ] ] ] z.z.z.z.z.z.z.z.z.z.z.z.z.b.b.c.c.c.c.c.z.z.b.b.z.z.[ ..! a a s s i b N N N N n b n B B m m m m B B B B Z Z S S >.,.,.7.8.8.e.e.e.e.e.e.e.8.>.>.:.:.:.:.,.,.;.-.N b z i 2 2 1 1 1 1 1 1 1 1 < < < < > > < < < < < < < < 1 1 1 < - - - - ; ; ; ; - - ; - - - 1 1 1 1 u u u u u u u 1 1 1 1 1 1 1 < ; - # X X o o X # # # # # # # e y p p p Q ( ~ ( ....] ] m.b.z.c.x.x.x.x.x.x.x.x.x.x.x.x.x.x.x.z.z.x.x.c.c.c.c.c.c.x.x.x.z.z.....( 1.*X2.*.*.,X4XuXuX1Xe.r.%X;Xa.>.8.>.;.B Z p.a.a.a.p.e.e.e.e.>.;.B Z Z ;.;.:.;.B b 2 1 1 b N N B B :.>.>.w.w.r.d.=Xd.=Xr.7.e.7.7.8.8.a.a.%X,X,X;X%Xd.d.;X>X<X<XwXwXtXyXsXsXaXyXj.q.q.h.iXBXSXAXsXyXj.g.F A c v m m 2 2 1 1 < 1 1 1 1 1 y y y p e e 7 p p p p r r 7 7 6 7 7 7 r Y Y Y Y T ^ ^ +.$.Y.R.R.R.Y.$.+. . . .+.#.#.#.#.H.K.K.T.Q.!.!.Q.T.L.L.L.U.U.U.U.L.U.K.K.K.K.K. . .} } } } } } }  . .#.K.T.T.T.T.T.T.T.K.K.K.K.J.J.J.J.+. . .{ R { |  .#.$.H.H.H.H.H.H.P.P.H.} } } T T } H.L.Q.Q.Q.Q.Q.T.P.H.P.I.!.@X#X2X@X@X2X3XcXcX2XW.A.A.S.A.A.Z.Z.A.A.Z.Z.).).`.`.).).Z.Z.Z.Z.Z.Z.Z.Z.Z.Z.Z.Z.Z.Z.Z.Z.Z.Z.D.D.D.D.D.D.D.D.`.`.`.`.`.`.[.`.D.D.D.D.D.Z.Z.Z.C.C.C.C.C.N.N.C.C.N.N.C.N.N.N.N.N.N.N.N.N.N.N.N.N.N.N.N.N.N.C.C.C.C.N.N.N.",
"] ] ] ] z.z.z.z.z.z.z.z.z.z.z.z.] ] ] ] ] ] ] ] ] ] ` ` ` ` ` ] ] ] ] ] z.z.z.z.z.z.z.z.z.z.z.z.b.b.b.b.n.c.v.[ ....m.m.......( ! s s j j j j j i i c c c c c c n n n n n n n m m m N N :.:.,.>.:.,.,.,.>.>.>.,.:.S Z B :.:.:.:.;.;.;.;.N n z z z z 2 1 1 1 1 1 1 1 < < 1 > > > > > < < > > - - > > > > # - - - - # # # o # o - # - > ; < < y y y y y y y y y y y y y y y ; ; ; @ o o o X X X o o o o o + # 7 e r r W W ~ ~ I ....m.m.b.z.x.x.x.c.c.x.x.x.x.x.x.x.x.x.x.x.x.x.x.c.c.c.c.c.c.c.c.x.z.z.z.......^.E.2.,.5X4XMXnX1Xs.>.a.<X,X>.Z >.Z l 2 B >.a.a.p.e.e.e.e.8.:.Z Z Z S ;.:.>.:.B b 2 n n n N n n n B ,.>.r.t.d.;X:X;X=Xs.r.t.r.r.e.p.d.%X;X1X:X;X1X<XrXtXyXaXpXaXsXdXmXmXdXiX>Xi.i.j.sXAXSXAXsXyXj.d.y.F v m B B N i u 1 < < < > - 1 y p y p p e p p p p p r r r r 0 0 0 0 r Y ~ ~ T R |  .$.Y.R.R.R.Y.K.$. . . . .+.+.+.#.$.H.K.K.T.Q.!.!.T.T.T.T.L.L.L.L.L.L.L.P.K.K.K.K. .{ } { } } } } }  .#.$.K.K.T.T.T.T.T.T.K.P.P.P.L.L.P.J.+. . .{ R { |  .#.#.#.H.H.H.H.H.H.H.} } } T T } H.L.L.L.I.L.L.I.I.L.H.P.I. X@X@X#X#X2X3X3XxX2X!.W.A.n.A.A.Z.Z.Z.Z.Z.Z.Z.`.`.`.`.).).Z.Z.).).).`.Z.Z.Z.Z.Z.Z.Z.D.Z.Z.D.D.D.D.`.`.`.`.`.`.`.`.`.`.`.`.[.[.D.D.D.D.D.Z.Z.Z.C.C.C.C.C.Z.C.C.N.N.N.N.C.C.N.N.C.C.C.C.C.C.C.C.C.C.N.N.N.C.C.C.N.N.N.N.C.",
"[ ] ] ] z.z.z.z.z.z.z.z.z.z.z.z.] ] ] ] ] ] ] ] ] ] ` ` ` ` ` ` ] ] ] ] z.z.z.z.z.z.z.z.z.z.z.z.c.c.b.b.z.[ [ [ I I X.X...( ! ! j j j j j j j b i i c c c c c c b b b b b b b b b b b b n n m m m m N N N m m m c c l 2 2 2 2 2 b b b N N b z z b z i 2 1 1 1 1 1 < < < > - > - > > - - - - - - > > > > # # - - # # o # o # o - # # - - ; ; < < 1 < 1 1 y y y y y y y 1 ; ; ; ; ; o o o X X X X X X X X X X + # 7 7 r r Y J T ~ ' [ ] b.z.z.x.x.c.c.x.x.x.x.x.x.x.x.x.x.x.x.x.x.x.x.x.x.x.x.n.n.x.x.z.z.m.] ....<.E.2.2.%XuXMXnX<Xp.:.%X,X8.:.e.8.l > l ;.e.e.8.e.e.e.e.e.>.D Z Z Z D D :.:.;.n 2 n n b i 2 2 2 b B S t.s.;X;X1X1X:X;Xd.d.s.a.t.r.d.d.;X;X>XrXpXaXmXAXAXSXDXZXDXDXDXZXmXsXyXeXwXiXDXSXZXsXwX8Xj.j.d.y.D >.>.:.B i u 1 < < < > < y y p p p p p p W Q W W r r t t t 0 0 0 Y E ~ ~ ^ ^ |  .$.K.R.R.R.Y.K.$. . . . .+.+.#.#.$.H.K.K.T.Q.!.Q.T.L.L.L.L.L.L.K.P.L.L.L.K.L.K.K.H.#. .{  . . . .#.#.$.H.K.K.H.H.H.J.K.K.P.P.P.J.L.L.J.#. . .{ { R | |  .#.#.#.H.H.H.P.H.H.} } } } } } #.K.L.L.P.P.P.L.L.L.L.L.T.Q.!.@X@X@X#X2XzX2X!.H.m.A.n.C.A.Z.Z.Z.Z.Z.Z.Z.).`.`.`.`.).).Z.Z.).).).).Z.Z.Z.Z.Z.Z.D.D.Z.Z.D.D.D.`.`.`.`.`.`.`.`.`.`.`.`.`.[.[.D.D.Z.Z.D.Z.Z.C.C.C.C.Z.Z.Z.Z.Z.N.N.N.N.N.N.N.N.C.C.C.C.C.C.C.C.C.C.C.N.N.N.C.C.N.N.N.N.C.",
"[ ] ] ] ] ] z.z.z.z.] ] ] ] ] ] ] ] ] ] ] ] ] ] ] ] ` ` ` ` ` ` ] ] ] ] ] z.] ] z.z.z.z.z.z.z.z.c.c.b.z.[ [ ....( ( ! ! ! j j j j j j j i j b b i z b b b b b b b b b j j i i i 2 2 2 2 2 2 2 2 2 2 j b b c c b c c n n b l 2 3 2 l i z b z i i i 1 1 < < < < < < < > > - - > > > - - - - - - - - - # # o o - - - - o o # # # o - - - - ; ; - - - ; ; ; < < 1 1 1 1 y y ; ; ; ; ; # o o X X o o X X X X X X X X X X # 7 q q Y U I ' [ ] z.z.x.c.c.c.x.x.x.x.x.x.x.z.z.z.z.z.z.z.z.z.n.n.c.c.m.n.c.c.c.c.b.z.] ..~ E.$Xp.p.rXMXMXrX%X>.D %X8.,.8.p.B 3 l B >.>.8.p.p.r.r.e.8.:.Z A Z D D D ;.Z N n n n 2 1 1 1 1 1 i N e.a.=X;X:X>X<X<X:X>X;Xg.d.u.g.;X>XwXyXsXmXmXAXSXSXSXDXDXDXDXSXDXZXdXsXdXdXBXZXDXsXeXk.k.j.j.d.a.e.e.>.:.*.i i u < > > > < y y p p p p p p p p p p q q q q t t 0 q Y E ~ ~ ^ | |  .$.J.Y.R.R.Y.%.$. . . .+.+.+.+.#.#.$.K.K.T.T.T.T.L.L.L.K.K.K.L.K.P.P.L.L.T.T.T.L.P.J.H.H.#.#.H.H.H.H.H.H.K.J.#.#.#.H.H.H.H.J.J.J.K.J.#. . .{ R T R | |  .#.#.#.H.H.H.P.P.P.} } } }  .#.J.K.L.J.H.H.P.L.L.L.L.Q.!.!.!.@X@X#X2XzX2X#XI.m.m.m.C.A.A.Z.Z.Z.Z.Z.Z.Z.).`.`.`.`.).).Z.Z.Z.Z.Z.Z.D.D.D.D.D.D.D.D.D.D.D.D.`.`.`.`.`.`.`.`.[.[.[.`.`.`.[.D.D.Z.Z.Z.Z.Z.Z.C.Z.Z.Z.Z.Z.Z.Z.Z.B.B.Z.Z.C.C.N.N.N.N.C.C.C.N.C.C.C.C.C.N.Z.Z.Z.Z.Z.Z.C.C.C.",
"[ ] ] ] ] ] ] ] ] z.] ] ] ] ] ] ] ] ] ] ] ] ] ] ] ] ` ` ` ` ` ] ] ] ] ] ] ] ] ] ] z.z.z.z.z.z.z.b.b.z.....X.X.X.3.*.*.M b b c c c c h h 2 2 b i i z b b b b b b i i i i 2 i 1 1 1 1 3 3 3 3 2 2 1 1 1 1 n n n n ;.:.>.,.8.:.Z m n n N N b i 1 1 > - o o o o * - o - o > - - > > > - - - - - - - - # # # o o - - - - - - # # # - - - - # # # ; - # # - - - ; ; ; 1 1 1 y e e ; ; ; ; # o X X o o X X X X X X X X   X X X 6 0 q q J U I [ ] z.x.c.c.c.c.c.c.c.x.x.x.x.x.x.x.z.z.z.z.z.n.n.c.c.m.n.c.c.c.c.c.c.c.z...^.E.$X2.,XuXMXuXrX,X7.p.:.;.:.p.8.D n B >.>.e.p.p.r.r.e.e.>.D A Z Z D Z Z B N n N n 2 1 1 1 1 1 1 1 ;.e.d.d.;X7XyXpXtXtXwX>Xj.8XtXiXsXmXZXDXSXHXHXJXJXSXDXSXLXJXKXKXJXKXJXJXJXSXsXiX>Xj.j.:Xj.j.d.a.p.e.,.,.*.i i u < 1 1 1 y y y p p r r r p q q q q 7 0 0 0 t q 0 q Y E ~ R | | |  . .$.Y.R.R.Y.%.+.+.+.+.+.+.+.+.+.#.$.K.K.L.T.T.K.K.K.K.K.K.K.K.K.K.L.L.L.T.T.T.T.L.K.J.H.H.H.H.H.H.H.H.H.H.H.#.#.#.#.#.#.J.J.J.H.J.#. . .{ { T T R { {  .#. .#.#.L.L.L.L.Q.H. .H. .H.K.K.K.K.H.H.H.P.L.T.Q.Q.!.!. X!. X@X2XzX2X Xm.P.P.m.n.C.A.Z.Z.Z.Z.Z.Z.Z.Z.Z.`.`.`.`.).).Z.Z.Z.Z.Z.Z.D.D.`.`.D.D.D.D.D.D.D.`.`.`.`.`.`.`.`.`.[.'.'.[.`.`.[.D.D.Z.Z.Z.Z.Z.Z.C.Z.Z.Z.Z.Z.Z.Z.Z.B.B.Z.Z.C.C.N.N.N.N.C.N.N.N.C.C.Z.C.C.C.Z.Z.Z.Z.Z.Z.C.C.C.",
"[ ` ] ] ] ] ] ] ] z.z.z.z.z.] ] ] ] ] ] ] ] ` ` ` ` ` ` ` ` ] ] ] ] ] ] ] ] ] ] z.z.z.z.] ] [ [ [ [ I U ^.E.E.9.8.>.:.S m m c c l 3 3 3 3 3 3 3 2 2 c l 2 2 2 2 i i i 1 1 1 1 1 1 3 1 1 3 3 3 > > > 1 1 2 N ;.,.,.,.8.8.,.,.,.;.n n N N N z 1 < - o o o - - - > > - - - - - - - - - - - - - - - # - - - o o o o o o o o # # # # - - - # # # # # - - - - ; ; ; ; ; ; ; 1 e e e e ; ; ; # X X o o o o o o o X X X X O X X @ O 6 5 q J J I ] b.b.c.M.M.M.n.n.c.n.n.c.c.c.c.c.x.x.x.x.x.n.n.n.n.n.n.C.C.N.N.c.N.c.c.m.G.^.E.2.$X,XnXrXrX<Xt.>.:.D ;.,.e.>.Z Z ,.,.p.p.p.p.p.p.a.e.S S m B m B B B B N N N N 1 > > < > > > B e.t.d.d.7XaXMXaXpXeXwXyXiXsXsXdXmXDXJXJXJXJXJXJXJXFXLXJXKXKXKXKXKXKXKXFXAXiXwX:Xj.j.j.s.s.a.a.,.:.;.Z N b i u 1 < < 1 1 y y p p q q 7 6 5 0 0 0 4 6 0 0 t r Y E R ^ ^ ^ | | | | | +.K.R.Y.K.$. .+.+.+.+.#.+.+.+.#.$.J.K.Y.Y.K.J.J.J.J.K.K.K.K.K.K.L.L.L.T.T.Q.T.W.L.P.J.T.L.J.J.J.J.J.J.J.H. . . . . .#.H.H.H.H.#.#.{ { T T { R { {  . . . .#.H.W.W.L.T.Q.P.H.J.H.K.L.L.L.K.P.P.H.L.L.Q.Q. X@X@X@X!. X2XzXzX2XI.m.m.A.A.C.A.A.A.Z.Z.Z.Z.Z.Z.`.D.`.`.`.`.`.`.`.`.`.`.`.`.D.D.D.D.`.`.`.`.`.`.`.`.`.`.`.`.).`.`.`._._._._.`.`.`.`.Z.Z.Z.Z.Z.Z.Z.Z.Z.Z.Z.Z.Z.Z.Z.Z.Z.Z.Z.Z.Z.Z.Z.Z.Z.Z.Z.Z.Z.Z.Z.Z.Z.Z.Z.Z.Z.Z.Z.B.Z.N.N.C.N.",
"[ ` ] ] ] ] ] ] ] z.z.z.] ] ] ] ] ] ] ] ] ] ` ` ` ` ` ` ` ` ] ] ] ] ] ] z.] ] ] z.z.z.[ [ ' [ I ( X.<.<.$X$X$X$Xe.e.>.D m m m v v c c l c c c l l 3 3 2 2 2 2 2 2 2 2 1 1 1 1 1 1 1 1 1 3 3 3 3 < < 1 2 j N ;.;.>.,.,.,.,.,.;.S B B B B N N b i > - > - > < < 1 < < - - - - - - - - - - - - - - # # - - o o o o o o o o # # # # # # # # # # # # # # # # ; ; ; ; ; ; ; - ; ; ; ; ; ; ; # X X o o o o o + + + + + X X X X @ @ @ @ 6 5 J J ' ..b.m.n.M.C.C.C.C.C.C.C.C.C.C.C.C.C.C.C.C.C.C.C.C.C.C.C.C.C.C.C.C.C.C.n.n.G.^.E.$X$X,X4X;X=Xs.e.>.D B Z ;.:.D S ,.,.e.p.p.p.p.8.e.e.e.S S B B B B B B N N N N 2 1 > < > > > B :.,.e.s.:XyXsXBXDXBXBXZXDXDXDXDXFXJXKXKXKXKXKXKXJXJXJXKXKXKXKXKXKXJXDXfXyX>Xj.d.u.y.6.F >.>.,.B n b i i 1 1 - o o - # # # 7 6 6 6 6 6 4 5 5 6 6 6 6 0 0 t Y E ~ ^ ^ ^ ^ | | | |  .$.Y.R.Y.$.+.|  . . . . . . . .#.$.J.K.Y.Y.K.J.H.H.J.K.K.K.K.K.K.L.L.L.T.T.T.T.W.L.L.P.T.T.Y.Y.K.J.J.J.J.H. . . . . .#.$.$.$.$.#.#.{ { { { { { | |  . . .#.J.L.L.L.L.L.L.P.P.L.L.T.T.L.K.K.J.L.L.L.T.Q.Q.@X2X2X#X#X2XxXxX.XA.m.A.A.A.A.C.A.A.A.Z.Z.Z.Z.Z.Z.`.D.`.`.`.`.`.`.`.`.`.`.`.`.D.D.D.D.`.`.`.`.`.`.`.`.`.`.`.`.).`.`.`.'._._._.`.`.`.`.).).).).).Z.Z.Z.Z.Z.Z.Z.Z.Z.Z.Z.Z.Z.Z.Z.Z.Z.Z.Z.Z.Z.Z.Z.Z.Z.Z.Z.Z.Z.Z.Z.Z.Z.Z.B.Z.N.C.C.N.",
"[ ` ` ] ] ` ` ` ] ] ] ] ] ] ] ] ] ] ] ] ] ] ` ` ` ` ` ` ` ` ` ] ` ` ] ] z.z.z.z.z.z.[ [ ..( ( w ! 3.9.,.>.>.D F F S A m F S F F F A A A A A A A m c 3 3 3 3 2 2 2 2 2 1 1 1 1 1 1 1 1 1 3 3 3 3 1 1 2 j b B S Z Z ;.;.,.,.:.;.;.;.;.S -.-.B N b < < < < < 1 1 1 1 1 < < > - - - - - - - o o o o o o o o o o o o o o o o o o o o o o o o o o o o o o o o o o o o @ # ; ; ; ; ; ; ; ; ; # # # # # + + + + # # # # # @ @ @ @ @ X @ @ 6 5 H J ' ..b.n.C.C.C.C.C.Z.Z.Z.Z.Z.Z.Z.Z.Z.Z.Z.Z.Z.Z.Z.Z.Z.Z.Z.Z.Z.Z.Z.Z.Z.Z.Z.C.n.G.^.^.+X-XrX8.s.s.a.r.e.B B Z ;.:.S ,.,.e.p.p.p.p.,.,.p.a.,.:.Z Z B B B B N N N N b 1 > > > > > B S Z S 7.y.:XyXVXSXDXDXSXSXDXSXFXHXHXJXKXKXJXFXSXSXJXJXJXKXKXKXKXJXDXdXeX>Xj.j.i.y.F A m m Z *.N b z i u < o X X X X o o X @ @ @ @ O 4 4 4 4 4 6 6 0 t r Y E ~ ^ | | ^ | | | | | +.%.Y.Y.K.$. .|  . .|  . . . . .+.$.$.K.Y.K.J.$.#.#.H.J.K.K.K.K.K.K.L.L.T.T.T.T.T.L.L.K.L.T.T.T.T.Y.K.J.J.H. . .{  . .#.$.$.$.$.#.#.{ { {  . .#. . .#. .#.J.P.P.J.P.P.P.L.I.Q.T.Q.Q.T.L.J.J.L.Q.I.W.Q.!.!.@X#X#X.X2XzXzXzXA.S.A.A.A.A.C.C.A.A.A.Z.Z.Z.Z.Z.Z.D.D.`.`.`.`.`.`.`.`.`.`.`.`.`.`.`.`.`.`.`.`.`.`.`.`.`.`.`.`._._.`.`.'.'.'.'.'.`.`.).).).).).).).).).).).).).).).).).).Z.).).Z.Z.Z.Z.Z.Z.Z.Z.Z.).Z.Z.Z.Z.Z.Z.Z.Z.Z.Z.C.C.C.C.N.",
"[ ` ` ] ] ` ` ` ` ] ] ] ] ] ] ] ] ] ] ] ] ] ` ` ` ` ` ` ` ` ` ` ` ` ` ` z.z.z.z.] [ [ I X.3.2.p.,.p.d.d.s.s.t.y.u.t.w.0.w.r.t.s.u.u.t.r.r.r.r.r.>.A m c c c c c c 2 2 3 3 3 3 3 1 1 1 1 3 3 3 3 1 1 j b n B Z N N B B S :.:.:.,.;.;.;.;.;.;.*.N i 1 1 < 1 1 1 1 1 1 1 1 < < - - - - - - o o o o o o o o o o o o o o o o X X X X o o X X X X X X X X X X X X X X o o o # # ; # ; ; ; ; # # # # # + + + + 7 7 7 7 # 7 # # 7 6 @ X X @ 4 5 9 J I ..b.m.n.C.C.Z.Z.Z.Z.).).).).).).).).).).).).).`.`.`.`.`.`.D.D.D.D.Z.Z.C.n.G.Y.E.4X,X:.2 8.%X%Xd.D D Z ;.:.S ,.,.e.p.p.p.p.p.,.e.p.a.,.D Z B B B B N N N N N 2 1 > > > > B B B m A v u.:XpXmXmXBXBXsXsXBXhXhXhXZXSXSXDXBXdXdXZXZXdXZXZXZXZXBXyX8Xh.d.i.i.D A c 3 l > 1 i < < > o o X X X X X X X X + + @ O O 4 4 4 4 4 4 4 0 t r Y E T ^ ^ | | ^ | | | | | $.K.Y.$.$.+. .{ | | { | { { { | +.$.$.K.Y.K.J.$.#.#.H.J.K.K.K.K.K.K.L.L.L.L.L.T.T.L.L.K.J.J.L.T.T.T.T.Y.J.J.#. .{  . .#.$.$.$.$.#.+.{ {  .#.#.+. . .#.H.J.K.J.H.H.H.H.H.P.Q.Q.Q.Q.Q.T.L.J.L.Q.Q.W.Q.!.!.#X2X2X#XzXvXxX.XW.C.Z.C.C.C.A.A.C.C.C.A.Z.Z.Z.Z.Z.Z.D.D.`.`.`.`.`.`.`.`.`.`.`.`.`.`.`.`.`.`.`.`.`.`.`.`.`.`.`.`._._.`._.'.'.'.'.'.'.'._._._._._._._.`.`.`.`.`.`.[.[.`.`.Z.Z.).).Z.Z.Z.Z.).).).).).).Z.Z.Z.Z.Z.Z.Z.Z.Z.C.C.C.C.C.N.",
"] ` ] ] ] ] ] ] ] ] ] ] ] ] ] ] ] ] ] ] ` ` ` ` ` ` ` ` ` ` ` ` [ [ ' ' ` ` ` [ ` ' ( X.2.$X*X%Xa.s.d.d.d.s.s.i.f.u.u.t.y.t.u.i.i.i.i.u.u.u.u.u.t.F v v A A m m n c c 2 2 3 3 3 3 3 3 3 1 1 1 1 1 1 i i b b b b b b b b B ;.,.,.,.,.;.;.,.,.-.N N 1 1 1 1 1 1 1 1 1 u u u 1 - o o - - - o o o o o o # # # # o o o o o o o X X X X X X X X X X X X X X o X X X X X X @ @ # # # # # # # @ @ @ @ @ @ @ @ @ @ # 7 7 # ; @ @ 7 7 # @ + + @ @ 6 5 9 J ..m.m.n.A.Z.Z.)._._.`.`.`.`.`.`.`._.`.`.'.`.[.[.`.`.`.`.`.`.`.`.Z.A.C.n.G...^.4X4X$XM -.a.%X%Xa.e.Z B ;.;.:.,.,.p.p.p.p.p.e.,.p.p.e.:.S Z B n n N B N N b 2 < > 1 > 1 b B B m c A 7.g.wXyXaXaXiXiXyXiXiXyXfXmXZXBXdXaXpXiXyXtXtXtXwXwXyXtXwX:Xi.s.r.7.>.Z n 2 < < u 1 < > # o X X X         X X + + O O 4 4 4 4 5 5 5 0 q r Y Y W ^ ^ ^ | | +.| |  .+.$.$.Y.Y.K.$.+.| { { { { | | |  .+.#.$.$.J.K.K.J.$.#.#.$.J.P.P.K.K.L.L.L.L.K.K.K.K.Y.K.K.K.J.J.J.J.T.T.T.Y.J.J.#.#. . . .#.$.$.$.#.#.{ { { {  .#.#.#.H.H.H.J.L.L. .}  .H.H.Q.Q.!.!.!.Q.T.T.T.I.Q.!.Q.!.!.@X@X#X2X2X2XxXzXA.C.A.C.C.A.A.A.Z.C.Z.Z.Z.Z.Z.Z.Z.Z.Z.Z.Z.`.`.`.`.`.`.`.`.`.`.[.[.`.`.`.`.`.`.`.`.`.`.`.`.`.`.'.'.'.'.'.'.'.'._._.'.].].].].'.'._.'.'.'.'.'.'.].[.[.`.`.`.[.[.`.`.`.`.`.`.).).).).).).).).Z.Z.Z.Z.Z.Z.C.C.C.N.N.c.c.",
"] ] ` ] ] ] ] ] _ _ ] _ _ ] ] ] ] ] ] ] ` ` ` ` ` ` ` ` ` ` ` ` [ [ [ ' I I ( ( ( <.*X*X$X$Xa.a.s.i.d.d.i.i.i.i.i.i.u.i.t.u.u.i.i.i.i.u.u.u.u.u.s.F G F 7.>.D S m m v c c 2 2 3 3 3 3 3 1 1 1 1 1 1 2 2 1 1 1 2 i 2 2 2 b n B ;.;.;.;.-.,.,.-.N M 1 < 1 u u u u i i u u i 1 < - o o o o o o o o o o # # # # o o o o o X o X X X X X X X X X X X X X X X X X X X X X X X @ @ @ # # # # @ @ @ @ @ @ @ @ @ X @ # e ; ; ; ; e 7 # # # # + X @ O 4 5 H ' ..G.F.D.D.`.'.'.'.].].].].].].].].'.'.'.'.'.`.`.`.`.`.`.`.`.).Z.A.C.n.G.G.^.&X3X*X=.,.$X%Xa.a.:.n m ;.:.:.,.e.p.a.a.p.5.8.a.%Xa.p.:.;.Z B B B B B N N b 2 < 1 1 1 n B B m c m A 0.g.;X7XwX>X>Xk.j.i.h.j.8XtXiXwX:X:Xh.i.y.u.u.u.u.u.i.y.7.A F S Z B N z u 1 u u u < ; # + X X             O O O O O 4 4 4 4 5 5 0 q r Y Y Y R R ^ ^ | | +.|  .+.$.$.$.K.K.K.$. .{ { { { {  .|  .+.$.$.$.J.K.K.K.J.J.#.#.#.J.P.P.K.L.L.L.L.K.K.K.K.K.K.K.K.K.J.J.J.J.P.P.J.J.J.H.#.#. .#.$.$.$.$.#. .{ { {  . . .$.H.H.H.H.H.H.H.} T }  .H.T.Q.Q.!.!.Q.T.T.L.Q.Q.!.@X@X@X2X2X@X2X#XW.A.A.A.c.C.A.A.Z.A.Z.Z.Z.Z.Z.Z.Z.Z.Z.Z.Z.Z.Z.Z.Z.`.`.`.`.`.`.`.`.`.`.[.[.`.`.`.`.`.`.`.`.`.`.`.`.`.`.'.'.'.'.'.'.'.'._._._.].].].].].].].'.].].].].].].].[.[.[.[.[.[.`.`.`.`.`.`.).).).).).).).).Z.Z.Z.Z.C.C.C.C.N.N.c.c.c.",
"] ` ` ] ] ] [ ] _ _ _ _ ` ` ` ` ] ] ] ] ` ` ` ` ` ` ` ` [ [ ` ` [ [ ' U U ( ! =.N ;.%X%Xa.s.d.d.d.d.i.i.i.i.i.i.i.i.i.i.i.i.u.u.u.y.t.t.t.t.t.t.y.F F r.s.t.w.>.D F S A m c l 2 3 3 3 2 1 1 1 1 1 1 1 1 1 1 1 1 1 1 1 1 2 l b n N *.*.*.,.,.;.N z 1 1 i i i i i i i i i i 1 < - o o o o o o o o o o # # # o o o o o o X o X X X X X o o X X X X X X X X X X X X X X X X X @ X @ # # # @ @ @ @ @ @ @ @ @ X X @ # e e e e e 7 e # ; ; # @ X + + O 4 9 ~ ..G.F.F.[.].].].].].].].].].].].].'.'.'.'.'.'.'.'.`.`.`.`.`.`.`.D.c.F.F.W.~.2X2XE.2.2.$X%X%Xp.;.B B S :.:.,.e.a.d.p.>.,.a.%X%Xa.8.8.8.>.:.S B B B B N b 2 i 2 2 N B B m c v m F 0.i.;X>X:X:Xj.i.y.i.i.:X7XwX>Xj.i.i.0.6.6.w.w.7.D S v c v c b b M M x i d d u u < # + X X                 O O O O 4 4 4 4 6 0 r Y r Y Y W ^ ^ ^ ^ | +.| | +.$.$.$.K.K.K.$.+. .{ { { { | +. .+.$.$.J.K.K.K.K.K.J.J. . .H.J.L.L.K.K.K.K.K.K.K.$.$.$.$.$.$.J.J.J.J.J.J.J.#.H.H.#.#.#.#.J.H.$.$.#. .{ {  . . . . .H.H.H.H.H.H.m.} } }  .H.L.Q.Q.!.!.Q.Q.Q.Q.Q.T.!.@X#X2X2X2X#X.X.X.XW.S.A.C.C.C.Z.Z.Z.Z.Z.Z.Z.Z.Z.Z.Z.Z.Z.Z.Z.Z.Z.Z.Z.`.`.`.`.`.`.`.`.`.'.'.'.`.`.[.`.'.'.`.`.`.`.`.`.`.`.'.'.`.`.`.`.'.].].].].].].].].].].].].].].].].].].].'.[.[.[.[.[.`.`.`.`.`.`.`.`.).).).).).Z.).Z.Z.Z.C.C.C.C.N.c.c.c.c.",
"` ` ] ] ] ] [ ] _ _ _ ] ` ` ' ` _ _ _ ` ` ` ` ` ` ` ` ` ` [ [ [ [ ' I U d =.2.p.%Xd.d.d.i.d.j.j.j.l.i.i.i.i.i.i.i.i.i.i.i.i.y.y.0.0.y.y.y.y.y.y.m A w.s.d.s.r.w.e.w.>.>.S m c l 3 3 2 2 1 1 1 1 1 1 1 2 1 1 1 1 1 1 1 1 2 2 2 z z b b N -.;.*.b i < 1 z z z z z i z i i i 1 1 < - o o o o o o o o o # # # o o o o o o X o X X X X X o o o X X X X X X X X X X X X X X X X X X X @ @ # @ @ @ @ @ @ @ @ @ @ X X @ @ ; e e 7 7 ; ; ; ; ; # # X X + # 6 5 H ..m.F.F.[.].].].].].].].].].].].'.'.'.'.'.'.'.'.`.`.`.`.'.`.`.`.Z.N.C.F.G.^.2X3X*X2.$X4X4X%Xp.:.B B ;.:.:.8.a.%X%X>.>.a.,X1X,X%X$Xa.a.p.>.S B B -.B N b b i b B B B m c c v A F F s.g.d.0.0.y.y.y.y.i.d.j.;Xd.w.7.A G G A S A c > o o > 3 2 z M M M i d d u y # + + X               O O O O O O 4 4 5 5 0 r r Y Y Y Y W ^ ^ ^ ^ ^ | | | $.$.$.K.K.$.$.+.+.| { { { {  .+.+.$.$.K.K.K.K.K.K.K.J.J. . .H.J.L.L.K.K.K.K.K.K.$.+.#.#.+.$.$.$.J.J.J.J.J.H. . .#.H.$.J.K.J.H.$.#. .{ { { { { { }  .H.H.H.H.H.H.} } } H.H.P.T.Q.Q.Q.Q.Q.!.!.!.@X@X2XxXxX2X2X@X!.W.W.A.A.A.Z.Z.Z.Z.Z.Z.Z.Z.Z.Z.Z.Z.Z.Z.Z.Z.Z.Z.Z.Z.Z.Z.Z.`.`.`.`.`.`.`.`.'.'.'.'.`.`.[.[.'.'.`.`.`.`.`.`.`.`.'.'.`.`.`.`.'.].].].].].].].].].].].].].].].].].].'.'.'.`.`.[.[.`.`.`.`.`.`.`.`.).).).).).).Z.Z.Z.Z.C.C.C.C.N.c.c.n.c.",
"z.z.b.z.z.z.] ] ] ] ] ` ` ' ` ' ' ' ' [ [ [ [ [ ` ` [ [ [ [ [ [ P U ( ! 3.9.a.d.j.j.h.d.i.d.j.k.i.i.i.i.i.i.i.i.i.i.i.i.i.u.0.0.6.0.0.y.y.t.t.7.m A 7.r.s.a.r.e.7.7.7.7.>.S m c c l 2 2 2 2 1 1 1 1 2 2 1 1 1 1 1 < < < < 1 i i i z z M *.*.M u - < i M x x x z i i z i i d u u - - - ; # # # # # # # # # o o o o o X X X o o o X X X X X X o X X X X o X X X X X X X X X X X X @ @ # # # @ # # ; ; ; ; # @ @ X @ @ # # 7 7 # # ; ; ; ; # @ @ @ X @ @ 6 H L ..G.[.].].].].].{.{.{.{.].].].].].'.'.'.'.'.`.`.`.`.`.`.`.`.[.[.F.F.F.F..X3X3XE.E.4X9X4X%X,.N ;.B >.a.e.e.;X=Xs.w.e.a.9X9X,X;X%X%X%Xd.e.;.N N B *.N z N B N n m m m n n m A F t.s.t.7.F F F >.e.t.r.t.d.d.e.S m v m m B B B 3 3 3 3 3 l b N z i d u y y y # X + + O O O O       X O X O 6 @ 6 6 6 6 q Y Y Y Y Y Y Y ^ ^ ^ ^ +.+.@.@.+.$.K.Y.Y.K.%.#.+. . . .+.#.$.J.J.K.Y.T.T.Y.K.K.T.T.Y.K.J.J.J.K.K.K.K.K.K.J.$.$.#. . . . .+.+.$.$.J.#.#.#. . . .#.H.J.J.K.K.J.J.+. .{ | {  .{ { }  .H.H.P.H.H.H.H.} H.L.Q.I.L.I.Q.!.!.Q.!.OX@X#XzXcXvXxXzX#X Xm.A.C.A.A.A.Z.Z.Z.Z.Z.Z.Z.D.D.Z.Z.Z.Z.Z.Z.Z.Z.Z.Z.Z.Z.`.D.`.`.D.`.'.'.'.'.'.'.'.'.'.'.'.'.'.'.'.'.'.'.`.`.'.'.'.'.`.'.'.'.'.'.'.'.'.'.].].].].].].].].].'.'.`.`.`.`.`.`.`.`.`.`.`.`.`.`.`.).).).).Z.Z.Z.Z.C.C.C.C.N.N.C.C.N.N.n.n.c.",
"b.b.z.z.z.z.] ] z.z.z.] ` ' ` ` ' ' ' [ [ [ [ [ [ [ [ [ [ I I U ( =.3.2.$X%Xd.d.j.j.h.i.i.i.h.j.i.i.i.i.i.i.i.i.i.i.i.i.i.i.u.y.y.y.y.r.t.t.D m m S 7.r.r.e.>.>.>.7.7.7.8.>.S m m b c 2 l 2 2 2 2 2 2 2 1 1 1 1 < > < < < < 1 1 i i i z N M i - o < i M x M x i i i i i i i i u - - ; ; - - - - # # # # # o o o o o X X o o o o X X X X X X o o X X X o X X X X X X X X X X X X @ @ # # # @ # # ; ; ; ; ; # # @ @ @ @ @ @ @ # # # # # # # # ; @ o X @ @ 6 5 J I n.F.[.[.].].{.].].].].].].].].'.'.'.'.'.`.`.`.`.`.`.`.`.[.[.[.[.'.].]..X2X^.E.nXIXnX4X%X,.B v >.B :.e.=X,X:Xg.r.r.1X<X;X1X1X,X,X,X%Xe.,.B N N N M N *.;.N m m m m m m m m >.e.,.D m m B D >.8.8.e.p.a.e.S m n n m m m m m n n n b n n N i u u u * # # # + + + + X X O O O O X @ 6 6 7 7 7 7 q q r Y Y Y Y Y Y W ^ ^ ^ ^ +.+.@.@.$.$.Y.R.T.K.K.$.$.+.+.+.$.J.K.Y.T.T.R.R.T.T.K.K.Y.Y.Y.Y.Y.T.T.T.K.K.J.$.$.$.+.+.| |  . . .#.+.$.$.$.#.+. . . . .#.#.J.J.J.K.J.$.+. .{ { { { { {  .#.J.P.P.P.P.P.Q.!.!.@X!.Q.L.T.Q.Q.Q.Q.T.Q.@XxXxXvXvXcXzX XI.S.C.Z.A.A.Z.Z.Z.Z.Z.Z.Z.Z.D.D.Z.Z.Z.Z.Z.Z.Z.Z.Z.Z.Z.Z.`.D.`.`.D.`.'.'.'.'.'.'.'.'.'.'.'.'.`.'.'.'.'.`.`.`.'.'.'.'.'.'.'.'.'.'.'.'.'.'._.'.'.'.'.'.'.'.'.`.`.`.`.`.`.`.`.`.).).).).Z.Z.Z.Z.Z.Z.Z.Z.Z.Z.Z.Z.C.C.C.C.N.N.C.C.N.N.n.n.n.",
"b.b.x.x.x.z.z.z.z.z.z.z.] [ [ [ ' ' [ [ [ [ [ [ [ [ [ I U U ( d 3.2.p.$X%X;Xj.g.h.d.i.i.i.i.i.i.i.i.i.i.i.i.i.i.i.i.i.i.u.u.u.u.y.y.y.y.w.>.m c m S 7.r.e.>.D D >.>.7.7.e.8.>.:.S m b c l l l 2 2 2 2 1 1 1 1 1 < > < < < 1 1 1 1 1 i i z i < o X < i z M M x i z z i i i i i i - - - - - ; - - - - # # # # o o o o o X o o o o o X X X X o o o X X o o X X X X X X X X X X X X @ @ # # # # # # ; ; ; ; ; ; ; # # @ @ # @ @ @ @ @ @ @ @ @ @ ; ; o X o o # 6 7 J ' m.n.F.F.[.[.[.].].].].'.'.'.'.`.`.'.'.`.`.`.`.`.`.[.[.[.[.[.].}.kX}.}.[..XoXvXNXnX4X-X$Xm l l 2 B >.%X,X<X<Xa.a.%X%Xa.%X,X<X4X1X=X%Xp.,.N M z z i N ,.;.B N m m m B S m S ,.,.S m m B S ,.,.,.e.e.p.e.:.B m B N N N N B B B B N N N M u u u y # # # + # @ + + O O O O O O @ 7 7 7 r r t t r r Y Y Y Y E W W W ^ ^ ^ ^ +.+.@.@.%.K.Y.R.R.T.K.$.$.$.$.$.K.Y.Y.R.R.R.Y.T.Y.K.J.J.K.K.Y.K.T.T.Y.T.K.J.$.$.$.+.+.| | |  . . .+.+.$.$.+.#. .{ | | | #.#.$.$.J.J.$.#.#.#.{ { {  . .#.H.K.L.Q.Q.Q.Q.Q.!.!.@X@X@X!.Q.!.!.!.Q.Q.L. X2XxXvXvXcXxX#XW.I.I.C.A.A.A.Z.Z.Z.Z.Z.Z.Z.Z.D.D.Z.Z.Z.Z.Z.Z.Z.Z.Z.Z.Z.Z.`.`.`.`.`.`.`.'.`.`.`.`.'.'.'.'.'.'.`.'.`.'.`.`.`.`.`.`.`.`.'.'.'.'.'.`.'.'.'.'._._._._._.`.`.`.`.`.).Z.Z.Z.Z.Z.Z.Z.B.B.B.B.B.Z.Z.Z.B.B.B.Z.Z.C.C.Z.N.C.C.C.C.C.C.C.C.N.n.n.c.",
"b.b.c.x.x.x.z.z.z.z.z.z.] ] ] ` ` ` [ [ [ [ [ ` [ I ..( ( ! *.3.$X%X%X=Xd.d.j.j.h.i.i.i.y.i.i.u.i.i.i.i.u.u.i.i.t.y.y.y.y.y.y.y.y.w.w.>.m c 3 v m D 7.r.e.7.D D >.>.w.e.e.8.8.>.,.D B b z z z 2 2 2 2 1 1 1 2 1 < > < < 1 1 1 1 < < 1 u u 1 - o o - i i z x z i z z z z i i i i - - - ; ; ; ; ; # # # # # # o o o o X X o o o o o o o X X X o o X X o o X X X + + X X X X X X X @ @ @ @ @ @ # # ; ; ; ; ; ; ; ; # # # # @ @ @ @ @ @ @ @ @ @ @ # o o X X X X 7 7 J I [ m.W.W.F.[.[.[.[.[.'.'.'.'.'.`.`.'.`.`.`.`.`.`.[.].].].].{.kXkXkXkX}.{..X2X2X3X&X4X4X%XD > - - 1 e.%X9X<Xa.8.D Z c l a.4XrX4X,X=X%Xp.;.z 1 < - i ;.;.;.;.B N B B S B S ,.8.:.B B Z :.,.e.8.p.p.p.p.,.,.,.,.N N N N N N N N N b z d u y e # + # # + # O + + O O O O O 6 7 r r r r r r r Y Y Y Y Y W W W W W ^ ^ ^ ^ +.+.@.@.%.Y.R.R.T.T.K.K.K.$.$.$.Y.Y.R.R.Y.Y.K.%.$.#.+.+.K.K.K.K.Y.Y.Y.Y.K.H.#.#.+.+.| | | |  . . . .+.+.+.#. . .{ { { { +.+.#.$.J.J.$.+.#.#. .{  . .#.#.K.L.Q.Q.Q.!.!.!.!.@X#X#X#X@X X@X!.L.H.P. XxXcXxXzXzX.XW.W.m.A.x.C.A.A.A.Z.Z.Z.Z.D.D.Z.Z.Z.Z.Z.Z.Z.Z.Z.Z.Z.Z.Z.Z.Z.Z.Z.Z.`.`.`.`.`.'.`.`.`.`.'.'.`.'.'.'.`.'.'.`.`.`.`.`.`.`.`.`.`.`.`.`.'.`.`.'.'.'.'._._.).).).).).`.).Z.Z.Z.Z.B.B.B.B.B.B.B.B.B.B.B.B.B.B.B.B.C.C.Z.Z.N.C.C.C.C.C.C.C.C.N.C.C.c.",
"c.c.x.c.c.x.z.z.z.z.z.z.z.] z.z.] ] ] ] [ [ [ I I U X.3.=.*.2.p.%X%X%Xd.d.d.i.i.i.u.y.y.u.t.t.t.y.y.u.u.u.u.u.u.t.y.y.0.0.w.y.t.y.w.>.S 3 3 c c Z S S D >.>.>.>.>.>.>.7.8.>.,.:.:.:.Z m b b l l l 2 1 1 1 1 1 < < < < < 1 1 1 1 < > < - # o o o o ; y i x x M s i i i i x s i y ; - ; e y y e ; 1 ; ; ; ; # o o o o o o X X X X X X X X X X X X X X X X + + + + X X X X X X X X + + # # @ @ X @ ; ; # # # # # # # # # # ; ; ; ; # @ @ @ @ X o o o o X X X X X O 6 9 K ' ] m.F.W.D.D.).`.`.'.].].'.'.'.'.'.'.`.`.'.'.].].].].].}.}.kXkXlX}.}.}.}.[.oX2XvXnX-Xp.o o < > p.d.<X9Xa.8.m 2 3 3 Z %X9X<X,X=X=X%Xp.*.1 - > < N ,.,.*.N N N -.;.,.;.,.p.,.,.B N ,.,.,.,.p.p.p.p.,.;.;.;.n b b M *.*.M M i u < - # # # + + + # # @ @ O @ O O O 6 O 6 r Q Q Q p W W W W W W W W E W W W W ^ ^ ^ ^ ^ +.+.+.%.Y.R.~.!.T.T.K.Y.Y.Y.R.R.R.R.Y.K.%.$.+.|  . .+.+.$.$.$.$.J.Y.Y.K.$.#.+.+.+.| | {  .| |  . . . . .| | { { { { { |  .+.+.+.+.+.$.#.+.#. . .#.H.K.L.L.Q.Q.Q.Q.Q.!. X@X#X#X@X@X@XT.L.} P. X2XcXcXzX2X.XA.n.A.A.A.A.C.C.C.A.Z.Z.Z.Z.Z.Z.Z.Z.Z.Z.Z.Z.Z.Z.Z.Z.Z.Z.Z.Z.Z.Z.Z.Z.D.D.D.D.`.`.`.`.`.`.`.`.`.`.`.`.`.`.`.`.`.`.`.`.`.`.`.`.`.`.`.`.).).).).).).).Z.Z.Z.Z.Z.B.B.B.Z.B.B.B.B.B.B.B.B.N.N.N.N.N.N.N.N.N.N.C.Z.Z.Z.Z.Z.C.C.C.C.C.C.C.C.C.C.C.C.C.",
"c.c.x.c.c.c.x.z.x.x.x.z.z.z.z.z.] ] [ [ I I ( ( X.3.$X$Xp.p.%X;X%Xd.d.d.u.u.u.y.u.t.y.t.u.u.t.t.t.t.t.t.t.t.u.u.t.r.y.w.w.r.r.t.r.e.D m 3 2 c c S D S :.>.>.e.r.r.e.>.>.>.:.S D S S S B m n b l l 2 1 < - > - - > > > > < < < < > - # - o o o X X # < u s M M M x x x x s i u y - # ; ; e e ; ; ; ; ; ; ; # o o o o o o X X X X X X X X X X X X X X X X + X . + X X X X X X X X + + + + @ @ @ @ # # # # # # # # # # # # ; ; ; ; # # @ # @ @ X o o o X X X o X X @ 6 5 H K [ ] b.n.F.F.D.D.`.`.'.'.'.'.'.'.'.`.'.'.'.].].].{.}.}.}.}.}.lX}.}.}.}.}.#X#XcXUX3X&X3.3.i 1 M B %X,X%X>.n 3 > 3 b :.%X=X=X%Xp.p.9.-.z > > > > b N N N N N B B ,.p.p.p.2.,.-.*.*.;.,.,.2.2.2.2.,.*.*.*.M M M M M M x i < - o X + + + + + + # # @ @ O O O 6 6 7 t a o.<.=.o./ Q ^ ^ W W W W W E W W W W ^ ^ ^ ^ ^ ^ +.+.$.K.T.~.!.R.R.K.R.Y.R.R.Y.Y.Y.K.$.+. .| R { | +.| +.$.$.$.$.J.J.K.$.#.+.+.+.| | { { { |  . . . . . .| { { { { { { |  .+.+.+.+.+.#.#.$.+.#.H.K.P.L.L.L.Q.Q.Q.Q.!.!.@X#X#X XL.H.P.P. X#XzXzX2X.X.X.XA.x.x.A.A.A.C.C.C.C.Z.Z.Z.Z.Z.Z.Z.Z.Z.Z.Z.Z.Z.Z.Z.Z.D.Z.Z.Z.Z.Z.Z.Z.Z.D.D.Z.Z.).).).).).).).).Z.Z.).).).).).).`.`.).).).).).).`.`.`.`.).).).).).).).Z.Z.Z.Z.Z.Z.Z.Z.Z.B.B.B.B.B.B.B.B.N.N.N.N.N.N.N.N.N.N.C.C.Z.Z.Z.Z.C.C.C.C.C.C.C.C.C.C.C.C.C.",
"x.x.c.c.c.c.c.c.x.c.x.x.z.z.z.z.....( ( ( ! =.=.B :.p.a.f.s.d.;X;Xd.d.s.y.y.y.y.t.t.t.t.t.f.t.t.t.t.t.t.t.t.u.u.t.r.w.w.w.r.w.e.>.>.S c 3 2 c n m B Z S S D >.e.r.e.7.>.S S Z m m m m n b b l l 2 1 > > - - - - - - - - - - - - # - o o o o o o o o ; y d s x x i i s i i u u < # o # ; ; ; ; ; ; ; ; ; ; # o X X X X X X X X X X X X X X X X X X X X X . X X X X X X X + + + + X X X X X X X X + + # # # # # # # # # # ; ; ; ; # # # # # @ @ X o @ X X @ @ @ @ + @ O 5 5 5 H J [ m.m.G.F.F.D.`.`.'.'.'.'.'.'.'.'.'.'.].{.}.}.}.}.}.}.lXlXlXlXlX}.}..X#XoXoXoX&X2.u z z z p.%X%X8.m l 3 2 l n ;.p.%X%Xp.9.,.;.N z 2 < > < 1 1 b M M M M *.2.2.,.-.*.N j j M N *.*.*.*.*.N s i x s s s i d d u < o X X X + + + + + + # # @ O O O 6 6 7 r Q o.<.1.1.<.o./ ^ ^ W W W W E E R R W R W ^ ^ ^ R ^ ^ +.$.K.R.Q.!.T.R.K.Y.K.K.K.%.$.$.+.| ^ R R R R | +.| | +.$.$.$.$.$.J.$.#.#.+.+.| | | | | | | |  .| | | | { { R R R { { |  . . . . .#.$.$.$.H.J.P.L.L.L.L.L.T.T.!.@XOX@X@XOXT.P.J.!.@X2XzXzX2XW.A.XXF.C.M.C.C.C.C.C.Z.Z.Z.Z.Z.Z.Z.Z.Z.Z.Z.Z.D.D.Z.Z.Z.Z.Z.Z.Z.Z.Z.Z.Z.Z.Z.Z.D.D.Z.Z.Z.Z.Z.Z.Z.Z.Z.Z.Z.Z.Z.Z.Z.Z.Z.Z.Z.Z.Z.Z.Z.Z.Z.Z.).Z.`.).Z.Z.Z.Z.Z.Z.Z.Z.Z.Z.Z.Z.C.N.Z.Z.Z.C.C.C.C.C.C.C.N.N.N.N.N.N.N.N.N.C.C.C.B.B.Z.Z.C.C.C.C.Z.Z.Z.C.C.C.C.C.C.",
"x.x.c.M.c.c.c.c.x.x.c.x.c.c.b.] ..( ( ! =.=.-.,.w.0.t.t.i.d.j.j.;Xg.i.u.u.u.u.t.t.u.t.t.t.t.t.t.t.t.t.t.t.t.u.u.t.r.y.w.w.7.D S m m V h 2 2 c c c c n m m m m m m m m A m B B m b c c c l 2 2 3 1 3 > > - > - - - - - - o o o o o o o o o o o o # X # ; < < u u 1 1 u u u u y - X X o # ; ; ; ; ; ; ; ; # # o X X X o o X X X X X X X X X X X X X X X X X X X X X X X X + + + + X X X X X X X X X X X X # # # # # # # # ; ; ; ; # # # # # # @ @ @ @ # # # # # # # # # @ O O O 5 H I ..m.n.A.F.D.`.`.`.'.'.'.'.'.'.'.'.].{.}.}.}.}.}.}.lXlXlXlXkX}.}.{.[.F.F.m.^.1.$X$X=.i b ;.p.p.;.n b c l b b n -.8.9.>.,.,.-.,.N z 1 < > > 1 i i i u i 1 < < i u < o > < d i i j j j i < < < # # # # # # o X     X X + + + + + + # # @ O O O 6 7 r r Q o.<.1.1.<.o.Q ^ ^ W W W W E E R R R W W ^ ^ ^ W R ^ ^ +.$.T.R.!.T.T.K.K.$.$.+.+.+.+.| ^ R R R R R | +.+.| | +.+.$.$.$.J.$.$.+.+.+.| | | { { { | | | | R R { { R R R R ^ ^ R | | |  . .+.$.$.H.J.K.L.L.T.T.L.L.L.L.!.@X@X@X@XQ.!.2X2X3XzX2X.XW.W.C.C.C.A.N.N.Z.C.C.C.C.Z.Z.Z.Z.Z.Z.Z.Z.Z.Z.Z.Z.D.Z.Z.Z.Z.Z.Z.Z.Z.Z.Z.Z.Z.Z.Z.Z.D.D.Z.Z.Z.Z.Z.Z.Z.Z.Z.Z.C.C.C.Z.Z.Z.Z.Z.Z.Z.Z.Z.Z.Z.Z.Z.Z.Z.).).Z.Z.Z.Z.Z.Z.Z.Z.Z.Z.Z.Z.N.N.Z.Z.Z.B.B.B.B.B.B.B.N.N.N.N.N.N.N.N.N.N.N.N.N.N.Z.Z.Z.C.C.C.Z.Z.Z.C.C.C.C.C.C.",
"z.x.x.M.N.N.N.c.x.c.N.N.c.c.G...X.=.=.=.3.>.e.e.w.y.t.u.u.i.d.j.j.d.i.i.i.u.t.r.t.r.y.y.w.w.w.y.w.w.0.0.w.w.w.w.w.w.D F D S A m c c c c l 2 2 2 2 3 3 3 l c c l c c c n m n n n c c c 2 3 2 l b b 2 1 < 1 1 1 1 < - - - - - o o # # o o o o o # X X X X o o o - o - 1 1 - - ; @ X X X X X o # # ; ; ; ; # # X X X X X X X X X X X X X X X X X X X X X X X X X X X X X X + + X X X X X X X X X X X X + + + + # # # # # # # # # # # # # # # @ @ @ @ @ ; ; ; ; e e ; # # + + +   O 5 J ~ ..m.n.C.Z.D.[.`.`.[.'.'.'.].].{.{.{.{.}.}.}.}.}.}.}.}.}.}.}.}.{.[.F.F.G.G.X.&X-X+X=.s *.p.%Xp.,.b i N N *.;.:.,.9.e.,.;.B ,.2.,.-.z 1 > - - > < > # o o # o o o o - - - - u u u u < # + + o o o o o X X X O O O O + + @ # # # # # # @ 6 6 7 r r p Q Q o.<.1.1.@.^ W W ^ ^ ~ ^ ^ ^ ^ W W W ^ R R ^ R ^ ^ | +.$.Y.R.R.R.Y.%.$.+.+.+.+.+.| | ^ ^ R R R R ^ ^ | | | | +.$.$.$.J.$.$.+.+. . .| | { { { | | { { { { R R R R | R R R { { { | {  .#.H.H.H.K.K.L.L.L.T.T.!.!.!.@X#X#X@X@X!.@XxXxXzX2X.XW.A.C.C.C.C.C.Z.Z.Z.Z.Z.Z.Z.Z.Z.Z.Z.Z.Z.Z.Z.Z.Z.Z.Z.Z.Z.Z.Z.Z.Z.Z.Z.Z.B.B.B.D.D.D.D.D.D.D.D.N.N.N.B.N.N.N.N.N.N.N.N.C.N.N.N.B.B.Z.Z.Z.Z.Z.Z.Z.Z.Z.Z.Z.Z.Z.Z.Z.Z.Z.Z.Z.Z.Z.Z.Z.Z.Z.Z.Z.Z.Z.Z.Z.Z.Z.Z.Z.Z.Z.Z.Z.Z.Z.Z.Z.Z.Z.Z.Z.Z.Z.Z.Z.Z.C.C.C.C.C.N.N.N.N.N.N.",
"z.x.c.M.N.N.N.c.c.c.c.c.b...X.X.*.,.,.>.5.e.t.f.y.y.t.u.y.y.w.y.y.t.y.w.0.F F F F F F G A A G G G G v v c c v v v v v c c c c c l 3 3 3 3 3 3 3 3 3 3 3 3 3 3 3 l c c m m D >.>.>.:.:.S B B Z ;.;.Z N N z z i i 1 1 < - - - - - - - - - # # # # + + # # X X o o o X o o X X X   X X X X X X X X # # # # # X X X X X X X X X X X X X X X X X X X X X X X X X X X X X X X + + X X X X X X X X X X X X + + + + # # # # # # # # # # # # # # ; @ # @ @ @ ; ; ; ; e e ; ; ; # # + X + O 5 J ~ ..m.n.C.A.Z.Z.D.[.[.[.'.'.].].].].{.}.}.}.}.}.}.}.}.}.}.}.{.].].[.F.F.F.G.X.E.*X$X3.*.2.p.-X,Xp.M u z 1 Z 9.a.e.9.p.p.9.,.,.,.,.;.*.b i < > o - - # # o o o o o o o o o o o o o o o + + o X X X X X X X O O O O + @ # # # # # # @ @ 6 6 7 r r W W Q o.<.<.1.@.^ ^ W ^ ^ ~ ~ ^ ^ W W W W ^ ^ R ^ ^ ^ ^ | #.K.Y.R.R.Y.%.$.+.+.+.| +.+.+.+.+.+.^ ^ ^ ^ ^ R ^ | | |  .+.$.$.#.#.+.#. . . . . . . . . . . .| | | | | | { { R R R R { |  .$.J.H.H.H.H.H.H.J.K.P.T.!.OX@X#X2X3XzXxXxXxX2XOXxX2X.XXXC.x.C.C.C.C.C.Z.Z.Z.D.D.D.D.Z.Z.Z.Z.Z.Z.Z.Z.Z.Z.Z.Z.Z.Z.Z.Z.Z.Z.Z.Z.Z.B.B.B.D.Z.Z.Z.Z.Z.B.B.B.N.B.B.N.N.N.N.N.N.N.N.C.N.N.N.N.B.B.Z.Z.Z.Z.Z.Z.Z.Z.Z.Z.Z.Z.Z.Z.Z.Z.Z.Z.Z.Z.Z.Z.Z.Z.Z.Z.Z.Z.Z.`.`.`.`.`.`.`.`.).).).).).).).).Z.Z.Z.Z.Z.Z.Z.Z.C.C.C.N.N.N.N.N.B.",
"z.z.c.M.N.N.N.c.c.c.m.....X.3.3.,.w.r.r.y.t.t.t.r.w.w.w.w.7.F S A F A A S F F F F F A G G G v v v v v v l c v v v v v v c c v m m v c c c v v v m A F D m v c 3 l c c n S >.8.e.e.8.,.,.;.;.:.,.,.,.;.-.N M M x u 1 1 < 1 < < < ; ; - - > > > < ; # ; # - ; < 1 - - o o X X o X X X X X X X   X X o o o o X X X X X X X X X X X X X X X X X X X X X X X X X X X X X X X + + X X X X O O X X X X X X + + + + + + # # # # # # # # # # # # ; ; ; @ @ @ ; ; ; ; e e e e y e ; # # # X O 6 q U ....m.n.A.A.Z.D.[.[.[.'.'.].].].].{.{.{.}.}.}.{.{.{.{.].].].].[.[.[.F.F.G.^.~.+X1.*.*.*.%X-X%X%X2 2 2 B 8.%X%Xp.p.p.p.p.2.,.2.,.;.*.N N i < - o o o o o o o X o X X X X X X   o o + + X X X X X X X X O O O O + @ # # # # # # @ @ 6 6 7 r r W Q Q o.@.<.1.<.o.^ ( ^ ^ ~ ~ W W W W W E R R R R ^ ^ | | +.K.Y.Y.K.K.$.+. . .| | +.+.+.+.+.+.+.+.| | ^ ^ | | | |  . .+.+.#. . . . . . . . . . . .+.+.+.+. . . . .| { { { T {  .+.J.J.J.J.J.J.H.H.P.K.L.L.Q.!.@X#X#X2X3XzXzXxXzXcXxX!.~. XW.C.c.c.C.C.C.C.Z.Z.C.C.D.Z.Z.Z.Z.Z.Z.Z.Z.Z.Z.Z.Z.Z.Z.Z.Z.Z.Z.Z.Z.Z.Z.Z.B.B.N.B.N.N.N.N.B.N.N.N.N.N.N.N.N.N.N.N.N.N.N.N.C.C.N.N.N.N.Z.Z.Z.Z.Z.Z.Z.Z.Z.Z.Z.Z.Z.Z.Z.Z.Z.Z.Z.Z.Z.Z.).Z.Z.Z.Z./././.`.`.`.`.`.`.[.[.`.`.`.`.`.`.`.`.`.`.`.`.Z.Z.Z.Z.C.C.C.N.Z.N.N.N.B.",
"z.z.c.M.N.N.N.N.c.b.....<.3.9.p.w.0.t.u.y.y.w.w.7.>.D S m v V c c 3 c c 3 c m S D D F G A G m A F F G G G F 0.w.w.w.w.w.7.w.t.s.d.s.r.w.t.t.t.t.a.s.d.=Xt.7.A c c c c m S S S S :.:.D S Z S D :.>.,.;.-.N M x z i u 1 1 1 1 1 1 1 1 > > < < < < y y y y u u i i u u 1 ; ; ; ; # X X X X X X X X X X X X X X X X X X X X X O O O X X X X X X X X X X X X X X X X X X X X + + X X X X O X X X X X X X + + + + + # # # # # # # # # # # # # ; ; ; @ @ @ ; ; ; ; e e e e y e y ; # # # X + 6 5 U ( ..m.n.C.A.Z.Z.`.`.[.'.'.'.'.'.'.].].].{.{.].].].].'.'.'.'.[.[.`.`.C.C.n...Y.+X$X,.3.9.$X1X4Xa.e.3 2 2 ;.%X%Xp.,.p.%Xp.2.,.-.-.*.N *.N M u o o o o o o o o # # # # o o o o o o X X X X X X X X X X O O O O + X # # X @ @ + @ @ @ 6 7 r r Q Q Q / +.+.@.<.+./ ( ^ W W W W W W W W W R R ^ R ^ ^ | | +.K.K.K.K.$.+.+. . .| | +.+.+.+.+.+.+.+.+.+.| | | | | |  . . . . . .{ { |  . .+.+.+.+.+.$.$.+.#.#.#.+. . .{ { { {  .J.K.L.J.J.J.J.J.H.H.Q.Q.Q.Q.!.@X2X2X2X2X3XzXcXxX@XzX2Xm. .m.A.C.Z.Z.C.C.C.C.Z.Z.C.C.Z.Z.D.Z.Z.Z.Z.Z.Z.Z.Z.Z.Z.Z.Z.Z.Z.Z.Z.Z.Z.Z.Z.Z.B.B.N.N.N.N.N.N.N.N.N.N.N.N.N.N.N.N.N.N.N.N.N.N.N.N.N.N.B.B.Z.Z.Z.Z.Z.Z.Z.Z.Z.Z.Z.Z.Z.).Z.).).).).).).).).)././.).)././.'.'.'.'.'.'.'.'.'.'.'.'.'.'.'.'.`.`.`.`.B.Z.Z.Z.C.C.C.N.Z.N.N.N.B.",
"b.b.c.N.N.N.N.N.c.G...X.$Xp.p.t.t.y.0.w.r.e.5.:.D C V c h h 3 3 , , , , 3 c m S r.r.y.y.w.y.r.t.u.u.u.u.u.s.d.d.i.s.s.d.d.d.g.g.d.d.s.u.a.s.s.a.a.a.s.s.e.7.S l c c m B :.:.>.>.>.:.D S D D D ;.,.;.-.N *.N M x z u 1 - - - < < < < 1 1 > > < < y y y y u d u i d i d u u u u y y ; @ X   O X @ # # # # # ; # # X X     O O O O O O O X + + X X X X X X   . X X + + + + + + X X X X X X X X X X X X + + o o + + + + + + # # # @ # # # # ; ; : : @ # ; ; ; ; ; ; e e e e ; ; ; ; # # + + 6 7 W ( ..b.m.C.Z.Z.).).`.`.`.`._._._._.'.'.'.'.'.'.'.'.'.`.`.`.'.`.`.).Z.C.n.....1.3.2.$X2.2.,X4X,X%XZ n > 2 e.p.;.;.,.e.%X%Xp.p.,.;.*.*.*.N z < < < < 1 - o o < < < < < - # o X X       X X o O O O O X X X X O O # # @ O O O O @ 6 6 7 r r Q ! o./ o.+.@.@.@.+.( W W W W W W W W W W ^ ^ ^ R R ^  . .+.%.K.K.$.$.+. . . .| | +.+.+.+.+.+.+.+.+.+. .+.| | | |  . . . .| | | | |  .+.+.$.$.J.K.J.J.J.J.J.J.J.J.$.J.#.#.H.K.T.Q.Q.T.L.H.H.P.L.I.Q.!.@X@X@X2X2X2XzX#X2X2XzXxX@X2X Xb.b.m.C.C.N.C.Z.Z.C.C.B.B.Z.Z.Z.Z.Z.Z.Z.Z.Z.Z.Z.Z.Z.Z.Z.Z.Z.Z.Z.Z.C.C.C.N.N.N.N.C.N.N.N.N.N.N.V.V.M.M.N.N.C.N.N.N.N.N.N.N.N.N.N.N.N.N.N.N.B.B.Z.Z.Z.Z.Z.Z.Z.Z.Z.Z.).).).)._._.).)._._.).).`.`.`.'.'.'.].].].].].'.'.'.].{.{.{.'.'.'.].`.`.`.`.).Z.Z.Z.Z.Z.Z.Z.Z.Z.Z.C.N.",
"b.b.c.N.B.B.N.N.v...U 3.$Xa.a.f.y.0.0.0.F S C C C V V c 3 3 3 > 3 c m C S >.r.t.d.d.d.d.;X;X;X;Xj.g.j.;X;X;Xg.d.d.d.d.d.d.d.d.d.i.i.u.u.t.t.t.t.r.r.t.a.r.>.m 3 c m Z D :.>.>.>.:.S S Z S S S D :.;.-.B B N M x z i 1 < - - - - - - - - > > > > < y < < u u < < u i s s s x x s u u ; ; # ; ; e ; ; ; ; ; ; # # # # X X X X X X O O X X + + X X X X X X .   . . + + + + + + X X X X X X X X X X X X + + o + + + + + # # # # @ @ # # # # # ; : : @ # # # ; ; ; ; ; e e e ; ; ; # o o # + # # 7 W ~ ..] b.n.C.Z.Z.).).).).).).).).[.[.`.`.`.`.[.`.`.).).).`.`.`.Z.Z.C.n.m...<./ <.1.E.$X$X*X,X,Xa.p.B 2 > > 2 b B n ,.9.%X$Xp.,.*.-.-.-.-.*.M i u 1 > # o u u u u d u u y y e # # X X X o X X X X X X X X O O # # @ O O O O O 6 6 0 r r W o.o.o.o.o.+.@.@.+.( W E E W W W W W W W ^ ^ ^ ^ R ^  .+.+.%.$.$.$.+.+. . . .| | +.+.+.+.+.+.+.$.$.$.+.+. .| | | | | | | | |  . . .+.$.$.K.K.K.K.K.K.K.K.K.K.K.L.Y.Y.Y.Y.T.Q.!.!.Q.Q.T.L.L.L.Q.Q.!.@X#X#X3XxXxX#X2X2X#XQ.!.!.P.P.W.m.m.b.C.C.C.C.Z.Z.Z.Z.B.B.N.N.B.B.B.B.N.N.B.N.B.B.B.B.C.C.C.C.C.C.C.N.N.N.N.N.N.N.N.N.N.N.N.N.V.V.M.N.N.N.C.N.N.M.M.M.N.N.N.N.N.N.N.N.N.N.Z.B.Z.Z.Z.Z.Z.Z.Z.Z.Z.Z.).).).)._._.).)._._.).).`.'.'.'.'.'.].].].].'.'.'.'.].].].{.'.'.'.'.`.`.`.).Z.Z.Z.Z.Z.Z.Z.Z.Z.C.B.B.N.",
"v.b.c.N.N.N.N.n.G.X.=.p.a.f.f.f.0.4.4.F m v m V m m m v c c c c v m F 7.w.y.t.s.d.d.d.d.j.j.j.d.g.g.g.j.;Xj.d.s.s.i.i.i.i.u.u.s.i.i.u.y.y.y.y.w.w.e.r.r.r.:.m l m A S S :.,.>.S S D Z B Z Z Z Z Z Z Z B B *.M M x i 1 < - - - - - - - - o o o # # # # # - - - - y u u d s x x s s u ; ; ; ; e y y y y y ; ; ; ; # # # o X X X X X X X X + + X X X X X X X X X X X X X X X X X X X X X X X X X X X X + + + + + + + + # # # # # # # # # # # # # # ; ; @ @ # ; ; ; ; ; e e e ; ; ; # # # @ @ @ @ 7 q U ~ ..] b.n.A.Z.Z.Z.Z.Z.Z.Z.Z.Z.).).).).).).).).).Z.Z.Z.Z.Z.Z.Z.Z.C.n.m.G.......&X&XE.*X*X%X%X%Xe.N 1 > 3 2 z N N ;.$X5X$X,.B -.N -.2.2.-.M i u 1 1 1 u d u u x s i d s d p y # # o # # # # # X X X X O O # # # @ O O O O O O 6 7 r p o.o.o.o.o.o.o.@.+.^ W Y E W W W W W W W ^ ^ ^ ^ R | +.+.$.%.$.$.$.+. . . . . . . .+.+.+.#.#.#.$.$.$.$.$. . .| | | | | |  .|  . .#.$.J.K.K.Y.Y.Y.K.K.K.K.L.L.Y.Y.T.W.Q.!.!.!.!.!.!.!.Q.Q.!.!.!.@X@X#X2XzXxXxX2X@X#X@X@X!.I.I.m.m.m.m.m.z.C.Z.B.B.Z.Z.Z.Z.N.C.C.N.B.N.N.N.N.N.N.N.N.N.N.N.N.C.C.N.N.N.N.N.N.M.N.M.M.N.N.N.N.N.N.N.N.N.N.c.N.N.C.c.c.c.c.c.c.c.N.N.N.N.N.N.N.C.C.C.Z.Z.Z.Z.Z.Z.Z.Z.Z.).).)._._._._.`.`._._.`.`.'.'.'.'.].].].].{.{.{.{.{.{.{.{.{.{.{.{.{.'.`.`.`.).Z.Z.Z.Z.Z.Z.Z.C.N.N.B.N.N.",
"v.b.c.N.N.N.c.v.X.X.$Xf.f.y.y.0.F G G G m G C G G F F F D D F F F w.r.t.t.u.s.d.d.d.d.d.d.s.u.u.u.s.s.s.s.s.u.u.u.u.u.u.y.u.u.i.i.u.u.y.w.w.w.w.e.r.t.t.A c l l A S S S :.>.:.S D S B B B B B B B B B Z B B N M x i 1 1 - - - - ; - # o o o o # # # # # o o o # - < y u s x x u u y ; # ; ; p p y y y y ; ; ; ; # # # # # @ @ @ + X X X + + X X X X X X X X X X X X X X X X X X X X X X X X X X X X + + X X + + + + # # @ @ # # # # # # # # # # ; ; @ @ # # ; ; # # ; e e ; ; ; # # # @ @ @ @ @ 6 q q U ' ..b.m.C.C.C.C.C.C.C.C.Z.Z.Z.Z.Z.Z.Z.C.Z.B.C.C.Z.Z.C.Z.Z.Z.C.C.n.F.b.G.....<.1.$X2.,.%Xp.p.p.p.>.b 1 2 2 B ,.$X,X%Xp.-.N z N 2.2.,.3.*.=.*.M M M M M M -.*.=.=.=.x s u y y y e e e e e 7 # X X # # # # # @ O O O O O O 6 6 q p o.o.@.o./ / o.@.@.^ W Y E W W E E E E E R R ^ ^ ^ | +.+.$.$.$.$.+.+. . . . . . . .+.+.+.#.#.+.#.$.$.$.$.+. .| | |  . . . . . . .#.$.K.K.K.Y.Y.Y.K.K.K.K.L.L.L.L.Q.Q.!.!. X XOXOX@X@X@X@X@X@X@X#X2X3XxXxXzX#X@X@X3X!.!.#Xm.m.m.z.n.n.m.m.N.B.B.B.B.B.B.N.C.C.C.C.N.N.N.N.N.N.N.N.N.N.N.N.N.N.N.N.c.c.c.c.c.c.c.c.c.c.c.c.c.c.c.c.c.c.c.c.n.n.c.c.c.c.c.c.c.c.N.N.N.N.N.N.N.C.C.Z.Z.Z.Z.Z.Z.Z.Z.Z.Z.).).)._._._._.`.`._._.'.'.'.'.'.'.'.'.{.{.{.{.{.{.{.{.{.{.{.{.{.'.'.'.`.`.`.).Z.Z.Z.Z.Z.Z.Z.Z.Z.Z.Z.Z.N.",
"v.G.F.F.G.G.G.X.3.9.%X%Xe.0.4.F F F G F 4.G G G 0.0.0.w.y.y.y.y.y.y.t.u.u.u.f.f.f.i.i.i.d.d.i.u.u.f.s.s.s.s.u.u.t.t.y.u.y.u.i.i.i.u.t.y.y.y.y.y.r.r.r.8.n 3 > 3 S S S D D S S Z Z Z Z B B B B B B B B B B N N n N *.x 1 < ; ; ; ; # o o o o o o # # # # # # # o # - 1 y u u u u d e ; ; ; e p p y y y y ; ; ; ; ; # @ o X o o o o X X X X X X X X + + + X X X X X X X X X X X X X X X X X X X X X X X X X X X X X X + + # # # # # # # # # # # ; ; ; @ @ X X @ @ @ @ : ; e e e ; ; # # @ @ @ @ @ 6 q q U U ' ] z.n.n.C.C.C.C.C.C.C.C.C.C.C.C.C.C.C.C.C.C.C.C.C.C.C.C.C.C.C.C.C.n.m.] G.Y.&X+X2.9.2.$Xp.p.p.,.-.;.-.a.p.5X,X-X$X,.N z z *.,.9.2.*.-.*.*.*.M *.*.*.3.-.*.*.=.x a p e p d s d p p a a a r 7 7 e e 7 7 @ @ O O @ 6 7 6 6 r Q <.<.o.o./ ^ o.<.<.o.W Y Y Y Y Y Y Y E E ^ ^ ^ +.+.+.$.+.$.$.$.$.+.+.+.| | |  . .+.+. . .+.#.#.#.#.#.$.$.+.+.+.|  . .+.+.+.+.+.#.$.K.K.K.Y.K.K.K.K.K.K.L.L.L.L.L.Q.Q.!.!.!.!.!.!.OXOX@X#X@X#X2X3X3X3XcX2X2X@X@X#XxX XW.A.n.n.n.n.c.c.c.c.N.N.N.N.N.N.N.N.N.N.N.N.N.N.N.N.N.N.N.N.N.N.N.N.M.M.M.M.c.c.c.c.c.c.c.c.c.c.c.c.c.c.c.c.c.c.c.c.x.x.c.c.c.c.N.N.N.N.N.N.N.N.N.N.N.N.C.B.Z.Z.Z.Z.Z.Z.Z.Z.).).).).`.`.`.`.`.`.'.'.{.{.{.{.}.}.}.}.}.}.{.{.}.}.}.{.{.{.{.{.{.{.{.'.`.`.`.`.Z.Z.Z.Z.Z.Z.Z.Z.Z.Z.C.C.C.",
"v.G.G.G.G.X.2.3.9.f.f.5.F F F F 0.y.u.u.F F 0.y.u.t.t.t.0.0.0.y.t.f.i.i.i.i.i.i.i.i.i.i.i.d.i.i.u.u.f.f.u.u.t.t.u.u.u.u.u.i.i.i.i.u.t.t.t.t.t.a.r.a.7.D c 3 l c S S S D S A B m B B B B B B B B B B Z Z B n n n N *.M 1 1 < ; ; ; # o o o o o o o o # # # # # # # # ; < u u y y u e ; ; ; e p p y y y y ; ; ; ; ; # @ o X X X X X X X X X X X X X + + X X X X + X X X X X X X X X X X X X X X X X X X X X X X X X X + + + X + X X X X X # # # # : @ @ O X X @ @ @ @ @ ; e e e e e ; # @ X X X X # q q p U U I [ z.n.n.n.C.C.C.C.C.C.C.C.C.C.C.C.C.C.C.C.N.N.N.N.N.N.N.N.N.N.N.N.n.m.m.G.&X3X3X$X$X-X$X,.2.%X1XrX4X4X9XrX4X-X$X*.M z z x *.2.2.-.*.*.*.*.*.*.*.*.*.=.=.=.=.=.O.! O.O.=.=.=.<.<.=.=.! a a p r e e 7 @ @ O O @ 5 7 e q p o.<.<.<.o.o./ @.1.<.@.( r Y Y Y r r Y E ^ ^ +.@.%.<.Y.Y.Y.%.$.$.+.+.+.| | | |  . . .+.+.+.#.#.J.J.$.$.J.J.$.+.+.+. .+.+.+.+.+.+.+.$.K.K.K.K.K.K.K.K.K.L.L.L.L.T.T.W.W.Q.Q.Q.Q.Q.!.@X@X#X2X2XxXxXxXxX2X@XY.!.zX2X2X2XA.n.x.C.C.c.M.M.M.M.M.N.N.N.N.N.N.N.N.N.N.N.N.N.N.N.N.N.N.N.N.N.N.N.N.M.M.M.M.M.c.c.c.c.c.c.c.c.c.c.c.c.c.c.c.c.c.c.c.x.x.c.c.c.c.N.N.N.N.N.N.N.N.N.N.N.N.C.B.Z.Z.Z.Z.Z.Z.Z.Z.).).).).`.`.`.`.`.`.'.'.{.{.}.}.}.}.}.}.}.}.{.{.}.{.{.{.{.{.{.{.{.{.'.'.`.`.`.`.).Z.Z.Z.Z.Z.Z.Z.Z.Z.C.C.N.",
"..G.G.G.^.2.%X%Xd.f.w.F F F 0.y.i.i.f.u.4.y.u.i.d.d.u.t.0.0.0.0.y.u.u.i.u.f.i.i.u.u.i.i.i.i.i.i.i.i.i.u.u.u.t.t.u.u.u.i.i.s.s.s.s.s.u.t.a.a.a.a.a.a.7.A l l n A S S F D S S Z A B Z Z B B B B B B Z Z Z B Z n N *.*.N i 1 < ; ; ; # - o # o o o # # # # # # # # # # ; ; e e e e e ; ; e ; e p p u u e e ; ; ; ; ; ; @ o X X X X X X X X X X X X X X X X X X X X X X X X X X X X X X X X X X X X X X X X X X X X X X + + + + + # O O     @ X @ @ @ @ O X X X @ @ @ @ @ @ ; e e e e e ; @ X X X X # 7 e r p U U I ] z.n.n.C.C.C.C.M.c.C.C.c.c.M.M.N.N.N.M.M.M.M.M.M.M.M.M.M.M.M.c.n.m.m.G.X.2X3X$X*X4X$X3.2.2.%X4X4X,X4X4X4X-X$X*.N z i 2 x -.,.3.*.*.-.-.*.*.*.*.=.=.=.=.*.=.=.O.O.=.=.=.1.2.+X+X1.1.=.O.O.! a e e e 7 6 6 7 q p p p Q <.1.<.<.<.<.<.<.R.1.<.^ r t t t t r Y E W +.@.%.<.Y.Y.R.Y.%.$.$.+.+.+.| | | |  . . .+.+.+.#.$.J.J.K.K.K.K.J.$.$.+.+.$.$.$.+.+.+.$.J.K.K.K.Y.Y.K.K.K.K.K.L.L.L.T.L.L.L.L.L.T.T.Q.!.OX@X2X3XxXcXcXcX@XT.OX#.@XvXvX2X.Xn.c.M.C.C.C.C.M.M.M.M.N.N.C.C.N.N.N.N.N.N.N.N.N.N.N.N.N.N.N.N.N.N.N.N.M.M.M.M.M.M.c.c.c.c.c.c.c.c.c.c.c.c.c.c.c.c.c.c.c.c.c.c.N.N.N.N.N.N.N.N.N.N.N.N.N.N.C.C.Z.Z.Z.Z.Z.Z.).).).).).).`.`.'.'.'.'.'.'.{.{.{.{.{.{.}.}.}.{.{.{.{.{.{.{.{.{.{.{.'.].'.'.`.`.`.`.).).Z.Z.Z.Z.Z.B.N.N.N.N.N.",
"..X.X.X.E.5.f.f.w.C C F w.y.i.j.i.u.y.0.y.i.d.i.j.d.f.t.0.0.0.0.0.y.y.y.t.t.u.u.t.t.i.i.i.i.i.i.s.s.d.i.u.i.u.u.u.u.i.i.i.i.s.s.s.s.a.u.a.a.a.t.s.a.S n l l B D S D D D >.>.D S S S Z Z Z Z Z Z Z Z Z Z Z n n N *.*.N i 1 < < - ; # - # # o o o # # # # # # # # # # # # ; ; ; ; e ; ; e ; e p p u u e e ; ; ; ; ; ; @ o X X X X X X X X X X X X X X X X X X + + X X X X X X X X X X X X X X X X X X X X X X + + X X + + + + + + X X X X X X X X O X X O X X X @ @ @ @ @ ; e e e e e ; @ X X X X @ ; ; e r p p U ) ] z.n.n.M.M.M.M.c.c.c.c.c.c.c.c.c.c.c.M.c.c.c.c.c.c.c.c.c.c.c.c.n.b.m...^.E.&XE.*X$XE.$X$X$X%X%X%X,X,X,X-X$X-.z x u u u M *.-.-.3.2.2.*.*.*.M x x O.O.=.=.O.! a s ! O.O.=.2.+X*X-X*XE.2.=.O.! s a a p p a Q ! Q a ! <.1.<.<.<.<.<.1.E.1.<.^ Y 0 0 0 0 r r Y W ^ +.$.Y.Y.Y.R.Y.%.$.+.+.| | | | | |  . . . .+.+.#.$.J.K.K.K.K.K.K.$.$.+.$.$.$.$.+.+.+.$.K.K.K.K.K.Y.Y.Y.T.T.T.K.L.L.T.L.L.P.P.P.L.Q.!.!.2X2XxXcXcX2XOX@XT.@X2X2XzXzX2XW.A.x.c.M.C.N.C.N.M.M.M.M.M.M.N.N.N.N.N.N.N.N.N.N.N.N.N.N.N.N.N.N.N.N.N.N.M.M.M.M.M.M.M.c.c.c.c.c.c.c.c.c.c.c.c.c.c.c.c.c.c.c.c.c.N.N.N.N.N.N.N.N.N.N.N.N.N.N.C.C.Z.Z.Z.Z.Z.Z.).).).).).).`.`.'.'.'.'.].].{.{.{.{.{.{.{.{.{.{.{.{.{.{.{.{.{.{.{.{.'.'.'.'.`.`.`.`.Z.).).).B.B.B.B.N.N.M.M.M.",
"X.X.X.3.$X5.5.5.G G 4.y.d.d.g.g.i.y.4.4.f.f.i.i.i.i.i.s.t.y.w.0.0.0.0.y.y.y.y.y.y.t.i.i.i.u.i.i.d.d.d.i.d.i.u.u.u.u.i.d.d.i.s.d.d.d.d.s.t.t.r.r.r.>.A l l n Z :.7.>.7.>.>.>.>.D :.D ;.Z Z Z Z Z Z Z n n n B n N N N N z u 1 1 1 > ; - - # # # # # # # # # # # # @ @ @ @ ; ; ; ; ; ; ; e ; e e ; ; ; ; ; ; ; ; ; ; ; ; @ @ X X X X X X X X X X X X X X X X X X + X X X X X X X X X X X X X X X X X X X X + X X X X X X X @ # ; ; ; # # # @ @ @ @ X X X X X X X X X @ X @ @ ; e e e e ; @ @ @ @ o o # ; ; e y e r U ' ] ] z.x.M.M.c.c.c.c.c.c.c.c.c.c.c.c.c.c.c.c.c.c.c.c.M.M.M.c.c.c.b.m.....X.^.^.^.E.E.$X$X$Xp.,.,.p.p.%X5X%X9.N z z 1 x x =.=.2.3.9.2.-.-.*.=.x x x x x O.! ! ! ! s a O.O.=.1.$X3X-X*X$XE.1.=.=.=.o.! ! Q Q Q ! ! =.<.1.<.<.1.1.E.E.E.1.<.Q Y 0 0 0 0 q Y E W ^ +.%.R.~.~.R.R.%.$.$.+.+.#.+.| | |  . . . .+.$.J.K.Y.T.Y.Y.Y.Y.K.J.$.$.$.$.$.#.#.$.K.K.K.K.K.Y.K.Y.T.T.T.T.K.K.T.L.K.$.$.#.H.T.!.OX@X2XxXxXcXcXcXT. .Q.!.2XcXzX2XW.A.F.C.C.C.N.N.N.M.M.N.N.M.M.N.N.N.N.N.N.N.N.N.N.N.N.N.N.N.N.M.N.N.M.N.N.N.N.N.N.N.N.M.M.M.M.M.M.c.c.c.c.c.c.c.c.c.c.c.c.c.c.M.M.N.N.N.N.N.N.N.N.N.N.N.B.Z.Z.Z.Z.B.N.Z.Z.Z.Z.Z.).).).).).).).`.`.`.`.'.'.'.'.'.].'.'.].].].].].].].].'.'.'.'.'.'.'.'.].'.'.'.`.`.`.`.).Z.Z.Z.Z.Z.B.B.N.N.M.M.M.",
"( X.3.2.,.V h v G F f.d.i.s.i.i.0.4.0.0.f.f.i.i.i.i.g.j.j.d.u.y.y.0.0.0.y.y.y.y.y.t.y.y.u.i.i.i.i.d.d.i.i.u.t.t.u.s.i.i.s.s.s.d.d.d.a.r.r.e.e.7.D m l l c B D >.7.7.7.>.>.>.>.:.:.;.:.;.-.-.-.-.Z Z n n n n n N N N M z i u 1 u y ; - - # # # # # o # # # # # # @ @ # # ; ; ; ; ; e ; e e e ; ; ; ; ; ; ; ; ; ; ; ; ; ; @ X X X X X X X X X X O X X X X X X X X X X X X X X X X X X X X X X X X X X X X + + X X X X X X @ # ; e ; ; ; ; ; : : : @ @ @ @ X X X X X X X X @ @ ; e e e ; @ @ @ @ o o X # ; ; 1 y e W U I [ ] z.x.c.c.c.c.c.c.c.c.c.c.c.c.c.c.c.c.c.c.c.c.c.M.M.M.N.c.c.b.b.m.m.m...m.G.G.<.1.2.2.-.;.,.,.;.B ,.p.p.9.9.*.z z x M =.,.$X$X9.2.2.,.*.=.x x x s s ! ! ! ! s a ! s O.=.<.$X*X3X-X&X+X2.1.<.<.=.<.<.<.=.o.<.<.<.<.<.<.E.+X+X+XE.1.o.W r t t t r Y Y E ^ | $.Y.R.R.R.R.R.Y.Y.%.%.$.$.+.+.+.|  . .#.$.$.%.T.R.T.T.T.T.T.T.K.J.$.$.+. .{ T T { +.%.K.K.T.T.R.R.T.T.T.K.$.$.+. .#.#.H.K.Q.@X2X2XxXcXcXcX2XT.L.H.T.!.@XxXcX.XI.S.z.C.C.C.N.N.N.N.N.N.N.N.M.M.M.M.N.N.N.N.N.N.N.N.N.N.N.N.N.N.D.D.D.D.N.N.N.N.N.N.N.N.M.M.M.M.M.M.c.c.c.c.c.c.c.c.c.c.c.c.c.c.M.M.N.N.N.N.N.N.N.N.N.N.B.B.Z.Z.Z.Z.B.B.Z.Z.Z.Z.Z.Z.).).).).).).`.`.`.`.'.'.'.'.'.'.'.'.'.'.'.'.'.'.'.'.'.'.'.'.'.'.'.'.'.`.`._._.).).).Z.Z.B.B.Z.Z.B.B.N.N.N.N.M.",
"j *.,.5.C v g v 4.0.i.i.i.u.y.0.0.y.u.f.f.f.f.f.u.f.d.j.d.d.f.u.u.t.y.y.y.t.y.y.y.y.t.t.y.u.i.i.i.i.i.i.y.y.y.t.u.u.u.t.y.y.t.s.s.a.e.w.w.7.D D n c l l B S ,.8.8.7.7.>.:.:.:.:.:.:.;.;.-.-.-.-.Z Z B n n n N N N N M z i i i u u < - - ; # # # o o o o # # # # # ; ; ; ; ; ; ; ; e ; ; ; ; ; ; ; ; ; ; ; ; ; ; ; ; ; ; # @ @ X X X X X + X X X X X X X X X X X X X X X X X X X X X X X X X X X X X X X X X X X X X X X X # ; ; e e e e e ; ; ; : : @ @ @ @ @ @ @ @ X X X @ ; ; ; ; @ @ @ @ @ @ X X X # # ; ; y p p U ~ ..] b.z.c.M.M.M.c.c.c.c.c.c.c.c.c.c.c.c.c.c.c.c.M.M.M.N.c.c.c.c.z.m.b.b.n.n.n.G.Y.<.<.*.,.9.9.;.b b N ,.2.9.-.M M M *.*.-.$X9.2.9.9.2.-.=.=.x O.x x O.O.! ! s a ! a ! =.o.E.&X3X3X*X$X1.1.1.1.1.1.1.1.1.<.<.<.=./ / <.E.&X&X+X1.<.^ Y r r r r Y Y E ^ ^ +.<.Y.R.R.R.!.~.R.R.R.R.K.K.$.+.+.+.+.+.$.K.K.Y.R.R.T.T.Y.Y.Y.K.$.+.+.{ { T T T { #.$.K.K.T.R.T.T.T.K.K.$.#.#.#. . .#.T.T.OX2X2X3XxXcX2X3X2X@XQ. .P.!.2X2XxXzXW.S.z.x.C.C.C.B.N.N.N.N.N.N.N.M.M.c.c.N.N.N.N.N.N.N.N.N.N.N.N.N.N.D.F.F.D.N.N.N.N.M.N.N.N.M.M.M.M.M.M.c.c.c.c.c.c.c.c.c.c.c.c.c.c.N.N.N.N.N.N.N.N.C.C.N.N.N.N.Z.Z.Z.Z.Z.Z.Z.Z.Z.Z.).).).).).).).).`.`.`.`.`.`.`.`.'.'.'.'.'.'.'.`.`.`.`.`.`.`.`.`.`.`.`._._.).).).B.B.B.B.B.B.B.B.B.N.N.B.N.N.N.N.M.",
"3.3.>.F 0.4.4.0.i.q.l.i.u.0.4.F u.i.g.g.f.f.f.u.u.u.t.t.0.w.y.t.i.i.u.t.y.y.t.t.t.t.t.t.t.t.u.u.f.f.f.f.0.w.y.y.r.y.w.D F D w.r.r.e.w.7.e.,.Z n l c c l Z ;.8.e.7.7.7.>.:.:.D :.:.;.;.;.-.-.-.-.Z Z N n N N N N N N M z i s i i d y - - ; # # # o o o o o # # # ; ; ; ; ; ; ; ; e e ; y ; ; ; ; ; ; ; ; ; ; ; ; ; ; ; ; ; # # @ X X X X X X X X X X X X X X X X X X X X X X X X X X X X X X X X X X X X X X X X X X X X X # ; e e e e e e e e e : : ; ; : @ @ @ @ @ @ X X @ @ ; @ @ @ @ X X @ @ X @ X X # # # y y e p W ~ ..] b.c.N.N.N.c.c.c.c.c.c.c.c.c.c.c.c.c.c.c.c.c.M.M.M.c.c.c.c.x.c.b.c.N.C.n.G.^.^.1.2.2.$X%Xp.-.1 X - < z M *.*.-.-.,.9.9.$X$X2.2.2.*.*.*.=.O.x O.O.O.O.! ! s p p O.<.1.+X$X*X3X-X*X+X1.2.1.1.1.1.1.1.1.<.<.o.r W o.E.E.+XE.1.o.W Y r Y Y Y Y E W ^ ^ @.<.R.R.R.R.~.~.~.~.~.R.T.R.K.%.$.$.$.$.Y.R.R.R.R.T.K.J.J.J.J.$.+. .R T E T { #.K.T.R.!.!.!.~.~.T.K.$.+.#.#.#.#.+.$.T.OX3XxXcXcXbXbXNX2XJ.!.2XxX3X2X.XxX.XW.F.A.A.A.A.C.N.C.B.N.N.N.N.c.c.N.N.M.N.N.N.N.C.C.C.C.N.N.N.N.N.N.N.N.B.D.D.C.C.C.N.N.M.N.N.N.M.M.M.M.M.M.M.c.c.c.c.c.c.c.c.c.c.c.c.c.N.N.N.N.N.N.N.N.C.C.N.N.N.N.Z.Z.Z.Z.Z.Z.Z.Z.Z.Z.).).).).).).).).`.`.`.`.`.`.`.`.'.'.'.'.`.'.`.`.`.`.`.`.).).).).).).).).).).).B.B.B.B.B.B.B.B.B.B.B.N.N.N.N.N.N.M.",
"p.$Xa.y.y.y.f.f.i.i.i.i.y.0.F G i.i.d.d.d.i.i.i.u.t.y.0.w.y.y.y.t.t.t.y.y.t.t.y.y.y.t.y.y.y.t.t.t.t.t.y.w.w.w.r.w.w.7.F F D 7.e.e.8.7.>.>.Z n l 2 2 l b :.:.8.p.8.8.8.>.:.:.:.:.:.;.-.-.*.*.*.B B B B B N N N N *.M M x x x s u u u y < ; ; # # # # # # # # # # ; ; ; ; ; ; # # # ; ; < # # # ; ; ; ; ; e e ; ; ; ; ; ; ; ; ; ; # + X X X X X O X X X X X X O X X X X X X X X X X X X X X X X X X X X X X X + + + X X X + # ; e e e e e e e e e e ; ; ; e e e e ; e e e @ @ @ : : : @ @ @ @ @ @ @ @ @ @ # # ; ; e q 7 9 U ....z.x.c.c.c.c.c.c.c.c.c.c.c.N.c.c.c.c.c.c.c.c.c.c.c.c.c.c.c.c.c.c.c.M.M.x.z.W...Y.&XE.$X$X2.-.i o o o - i =.*.3.2.p.$X$X*X*X$X$X9.2.3.=.<.O.x x O.O.Q Q Q x a a O.2.2.+X*X-X3X3X*X+XE.1.1.1.1.<.<.1.1.<.o./ r W o.@.1.R.R.1.<.@.( W W ^ ^ +.@.@.@.+.%.Y.R.R.R.~.~.OXOXOX~.~.~.R.R.Y.K.K.Y.R.R.R.R.T.T.$.+.$.+.+.$.K.+.+.{ { { +.%.U.T.~.~.!.~.Q.T.K.#.#. .{ {  .} #.H.Q.OX#XzXvXvXNXbXNXIX2X X X#XxXvX#X.X.XW.F.C.C.A.A.Z.C.D.N.N.N.N.M.M.M.M.M.M.M.N.B.B.B.B.B.Z.B.N.N.Z.Z.Z.B.B.B.Z.Z.Z.Z.N.B.Z.Z.N.N.N.N.N.N.N.N.N.M.M.M.M.M.M.M.M.M.M.c.c.c.M.M.N.N.D.D.D.C.C.N.N.N.Z.Z.B.Z.Z.B.B.B.Z.Z.Z.Z.Z.Z.`.`.`.`.`.`.`.`.`.`.`.`.`.`.`.`.`.`.`.`.`.`.`.`.`.`.`.`.`.`.D.D.Z.Z.Z.B.B.B.B.B.B.B.B.B.N.B.B.B.N.N.N.N.N.N.N.N.M.",
"%X5X=Xd.i.i.s.s.i.i.y.y.G G 4.0.i.i.i.i.i.y.y.y.y.y.0.0.0.0.w.w.w.w.w.w.y.t.u.y.y.w.w.y.y.r.t.t.r.w.w.0.w.w.r.r.w.7.D D 7.7.e.e.e.8.>.>.Z n l 2 l l b n :.:.8.8.8.8.:.:.:.:.;.;.-.-.*.N N N N N N N N N N N N N *.*.*.*.M x x s i u u y y y < ; ; ; ; ; # # # # # # # # # + X X o # # ; # # # # ; ; ; ; e e e e ; ; ; ; ; ; ; ; ; # # + + + X X X X X X X X X O X X X X X X X X X X X X X X X X X X X X X X + + + X X X + # ; e e e ; e e e e e e e ; ; e e e e e e e e e e e e : : : : @ @ @ @ @ @ @ @ # # # 7 7 7 7 5 q U ....z.x.c.c.c.c.c.c.c.c.c.c.c.c.c.c.c.c.c.c.c.c.c.c.c.c.c.c.c.c.c.M.M.c.x.z.G.] G.~.2X&X$X+X2.,.*.d < < < u =.3.2.$X$X$X*X*X4X,X-X-X*X1.<.d x x O.O.O.O.=.<.O.O.3.+X*X*X3X4X4X4X-X&X+XE.1.1.<.O.Q ! <.<.=./ W Q o.@.<.1.1.<.@.o.^ W ^ +.@.<.<.1.<.<.<.Y.R.R.R.R.~.~.OX~.~.~.R.R.Y.K.Y.R.R.~.~.OX~.~.!.K.+.+.$.K.T.T.Y.Y.Y.Y.K.Y.R.!.!.OXOX!.T.K.#.{ { { { T } J.K.!.@XxXzXxXvXNXIXNXvXxXcXvXzXzX2XzXzXXXn.Z.C.C.Z.Z.Z.Z.Z.Z.D.Z.N.N.N.N.N.N.N.N.N.N.B.B.B.B././.B.B.Z.Z.B.Z.Z.Z.).).).).Z.Z.Z.B.Z.Z.Z.N.N.N.N.N.N.N.N.N.N.M.M.M.M.M.M.M.c.c.c.c.M.M.N.D.F.[.D.C.N.N.N.N.Z.Z.B.B.N.N.B.B.Z.Z.Z.Z.Z.Z.Z.Z.Z.Z././././.`.`.`.`.`.`.`.`.`.`.`.`.`.`.`.`.D.D.D.D.B.B.B.B.Z.B.B.B.B.B.B.B.B.B.B.B.N.B.B.B.N.N.N.N.N.N.N.N.M.",
"s.d.d.i.i.i.f.i.y.0.0.0.0.0.y.i.i.i.y.y.0.0.0.0.y.y.w.w.w.w.w.7.F 7.w.w.w.t.t.y.w.w.w.w.w.w.w.w.w.D D D 7.w.e.e.7.>.D D >.7.7.>.:.:.;.S n l 2 2 2 l b b Z Z Z -.:.:.:.-.-.Z Z B N N x z i i z z z z z z z z z z x x M M x x s i u u y 1 y ; ; # # # # # # # + + + + X X X O     X X o # ; ; # # ; ; ; ; e e e e e ; ; ; ; ; e ; e e e # # + X X @ X X X X X X X X X X X X X X X X X X X X X X X X X X X X X X X X X X X X @ # ; e e e e e e e e e e e e e e e e e e e e e e e e e : : : @ @ @ @ @ @ @ @ @ @ @ # 7 # 6 6 5 5 U ( ] b.b.m.c.c.N.N.N.c.c.c.c.N.c.c.c.c.c.c.c.c.c.c.c.c.c.c.c.c.M.M.M.c.x.z.m.] m.Y.oX&XoXE.E.2.3.*.M s u u s =.3.2.$X$X*X*X-X-X-X-X-X2.*.s s s O.O.O.3.2.2.=.=.3.2.*X*X-X3X4X4X4X*X$X+XE.1.<.! e e W o.o.o.o.o.o.@.<.o.o.<.<.@.@.@.<.1.1.1.<.<.<.<.%.+.<.Y.Y.R.R.~.~.~.R.R.R.R.R.R.R.~.~.OXOXOX~.~.Q.Y.J.K.T.R.R.!.R.R.R.R.T.T.R.!.OXOX~.T.K.$.{ { T { { +.K.~.OX2X@X3XxXbXIXIXIXNXvX.X.XzXxXzX.XXXXXZ.C.Z.A.A.Z.Z.Z.D.D.Z.D.D.Z.Z.B.B.B.B.B.B.B.B.B./.B.B.).).).).).).).).).)._._.).)._.).Z.Z.Z.Z.Z.Z.Z.Z.B.B.N.N.N.N.N.N.N.c.M.M.M.M.M.M.c.M.M.M.N.D.F.[.D.D.D.D.N.B.B.B.N.N.N.N.B.B.Z.N.B.N.N.N.B.B.B.B.B.B.B.B.B.B.B.B.B.B.Z.Z.B.B.B.B.B.B.B.B.B.B.B.B.B.B.B.B.Z.Z.B.B.B.B.B.B.B.B.B.B.N.N.B.B.N.N.N.N.N.N.N.N.M.",
"s.g.l.i.i.i.u.y.0.0.0.0.0.0.q.i.i.i.i.y.0.0.0.0.y.y.t.t.t.r.w.w.w.w.w.w.w.r.y.w.w.w.w.w.>.D F F D F F F D >.>.>.>.D S S >.>.:.S B m n b l 2 1 3 3 1 1 2 z l l l l l l l z z z z i 1 1 1 < < < < 1 1 1 1 < 1 1 1 - - 1 u d u u y 1 ; - # # o X X X o o o + + + X X X X X             X X ; ; ; ; ; ; ; ; e e e e e ; ; ; e ; e ; e e e e ; ; # @ @ @ @ X X X X X O X X X X X X X X X X X X X X X X X X X X X X X X X X X X @ # ; e e e e e e e e e e e e e e e e e e e e e e e e e e : : @ @ @ @ @ @ @ @ @ @ @ @ @ # # # 6 6 7 W ..b.m.b.c.c.N.N.c.N.c.c.c.c.c.c.c.c.c.c.c.c.c.c.c.c.c.c.c.c.M.M.c.c.x.x.m.z.m.m.G.G.^.&X2X$X$X$X2.3.=.=.s s =.*.2.$X*X5X$X$X$X$X$X+X2.*.O.a O.O.=.3.+X$X$X+X9.+X+X+X+X&X*X3X3X*X*X$X+XE.1.o.p r 6 r Q o.<.o.o.o.o.Q Q @.1.1.1.R.R.R.1.1.<.<.@.@.$.+.$.%.%.Y.Y.R.R.R.T.Y.R.~.~.OXOXOX~.~.~.R.R.T.Y.K.T.~.R.R.!.!.R.R.E.E.@X@X@XOXOXOXR.%.K.%.#.#.K.T.OX2X2XxXxXvXvXbXbXvXcXxXzXvXvX.XXXF.XXXXA.A.B.Z.).`.).).).).).`.`.).`.D.D.D.D.D.D.`.`.`.`.D././././._._._._././././.'.'.'.'._._._._.).Z.Z.Z.Z.Z.Z.Z.D.Z.Z.Z.C.C.N.N.N.N.N.c.M.M.M.M.M.M.M.M.N.C.D.D.D.D.D.D.N.N.B.B.N.N.N.N.B.B.Z.Z.N.N.N.N.B.B.B.B.B.B.B.B.B.B.B.B.B.B.B.B.B.B.B.B.B.B.B.B.B.B.B.B.B.B.B.B.Z.Z.B.B.B.B.B.B.B.B.B.B.N.N.B.B.N.N.N.N.N.N.N.N.M.",
"f.d.d.d.i.t.w.w.F 0.i.y.i.0.0.i.d.d.i.d.u.y.0.4.4.w.y.t.t.t.r.e.e.e.w.>.D D w.w.>.>.D D F S S S A S A S S S S Z m m m B B N N m n z 2 2 2 1 1 > 3 3 1 1 2 2 2 > > 1 1 1 1 1 1 1 1 < ; ; 1 1 1 1 1 1 1 1 - ; ; > - - - 1 d u u y ; # # # + + + X X X X X X X X X O O                     o o # # # # # # ; ; ; ; ; ; ; ; 7 7 7 7 ; ; ; ; ; # # @ @ @ @ @ X X X O         X X X X     X X         X X X X X X X X X X X X X @ # ; e e ; ; ; ; ; ; ; ; e e e e e e e e e e e e e e e e e e e @ @ @ @ @ @ : # # # # # # # # # ; e p ( ..] m.n.c.c.N.c.c.N.N.N.N.N.N.N.N.c.c.N.N.N.N.N.N.N.N.N.N.N.N.N.c.c.c.x.x.c.b.n.] G.~.&X&X$X*X2.$X2.*.O.O.=.=.2.$X5X-X*X$X9.2.2.E.E.2.=.O.O.O.<.2.$X*X-X*X$X2.2.1.1.2.+X$X&X*X&X$X+X2.E.<.o.r W r W o.@.@.@.@.o.Q ^ <.R.E.E.R.E.R.<.1.@.+.^ | | +.+.$.%.Y.Y.T.R.R.R.R.R.~.OXOX~.R.R.%.R.R.R.R.R.T.Y.K.!.T.Y.U.Y.T.T.!.@X2X2X2X@XOXT.U.K.L.T.!.OX@X2X3XcXcXbXvXbXvXbXxXzX.X2XvXvXXXXX).).)._._.`.`.[.`.`.`.`._.`.).).`.`.`.`.`.`.`.`.`././.`.`.`.|.'.'.'.'.].'.].'.'.].{.{.{.].'.'._._._.).).).Z.Z.Z.Z.D.Z.Z.Z.B.B.C.C.N.N.N.N.N.N.M.M.M.M.M.M.N.M.M.M.C.C.C.C.N.N.B.N.N.N.N.B.N.N.N.N.N.M.M.M.N.N.N.N.N.N.N.N.N.N.N.N.N.N.N.N.B.B.B.B.B.B.B.B.B.B.B.B.B.B.D.Z.)./.).).).).).).B.B.B.B.B.B.B.B.B.B.N.N.B.B.N.N.M.",
"d.s.i.i.i.0.A V F w.y.y.0.4.w.i.d.d.d.d.y.w.0.D D D 7.w.e.e.>.D S S D >.D S S S S S S A C m m m m m V V m n n c 2 2 2 2 2 j b i 2 1 1 1 1 1 < < 1 1 1 1 3 > - - - - - - > > > - - o o o o o o o - - ; ; - - - - - - ; > u y 1 ; # # # o + X X X O O O O X X X X                         X X o o X X @ @ # # # # # # # # # # # # # # ; ; ; # # @ @ @ @ @ X X O O         X X X X       X     O   X X X X X X X X X + X X X @ # ; e ; ; ; ; ; ; ; ; e e e e e e e e e e e e e e e e e e e e e @ @ @ @ @ @ # # # # e e ; ; # ; ; p ~ ....] m.n.c.c.c.c.N.N.N.N.N.N.N.N.c.c.N.N.N.N.N.N.N.N.N.N.N.N.N.N.c.c.c.c.c.c.n.z.] G...E.E.E.+X&X*X&X1.<.=.=.s 3.2.4X4X*X$X1.1.1.1.<.1.<.=.o.<.*X4X4X4X3X$X2.<.o.O.o.1.1.E.+X&X&X&X+XE.<.o.r r 7 r Q <.<.<.<.o./ o.1.E.E.E.R.R.<.o.o.^ ^ ^ R W ^ ^ +.%.<.R.R.R.R.R.~.R.~.R.K.K.R.R.Y.Y.Y.R.R.Y.K.$.$.Y.K.K.K.K.Y.T.R.OX@X2X2X2X2XOXOX@X2X3XxXcXcXcXcXcXcXcXxXxXvXcX.XF.Z.Z.[.Z.A.).Z.[.'.'.].'.'.'.'.'.'.'._.`._._.`.`.`.`.`.`.`.`.`.[.[.].'.'.'.{.{.}.}.}.}.}.}.}.}.}.}.}.}.{.'.].'.'._.).).).Z.Z.Z.D.Z.Z.Z.B.B.C.C.N.N.N.N.N.N.M.M.M.M.M.M.M.M.N.N.N.N.N.N.N.N.N.N.N.N.N.N.N.N.N.N.N.M.M.M.N.N.N.N.N.N.N.N.N.N.N.N.N.N.N.N.N.N.B.B.B.B.B.B.B.B.B.B.Z.Z.D.D.).).).).).).).).B.B.B.B.B.B.B.B.B.B.B.N.B.B.N.N.M.",
"d.s.f.y.f.D C V S D D F A A F w.a.t.t.t.7.7.>.>.>.>.>.>.>.:.S B m m S D S S S B B Z B B m m V V n n n n b b 2 1 1 1 1 1 1 1 1 1 1 1 1 < < < < < < 1 1 1 1 < > - - - - - > < < - - o o o o o o o # # # # # # # # - - - - ; ; - # # # o X X X X X X O O O X X X X                         X X X X X X X X X X X X X X X X + + + + + # # ; ; # # @ X X o o X X X X         X X X X X X X X X X X X X X X X X X X X X X X X X @ # ; e e ; ; ; ; ; ; ; ; e e e e e e e e e e e e e e e e e e e e e @ @ @ @ @ # # @ @ e e e e # e e p ~ ( ....m.m.c.c.c.c.N.C.N.N.N.N.c.c.N.c.N.N.N.N.N.N.N.N.M.M.N.N.N.N.N.N.N.N.N.N.c.x.z.z.m.Y.Y.~.2X&XoX^.~.~.~.<.<./ <.3X2X&XE.<.E.E.E.^.E.E.E.1.1.*X4X4X4X-X&X1.1.=.O.o.o.o.<.1.1.+X+X+X1.@.o.W W r W o.1.<.<.<.1.<.1.E.E.E.E.<.@.W Y W Y Y E E W ^ @.<.Y.R.R.R.R.R.R.~.R.R.R.+.%.R.R.Y.K.K.K.K.%.$.$.$.K.K.K.K.Y.T.T.!.OX@X2X3X3X3X2X2X2X3X3XxXxXxXxXxXxXzX2X2X2X#X.X.X[.[.).Z.].[.).'.'.].].].].].].].].].].].'.`.'.'.'.'.'.'.`.`.`.`.].].].].{.{.}.}.}.}.}.}.}.}.}.}.}.}.}.}.}.}.{.].].'._.).).).Z.Z.D.Z.Z.Z.B.B.C.C.C.N.N.N.N.N.N.N.c.c.M.M.M.M.M.M.M.M.M.M.M.M.M.M.N.N.N.N.N.N.N.M.M.M.M.M.M.M.M.M.M.M.M.M.M.M.M.M.N.N.N.N.N.N.N.N.B.B.B.B.N.N.B.B.Z.Z.D.D././.)./.).).).).B.B.Z.Z.B.B.B.B.B.B.B.N.N.N.N.N.M.",
"d.d.t.y.F V j b m C m c m m m m V V V V V V m m m n c h 2 , , , 3 3 3 3 3 2 c c c c c c c c c j b b h j b i u 1 i i i i i u 1 1 1 < < < 1 1 1 < 1 1 1 1 2 2 1 < < 1 1 1 1 1 1 1 1 < - - - - ; # # # # # # # # # # ; ; ; - ; # @ # # X X X X X X X O O O X X X X                             X X X X X X X X X X X X X X X X X X + + # # # # @ X X X X X X X X X         X X X X X X X X X X X X X X X X X X X X X X X X X @ # ; e e ; ; ; ; ; ; ; ; ; e e e e p e e e e e e e e e e e e e e e e @ @ @ @ # # @ @ e e e e # e e p W ~ ( ..] m.n.c.c.c.N.C.c.c.N.N.c.c.c.c.N.N.N.N.N.N.N.N.M.M.M.N.N.N.N.N.N.N.N.N.c.c.C.n.c.n.] W..X^.Y.m.G.~..XY.Y.^.~.^.&X~.~.~.&X&X&X&X&X&X&X&XE.E.+X&X&X*X-X*X+X<.Q Q Q Q Q Q r @.R.E.1.o.o.O.o.Q o.<.1.1.R.R.E.1.E.+XE.R.<.o.W r q r Y Y Y W ^ @.<.R.R.E.E.R.E.R.~.~.R.~.R.K.Y.R.R.Y.$.$.$.$.$.$.$.$.K.T.R.T.R.!.OXOXOX2X3XxXcXxXxXxXxX3X2X@X!. X X X XI.I.W.Z.Z.Z.Z.Z.Z.Z.`.].).].`.'.].].].].].].].]._._._._._.'.'.'.'.'.'.'.`.`.`.'.'.'.'.'.{.}.}.}.}.}.}.}.}.}.}.kXkXkXkX}.}.}.}.{.]._._.).Z.Z.Z.`.B.B.B.B.B.B.Z.N.N.N.N.N.N.N.N.M.M.M.M.M.M.M.M.M.M.M.M.c.c.M.M.N.N.N.N.N.N.N.M.M.M.M.M.M.M.M.M.M.M.M.M.M.M.M.M.N.N.N.N.N.N.N.N.B.B.B.B.N.N.B.B.Z.Z.D.D.)./././.).).).)./.B.B.B.B.B.B.B.B.B.N.B.N.N.N.N.N.",
"s.p.7.D m b 2 2 c c c c B B m b h 2 2 2 2 1 3 3 3 3 3 3 > > > > > 3 3 3 > > 3 3 3 3 3 1 1 1 2 1 2 2 2 i 2 1 1 1 u u 1 1 1 < < < 1 y y 1 1 1 1 1 1 1 2 2 2 2 i i 2 2 i 2 z z z z z i 1 ; 1 1 - - - - - - - - - ; ; ; ; ; # # @ X # # # # X X + + X X X X X X X X                                     X X O O X X X X X X X X X X X X X X X X             X X X                                   O O O   X X X X X X X X X X X X # ; ; ; ; ; ; ; ; # @ @ e e e p p p e e e e r r r r p p u e e e @ @ @ : # # # # e e e e e e p a p W W ( ..] b.m.n.C.C.C.N.N.C.C.N.N.N.N.N.N.N.N.N.N.N.N.N.N.N.N.N.N.N.N.N.N.N.N.N.C.C.C.C.A.F.F.F.F.F.F.F.F.F.F.W..XoX~.^.^.~.~.2X2X2X&X&X&X&X&XE.E.1.E.E.&X*X-X3XE.1.r W Q Q Q Q o.@.<.1.<.@.o.<.o.<.E.E.E.E.+XE.E.E.E.E.<.o.Q Y 0 6 t r q Y W o.<.1.R.+XE.E.~.OXOXOXE.R.OXOXR.Y.Y.%.%.$.$.$.%.%.%.%.%.Y.R.T.U.!.!.~.@X@X2XxXcXcXxXxXcX3X2X~.!.A.F.F.A.A.A.A.Z.`.`.`.`.`.`.`.`.`.`.`.'.].].].'.].].].'.'.'.'.'.'.'.'.'.'.`.`.`.`.`._._.'.'.`.'.].'.}.}.}.}.}.}.lXlXkXkXkXkXkXkXkXkX}.}.}.{._._.`.).).B.B.B.B.B.B.B.B.B.B.B.B.N.N.N.c.c.N.N.N.N.N.N.N.N.M.M.M.M.M.M.M.M.M.M.M.M.N.M.M.M.M.M.M.M.N.N.N.N.N.N.N.N.M.M.M.M.N.N.N.N.N.N.N.N.B.B.B.Z.B.B.Z.Z.B.B.B.B.Z.Z././.).).).).B.B.B.B.B.B.B.B.B.B.B.B.B.B.B.B.N.",
"m m c g , , 3 3 3 , 3 2 n n b 2 1 3 3 3 1 1 > > > > > > > > > > 3 > 3 3 3 3 3 3 3 3 1 1 1 1 1 1 2 2 i i 1 1 1 1 i i u 1 1 u < < 1 u y 1 u u u i i 2 2 2 2 2 i i 2 2 2 2 x x x M M M x z u 1 - - - - > - - < ; ; ; e e e ; ; # @ # # # # X X + + X X X X X X X X                                     X X X X X X X X X X X X X X X X X X X O             X X X                                   O O O O X X X X X X X X X X X X X # ; ; ; ; ; ; ; # @ X @ # 7 e e e p p r e p r p p p p a a a e @ @ @ @ @ @ @ @ ; ; e e e p p p p p p W ......b.n.C.C.C.N.C.C.N.N.N.N.N.N.N.N.N.N.N.N.N.N.N.N.N.N.N.N.N.N.N.N.C.N.N.C.C.Z.Z.Z.Z.Z.Z.D.D.Z.F.D.F.C.W.W.n.W.W..X~.2X2X2XoX&X&X&X&X^.^.^.&X&X*X3X&X&X^.<.( <.&X&X2XE.1.<.<.<.@.<.1.R.1.1.R.R.E.E.E.+X+XE.R.1.^ r r 6 t r Y Y W ^ ^ @.1.+X+X+X1.<.1.~.&X2X&XOXR.R.Y.K.%.$.+.$.$.+.$.Y.Y.Y.Y.R.~.OX~.@X@X2X3XxXxXcXvXcXxXxX X!.W.I.I.A.F.F.D.Z.Z.D.D.`.`.'.'.'.'.`.`.`.`.'.'.].].].].].].].'.'.'.'.'._._.'.'.`.`.`.`._._._._.`.`.`.`.`.].{.}.}.}.}.}.kXkXkXkXkXkXkXkXkXkXkX}.}.{._._.`.`.)././././.B.B.B.B.Z.B.B.B.B.N.N.c.c.N.N.N.N.N.N.N.N.M.M.M.M.M.M.M.M.M.M.M.N.N.M.N.N.M.M.M.M.N.N.N.N.N.N.N.N.M.M.M.N.N.N.N.N.N.N.N.B.Z.B.Z.Z.B.B.B.B.B.B.B.B.Z.Z.).).).).).).B.B.B.B.B.B.B.B.B.B.B.B.B.B.B.B.B.",
"c c g , , , 3 3 3 3 2 2 2 b 2 1 > > > > 1 1 1 1 1 1 3 3 3 > 3 3 3 3 3 3 3 2 3 3 3 3 2 2 2 2 l l i i i i i i i i i i i 2 1 1 1 1 1 u 1 1 1 i i i i i 2 2 2 2 i i 1 2 2 2 x x x x M M M M i i 1 ; 1 1 1 1 1 1 1 ; e p e e e e ; # # # # # X X X X X X X X X X X X                         X X         X X X X X X X X X X X X X X X X X X X O X           X X X X                                 O O O O X X X X X X X X X X X X X + # ; ; ; ; ; ; # @ X @ X # # e e e e e e r r e e e e e e e e @ @ @ @ X @ @ X # # # # e p a u y y p W / ....m.n.C.C.C.N.Z.N.N.N.N.N.N.N.N.N.N.N.N.N.N.N.N.N.N.N.N.C.C.C.C.C.C.N.N.C.C.Z.Z.Z.Z.Z.D.D.D.Z.Z.D.D.[.[.F.F.F.W..X.X#X2X2X#X.X.X.X.X~.^..XxX3X3XcX2X^.<.X.<...2X2X2X&X+XE.1.R.<.o.<.1.1.1.1.1.1.E.E.E.E.1.o.Q r 0 W r ^ o.o.^ Q ^ o.o.<.1.R.E.<.<.R.E.2X2X2XOXR.<.R.%.%.$.@.$.$.$.$.Y.T.Y.T.R.R.OXOX2X3XxXxXcXvXvXvXxX2X2XI.A.n.n.n.C.C.A.Z.Z.Z.D.D.`.`.[.`.`.`.`.`.`.`.'.'.'.'.'.'.'.].].'.'.'.'.'._._._._._._._._.).).).).).).).).).`.'.{.}.}.}.}.}.}.kXkXlXlXlXlXkXkXkXkX}.}.{._.'.'._._._._.).).).).).).).).B.Z.N.N.N.N.N.N.N.N.N.N.N.N.M.M.M.M.c.c.M.M.M.M.M.M.N.N.N.N.M.M.M.M.N.N.N.N.N.N.N.N.N.N.N.N.B.B.B.B.B.B.B.B.B.B.B.B.B.B.Z.Z.B.Z.B.B.).).).).).).).).).)././.B./.B.B.B.B.B.B.B.B.B.B.B.",
"g g , g h h 2 2 2 2 l c b b 2 2 1 1 1 1 j j c c b c l l l 2 2 2 2 2 l l 2 2 2 2 2 2 l l l z b b z z z z z z i i i z i i i i 1 1 2 i i i i i i i i i 2 2 2 2 i i 1 2 i i u z z z x z x z z i u 1 u u u u u u u y p p e p p e e ; # # # # X X X X X X X X X X X X                         X X         X X X X X X X X X X X X X X X X X X X X X           X X X X                                 O O O O X X X X X X X X X X X X X X + # ; ; ; ; e # @ X @ @ + + @ # ; e e e r e e e e e e e e e ; @ @ @ X X X X # # # @ 7 e a d y y p p ( ^ ....m.C.C.C.C.C.N.N.N.N.N.N.N.N.N.N.N.N.N.N.N.N.N.N.N.N.C.C.C.C.C.C.N.N.C.C.Z.Z.Z.Z.Z.D.D.`.Z.).[.[.[.`.D.[.[.[.[.[.Z.[.[.F.F.F.F.W.W.F.W.zXzXzXcXoXY.G...^.~.~.~.&XOX&X2X2X2XE.<.<.o.1.E.1.1.1.R.E.1.<.Q t t 0 r Q 1.1.1.<.o.Q Q Q Q W Y r ^ ^ 1.OX2X3XcX3X2X2X2X2XOXOXOX~.~.~.~.OX~.OXOX~.OXOX@X2X3XxXxXxXzX2X2X2XXXA.S.S.S.x.c.C.C.C.C.Z.Z.Z.`.`.`.`.`.`.`.`.`.`.`.`.'.'.'.'.'.'.'.'.'._.`._._._._._._.).)./././.).).).).Z.Z.Z.Z./.).'.].{.{.{.{.}.}.}.}.lXlXlXlXkXkX}.}.}.}.{._.{.].]._.'.'.`.`.`.`.`.`._.).).).B.N.N.N.N.N.N.N.N.N.N.M.M.M.M.M.c.c.M.M.c.c.M.M.M.M.N.N.M.M.M.M.N.N.N.N.N.N.N.N.N.B.N.N.B.B.B.B.B.B.B.B.B.B.B.B.B.B.).)./.B.B.B.).).).).).).).).).)././././.B.B.B.B.B.B.B.B.B.B.B.",
"c c c v V V n n n n c c b b b b 2 h 2 j j b b b b b b c c c c c l l l l l l l l l l c c c c b b b b z z z z z z z z z z z z z z i z i z z z z z z z z z i i i z z z i i i i i i z x z z z z u 1 u u u u u u u u y p p p u p e e # # # # + X X X X X . X X X X . X X X X                 X X X X X X X X X X X X X X X X X X X X X X X X X O O     O X X                                                 O       O O O O X X X X X X X + # # e e e e ; # # + + + + + # # e e e e ; : : : ; e ; ; ; @ @ @ X X X X @ X @ @ e e u a p e r r W ^ ....b.n.n.C.C.C.C.N.N.C.C.C.N.N.N.N.N.N.N.N.N.N.C.C.N.N.C.C.C.C.Z.Z.Z.Z.Z.Z.Z.Z.Z.D.Z.Z.`.`.[.[.[.[.[.[.].].].].].].].].{.].[.[.[.[.[.[.[..X.X#X#X.XG.G.G.G..X2XzXzX2X2X2X2X2X^.<.^ <.R.+XE.1.E.~.&X&X1.o.Q p 0 r / o.<.<.@.o.o.Q Y Y Y Y Y ^ @.E.2X3X3XcX3X3X3X2XOXR.~.OXOX@X2X2XOX&XOXOX@XOX2X@X2XxXzXzX2X.X.X.X.XZ.C.M.M.N.N.N.N.C.N.Z.Z.Z.Z.).).`.`.`.`.`.`.'.'.'.'.'.'.`.`.`.`.`.`.`.`._._._._.).).)./.B.B.B.B.B.B.B.B.B.B.Z.Z.Z.).)._.'.'.'.'.{.}.}.}.}.}.}.}.}.kX}.}.}.}.}.}.{.{.{.{.{.'.'.'.'.'.'.'.'.'.'.'.`.D.B.N.N.N.N.N.N.M.M.M.M.c.c.M.c.c.M.M.M.M.M.M.M.M.M.M.M.M.c.M.N.N.N.N.N.N.N.N.N.B.B.B.B.B.B.B.B.B.B.).).).).).B.B././././././.).).).).).).).).).).).).).).).).B.Z.B.B.B.B.B.B.B.",
"V V V V m m m m m n c c b b b b b b b b b b n n n n n n n n m m n n n n n n n n n n n n b b b b b b b b b b b b b b b b n n N n z z z z z z z z x x x x x x x x x x z z z z i u i i 1 1 1 ; ; ; ; ; ; ; ; ; ; ; p p p p p e e ; # # # # + + X X X X X X X X X X X X X X                 X X X X X X X X X X X X X X X X X X X X X X X X X X O O   O X X                                                 O       O O O O X X X X X X X X X + + # ; e e ; # # + + + + + + 7 7 e : : : : : ; ; ; ; @ @ @ @ X X @ @ @ @ @ @ e e u a p e e r r E ^ ..b.m.m.n.C.N.N.N.N.N.N.N.N.N.N.N.N.N.N.N.N.N.C.C.N.N.C.C.C.C.Z.Z.Z.Z.Z.Z.Z.Z.Z.D.Z.).`.`.[.[.[.[.[.[.].].].].].{.{.{.{.].].[.[.[.].].].].Z.[.F.C.F.F.F.F..X#X2X2X2X.X~.^.^.2XxX2X2X3X3X&XE.<.E.~.2X&X+X+X+X+X1.<.W ^ o.<.E.+X+XR.1.1.<.o.<.E.&X2X4X3X3X3X3X3X3X2X~.OXOXOX&X&X2X2X2X@X@X2X2XW.W. X.XW.A.n.n.n.n.C.N.M.M.N.N.N.N.N.B.Z.Z.Z.Z.).).).).).`.`.`.`.'.'.'.'.'.'.`.`.`.`._._._.).).).).).).).)././.B.B.B.B.B.B.B.B.B.Z.Z.Z.Z.).)._._.'.'.'.}.}.}.}.}.}.}.}.kX}.}.}.}.}.}.{.{.{.{.{.{.'.'.'.'.'.'.'.'.'.'.'.`./.B.B.N.N.c.N.M.M.M.M.M.c.c.c.c.M.M.c.c.c.c.c.c.M.M.M.M.c.c.N.N.N.N.N.N.N.N.B.B.B.B.B.B.B.B.B.B.B./.).).).).B.B.)./././././.)./.)./.).).).).).).).).).).).).B.Z.B.B.B.B.B.B.B.",
"m m V m C C B B B m n c b b b b b b b b b N n n n n m m m m B m B B Z B B m m m B B B B B B B B n n b b n n n n n n n n n n n n n n n n n n n N z z N N M N N *.*.N N x x z i 1 1 1 ; ; ; ; ; ; ; ; ; ; ; ; 1 y p p u u e ; ; # @ @ X + + + X X . X . X X X X X X X X X                     X X X X X X X X X X X X + + + + # # @ @ @ @ @ @ X O O O X X                                                 O O     O O O O X X X X X X X X X O X X + # # ; 7 # # + + + X + @ @ : : : X X X @ @ @ @ @ @ X X X X @ @ @ @ @ @ e e a s u u e e t r W ( ..b.b.b.x.c.M.N.N.N.N.N.N.N.N.N.N.N.N.N.N.N.N.N.C.C.C.C.C.Z.Z.Z.Z.Z.Z.Z.Z.Z.).`.).`.`.[.[.'.'.`.[.[.[.[.].].{.{.}.}.{.{.].].[.].].].].].[.[.[.D.F.F.F.F.F.[..X.X.XW.F.F.m.zXvXcXcXcXxX&X~...Y.&XOX&X*X3X&X2XE.<.@.<.R.+X&X3X3X+X+X+XE.R.R.+X&X2X2X2X2X2X&X&XOX~.OXOXOXOXOXOX~.~. X.X2XzXzXA.A.F.W.C.n.z.z.x.x.x.c.c.M.N.N.N.N.N.B.Z.Z.Z.).)._._._._.`.`.`.`.'.'.'.'.`.`.`.`.`.`.).).).).Z.Z.Z.Z.Z.Z.Z.B.B.B.B.B.B.B.B.B.B.B.Z.Z.Z.Z.).).)._._._.'.'.'.{.{.{.}.}.}.}.}.}.}.}.}.{.{.{.{.{.{.{.{.{.{.{.{.{.'.'.'.'.'.'./.B.N.N.N.c.c.c.M.c.c.M.M.M.c.c.c.M.c.c.c.c.c.c.c.M.M.M.M.c.N.N.N.N.N.N.N.N.B.B.B.B.B.B././././.).)._._.).)._._.).)././././.).).).).).).).).).).).).).).).).B.B.Z.Z././.B.B.B.",
"C C m C C S S S m m m n n n n n n n n n n n N m m m m n n n m m n B B B B B B B B B Z Z Z Z D D Z B n n m B B B B B B B Z :.:.>.,.>.,.,.8.8.8.,.,.,.,.8.9.9.9.9.,.-.-.*.x z i i i i 1 1 ; ; u u u u u u i i i u p p u u e ; ; # X X X X + + X X X X . X X X X X X X X X                         X X X X X X + + + X + + + + + # @ @ @ @ @ @ @ X O O X X                                                 O O     O O O O X X X X X X X X       O X X + # 7 7 # + + + X @ @ @ X @ X X X X o @ @ o @ o X X X X @ @ @ @ @ @ e e a d u u e e e t r W ....] b.z.x.c.M.N.N.N.N.N.N.N.N.N.N.N.N.N.N.N.N.C.C.C.C.Z.Z.C.C.C.Z.Z.Z.Z.Z.).`.).`.`.'.'.'.'.`.[.[.[.[.].].{.{.}.}.{.{.].].].].{.{.{.].'._.).`.[.[.[.D.D.D.Z.Z.C.C.Z.D.C..X.XF..XY.^.^.&XvXvXxX3X&X&X&XOX2X&XOXE.R.R.+X&X+XE.E.E.E.E.E.OX&X&X2X3X3XcX3X2X2X2XOXOXOX@X&X2X3X2X~.W.A.A.F.F.A.C.A.C.x.C.c.c.c.c.c.c.M.N.N.N.N.N.N.B.B.Z.Z.).)._._._._.`.`.`.`.'.'.'.'.`.`.`.`.`.`.).).).).Z.Z.Z.Z.Z.Z.Z.B.B.B.B.B.B.B.B.B.B.B.Z.Z.Z.Z.Z.).).)._._._._.'.'.'.'.{.{.}.}.}.}.}.}.{.{.{.{.{.{.{.{.{.{.{.{.{.{.'.'.'.'.'.'.|.B.N.N.c.c.c.c.c.c.c.M.M.M.c.c.c.c.c.c.c.c.c.c.c.M.M.M.M.c.N.N.N.N.M.M.N.N.B.B.B.B.B.B././././.).)._._.)._._._._._././././.).).).).).).).).).).).).).).).)././.Z.B././.B.B.B.",
";.S S S S S S S m m n c c n n n n n n n m B B B B m m B m m v n m m m m m c n m S S D D S S S :.B B B A Z D >.D :.:.:.:.:.,.8.8.9.8.8.>.,.8.9.9.9.,.,.,.,.2.9.,.,.-.-.-.M x z i z x z i u u i x x M M x x s u u u u e u y e e ; X X X X X X X X X X X X X X X X X X X X         X X X X         X X X X X X X X X X @ @ @ @ @ @ @ @ @ # # @ @ X X X O O O O X X                     X   X X X X             O O O       O       X X O O X X + + + + + + @ @ X X X X X X O O O O X X X X @ @ X X X X X X X X X X @ @ @ @ e e a d u u u e e r e W ( ....] b.z.x.c.N.N.N.N.M.N.N.N.N.N.N.N.N.N.N.N.N.N.C.C.C.C.C.C.Z.Z.Z.Z.Z.).`.`.`.`.`.`.'.`.'.'.'.'.].].'.'.{.{.{.{.{.{.'.'.'.'.{.{.{.{.'.'.'.'.'.[.[.[.`.Z.Z.Z.Z.Z.Z.Z.Z.Z.Z.C.n.m.m.m.W.cXcXxXxX3X3X3X2X3X3X&XOXOX~.~.E.E.E.E.~.OXOX&X&X2X3X3XcXcXcXcX3X3X2X2X@X~.@X2X2X2X2X.XA.n.A.C.C.C.B.N.N.M.M.M.V.M.M.N.N.N.N.N.N.N.N.B.B.B././.).).).)._._._.).`.`.'.'.'.'.`.`.`.`.`.`.`.`.D.D.B.B.Z.Z.B.B.Z.Z.Z.Z.B.Z.B.B././.).).Z.B.Z.Z.Z.).).)._._._._._._.'.'.'.'.'.'.'.].].'._.'.'.'.'.'.'.'.'.'.{.{.{.{.'.{.{.{.'.'./.Z.Z.N.c.x.c.c.c.x.c.M.M.M.M.M.M.c.M.M.M.M.M.M.M.M.M.M.M.M.M.M.M.M.M.M.M.N.B.B.B.B././././././.`.`.`.`.`.`.|.|.`.`.|.|.`.`._._._._._._._._._._._._.).).).)././././././.).).B.",
";.S S S S S S S S S A m m m m m m S :.>.e.e.e.e.e.e.p.p.S m v v v n n n m m :.e.,.:.D S m S e.p.>.>.:.:.7.e.r.e.>.>.>.>.,.,.>.8.8.,.:.:.;.:.,.8.,.,.,.-.-.,.-.-.-.-.-.-.*.M z z z x z i u u x x M =.=.M x s u u u a u u p y e ; X X X X X X X X X X X X X X X X X X X X         X X X X         X X X X X X X X X X @ # # # # # # # # # # # # @ X X X X O O O X                         X X X X   O         O O O O     O O     X X O O X O + + + + + + @ @ @ X X X X X O O O O X X X X @ @ X X X X X X X X X X @ @ @ @ e e p a u u u u e e p a ( ......z.z.x.M.M.N.N.M.N.N.N.N.N.N.N.N.N.N.N.N.C.C.C.C.C.C.C.Z.Z.Z.Z.B.).).`.`.`.`.`.`.'.`.'.'.'.'.].].'.'.{.{.].{.{.].{.'.{.{.{.{.{.{.'.'.'.'.].'.'.'.`.`.Z.Z.Z.Z.Z.Z.Z.Z.Z.C.C.n.n.n.A.n.F.W.m.2XcXvXbXnXvXcXxX3X3X2X2X3X3X3X3X3XxX3X3X3XcXcXcXUXcX3X~.~.~..X!.!.W.W.F.F.A.n.C.C.C.c.C.Z.B.B.N.M.M.M.V.V.M.M.N.N.N.N.N.N.N.B.B.B././.).).).)._._._.).`.`.`.`.'.'.`.`.`.`.`.`.`.`.D.D.B.B.Z.Z.B.B.Z.Z.Z.Z.B.B.B.B.).).).).B.B.Z.Z.Z.).).)._._._._._._._._._._._._._._.'._./._././././.'.'.'.'.'.'.'.'.'.'.'.'.|.|./.Z.Z.B.c.x.c.c.c.x.c.M.M.M.M.M.M.c.M.M.M.M.M.M.M.M.M.M.M.M.M.M.M.M.M.M.M.N.B.B.B.B././././././.`.`.`.`.`.`.|.|.`.`.|.|.`.`._._._._._._._._._._._._._.).).)././././././.).).B.",
":.:.:.>.7.w.w.w.w.w.e.w.w.w.w.e.e.t.s.s.s.s.s.d.d.d.d.d.e.S m v c c c c c S 7.e.e.>.>.>.>.e.e.p.e.8.7.>.7.e.r.e.>.>.>.>.:.:.:.:.:.-.Z Z N Z -.;.,.,.-.-.-.*.*.*.*.*.*.*.*.*.x x z x z i u i x x M =.=.M x s u u a a a a p p e ; @ @ @ X + X X X X X X X X X X X X X X X X X       X             X X X X X X X X X X @ @ ; ; ; ; 7 7 e e e e ; # @ X X X X O O X X X                 X           O O O O O O O O O O     O O O O X X O O O O O O + + + + @ @ @ @ X X X X O O O O X X X X @ o X X X X X X X X X X X @ X X @ e e a a a a e r r a a Q ( ....] z.c.M.M.N.M.M.N.N.N.N.c.c.M.M.N.N.N.N.N.N.C.C.C.C.C.Z.Z.Z.Z.B.).).`.`.`.`.`.`.'.'.'.'.'.'.'.'.'.'.'.'.].'.].].'.{.{.{.{.{.{.{.'.'.{.'.].].'.'.`.`.`.Z.Z.Z.Z.Z.Z.Z.Z.Z.Z.C.C.C.D.N.F.C.n..XzX2X#X2X2X2X2X3XcXxXxX2X3XcXcXxXxX2X2X2X2X&X2X2X2X!.^..X.X.X.X.XXXF.F.[.D.D.Z.A.C.c.C.N.C.N.N.N.M.M.V.V.V.V.B.N.N.N.N.N.B.B.B.B.`./.).).).)._._._._.`.`.`.`.`.`.`.`.`.`.`.`.`.`.`.`././././././.).).).).).).B.B.B./.B.B.B.B.).).).).).)._.)._._._._._._._._._._._._._._././././././././././././././././././././.Z.D.D.D.F.N.c.M.c.c.c.c.c.c.M.M.c.c.M.M.M.M.M.M.M.M.M.M.M.M.M.M.M.M.M.M.M.N.B.B.B.B././././././.`.`.|.|.|.|.|.|.`.`.'.'.'.'.'.'.'.'._.(._._._._._._._._._._././././././.).).B.",
"e.e.e.e.f.f.f.t.s.s.s.s.s.s.s.s.s.s.s.s.s.s.s.s.s.s.s.a.s.e.S m c c c c S 8.p.p.e.e.e.8.e.e.p.p.7.>.D S 7.r.r.r.:.:.:.:.:.:.:.Z Z Z n n z n N Z ,.;.-.*.*.*.N *.*.*.*.*.*.*.x x x x z i u i x x x M M x x s u u a a a a p p e ; @ # # # X X X X X X X X X X X X X X X X X X X X                 X X X X X X X X + + # @ e e e e e e e e e e e ; # # @ X O X O O X                   X X   X X X O O O O O O O O O       O O O O X X O O O O + + O + + + @ @ @ @ X X X X O O O O X X X X @ @ X X X X X X X X X X X X X X @ e e u a a a a a r a a Q Q / ..] z.z.c.c.c.c.c.M.M.M.M.c.c.M.M.N.N.N.N.N.N.C.C.C.C.C.Z.B.Z.B.B.).).).).`.`.`.`.`.'.'.'.'.'.'.'.'.'.'.'.'.'.'.'.{.{.{.{.'.'.{.{.{.{.'.'.].].].'.'.`.`.`.Z.Z.Z.Z.Z.Z.Z.Z.Z.Z.Z.Z.Z.`.[.Z.Z.D.Z.F.C.n.n.G.W.2X2XoX#X2XzXcXvXzX2X^.W.^.Y.Y.G.m.m.G.G.W.W.F.Z.Z.Z.[.[.).).[.Z.Z.C.C.C.C.N.N.N.M.M.M.V.V.V.V.B.N.N.N.N.N.B.B.B.B././.).).).)._._._._.`.`.`.`.`.`.`.`.`.`.`.`.`.`.`.`././././././.).).).).).).B.B.B.B.B.B.B.B.).).).).).).).)._._._._._._._._._.)._._._._.B.B.B.B.B.B.B.B.B.B.B.B.B.B.B.B.B.B.V.B.Z.Z.D.D.D.B.c.M.M.M.M.c.c.c.M.M.c.c.M.M.M.M.M.M.M.M.M.M.M.M.M.M.M.M.M.M.M.N.B.B.B.B././././././.`.`.|.|.`.|.|.'.`.'.'.'.'.'.'.'.'.'._._._._._._._._././././././././.|.|./.).B.",
"a.a.t.f.s.u.t.t.u.s.s.u.u.t.t.t.t.t.t.t.t.t.t.r.r.r.a.s.a.p.e.S v 3 l m 8.8.8.e.e.e.e.e.e.e.e.e.:.:.:.:.7.7.7.8.D ;.;.;.;.Z -.Z Z Z Z N z z N B -.-.*.B N M N N *.*.*.*.=.=.x x x x x i s x x x x x x x x x s u u u u u u e e @ # # # # # # o X X X X X X X X X X X O   X X X X                   X + # # # # + O # e p p p p p p p e e p p p p e # # @ X X X O X X O X X X X                   O O O O O O O O O O         O O X X X X + + # # @ @ # @ 7 6 6 @ @ @ O O X X X X X X X X X X X X X X X X X X X X X X X X @ e e e a a a a a a a p a Q / | ..] z.z.z.x.x.x.c.c.M.M.N.N.N.N.N.N.N.N.N.N.N.N.N.N.B.B.B.B.B.Z.`.`.`.`._._.`.`.'.'.'.'.'.'.'.'.].].'.'.'.'.'.'.{.{.{.{.'.'.'.'.{.{.{.{.{.'.].].'.'.`.`.`.).).).).).).).).).).).).).).).B./.Z.Z.Z.C.C.C.C..X.XC.F.W..XzXzX#XoXW.W.W.W.F.G.G.G.n.n.A.A.A.Z.Z.).)._.'.'._.).Z.Z.C.N.N.N.N.M.M.M.M.M.M.M.M.B.B.B.N.N.N.B.B.B.B.`.`.).)._._.`.`.`.`.`.`.`.`.`.`.`.`.`.`././././.).)./.B.B.B.B./././.).Z.).Z./././././././.)././././.`.`.`.`.).).).)./././././././././././.B.B.B.B.B.B.B.B.B.B.B.B.B.B.B.B.B.B.B.B.B.Z.B.N.N.V.N.N.M.M.V.V.c.M.M.M.c.M.M.M.M.M.M.M.M.V.V.V.M.M.M.M.M.M.M.M.M.B.B.B.B.B.B.Z./././././.|.|.|.|.'.'.'.'.'.'.'.'.'.'.'.'.'.(.(._.(.(.(.(.|.|.|.|.(.(.(./.|.|./././.",
"a.t.t.u.s.u.t.t.t.t.t.r.r.r.r.r.y.y.y.y.y.r.r.r.r.t.t.f.f.a.e.e.A v A D 7.8.8.8.8.8.e.e.p.p.r.e.>.>.>.>.7.7.7.8.D :.:.:.;.Z -.Z -.Z Z Z z z N Z -.-.*.N M M N N *.*.*.*.z x M *.*.M x z x x x x x x x x x x s u u u u u p e ; @ # # # # # # o X X X X X X X X X X X X O X X X X X X               X + # # # # + + # e p p p p p p p e e p p p p e e # # @ O X O X X O X O O X               X X     O O O O O O O O     O   O O X X X X + + # # @ @ @ @ 6 7 @ @ @ @ O O @ @ X X X X X X X X X X X X X X X X X X X X X X @ @ e e e e a a p p a e r Q o./ $...` z.z.z.z.z.c.c.c.M.N.N.N.N.N.N.N.N.N.N.N.N.Z.B.B.B.B.B.B.B.`.`.`.`.`.`.`.`.'.'.'.'.'.'.'.'.].].'.'.'.'.'.'.{.{.{.{.'.'.'.'.{.{.{.{.{.{.].].].'.'.`.`.`.).).).)././.).).).).)._._./././.Z.Z.Z.Z.Z.C.C.D.Z.C.N.A.A.F.D.c.F.C.F.F.F.F.G.G.F.A.C.A.A.Z.Z.Z.).)._._._._.).Z.Z.N.N.N.N.c.M.M.M.M.M.M.M.M.B.B.B.B.N.N.B.B.B.B.`.`.).)._._.`.`.`.`.`.`.`.`.`.`.`.`.D.D.Z.Z././.).)././.B.B.B.B././.).).Z././././.)././.).)././././.`.`.`.`./././././.)./.B.B.B.B.B././.B.B.B.B.B.B.B.B.B.B.B.B.N.N.N.N.N.N.B.B.B.B.B.B.N.B.B.N.N.M.M.V.V.V.M.M.c.c.M.M.M.M.M.M.M.M.V.V.M.M.M.M.M.M.M.M.M.M.N.N.B.B.B.B.B.B././././.|.|.`.|.'.'.'.'.'.'.'.'.'.'.'.'.'.'.'.'.'.'.'.'.'.'.'.'.|.|.|.|.'.'.'.`.).",
"t.e.t.s.s.u.t.t.t.t.t.y.y.y.y.y.y.y.y.y.r.r.r.r.t.t.r.r.t.t.e.w.m A F >.e.8.8.7.>.7.e.p.t.t.p.e.7.7.7.7.7.7.7.8.:.:.:.:.;.-.Z Z -.Z Z Z N n N Z -.*.B N N N M N =.*.*.*.u i x *.*.*.x x x x x x x x x x x s s u u u u u e e @ X # # # ; # # o X X X X X X X X X X X         X X X X X X X X       X + # e # # X @ e p s u a e e e e e e e e e e e e e # @ X X X X X X O X X X           X X X X X X X X O O O   O O X X         X X X X X X @ @ @ @ @ @ 6 6 @ @ @ @ X X @ @ @ @ o X X X X X X X X X X X X X X X X X X X @ @ @ : e e e e p p p r r r Q @.<.....] ` ] z.z.x.x.c.M.M.M.M.N.M.M.N.N.N.N.N.N.C.C.B.B.B.B.B.B.`.`.`.`.`.`.`.`.'.'.].].].].'.'.].].].].'.'.'.'.'.'.'.'.'.'.'.'.'.{.'.{.{.{.{.].].].'.'.`.`.`.)._._._._.).).).).).)._.).).).).Z.Z.Z.Z.Z.B.N.B.B.D.Z.D.Z.D.Z.D.D.A.F.F.F.F.F.D.Z.Z.Z.Z.Z.Z.Z.Z.).)._._._.).Z.B.N.N.N.c.c.M.M.M.M.M.M.M.M.N.N.N.N.N.N.B.B.B.B.D.`.).)._._.`.`.`.`.`.`.`.`.B.B.B.B.D.D.D.Z.D.D.Z.Z.B.B.B.B.B.B.B.B.Z.)./././.).).).Z.Z.Z.Z.B.B.B.B.D.D.D.`.).Z.B.B.).).Z.Z.B.B.B.B.B.B.B.B.B.B.B.B.B.B.B.B.B.B.B.B.B.B.B.B.B.B.B.B.B.B.N.N.B.B.N.N.N.M.N.M.M.M.M.M.M.M.M.M.M.M.M.M.M.M.M.M.M.M.M.M.M.M.M.M.M.N.N.N.B.B.B.B.B.B././.`.`.`.`.'.'.(.(.'.'.'.'.'.'.'.'.'.{.}.}.{.{.{.{.{.{.{.{.'.'.'.'.'.'.'.'.`.",
"r.t.t.u.s.u.t.t.u.u.u.u.u.t.t.t.t.t.t.t.t.t.t.r.r.w.w.7.>.>.>.D m S 7.e.8.8.e.7.>.>.e.p.t.p.p.r.7.7.8.8.8.8.8.8.:.:.:.:.;.-.Z Z -.Z Z Z Z N B Z *.B N N N M M M M M *.*.i u x M *.*.M x x x x x x x x x x s s u u u u u e ; @ X # # # ; # + X X X X X X X X X X X X O O     X X X X X X X X       X + # e # # X @ e a a u u e e e e e e e e e e e e e e @ @ X X X X X X X X X   X       X X X X X X X X     O O O O X X         X X X X X X @ @ @ @ @ @ 6 6 @ @ @ @ X @ @ @ @ @ o o o X X X X X X X X X X X X X X X X X O O @ @ @ @ e e e e p a a r p Q <.<...K [ ` z.z.z.x.c.c.M.M.M.M.M.M.M.N.N.N.N.N.C.C.B.B.Z.B.B.B.[.[.[.[.`.`.`.`.'.'.].].].].'.'.].].].].'.'.'.'.'.'.'.'.].].'.'.'.'.'.{.{.{.{.{.].].'.'.'.`.`.`.`.`.`.`.`.`.`.`.).)._._._.).).).Z.Z.Z.Z.Z.`.`./.).).Z.`.D.D.D.D.Z.Z.Z.Z.Z.Z.Z.Z.).).).Z.Z.Z.Z.Z.).).).).B.B.B.N.N.M.c.c.M.M.M.M.M.M.M.M.N.N.N.N.N.N.N.B.B.B.D.D././._._.`.`.`.`.`.`.`.`.B.B.B.B.Z.Z.D.D.B.B.Z.Z.B.B.B.B.B.B.B.B.).Z././.).).).).Z.Z.Z.Z.B.B.B.B.D.D.D.D.).Z.B.B.B.B.B.B.B.B.B.B.B.B.B.B.B.B.B.B.B.B.B.B.B.B.B.B.B.B.B.B.B.B.B.B.N.N.N.N.B.B.N.N.N.N.N.N.N.N.N.M.M.M.M.M.M.M.M.M.V.M.M.M.M.M.M.M.M.M.M.M.M.M.N.N.V.B.B.B.B.B.B.B.`.`.`.`.'.|.(.(.(.'.'.'.'.'.'.'.}.}.}.}.}.}.}.}.}.}.}.}.{.{.{.{.'.'.'.'.'.",
"t.t.a.s.s.u.t.r.t.t.u.u.u.u.u.u.t.t.t.t.t.t.t.t.D F F F >.D S m A >.7.>.>.8.8.7.>.>.w.e.e.e.e.e.>.>.7.7.8.8.8.8.:.:.:.:.:.:.:.;.;.-.-.Z -.Z Z -.*.B N N N M M M =.=.=.M i z x =.*.*.=.x x x x x x x x x x x s u u u u u e ; @ @ e e ; ; # @ X X X X X X X X X X X X X X X X X X         X X X   X X o # e 7 # @ e p a a p p r e e e e e r r e e e e e e ; @ @ X X X X X X       X X             X X X X     X X X X       X X X O O O O X @ @ ; e e e e e e e e e e e e ; : : : : : : : @ o O O X X X X X X X X X X X @ @ @ @ @ @ @ # # # e e p p p r p Q <.<.~ ' [ ] z.z.x.x.c.M.M.M.M.N.N.N.N.N.N.N.N.N.N.N.N.Z.Z.Z.Z.Z.).).).`._._._._._.'.'.'.'.].].].].'.'.'.'.].].'.'.'.'.].].].].'.'.'.{.'.'.{.{.{.{.'.'.'.'.'.`.`.`.`.`.`.`._.).).)._.).).).).).).).).).).).).).).).).).).).).).Z.Z.Z.Z.Z.Z.Z.Z.Z.Z.).Z.Z.Z.Z.Z.B.B.B.B.B.N.N.N.V.V.N.N.V.N.N.N.V.V.V.V.N.N.N.N.N.N.B.B.B.B.B.B.Z./././.B.B.B./.B.B.B.B.B.B.B.B.Z.Z.B.B.B.B.B.B.B.B.B.B.B.B.B.B.B.B.B.B.B.B.B.B.B.B.B.B.B.B.B.B.B.B.B.B.B.B.B./.B.B.B.B.B.B.B.B.B.B.B.B.B.B.B.B.B.B.B.B.B.B.B.B.N.B.B.B.B.B.B.B.B.B.B.B.B.B.B.B.B.B.V.V.V.V.V.V.N.M.M.M.c.c.c.M.M.M.M.M.M.M.M.M.M.M.M.M.M.M.M.M.M.V.V.N.N.B.B.B.B.B.B.B././.(.(.(.(.'.'.'.'.'.'.{.}.}.}.}.}.}.}.}.}.}.}.}.}.}.{.{.{.'.{.].",
"t.t.t.s.u.t.r.r.r.t.t.t.t.t.t.t.t.t.t.t.t.t.r.r.D F F D >.D A v S >.>.>.>.>.>.>.>.>.>.>.8.8.8.8.7.7.7.7.>.>.8.8.:.:.:.:.:.:.:.:.;.;.;.-.-.-.-.Z -.*.N N M M M M =.=.M x i z x *.*.*.M x x x x x x x x x x s u e e e e e e ; @ @ ; e ; ; ; # @ X X X X X X X X X X X X X X X X X         X X X X X X o # e 7 # @ e p a a r r e e e e e e r r e e e e e e ; @ @ X X X X X X       X X   X         X X X X O       X X X     X X X O O O O X @ @ ; r r r e e e e e e e e e e ; ; ; ; ; : : ; @ @ @ @ X X X X X X X X X @ @ @ @ @ @ @ @ # @ @ @ # e e e e e p / / ..I ' ] ] z.z.x.x.c.M.M.M.N.N.N.N.N.N.N.N.N.N.N.N.Z.Z.Z.Z.Z.Z.Z.)._._._._._._.'.'.].].].].].].'.].'.'.'.'.'.'.'.'.'.'.].].].'.'.'.{.'.{.{.{.'.'.'.'.'.'.'.`.`.`.`.`.`._._.).).).).).).).).).).).).).).).).).).).)._._.).).).).).).).).).).Z.).).Z.Z.B.B.B.B.B.B.B.N.N.N.N.V.V.N.N.V.N.N.N.V.V.V.B.N.N.N.N.N.N.B.B.B.B.B.B.B.B.B.B.B.B.B.B.B.B.B.B.B.B.N.N.B.B.B.B.B.B.B.B.B.B.B.B.B.B.B.B.B.B.B.B.B.B.B.B.B.B.B.B.B.B.B.B.B.B.B.B.B.B.B.B.B.B.B.B.B.B.B.B.B.B.B.B.B.B.B.B.B.B.B.B.B.B.B.B.N.N.B.B.B.B.B.B.B.B.B.B.B.B.B.B.B.N.V.V.V.V.V.V.N.N.M.M.c.M.c.M.M.M.M.M.M.M.M.M.M.M.M.M.M.M.M.M.V.V.M.M.N.N.N.N.N.N.N.B././.(.(.(.(.(.(.'.'.'.'.'.}.}.}.}.}.}.}.}.}.}.}.}.}.}.}.{.{.'.'.'.",
"t.t.a.a.t.t.y.y.r.r.r.r.r.r.r.r.r.r.r.r.r.r.r.r.D F D >.>.S m c D >.>.S S S D >.>.>.>.>.>.>.>.>.:.:.:.:.:.:.:.:.:.:.:.:.:.:.:.:.:.:.;.-.-.-.-.-.-.-.*.*.*.*.M M M M x z u z x =.*.M x x x x x x s s u u s u u e e e e e e ; @ @ ; e e e e ; # # X X X X X X X X X X X X X X X X X X     X X X     X X # e e 7 @ e e r r e e e e e e e e e e e e e e e e : : X X X X X X X X     X X X X X X     O X O O O O     X X         X X X O X X X @ @ e p p p p p r r r r r p r r e e e e e ; : ; # # @ @ @ @ X X X X X X o @ @ # # # # @ @ # # # @ @ # # e e 7 r p Q W ( I [ ] ] z.z.x.c.M.M.M.N.N.N.N.N.N.N.N.N.N.N.N.B.B.Z.Z.Z.Z.Z.)._._._._._._.'.'.].].].].].].].].'.'.'.'.`.`.`.`.'.'.'.'.'.].'.'.'.'.'.{.'.'.'.'.'.'.'.'.`.`.`.`.`.`._._.).).).).).).).).).).).).).).).).).)._._._._._._.).).).).).).).).Z.Z.).Z.Z.B.B.B.B.B.B.B.N.N.N.N.V.B.N.N.V.V.N.N.N.N.N.N.N.N.N.N.N.N.N.B.N.B.B.B.B.B.B.B.B.B.B.B.N.N.B.B.N.N.N.N.B.B.B.B.B.B.B.B.B.B.B.B.B.B.B.B.B.B.B.B.B.B.B.B.B.B.N.N.B.B.B.B.B.B.B.B.B.B.B.B.B.B.B.B.B.B.B.B.B.B.B.B.B.B.B.B.B.B.B.B.B.B.B.B.B.B.B.B.B.B.B.B.B.B.B.B.B.B.B.B.B.B.V.V.V.V.V.V.V.V.M.M.M.M.V.M.M.M.M.M.M.M.M.M.M.M.M.M.V.V.M.M.V.V.V.V.N.N.N.N.N.N.B.B././././.(./.(.(.(._.'.'.'.'.{.}.}.}.}.}.}.}.}.}.}.}.}.}.{.{.'.'.`.",
"r.t.t.t.t.t.y.w.y.r.y.r.y.y.y.y.r.y.y.w.e.e.e.w.w.>.>.>.>.S m v D D D S S D D D D D D D :.S S S D D D Z ;.;.:.:.:.:.:.:.:.:.:.:.:.:.:.;.-.-.-.-.-.-.-.*.*.*.M M x x x z u z M =.M x x x x x s s u u u u u u u ; e e e e e ; @ @ ; e e ; e e ; # X X X X X X X X X X X X X X X X X X     X X X     X o # e e 6 @ 6 e e e e e e e e e e e e r e e e e e e ; : X X X X X X X X     X X X X X X X X O O O O O O     X X         X X X X X X X @ # e a a a a r r a r r r r r a a r r e e e e e e e # 7 7 @ @ @ o o o X o @ # # # # # @ @ # @ # @ @ @ @ # 7 7 7 r p r W U I [ ` z.z.x.c.M.M.M.N.N.N.N.N.N.N.N.N.N.N.B.Z.B.Z.Z.Z.Z.Z.)._._._._._._.'.'.].].].].'.'.'.'.'.'.'.'.`.`.`.`.'.'.'.'.'.'.'.'.'.'.'.'.'.'.'.'.'.'.'.'.`.`.`.`._._.).).).).).).).).).).).).).).).).).).).)._._._._._._.).).).)./.).).).).).).Z.Z.B.B.B.B.B.B.B.N.N.N.N.V.B.N.N.V.V.N.N.N.N.N.N.N.N.N.N.N.N.N.N.N.B.B.B.N.N.N.N.N.N.N.N.N.N.N.N.M.M.M.M.N.N.B.B.B.B.B.B.B.B.B.B.B.B.B.B.B.B.B.B.B.B.B.B.B.B.N.N.B.B.B.B.B.B.B.B.B.B.B.B.B.B.B.B.B.B.B.B.B.B.B.B.B.B.B.B.B.B.B.B.B.B.B.B.B.B.B.B.B.B.B.B.B.B.B.B.B.B.B.B.B.B.V.V.V.V.V.V.V.V.V.M.M.M.M.M.M.M.M.M.M.M.M.M.M.M.M.M.V.V.V.M.V.M.V.V.N.N.N.N.N.N.B.B.B./././././.(.(.(.(.(.(.'.'.'.{.}.}.}.}.}.}.}.}.}.}.}.}.{.{.'.'.`.",
"e.t.t.r.e.e.w.w.w.w.w.w.y.w.w.y.r.y.w.w.w.w.w.w.w.w.w.w.>.m n m S S S S D D D D >.:.D D S S S S Z Z Z Z Z -.-.:.,.,.,.,.:.:.:.:.,.,.,.;.;.-.-.-.-.-.*.*.*.*.*.M M x x u u x =.=.x x s u s s s s a a u u u u u ; e e e e e ; ; @ e e e e e e ; # @ X X X X X X X X X X X X X   O X X     O O O   O X @ # ; ; # @ 6 e r e r e e e e e e e e e e e e e e e : : : : @ X X X X X X X X X X X X X X X   O O O O O X X X X X       X X X X X X X @ ; e a Q a a a a a a Q Q Q Q Q a Q Q a a a r p e e e 7 7 # @ @ @ o @ @ @ @ @ # # # # # # # @ # @ # # @ @ 6 @ # e e e r J U I [ ] z.x.c.M.M.M.M.N.N.N.N.N.N.N.B.B.B.B.B.B.B.B.Z.Z.Z.Z.).)././.)./././.'.'.'.'.'.'.'.'.'.'.'.'.`.`.`.`.`.`.'.'.'.'.].'.'.'.'.'.'.'.'.'.'.'.'.'.`.`._._.).).).).).).).).).).).).).).).).).)._._._._._._.`.`.`.`.).).).).).).).).Z.).).Z.B.B.B.B.B.B.B.N.V.V.V.B.B.B.V.V.V.V.N.N.N.N.N.N.N.N.N.N.N.N.N.N.M.M.M.M.M.M.M.M.V.V.V.V.V.V.V.V.M.M.M.M.V.V.N.N.B.B.B.B.B.B.B.B.B.B.B.B.B.B.B.B.B.B.B.B.B.B.B.B.B.B.N.N.B.B.B.B.B.B.B.B.B.B.B.B././.B.B.B.B.B.B.B.B.B.B.B.B.B.B.B.B.B.B.B.B.B.B.B.B.B.B.B.B.B.B.B.B.B.B.B.B.B.B.B.B.B.B.V.M.M.M.M.M.M.M.M.M.M.M.M.M.M.M.M.M.M.M.V.V.V.V.V.V.M.M.V.V.V.N.N.N.N.B.B./././.B./././././././.|.(.'.'.'.'.{.{.{.}.}.}.}.}.{.{.'.].'.'.`.",
"r.t.t.e.w.7.D F F D 0.0.w.y.w.y.r.r.w.w.w.w.w.w.w.w.w.w.S V c B S S S S S S D D >.:.D :.S S S Z Z Z Z Z Z -.-.:.:.:.:.:.:.:.,.:.,.,.,.:.;.-.-.-.-.*.*.*.*.*.M M x x z 1 u u x x x u u u u u u u a a u s u u u ; e e e e e ; ; @ e e e e e e ; # @ X X X X X X X X X X X X X     X X     O O O O X X @ # ; ; # @ 7 e r r e r p e e e e e e e e e e e e e : : : : @ X X X X X X X X X X X X X X X   X O O O O X X X X         X X X X X X X @ ; e a Q a a a a a a Q Q Q Q Q Q Q Q Q Q a a p e e e 7 7 # @ @ @ o @ @ @ @ @ # # # # # # # @ # @ # # 6 6 6 @ # # # e p q W U ' ` z.x.c.M.M.M.M.M.N.N.N.N.N.N.B.B.B.B.B.B.B.B.Z.Z.Z.Z./.B./.).).).).).).)._._._._._._.'.'.'.'.`.`.'.`.`.`.`.`.'.'.'.'.'.`.`.`.`.`.'.'.'.'.'.`._._.).).).).).).).).).).).).).).).).).).).)._.)._._.).).`.`.`.`.).).).).).).).).Z.Z.).Z.B.B.B.B.B.N.N.N.B.V.B.B.B.B.V.V.V.V.N.N.N.N.N.N.N.N.N.N.N.N.N.N.M.M.M.M.M.M.M.M.c.c.M.M.M.M.M.M.M.M.M.M.V.V.N.N.B.B.B.B.B.B.B.B.B.B.B.B.B.B.B.B.B.B.B.B.B.B.B.B.B.B.N.N.B.B.B.B.B.B.B.B.B.B.B.B././.B.B.B.B.B.B.B.B.B.B.B.B.B.B.B.B.B.B.B.B.B.B.B.B.B.B.B.B.B.B.B.B.B.B.B.B.B.B.B.B.B.B.M.M.c.M.x.x.M.M.M.M.M.M.M.M.M.M.M.M.M.M.V.V.c.c.M.M.M.M.V.V.V.V.N.N.N.B.B.B.B.B.B.B./././././././.(.|.|.|.|.'.'.'.'.'.'.(.(.'.'.'.'.'.`.).",
"t.t.r.w.7.D F F F F F D 0.w.w.w.r.y.w.w.w.w.w.w.e.w.7.>.v h c S >.>.>.S S S D D :.:.:.:.S S B B B B B B Z -.-.:.:.:.:.:.,.,.,.,.,.,.,.:.:.-.-.-.-.*.*.*.*.*.M M *.x i ; ; u x x x u u u u u u u a s s s u u u e e e e e e ; ; ; ; e ; e e e ; # @ X X X X X X X X X X X X X     X X X   O O O O X X @ # ; ; @ @ 7 e r r e e e e e e r r r r e e e e e e e : : @ @ @ X X X X X X X X X X X X X X X X X X O O X X                 X X X X X @ @ e a Q Q Q W W W W Q Q Q Q Q Q Q Q Q W a r r r r e e 7 # # @ @ o @ @ @ @ @ @ # # # ; ; ; ; ; # # # 6 6 # # # # o ; e p W U ' ` z.z.c.M.M.M.N.N.N.N.N.N.N.N.B.B.B.B.B.B.B.B.Z.Z.Z.Z.Z.Z.Z.).).).).).Z.Z.Z.Z.).).)._.`.`.`.`.`.`.`.`.`.`.`.`.`.`.`.`.`.`._._.`.`.`.`.`.`.`.`.).).).).).).)./././.).).).).).).).).).).).).).).).).).).`.`.`.`.).).).).).).).).Z.Z.Z.Z.B.B.B.B.B.B.B.B.B.B.B.B.B.B.N.B.N.N.N.N.N.N.N.N.N.N.N.N.N.N.N.N.M.M.M.M.M.M.M.M.c.c.c.c.M.M.M.M.M.M.M.M.V.V.N.N.B.B.B.B.B.B.B.B.B.B.B.B.B.B.B.B.B.B.B.B.B.B.B.B.B.B.B.B.B.B.B.B.B.B.B.B.B.B.B.B./././././././.Z.D.D.Z.B.B.B.B.B.B.B.B.B.B.B.B.B.B.B.B.B.B.B.N.N.N.N.N.N.B.B.B.B.B.B.B.B.M.M.c.c.x.x.M.M.M.M.M.M.M.M.M.M.M.M.M.M.M.M.M.c.M.M.M.M.V.V.V.V.N.B.B.B.B.B.B.B.B.B.B.B.B.B.B./././././././.|.|.|.|.|.(.(.(.(.|._._._._.B.",
"t.t.r.w.7.>.>.F F D D 0.0.0.w.w.r.y.w.w.e.e.w.w.w.7.S A g h m S >.>.>.>.:.:.>.>.:.:.:.S S B m m B B B B Z -.-.:.:.:.:.:.,.,.,.,.,.,.,.:.:.-.-.-.-.*.*.*.*.M M M *.M u ; ; y s x x u u u u u u u s s s s u u u e e e e e e ; ; ; ; e e e e e ; # @ X X X X X X X X X X X X X     X X X   O O O O X X @ # ; ; # @ 7 e r r r r e e e e r r r r e e e e e e e : : @ @ @ X X X X X X X X X X X X X X X X X X O O X                   X X X X X @ @ e p Q Q Q Q W W W Q Q Q Q Q Q Q Q r r e r 7 e r e e 7 # # @ @ o @ @ @ @ @ @ # # # ; ; ; ; ; # # # 7 7 # # # # o # # e p W I [ ] z.x.c.M.M.M.N.N.M.B.N.B.B.B.B.B.B.B.Z.B.B.Z.Z.Z.Z.Z.Z.Z.Z.).).).).B.B.B.B.).).).).`.`.`.`.`.`.`.`.`.`.`.`.)._._._._._._._.).).`.`.).).).).).).).).).).)./././.).).).).).).).).).).).).).).).).).).`.`.`.`.).).).).).).).).Z.Z.Z.Z.B.B.B.B.B.B.B.B.B.N.B.B.B.B.N.N.N.N.N.N.N.N.N.N.N.N.N.N.N.N.N.N.M.M.M.M.M.M.M.M.c.c.c.c.M.M.M.M.M.M.M.M.V.V.N.N.B.B.B.B.B.B.B.B.B.B.B.B.B.B.B.B.B.B.B.B.B.B.B.B.B.B.B.B.B.B.B.B.B.B.B.B.B.B.B.B././././././././.`.`.`.B.B.B.B.B./.B.B.B.B.B.B.B.B.B.B.B.B.B.B.N.N.N.N.N.B.B.B.B.B.B.B.B.M.M.M.c.x.M.M.M.M.M.M.M.M.M.M.M.M.M.M.M.M.M.M.M.M.M.M.M.V.V.V.V.N.B.B.B.B.B.B.B.B.B.B.B.B.B.B.B./././././././.|.|.|.|.(.(.(.(.(.(.(././.B.",
"t.t.e.e.w.w.w.7.7.>.4.4.D D w.w.y.y.w.w.y.w.w.w.w.>.D m 3 c m >.>.>.>.>.>.>.>.>.:.:.D Z Z B m m B B B B Z Z -.-.;.;.:.:.,.,.,.,.,.,.:.:.;.,.-.-.*.*.*.*.*.=.x x *.x @ o ; u s x s s u u u u s s s s s s u u e e e e e e ; ; @ @ ; ; ; e e e ; # X X X X X X X X X X X X X X X X     X X X X X X X X # ; # ; # @ e e p p p r r r r r e e e e e e p p e e e e @ @ X X X X X X X X X X X X X X X X O O O O O O X X O O X X O O O X X X O O X X @ e r Q Q Q Q Q Q Q W W Q W Q Q Q a p r r e e e e e 7 7 # # # # o @ @ @ @ X @ @ # e e e e e e 7 # # @ # e e ; # # # # e p W ~ ' [ ] z.x.c.M.M.N.N.B.B.B.B.B.B.B.B.B.B.B.B.Z.D.D.D.D.B.B.B.B.B.B.Z.B.B.B.B.B.D.D.D.Z.D.`.`.`.`.`.`.`.`.`.`.`.`.`.`.`.`.`.`.`.`.`.`.`.`.`.`.D.Z.Z.Z.D.Z.Z.Z.D.Z.Z.Z.Z.Z.Z.D.D.D.D.D.D.D.D.D.D.`.`.`.`.`.`.`.`.`.`.`.`.`.`.`.`.`.`.B.B.B.B.B.B.B.B.B.B.B.B.B.B.B.B.B.B.N.N.B.B.B.B.B.N.N.N.N.N.N.N.N.N.N.N.N.N.N.N.N.N.M.M.M.M.M.N.N.M.M.M.M.M.M.N.N.N.B.B.B.B.B.B.B.B.B.B.B.B.B.B.B.B.B.B.B.B.B.B.B.B.B.B.B.B.B.B.B.B.B.B.B.B.B.B.B.B./././././././././././././././././././././././.B.B.B.B.B.B.B.B.B.B.B.B.B.B.B.B.B.B.B.N.N.M.V.M.M.c.c.M.M.c.c.c.c.c.c.M.M.c.c.c.c.M.M.V.V.M.M.M.V.V.V.V.V.M.M.B.B.V.V.B.B.B.B.B.B.B.B.B.B././././././././.(.(.|._.(.(.(.(.(.(.(.(./.",
"t.t.e.e.w.w.w.w.w.w.w.4.D 0.w.w.y.y.w.w.r.r.w.e.w.>.A c 3 c S ,.>.>.>.>.>.>.>.>.:.D D Z B n m n B B B B Z Z -.-.;.;.:.:.:.:.:.:.:.:.:.,.,.,.-.-.*.*.*.*.=.x x x =.x o o ; y s x s s u u u u s s a s s s u u e e e e e e ; @ @ ; ; ; ; e e e ; # @ X X X X X X X X X X X X X X X     X X X X X X X X # ; # ; # @ e e p a p r r r r r e e e e e e p p e e e e @ @ X X X X X X X X X X X X X X X X O O O O O O X X O O X X O O O O X X O O X X @ e r a Q Q Q Q Q Q Q Q Q W Q Q a a p r e e e e 7 7 7 7 # # # # o @ @ @ @ X @ @ 7 e e e e e e 7 # # @ # e e e e ; # ; e r r W ~ ~ [ z.x.c.M.N.B.B.B.B.B.B.B.B.B.B.B.B.B.B.B.D.D.D.D.B.B.B.B.B.B.Z.Z.B.B.B.B.Z.Z.Z.B.B.B.B.B.Z./././.B.B././././.B.B././././././.Z.Z././.Z.Z.B./././././././././././././././.`.`.`.`.`.`.`.`.`.`.`.`.`.`.`.`.`.`.`.`.`.`.`.`.`.B.B.B.B.B.B.B.B.B.B.B.B.B.B.B.B.B.B.B.N.N.B.B.B.B.V.V.N.N.N.N.N.N.N.N.N.N.N.N.N.N.N.N.M.M.M.M.M.N.M.N.M.M.M.M.N.N.N.N.N.B.B.B.B.B.B.B.B.B.B.B.B.B.B.B.B.B.B.B.B.B.B.B.B.B.B.B.B.B.B.B.B.B.B.B.B./././././././././././././././././././././././././././././././.B.B.B.B.B.B.B.B.B.B.B.B.B.B.N.N.V.V.V.V.M.M.M.M.V.c.c.c.c.c.M.M.M.c.c.M.M.M.V.V.M.M.V.V.V.V.V.V.V.M.B.V.V.V.B.B.B.B.B.B././././././././././././.(.(._._._._._._._._._._.(.",
"t.t.t.e.e.e.e.w.w.w.w.w.D w.w.w.w.w.w.w.r.r.e.e.7.S c 3 3 n S ,.>.>.>.>.>.:.:.D D D Z B n n m n N N B B Z Z ;.-.;.;.:.:.;.;.;.;.;.;.-.-.-.-.-.-.*.*.*.*.M x x x x u o o ; u s x s s u u u u s s s s x x s u u u e e e ; ; @ @ ; # ; ; e e e ; # @ X X X X X X X X X X X X X X X     X X X X X X X X # ; # # @ @ e e a a p p e r r r r e r r e p a p e e e ; @ @ X X X X X X X X X X X X X X X X X X X X O X X X O O X X O O O O X X O O O X @ e e p a Q Q Q O.Q Q Q Q W Q Q a a p r e e e e 7 7 7 7 # # # # o @ @ @ @ X @ @ 7 e e e e e e e # # @ # e e e e e e # e e p W ~ ( ..b.x.c.N.B.B././././././././.B.B.B.B.B.B.B.Z.D.D.B.B.B.B.Z.Z.Z.Z.B.B.B.B.D.D.B.B.B.B.B.B.B.B.B.B.B.B.B.B.B.B.B.B.B.B.B.B.B.B.B.B.B.B.B.B.B./././././././././././././././././.`.`.`.`.`.`././.`.`.`.`.`.`.`.`.`.`.`.D.D.D.B.B.B.B.B.B.B.B.B.B.B.B.B.B.N.N.B.B.B.B.N.N.B.B.N.N.N.N.N.N.N.N.N.N.N.N.N.N.N.N.N.N.N.N.M.N.N.N.N.N.N.N.M.M.N.N.N.N.N.N.N.N.B.B.B.B.B.B.B.B.B.B.B.B.B.B.B.B.B.B.B.B.B.B.B.B.B.B.B.B.B.B.B.B.B.B.B./././././././././././././.|.|.|.|.|.|.'.'.'.'.(.(.(.(././././././././././././././.B.B.B.B.B.B.B.V.V.V.V.V.V.V.V.V.V.V.V.V.V.V.M.M.M.M.M.M.V.V.M.M.V.V.V.V.V.V.V.V.V.V.V.V.B.B.B.B.B./././././././.(.(.|.|.|.|.(.(.(.(._._._._.(._._._.(.",
"t.t.t.e.e.r.r.e.e.w.w.w.w.w.w.w.w.w.w.w.t.e.e.e.>.m 3 3 3 n D >.>.>.>.>.:.:.D D D Z B B n n n m N N N B Z ;.;.-.;.;.:.:.-.-.-.-.-.-.-.-.-.-.-.-.*.*.*.M x x x x i u o o ; u s x s s u u u u s s s s x x u u u u e e e e @ @ @ ; ; ; ; e e e ; # @ X X X X X X X X X X X X X X X     X X X X X X X X # ; # # @ @ # e a a a p e e r r r e r r r r a p e e e e : @ X X X X X X X X X X X X X X X X X X X X O X X X O O X X O O O O X X O O O X @ e e r a a a Q Q Q Q Q Q Q Q Q a a r r e e e 7 7 7 7 7 # # # # o o @ @ @ X X X 7 e e e e e e e # # @ # e e e e e e e e e r W W W ..] b.n.C.Z.)./.(./././././././.B.B.B.B.B.B.B.B.B.B.B.B.B.B.B.B.B.B.B.B.B.B.B.B.B.B.B.B.B.B.B.B.B.B.B.B.B.B.B.B.B.B.B.B.B.B.B.B.B.B.B.B.B././././././././././././././././././.`.`.`.`.`.`././.`.`.`.`.`.D.`.`.`.`.`.`.D.D.B.B.B.B.B.B.B.B.B.B.B.B.B.B.N.N.B.B.B.B.N.N.B.B.N.N.N.N.N.N.N.N.N.N.N.N.N.N.N.N.N.N.N.N.N.N.N.N.N.N.N.N.N.N.N.N.N.N.N.N.N.N.B.B.B.B.B.B.B.B.B.B.B.B.B.B.B.B.B.B.B.B.B.B.B.B.B.B.B.B.B.B.B.B.B.B.B./././././././././././.(.(.|.|.|.|.|.|.'.'.'.'.|.(.(.(.|.|.|.|.(.(.|.|.(.(.|./././././././.B.B.V.V.V.V.V.V.V.V.V.V.V.V.V.V.V.V.V.M.c.M.c.M.V.M.M.M.V.V.V.V.V.V.M.M.V.V.V.V.B.B.B.B././././././././.(.(.|.(.|.(._.(.(.(._._._._._._._._.(.",
"e.e.t.e.e.e.e.e.e.e.w.w.w.w.w.w.w.w.w.w.e.e.e.7.>.S c c 3 c S >.>.>.>.>.:.D Z Z Z B B m n n n m N B B B ;.;.;.;.:.;.:.:.;.;.,.,.-.-.-.;.,.,.-.*.*.*.=.=.M x x x s ; X X e p p d y y y y d d s s a s s s d u u u y e ; ; # @ @ # ; ; ; e e e ; # # X X X X X X X X X   X X X X X O O X X X X X X X X + # # X X # e p p a a a p a p p p p p p r r r e e e r e 6 @ X X X @ X X X X X X X X X X X X X X X X X X X X X X X X X X X X X X X X X X # ; e e e e p p a a a a Q Q ! Q a a p p e 7 7 7 # # 7 7 # + + o o o @ @ @ @ X X @ 7 y y y y y e e e p p p p p e e e q 7 q e p p p W ..b.n.A.Z.`.'.'._._._._.`.`././.`.D.Z.B.B.B.B.B.B.B.B.B.B.B.B.B.B.B.B.B.B.N.N.N.N.N.N.N.N.N.N.N.N.N.N.B.N.B.B.B.B.B.B.B.B.B.B.B.B.B.B.B.B.B.B.B.B.B.B.B.B.B./.B.B.B.B.B.B.B.B.B./././././././.B.D.D.D.D.D.D.D.D.D.D.D.D.B.B.B.B.B.B.B.B.N.N.N.N.N.N.N.N.N.N.N.N.N.N.N.N.N.N.N.N.M.M.N.N.B.V.M.M.M.M.M.M.N.N.N.N.N.N.N.N.B.B.B.B.B.B.B.B.B.B.B.B.N.N.N.N.N.B.B.B.N.N.N.N.N.N.N.B.N.N.N.N.N.N.N.N.N.N.N.B.B.B.B.B.B.B.B.B.B.B.B.B.B.B.B./././././.|.|.|.|.|.|.|.|.'.'.|.|.'.'.'.'.(.(.(.(.(.(.(.(.(.(.'.|.(././././././.B.B.V.V.V.V.V.V.V.V.V.V.V.V.V.V.V.V.V.V.V.M.M.V.V.V.V.V.V.V.V.V.V.V.V.N.V.V.V.B.B.B.B.B././././././.(.(.(.(.(.'.'.'.(.'.(.'.'.'.'.'.'.'.'.'.",
">.w.e.e.e.e.e.e.e.w.w.w.w.w.w.w.w.w.w.w.e.e.>.>.>.S 3 > 3 c S >.>.>.>.>.:.D Z Z B B m n m B B B B B B ;.;.;.;.:.:.,.,.,.,.,.,.,.,.,.,.,.,.,.-.*.*.*.*.*.=.=.x x y ; X X # ; e y y y y y p u d d a a s u d u u u y e e ; @ @ @ # # ; e e e e ; # # @ X X X X X X X X X X X X X X O O X X O O X X X X + # # X X # e p p p a a p p p p p p p p p r r e e e r e 6 @ X X X X X X X X X X X X X X X X X X X X X X X X X X X X X X X X X X X X X X # ; e e e e p e a a a a a Q ! Q a p p p 7 7 7 7 # # # # + + + o o o @ @ @ @ O X # # e e e e y e e e p p p p p p p e q 7 e e p r p W ~ ] m.C.D.[.'.'.'.'.'.'.`.`.`.`.D.D.D.Z.B.B.B.B.B.B.N.N.N.B.B.N.N.N.N.N.N.N.N.N.N.N.N.N.N.N.N.N.N.N.N.N.N.N.N.N.N.N.N.N.N.N.N.N.B.B.B.B.B.B.B.B.B.B.B.B.B.B.B.B.B.B.B.B.B.B.B.B.B.B.B.B.B.B.B.B.B.B.B.B.B.B.B.B.Z.Z.Z.B.B.B.B.B.B.B.B.B.N.N.N.N.N.N.N.N.N.N.N.N.N.N.N.N.N.N.N.N.M.M.N.M.V.V.M.M.M.M.M.M.M.N.N.N.N.N.N.N.B.B.B.B.B.N.B.N.B.B.B.B.N.N.N.N.N.N.B.B.N.N.N.N.N.N.B.B.N.N.N.N.N.N.N.N.N.N.N.N.B.B.N.N.N.B.N.B.B.B.B.B.B.B.B.B././././.`.`.`.`.|.|.|.|.'.'.'.'.'.'.'.'.'.'.'.'.'.'.'.'.'.'.'.|././././././.B.B.B.V.V.V.V.M.V.V.V.V.V.V.V.V.V.V.V.V.V.V.M.M.V.V.V.V.V.V.V.V.V.V.V.V.N.N.V.V.B.B.B.B.B.B.B.B./.`.'.'.'.'.{.'.{.{.{.{.{.{.}.}.}.}.}.}.}.{.'.",
"S >.e.e.e.e.e.e.e.w.w.w.7.7.7.7.7.8.8.e.e.e.e.8.,.S 2 > 3 c D >.>.>.>.>.:.D Z Z B m m m B B B Z Z ;.;.;.;.;.;.;.;.;.:.:.:.:.:.:.-.-.,.,.,.,.-.-.*.*.*.*.=.=.x x ; @ X X # # # ; ; ; ; ; e e e p u u u u u u u u p e e ; # @ X @ # ; ; e e e ; ; ; # X X X X X X X X X X X X X X X X X X O O O O X X + # # X X # e p p p a a r r p p e p e e e p r e e r e 6 @ @ # # # # # # X X @ @ @ @ X X X X X X X X X X X X X X X X X X X X X X X X X X @ ; e e e e e e u a a a Q Q ! Q a p p y 7 7 7 7 # @ # # + + + o o o @ @ @ @ O X @ # 7 7 7 7 y y e e p p p p p p p e q 7 e e y y y p W ....m.A.D.`.`.).Z.Z.Z.D.D.D.Z.D.B.B.N.N.N.N.N.N.N.N.N.N.N.N.N.N.N.N.M.M.M.M.M.M.M.M.M.M.M.M.M.M.M.M.M.M.N.N.N.N.N.N.N.N.N.M.M.M.N.N.N.N.N.N.N.N.N.N.N.N.N.N.N.N.N.N.N.N.N.M.M.N.N.N.N.N.N.N.N.N.N.N.N.N.N.N.N.N.N.N.N.N.N.N.N.N.N.N.N.N.N.N.N.N.N.N.N.N.N.N.N.N.N.N.M.M.M.M.M.M.M.M.M.M.M.M.M.M.M.M.M.M.M.M.N.N.N.N.N.N.N.B.B.N.N.B.B.N.N.N.N.B.N.N.N.N.N.N.N.N.N.N.N.N.N.N.N.N.N.N.N.N.N.N.N.N.N.N.N.N.N.M.M.N.N.N.N.N.N.N.N.N.B.B.B.B.B././.`.`.`.`.`.`.`.`.`.`.`.`.`.`.`.`.`.`.`.`.'.`.'.'.`.'.`._././.B.B.B.B.B.B.V.V.V.V.M.M.M.V.V.V.V.V.M.M.V.V.V.V.V.V.V.V.V.V.V.V.V.V.M.M.M.M.V.V.M.M.N.B.B.B.B.B.B.B.B.B.B.`.`.'.'.'.'.'.'.{.{.}.}.}.}.}.}.}.}.}.}.}.{.",
"D >.e.e.r.e.e.e.e.8.>.>.>.>.>.>.>.>.8.8.a.a.p.p.n c > > 3 c S ,.>.>.>.>.:.;.Z B B n m N B B Z Z ;.;.;.;.;.;.;.-.-.Z Z *.Z *.*.*.*.*.*.*.N M x x x =.=.=.x x x s # X X X # # X + ; ; ; ; ; ; ; e e e p e u u u u p e e ; # @ @ X @ ; ; ; e e ; ; ; ; o o X X X X X X X X X X X X X X X X O O O O X X + # # X X @ e p p p a a p r p p e e e e e p p r e e 6 @ @ O + X X X X X X X X X X X X X X X X X X X X X X X X X X X X X X X X X X X X X # ; ; ; ; ; u u u u d a a Q ! Q a p p y 7 7 7 7 # @ # + + + + + o o @ @ @ @ O X @ # # # # # y y e e p p p p p p p e y q e e y y y y W ~ ....b.c.N.N.N.c.c.c.c.c.n.n.c.N.N.N.c.c.c.c.c.c.c.c.c.c.c.c.c.c.c.c.x.x.x.x.x.x.x.x.x.x.x.x.x.x.x.x.x.x.x.x.x.x.x.x.x.x.x.x.c.c.c.c.c.c.c.c.c.c.c.c.c.c.c.c.c.c.c.c.c.c.c.c.c.c.c.c.c.c.c.c.c.c.c.c.N.N.N.N.N.N.N.N.N.N.N.N.N.c.c.c.c.N.c.c.c.c.c.c.c.c.c.c.c.c.c.c.c.c.c.c.x.c.c.x.x.x.x.x.x.x.c.c.c.c.c.c.c.c.c.c.c.M.M.M.M.M.M.M.M.M.M.M.N.N.N.N.c.c.c.c.c.c.c.c.c.c.c.c.c.c.c.c.c.N.N.N.N.c.c.c.c.c.c.c.c.c.c.c.c.c.c.c.N.N.N.N.N.M.N.B.D.D.D.D.D.D.D.D.D.D.D.D.D.D.D.D.D.`.D.D.D.D.`.`.`.`.D.Z.Z.Z.N.N.N.N.N.M.M.M.M.M.c.c.c.c.c.c.c.c.c.c.c.c.c.x.x.x.x.x.x.x.x.x.x.x.x.c.c.c.c.c.M.M.M.M.M.M.M.M.N.N.N.C.N.Z.Z.Z.D.D.`.`.`.[.].].].].].].].].{.{.].].].",
"S :.>.,.>.>.,.,.,.>.:.S S S S S S S S ;.,.,.,.,.n > X X > 3 2 n B B B N N n n b b l l z z b b b b n N N N N N N b b z z z z z z z z z x 1 1 y u u u u u y 1 ; ; o X     X X X X X O O O O X X X X X + + X X @ X X X X X X X X O O X X X # # # # + + # o X X X                                       O O O O + O 7 e e 7 r r r r e e e e e e e e 7 7 7 7 + + + + + X X X X X X X X X X X X X X X O O O O O O O O X X X X X X X O O O O O O O O O ; ; ; ; # # ; ; e e e e q q 7 7 # # # # + + + + + X X + O O O O + + O O O O O O X X X X X X X X e e e e e e e e 7 7 # # # # - # q J J J I [ [ [ ] ] ] ] ] ] ] ] ] ] ] ] ] z.] ] ] ] ] ] ] ] ] ] ] ] ] ] ] ] ` ` ] ] ` ` ` ` ` ] ` ` ` ` ` ] ] ] ] ] ] ] ] ] ] ] ] ` ] ] ] ] ] ] ] ] ] ] ] ] ] ] ] ] ] ] z.z.z.z.z.z.z.z.z.z.z.z.z.z.z.z.z.z.z.z.z.z.z.z.z.z.z.z.z.z.z.z.] z.z.z.z.z.z.z.z.z.z.z.z.] ] ] ] ] ] ] ] ] ] ] ] ] ] ] ] ] ] ] ] ] ] ] ] ] ] ] ] ] ] z.z.z.z.] ] ] ] ] ] ] ] ] ] ] ] ] ] ] ] ] ] ] ] ] ] ] ] ] ] z.z.z.z.z.z.z.z.z.z.z.z.z.z.z.z.z.z.] ] z.z.z.z.z.z.x.c.c.c.c.c.c.c.c.c.c.c.c.c.c.c.c.c.c.c.c.c.c.x.x.x.x.x.z.z.z.z.z.z.z.z.z.z.z.z.z.z.z.z.z.z.z.z.z.z.z.z.z.z.z.z.z.z.z.z.z.z.z.z.z.z.z.z.z.z.z.z.z.z.z.z.z.z.z.z.z.z.z.z.z.x.x.c.c.c.c.C.C.F.F.F.F.n.C.C.C.C.C.C.n.C.",
"X X o o o o o . X X X X X X X X X X X X % < < % X X . . X X X X X X X X X o o o X X X X X X X X X X X X X X o X X X X X                           X X                           O                       O O O                               O O X X     X                                                         O O O O O O O O O O O                                                                         . . . .                               O O O O O O O O O O O + + O O O O O O O O O O O O                 O O O O O O O O O O O O X X X X O O O O O O O O O   X X O 4 5 5 5 9 H H H H H H P P P P P P P P K K K K K K P P K K K K K K K P P P P P P P P P P P P P P P H P K K K K P P P P P P P P P P P P P P P P P P P P P P P P P P P P P P P P P P P P P P P P P P P P P P P P P P P P P P P P P P P P P P P P P P P P P P P P P P P P P P P P P P P P H H H H P P P P P P P H P P P P P P P P P P P P P P P P P P P P P P P P P P P P P P P P P P P P P P P P P P P P P P P P P P P P P P P P P P P P P P K K K ) ) ) ) ) ) ) K K K K K K K K K K K K K K K K K K K P K K K K K K K K K K K K K K K P P P K P P P P P P P P P P P P P P P P P P P P P P P P P P P P P P P P P P P P P K K K K K K ) K L K K K K K K K K K K K K ",
"X X X   X X X X             X X     X     X X                                                                                                                                                                                                                                                                                           O O O O                                                                                                                                                                                                                                     O O O 4 4 4 O O O O O O O O O O O O O 4 4 4 4 4 O O O O O O O O O O O O O O O O O O 4 4 4 4 4 4 4 4 4 4 4 4 4 4 4 4 4 4 4 O O O O O O O O O O O O O O O O O O O O O O O O O 4 4 4 4 O O O O 4 4 O O O O O O O O O O O O O O O O O O O O O O O O O O O O O O O O O O O O O O O O O O O O O O O O O O O O O O O O O O O O O O O O O O O O O O O O O O O O O O O O O O O O O O O O O O O O O O O O O O O O O O O O O O O O O O O O O O O 4 4 8 8 8 8 8 8 8 8 8 8 8 8 4 8 8 8 8 8 8 8 8 8 4 4 4 4 4 4 4 4 4 4 4 4 4 4 4 4 4 4 4 4 4 4 O O O O O O O O O O O O O O O O O O O O O O O O O O O O O O O O O O O O O 4 O O O 4 4 4 4 4 4 4 4 4 O O O O O O O O O O O O "
};
