/* XPM */
static char *_f58937cecb94757ed7a3abd5665c05ehcngQWHbvVt4eKSM[] = {
/* columns rows colors chars-per-pixel */
"800 450 256 2 ",
"   c #0D0402",
".  c #0D0609",
"X  c #0E090A",
"o  c #0E0805",
"O  c #120502",
"+  c #1B0501",
"@  c #140A04",
"#  c #1B0C04",
"$  c #12070A",
"%  c #150A0D",
"&  c #1B0B0E",
"*  c #1B070B",
"=  c #16110D",
"-  c #1C130D",
";  c #1C1206",
":  c #150A11",
">  c #1C0D11",
",  c #1B0A1B",
"<  c #180818",
"1  c #1D1412",
"2  c #1E1912",
"3  c #1C1317",
"4  c #0F0910",
"5  c #230501",
"6  c #230B03",
"7  c #2B0B03",
"8  c #210B0E",
"9  c #2A0A08",
"0  c #360A03",
"q  c #231305",
"w  c #23140C",
"e  c #2B140C",
"r  c #241A0D",
"t  c #2B1B0D",
"y  c #2A1406",
"u  c #36160A",
"i  c #230E12",
"p  c #290E13",
"a  c #250B1B",
"s  c #241313",
"d  c #2B1215",
"f  c #241B14",
"g  c #2B1C14",
"h  c #22151B",
"j  c #2C1319",
"k  c #251C1A",
"l  c #2B1D1A",
"z  c #331D13",
"x  c #351919",
"c  c #350D16",
"v  c #2D2215",
"b  c #2C221B",
"n  c #292419",
"m  c #332415",
"M  c #32251B",
"N  c #352A1C",
"B  c #3B2C1C",
"V  c #392617",
"C  c #3C311D",
"Z  c #34230D",
"A  c #1E0923",
"S  c #1D0826",
"D  c #1F1223",
"F  c #250A28",
"G  c #281527",
"H  c #361A26",
"J  c #2B0B34",
"K  c #2C0938",
"L  c #330C3C",
"P  c #350A37",
"I  c #2D1433",
"U  c #331638",
"Y  c #340B29",
"T  c #2D2622",
"R  c #332522",
"E  c #342B22",
"W  c #3A2D23",
"Q  c #392928",
"!  c #3C3224",
"~  c #3D332A",
"^  c #393428",
"/  c #3A2B35",
"(  c #1D2129",
")  c #470A01",
"_  c #481706",
"`  c #561806",
"'  c #4F1410",
"]  c #69170B",
"[  c #452819",
"{  c #572917",
"}  c #45341C",
"|  c #542D10",
" . c #6B2F16",
".. c #4C1130",
"X. c #6C1733",
"o. c #432C25",
"O. c #433424",
"+. c #4B3B24",
"@. c #43352B",
"#. c #443A2C",
"$. c #4B3C2B",
"%. c #473725",
"&. c #543B27",
"*. c #4B3D32",
"=. c #463935",
"-. c #533C37",
";. c #4C2B32",
":. c #6B3429",
">. c #6E5018",
",. c #4D422A",
"<. c #53432C",
"1. c #594729",
"2. c #4C4233",
"3. c #4C4439",
"4. c #534433",
"5. c #5C4B34",
"6. c #5B4C3B",
"7. c #554838",
"8. c #5D513A",
"9. c #5E502D",
"0. c #644A2B",
"q. c #68532C",
"w. c #644D37",
"e. c #64533C",
"r. c #695737",
"t. c #755A37",
"y. c #764F2C",
"u. c #78643A",
"i. c #76632D",
"p. c #634F16",
"a. c #340B43",
"s. c #3B0C4C",
"d. c #370A47",
"f. c #3A1347",
"g. c #3D0B53",
"h. c #3D0956",
"j. c #3B114F",
"k. c #3B2D43",
"l. c #420D5B",
"z. c #420B55",
"x. c #451459",
"c. c #4A134C",
"v. c #51304F",
"b. c #6E304F",
"n. c #470E62",
"m. c #4A1364",
"M. c #4C1567",
"N. c #511A6C",
"B. c #541B74",
"V. c #4F1571",
"C. c #592579",
"Z. c #582C69",
"A. c #673772",
"S. c #6B194E",
"D. c #594845",
"F. c #5D5344",
"G. c #594751",
"H. c #6C5C43",
"J. c #665847",
"K. c #735C46",
"L. c #695756",
"P. c #694E51",
"I. c #6C624A",
"U. c #73644B",
"Y. c #786749",
"T. c #7C6C53",
"R. c #766856",
"E. c #7D7259",
"W. c #6D6454",
"Q. c #694767",
"!. c #775969",
"~. c #795876",
"^. c #704A72",
"/. c #7A6766",
"(. c #7C6B6D",
"). c #5E4162",
"_. c #3E4145",
"`. c #893131",
"'. c #892D16",
"]. c #8D5132",
"[. c #84673A",
"{. c #90732E",
"}. c #8E6521",
"|. c #856B46",
" X c #897547",
".X c #826D55",
"XX c #83745B",
"oX c #877759",
"OX c #94774C",
"+X c #835A77",
"@X c #897965",
"#X c #876978",
"$X c #8B7577",
"%X c #937A7A",
"&X c #8B7368",
"*X c #8E5B49",
"=X c #863447",
"-X c #9A8431",
";X c #A68D34",
":X c #99831E",
">X c #988552",
",X c #A89254",
"<X c #8D8267",
"1X c #96876A",
"2X c #998976",
"3X c #9D9376",
"4X c #948A71",
"5X c #A5977A",
"6X c #A7936D",
"7X c #B6A572",
"8X c #B8A654",
"9X c #C7B175",
"0X c #5D2A82",
"qX c #683787",
"wX c #68348A",
"eX c #774C8E",
"rX c #7F6184",
"tX c #855992",
"yX c #8A6886",
"uX c #967887",
"iX c #987896",
"pX c #8F6A91",
"aX c #885AA3",
"sX c #966EA8",
"dX c #A57AAF",
"fX c #A37797",
"gX c #AF78C4",
"hX c #9B8587",
"jX c #9D8693",
"kX c #A99985",
"lX c #A48997",
"zX c #AA9598",
"xX c #A8918D",
"cX c #ACA386",
"vX c #B4A789",
"bX c #B7AA96",
"nX c #BCB396",
"mX c #B2A891",
"MX c #AF8FAE",
"NX c #BAA7AA",
"BX c #9E83A1",
"VX c #C3B89A",
"CX c #CCB988",
"ZX c #C5B5AC",
"AX c #C293B9",
"SX c #D8C793",
"DX c #D0C8AB",
"FX c #E9D9A9",
"GX c #EBDBA7",
"HX c #B992C5",
"JX c #BFA0C4",
"KX c #C39ACB",
"LX c #CFAFD1",
"PX c #DDB9E3",
"IX c #E8CFE9",
"UX c #DFC9DA",
/* pixels */
"> > > > > > i i i i s s s s s s > > > > i i i > > > > > > > > > > > > > > > > > > > > > > > > > i i > > > > > > > > > > i i > > > > > > > > > > > > > > i i i i i i i i i i s i s s s s s s s i i i i i i i i i i > > i i i > > > > > > i i i i i i i i i i i i i i i > > > > > > > > > > > > > > > & & > i i i > i > i > i > i s s i i i > > > > > > > > > > > : : : & & & % : % > > > % % % % % % % % % % % % % > > > > : % % % > > > % % % % % % % % > : : : & & & & > > > > > > > > > > > > : : : : > > > > > > > > , , , , , , , , , , , , , , , A F A S F F a ..yXAXKXdXc.Z.aXd.a.K a.L c.J P J J P P P J K K L L L L L L L L L L a.a.d.d.d.d.s.s.s.s.s.s.c.z.z.z.z.z.l.l.z.l.x.z.z.z.z.l.x.c.f.v.#XhXzXbXbXzXxX$X#X$XjXzXuX$X#X#X#X#X$X$X#X%X$X#X#X#XyXyXyXyX#X#X#X$X$XuXuXuXyX#X#X+X+X~.!.+X#X#X+X#XuXuXlXuXyX^.Q.A.Q.~.#XhXlXzXzXzXlXhXhXuX$XuXyXyX~.~.!.!.Q.Q.!.!.+X+X!.!./.&X#X%X#X!.!.!.).v.v.v.Z.b.v.v.b.Q.b.Q.!.!.Q.Z.v.v.v.c.c.c.f.f.f.f.f.f.f.f.f.f.a.L L L L L L L L L L U U U L L P P P P P P P P I I Y Y I I I I Y F F F F G G G F G F F F F G G F F a a a a F F F a a a a a a a a a a a i i i i i i > > i i > > > > > > 3 3 > > > > > > > > & & - - - - > & & & & & # # # # % % % % % % % % # # # # & & 8 w w 8 8 8 & & & 8 i i 8 8 s s s d w w s j g x x x R R R R x l d 8 i i p p p p i p p p p p p p p p d p p d d d d d d d p p p p p p p i i i p p p p p p p p p p p p p p p p p p p p d p p p p p p p d d d d d d d p d d d d d d d d j j j j j d d d j j d d p p p p p p p p d d d p p p p p p p p p p p d d d d d d d d d d p p p p i i i p p p i i 8 8 8 8 8 8 8 8 & & & & & & & & & & & & & & & & 8 & & & & & & 8 * * 8 8 8 8 8 8 ",
"> > > > > > > > i i i i > > > > > i > > i i i i > > > > > > > > > > > > > > > > > > > > > > > > i i > > > > i > > > > > i i > > > > > > > > > > > > > > i i i i i i i i s i i i s s s s s s s s i i i i i i i i i > > > > > > > > > > > i i i i i i i i i i i i i i > > > > > > > > > > > > > > > > & & > > i i > > i i > > > i i i i > > > > > > > > > > > > > : : > > % & % % % : > > % % % % % % % : % % % % % % > > % % % % > > : > % % % % & % % : > : > > & & & & > > > > > > > > > > > > : : : : > > > > > > > > , , , , , , , , , , , , a , , F F F F F a F Y v.b.tXpXc.d.Z.eXx.Z.x.x.Z.A.P P J P K J L J K J J K L a.K L a.a.a.L a.a.a.d.d.s.s.s.s.s.s.z.s.z.z.z.z.z.z.z.x.z.z.z.z.z.z.x.c.Z.~.uXzXNXzXzXhX$X&X%XhXzXjXuX$X#X#X#X#X$X$XuXuXuX$X#X#X#X#X#X$X#X%X$X$X$X%X$XuXuXuXyX+X~.!.+X#X#X#X+X#XuXfXlXuX+XQ.A.A.Q.#XjXzXlXzXlXhXuX%X$X$X#X#X~.~.!.Q.~.~.!.Q.!.~.+X!.!.!.#X#X#X$X#X!.!.Q.v.v.v.v.Z.Z.v.b.Q.Q.b.Q.!.).).v.v.v.c.c.c.c.f.f.f.f.f.f.a.a.f.a.L L L L L L L L L L L U U U L L P P P P I P P P I I Y Y I I I I Y F F F Y Y G G F F F F F F G j F F a a a a F F a a a a a a a a a a a i i s i i i i > > > i > > > > > > 3 1 > > > > > > > > & & - - - - > > & & & & # # # # % % & & % % % % # # # # & & & 8 8 8 8 8 & & 8 8 i i 8 8 i s s s w w s j x x x x W R R V x x d j i i 8 8 i p p p p p p p p p p p d d p p d d d d d d p p p p p p p p i i p p p p p p p p p p p p p p p p p p p p d p p p p p p p d d d d d d d d d d d d d d j d d d d d d d d d j d d d p p p p p p d d j j d d p p p p p p p p d d d d d d d d d d d d p p p 9 i i i p p p i i 8 8 8 8 8 8 8 8 & & & & & & & & & & & & & & & & & & & & & & & 8 * * * * 8 8 & & ",
"> > > > > > > > > > > > > > > > > > > > > i > > > > > > > > > > > > > > > > > > > > > > > > > > i i > > i i i i > > > > i > > > > > > > > > > > > > > > i i i i i i i i i i i i i s s s s s s s i i i i i i i i i > > > > > > i > > > > > > > > i i i i i i i i > > > > > > > > > > > > > > > > > & & & > > > > > > > > > > > > > > > > > > > > > > > > > > > > : : : : % % % % % % & % % % > > % > > : > > % % % % % % % % % % % % : % % % > > & > > : > > > > & & & & > > > > > > > > > > > > : : : : : > > > > > > > , , , , , , , , , , a a a a a F F F F F a F F F Y P v.^.c.d.N.A.A.Z.Z.A.dX+Xc.K P P K K P L K K L L K K a.a.a.a.a.a.a.a.a.d.s.s.s.s.s.s.s.s.g.g.z.z.z.g.z.z.z.z.l.x.x.c.Z.~.pXiXNXZXNXmXhX%X#X$XjXzXzXhX%X$X#X#X#X$X%XuXuXuXuXuX%X#X#X#X#XuX%XuX%X%X%XuXlXlXlXuXyX#X~.!.~.+X#X+X#X#XuXuXuX#X^.Q.Q.Q.^.#XlXzXlXxXhXuX$X#X#X#X#XyX#X#X~.!.yX#X+X!.!.+X#X+X!.!.#X#X#X#X/.(.(.!.v.v.v.v.v.v.v.b.Q.b.v.Q.^.).v.v.v.v.c.c.c.c.f.f.f.f.f.f.f.f.f.a.a.a.L L L a.L L L L L L L L L L P P P P I I P P P I Y Y Y Y I Y Y F F Y Y Y G G G G F F F F F F j j j F a j j j G a a a a a a a a a a s s s i 3 3 3 > 1 1 > & > > > i i i i 1 1 i > & & & & > i & & - & > > - & & & & & & & & & & % # % % % # # # # * & & & & & 8 8 & & & & i i i i i i s s w s d j x x x x H x x x H x d j s i 8 8 i p p p p p p p p p p p d d p p d d d d d d d p p p p p p p p p p p p p p p p p p p p p p p p p p p p p d p p p p p p p d d d d d d d d d d d d j j d d d d p p p p p p d d d d p p p p p d j j j j d d p p p p p p d d d d d d d d d d d d d d d p p 9 i i i i p p i i i i i i 8 8 8 8 & & & & & & & & & & & & 8 8 & & & & & & & & & & & & & & & & & & ",
"> > > > > > > > & & & & & & > > > > > > > > > > > > > > > > > > > > > > > > > > > > > > > > > > i i > > > i i i > > > > i i > > > > > > > > > > > > > > i i i i i i i i i i i i s s s s s s s s i i i i i i i i i > > > > > > > > > > > > > > > i i i i i i i i > > > > > > > > > > > > > > > > & & & & > > > > > > > > > > > > > > > > > > > > > > > > > > > > : : : : % % % % % % % % : > > > > > > > > > & % % % % % % % % % % % % % : : : > > > : : > > > > & & & & > > > > > > > > > > > > : : : : : > > > > > > > , , , , , , , , , , a a a a a F F F F F F F F , F F J ^.pXA.S.A.+Xc.Z.A.tXfX^.c.J P L J P K J K L K K a.a.a.a.a.a.a.a.a.d.s.s.s.s.s.s.s.z.z.z.z.z.z.z.z.g.z.x.c.c.s.x.v.tXuXlXNXZXNXzXhX#X#XuXjXzXzXlXuX%X#X#X$X$XyXuXuXuXuX%X%X$X$X$X$XuXuXuXuXuXuXhXxXuXuXuXuXyXyX#X!.~.+X#X#X#X#XuXuX+XQ.Q.^.^.^.~.yXlXzXlXhXuX%X$X#X$X$X$XuX#X!.Q.~.!.+X+X+X#X#X+X!.!.!.#X#X#X#X#X#X~.!.).v.v.v.v.v.v.v.A.b.v.A.Q.Z.v.v.v.c.c.c.c.c.f.f.f.f.f.f.a.a.f.a.a.a.L L L L L L L L L L L L L L L P P P I I P P I I Y Y Y Y I Y Y F Y Y Y I G Y G G F G F F F F F j j a a a j j j a a a a a a a a s s s s s i i s 3 1 1 1 1 & & & & i i i i 1 > i > & & & & > > & & & & > > - & & & & & & & & & > & & & & & # # & # & & & & & & & 8 & & & & i i i i 8 i s s w s j j x x x x z d z V H x d x l d d s p p p p p p p p p p p p d d d d d d d d d d d p p p p p p p p p p p p p p p p p p p p p p p p p p p p p d p p p p p p p p d d d d d d d d d d d j j d d d d p p p p p p d d d d p p p p p d j x j j d d p p p p d d d d d d d d d d d d d d d d d p p 9 i i i i p p i i i i i i 8 8 8 8 & & & & & & & & & & i i i i 8 8 & & & & & & & & & & & & * * * * ",
"> > > > > > > > > > > > > > > > > > > > > > > > > > > > > > > > > > > > > > > > > > > > > > > > > > > > i i i i i i i i i i i i > > > > > > > > > > > > i i i i i i s s i i i s i i s s i i i i i i i i i i i i i > i > i i > > > > > > > > > > > > > i > > > > > > > > > > > > > > > > > > > > & & & & & & > > > > > > > > > > > > > > > > > > > > > > > > > > > > > > > : : : % % > % % % : > % : > > > : % % > : % % % % % % % % : : % % & > % % : : % % % % & & & & > > > > > & > > > > > > : : : : : : : : > > > > , , > , , , , , , , , , , , , , F F F F F F A F F F J J c.MXsXsXdXZ.Z.tXtXZ.L K L a.L a.f.K J J K L a.K a.a.a.a.a.a.d.d.s.s.f.s.s.s.s.s.z.z.z.z.z.z.z.z.d.x.x.c.j.x.A.~.yXjXMXZXNXxXhX%X$XuXjXzXNXzXxXhXuXuXuXuXuXuXyXuX#X%XuXuX%X$X$XuXjXjXjXjXlXlXlXlXuXuX$X#X#X#X#X#X#X$XuXyXyXuXuX#X!.Q.).Q.^.^.~.#XuXlXuXuX$X$X$X$X$X#X$XuX#XQ.Q.+X!.!.!.!.!.!.!.!.+X+X!.L.!.#X#X(.!.!.Q.v.v.v.v.c.v.v.Z.Z.v.v.v.v.v.v.v.v.c.c.f.f.c.c.f.f.f.f.a.a.f.f.a.a.a.a.a.a.L L L L L L L L L L L L P P P P I I I Y Y I I I I I Y Y Y I I Y Y Y G G G G G G F F F G G G G a G G F a a a a a a a a a i i s s i i i > > > > > i i > > & & & & > > 8 8 i i i i > > > & - - & & & & & & & & & & & & & & # & & & # # & & & & & & & & 8 8 8 8 8 8 i i i i s i s s f j j g x x x x z d d j x x x g j d j d p d d d p p p p p p p p d d d d d d d d d d d d p p p p i i i i p p p p p p p p p p p p p p p p p p p p p p p p d d p p p p d d p p p p p p p p d d d d p p p p p p p p p p p p d d d d d d j j d j j d p p p p d d d d d d d d d d j j d d d d d d p p p p p p p p i i 8 8 8 8 8 8 8 8 & & & & & & & & 8 8 8 & 8 8 & & i & & & & & & & * * * * * * * * ",
"> > > > > > > > > > > > > > > > > > > > > > > > > > > > > > > > > > > > > > > > > > > > > > > > > > > > i i i i i i i i i i i i > > > > > > > > > > > > i i i i i s s s i i i s i i s s i i i i i i i i i i i i i > i i i i > > > > > > > > > > > > > i > > > > > > > > > > > > > > > > > > > > & & & & & & & & & & & & & & & & > > > > > > > > > > > > > > > > > > > > > : : : % % > > % % % % % : : > : : % % > > % % % % % & % % : > % % & % % % % : % % % % & & & & > > > > > > > > > > > > : : : : : : : : > > > > , , > , , , , , , , , , a , , , F F A F F F F F A F F F Y Z.A.A.dXA.P Z.Z.c.c.c.f.v.A.c.K L a.K K K a.K a.a.a.a.a.a.d.d.s.s.f.s.s.s.s.s.z.z.z.z.z.z.z.z.z.c.d.d.Z.^.yXuXjXNXZXNXzXuX$XuXuXjXzXNXzXzXxXhXuXuXuXuXuXuX#X#X#XuXuXuX%X#X$X$XjXlXzXlXlXjXhXuXjXuX#X#X~.#XuXuXuXiXlXuXuXuXuX#XQ.).Z.Z.Q.Q.Q.+X#XuX$X$X#X$X$X$X#X#X#X#X(.!.!.#XyX#X#X!.!.!.~.#X~.!.P.G.!.#X!.!.(.(.Q.v.v.v.v.v.v.Z.Z.Z.Z.v.x.c.c.c.c.c.c.c.f.f.c.c.f.f.f.f.a.a.f.f.a.a.a.a.a.a.L L L L L L L L L L L L U P U P I J Y Y Y I I I I I Y Y Y I I G Y G G G G G G F F F F F G F a a a a F F a a a a a a a a a i i s i i i i > > > > i i > > > > > & > > i 8 i i i i > > > & - - & & & & & & & & & & & & & & # # & & & & & & & & & & 8 8 w w s s w w i i i i s s s s f j j j g g z z z z d d d g g d d j d j d d d d d p p p p p p p d d d d d d d d d d d d p i p p i i i i i p p p p p p p p p p p p p p p p p p p p p p p d p p p p p d d p p p p p p p p p p p p p p p p p p p p p p p p d d j j d d j j j j j d p p d d d d d d d d d d d d d d d d d d d d p p p p p p p p i i 8 8 8 8 8 8 8 8 & & & & & & & & & & 8 & & & & & i & & & & & & & * * * & * * * * ",
"> > > > > > > > > > > > > > > > > > > > > > > > > > > > > > > > > > > > > > > > > > > > > > > > i i i i i i i i i i i i i i i i > > > > > > > > > > > > i i i i i s s s i i s s i i i s i i i i i i i i i i i i i > > > > > > > > > > > > > > > > > > > > > > > > > > > > > > > > > > > > > > > & & & & & & & & & & & & & & & & > > > > > > > > > > > > > > > > > > > > > > : : % : : > % % % % % % & > % % % % > > % % % % > > % & > > % % % % % % > : % % % % & & & & > > & > & > > > > > > > : : : : > > : : > > > > , , , , , , , , , , , , a a , , A A A F F F F , F I F I Y P P L v.^.c.c.c.Z.A.Z.Z.Z.dXpXd.K L a.K K a.L a.a.a.a.a.d.d.s.s.s.j.s.s.s.s.g.z.z.z.z.z.z.z.z.z.g.c.v.~.yXjXlXNXNXNXxX%X%XuX%XuXzXNXNXzXzXhXhXuXuXuXuXuX$X#X#X$XuXjXuX%X$X%XuXlXzXzXlXlXuXuX#X#X(.#X#X#X#X$X$XuXuXiXuXjXlXuXyX~.Q.Q.Z.A.A.Q.~.yXuX#X#X$XuXuXuXuXuX$X#X!.#X#X#X$X$X#X#X#X#X+X~.!.!.Q.b.Q.!.!.!.#X#X^.v.Z.Z.Z.Z.v.v.v.Z.x.x.c.x.x.c.x.x.c.c.c.f.j.j.f.f.f.f.a.a.f.f.a.a.a.a.a.a.L L L L L L L L L L L L U U U U J J Y Y Y Y I I I I Y Y I I I F Y Y F F F F F F F F F F F F a a a a a a h h a a a a a a a a a a i i i i i i > > i i > 3 > > > > i i 8 8 i i i i s s 1 1 - - & & & & - - & & & & & & & & 1 1 = = & & 8 8 8 8 8 8 w w w w i i i w i i i i s s s d f f j j d d d d d z g d d d g j j d g j g d j j j d p p p p d d d d d d d d d d d d d d i i i i i i i i i i i i p p p p p p p p p p p p d d d d d d d d d d p p p p d d p p p p p p p p p p p p p p p p p p p p p p p p d d j j d d j j j j j j d d d d d d d d d d d d d d d d d d d d p d p p p p p p p p i i 8 8 8 8 8 8 8 8 & & & & & & & & 8 8 8 & & & & & & & & & & & & & & & & & & # # # ",
"> > > > > > > > > > > > > > > > > > > > > > > > > > > > > > > > > > > > > > > > > > > > > > > > i i i i i i i i i i i i i i i i > > > > > > > > > > > > i i i i i i s i i s s s i i s s i i i i s i i i i i i i i > > > > > > > > > > > > > > > > > > > > > & & > > > > > > > > > > > > > > > > & & & & & & & & & & & & & & & & > > > > > > > > > > > > > > > > > > > > & & : : % % > > % % % % % % & % % % % % > : : % % % > > % % > > % % % % % % > > % % % % & & & & > > & & > > > > > > > > : : : > > > > : > > > > > , , , , , , , , , , , a a , , A A A F F F F F F F F F J F J L L v.Z.A.v.A.tXA.Z.A.sXdX^.c.K L K K a.L a.a.a.a.a.d.d.s.s.s.s.s.s.s.s.g.z.z.z.z.z.z.z.z.s.x.Z.yXiXjXjXzXNXNXxX%XuXuX%X%XlXzXNXzXzXhXhXhX%XuXuXuX#X#X#X#XuXjXlXuXuX%XuXlXzXzXzXlXlXuXuX#X#X!.!.(.#X#X$X#XuX%XuXjXlXlXlXuXyX~.^.A.A.A.Q.+XfXfXyX$X$XuXuX$XuXuXuX#X#XuXuXuXuX$X#X!.+X+X#X#X+X!.Q.P.Q.Q.).!.#XyX^.Z.Q.^.Z.Z.v.Z.v.v.x.c.x.c.x.x.x.x.c.f.f.f.j.j.f.f.f.f.a.a.f.f.a.a.a.a.a.a.L L L L L L L L L L L L U U P P P J Y Y Y Y I I I I Y Y I I I F Y Y F F F F F F F F F F F F a a a a a a a a a a a a a a a a i i i i i i i i i > i i 3 3 > > > > i i 8 8 8 i i i i i s > & & & & & & - - & & & & & & > 1 1 = 1 1 8 8 8 8 w w 8 8 w w w w i i s w i i i i s s s s s f j j d d d z d d d d d g g g j j j g l l l x j j j d d d d d d d d d d d d d d d d d i i i i i i i i s s i i p p p p p p p p p p p p d d d d d d d d d d p p p p d d p p p p p p p p p p p p p p p p p p p p p p p p p p j j d d d j j j j j d d d d d d d d d d d d d d d d d d d d d d p p p p p p p p i i 8 8 8 8 8 8 8 8 & & & & & & & & 8 8 8 & & & & & & & & & & & & & & & & & & # # # ",
"> > > > > > > > > > > > > > > > > > > > > > > > > > > > > > > > > > > > > > > > > > > > > > > i i i i i i i i s s s i i i > > > > > > > > > > > > > > > i i i i i i s s s s i s i i s s i i i i s s i i i i i i > > > > > > > > > > > > > > > > & & & & & & > > > > > & & & > > > : : : > > > > > > > > : % % % > > > > > > > : > > > > > > > > > > > > > > > > > > > > > > > > > > % % % % > > % % % % : : : % % % % % % % % % % % % % % % % % % % % % % % % % & & & % > > > : & & & & : : : : : : : : < < < < < < > > , , > , , , , , , , , , F F A A F F F F F F F F F F F F F F J I K P c.A.tXdXdXA.c.A.pXtXA.K K f.K a.c.K a.s.L d.d.a.s.s.s.s.s.s.z.z.z.z.z.g.l.g.l.g.g.j.c.^.iXMXlXxXzXNXNXxXhXuXuX%X%XuXNXNXzXzXlXhXhXuX%X%XuX$X#X#X#X#X#XuXuXuXuXuXlXzXhXlXzXuXiXuXiXuX$X#X!.(.#X#X#XuX%XuXuXuXuXlXlXjXiXyX~.Q.Z.A.^.+XlXiXuX#XyXuX#XyXjXiX#XuXuXuX#X#XuX#X(.#X#X#X#X~.!.Q.).Q.b.v.b.Q.#X~.^.Q.Q.^.Q.Z.Z.Z.x.x.c.c.c.c.c.c.c.c.j.j.j.j.j.j.f.f.f.f.f.f.f.f.f.a.a.a.a.a.a.L L L L L L L P P U L L L U U P P P P J J I I I J Y P I I F F F F F F F F F F F F F F F F a a a F a a a i a a i i i i i i i i i i i i i i i > > > > > , > > > > & & & & 8 8 8 i i i i i i > > > i s s & & & & # # = - - 8 & 8 i i s s i i i i s s s s i i i i i i i s d s d d s s d d d d d d d d d d j g l j d d g x g d j x x x x x d d d d d d d d d d d d d d j d s i i i i i i i s s s i p p p p p p p p p p p p p p p p d d d d d d d d p p p p p p p p p p p p d d p p d d d p d d d d p p p p p p d d j j j p d d d d d d d d d d d j d d d d d d d d d d d p p p p d d d p p p p i i i 8 8 8 8 8 8 i & & & & & & & & & & & & & & & & & & & & & & & & # $ % % # % % % ",
"> > > > > > > > > > > > > > > > > > > > > > > > > > > > > > > > > > > > > > > > > > > > > > > i i i i i i i i i s s i i i > > > > > > > > > > > > > > > i i > i i i i s i s s s i i s s i i i i s s i i i i i i > > > > > > > > > > > > > > > > & & & & & > & & > > & & > > > > % : : : > > > > > > : > : : % % % % > > > > : : & > > > > > > > > > > > > > > > > > > > > > > > > : & % % > : > % % & % : > % % % % % % % % % % % % % % % % % % & % : : % % % % & % & % > > : : % & & & : : : : : : : : < < < < < < : > , , > > , , , , , , , A F F A A F F F F F F F F F F F F F F J J J K L c.Z.tXtXtXc.A.A.Z.P c.c.f.Z.x.K c.d.d.s.a.d.c.d.d.s.z.z.z.z.z.z.z.x.z.g.g.g.x.a.Z.^.iXMXlXhXmXNXNXxXhXhXhX%X%XuXxXzXzXzXxXjXhXuXuXuXuXyX#X#X+X~.+X#XuXuXjXlXlXlXlXhXjXjXuXuXuXuXuX$X#X#X$XuXuXuXuXuXuX$X#X$XuXuXjXiXpX~.^.A.A.^.yXlXuX#X#X#X#X#XuXjXuX#X$XuXyX#X#X#X#X#X#XyXyX#X!.Q.Q.).).v.v.b.Q.!.Q.).).^.~.^.Z.Z.Z.x.x.c.c.c.c.c.c.c.c.j.j.j.j.j.j.f.f.f.f.f.f.f.f.f.a.a.a.a.a.a.L L L L L L L P P L L L L U U P P P P J J I I I J Y Y I I F F F F F F F F F F F F F F F F a a a F a a a i a a i i i i a a i i a a i i i i i i > > > > > > > > 8 8 i i i i s i i i i i 8 i i > > i s s & & & & # = - - 8 8 8 8 i i s s s s i i s s s s i i i i i i s s d s d d s s s s d d d d d d d d j g g d d d g g x j j g x x x x x j d d d d d d d d d d d d d d s i i i i i i i s s s s s p p p p p p p p p p p p p p p d d d d d d d d p p p p p p p p p p p p d d p p d d d d d d d d p p p p d d j j j j d p p p p p d d d d d d d d d d d d d d d d d d d d d d d d d d p p p p i i i 8 8 8 8 8 8 i & & & & & & & & & & & & & & & & & & & & & & & & # # % % # % # # ",
"> > > > > > > > > > > > > > > > > > > > > > > > > > > > > > > > > > > > > > > > > > > > > > i s i i i i i i i i i i i i i > > > > > > > > > > > > > > > > > > > i i i s i s s s i i i s i i s i i i i i i i > > > > > > > > > > > > > > > > > > & & & & & & & & > > > > > > > > % % : : > > : > : : : : : : & & % % % % : % > > & & > > > > > > > > > > > > > > > > > > > > > > > > % % % % : : : : & > > > % % > > % & % % % % % % % % % % % % & > > : > > % % % % % % : > : : % % % % : : > > : : : : < < > > > : : : , , , , , , , , , , A A F A S A F F F F F F F F F F F F F F F J J K K P ..c.c.^.v.P S.A.c.A.A.c.tXtXx.d.a.a.c.a.a.c.s.c.s.s.g.z.s.s.z.z.z.z.z.s.s.f.f.pXlXMXNXxXzXZXNXzXhXjXhXhXuX%XuXhXxXxXhXuXuXuXuXuXuX%X#X#X#X+X+X+X#XuXuXlXlXlXjXuXuXjXuXuXuXuXuXuXuX$X$XuXuXuXuXiXiXuXuX#X#X#XuXlXiXpXrX^.A.A.^.yXlXyX#X#XyXuXuXlXjXuX#X(.$X$XuXhXuXuXuXuX#X#X~.Q.Q.Q.Q.).b.).Q.Q.Q.P.).Q.~.~.^.v.v.v.x.x.c.c.c.c.c.c.c.x.x.j.j.j.j.j.f.f.f.f.s.f.f.f.d.a.a.a.a.a.a.a.L L L L L L L L L L L L U U P P P P J J I I I I I I Y Y Y J F J J F F F F F F F F F a F a a F F a a a a i i a a i a a a i i i i i i i i i i i i i i 8 8 8 8 8 8 i i i i i i i i 8 8 8 8 8 & > > s s & & & & & - - - 8 8 8 8 s s s s s s s s s s s s i i i i i s s s s s d d s s s d d d d d d d j d j d g j d j g g x g d d d l x x x x x x d d d d d d d d d d d d d d i i i i i i s s s s s s s s p p p p p p d d d d s s d d d d d d d d p p p p p p p p d d d d d d d d d d d d p p p p p p p d j j j j d d p p p p p p p d d d d d d d d j d d d d d d d d d d d d d d d d p p p p i i i 8 8 8 & & 8 8 & & & & & & & & * * * & * * * * & & & & & & & & & & & # # # # # ",
"> > > > > > > > > > > > > > > > > > > > > > > > > > > > > > > > > > > > > > > > > > > > > > s i i i i i i i i i i i i i i > > > > > > > > > > > > > > > > > > > i i i i i i s s i i i i i i s s i i i i i i > > > > > > > > > > > > > > > > > > & & & & & & & & > > > > > > > > & & : > > > : : : : : : : : > & % % : % : : > > > > > > > > > > > > > > > > > > > > > > > > > > > > % % % % : : : > > > & & & % : > & & % % % % % % % % % % % % & > > > > & & % & & % % > > : : % % % % : : > > : : : : < < > > > : : : > > , , > , , , , , A A , A A A F F F F F F F F F F F F F J J J J J P P P ..c.c.tXZ.c.c.A.+Xc.A.^.dXA.d.d.d.d.d.c.d.z.s.s.s.g.g.s.s.z.z.s.s.a.f.x.v.pXMXMXzXxXmXNXNXzXlXzXlXjXuXuXuXuXuXuXhXuX$X%XuXuXuX$X#X#X#XyX#X#X#X#XyXiXlXiXuXuXuXjXjXuXjXuXjXuXuXuXuXuXuXuXuXuXjXjXjXuX#X#X#XyXiXiXpXrX^.Z.Z.^.yXuX#X$XyXuXjXMXzXjXuX#X#X$XuXhXjXuXyX#X#X~.~.!.Q.~.Q.Q.Q.Q.Q.Q.Q.P.Q.Q.~.#X~.Q.v.v.Z.v.x.c.x.c.c.c.c.c.j.j.j.j.j.j.j.f.f.f.f.f.f.f.f.d.a.a.a.a.a.a.a.a.L L L L L L L L L L L L U P P P P P J I I I I J Y Y Y J F F J J F F F F F F F F F a F a a F F a a a a a i a a a a a a a a a a a i a a a a 8 8 8 8 p p p p 8 8 8 8 8 8 8 8 i i 8 8 8 8 8 & & > s s & & & & - - - 8 8 8 w w s s s s s s s s s s s s i i i i s s s s s s s s s s s s d d z d g d d d d d s w d g x x g x x g d d d g x x x x x x d d d d d d d d d d d d d s i i i i s s s s s s s s p p p p p p d d d s s s p d d d d d d p p p p p p p p p d d d d d d d d d d d d p p p p p p p d j j j j d p p p p p p p p p d d d d d d j j d d d d d d d d d d d d d d d d p p p p i i i 8 8 8 & & 8 8 & & & & & * * * * * * * * * * * * * & & & & & & & & & # & # # & ",
"> > > > > > > > > > > > > > > > > > > > > > > > > > > > > > > > > > > > > > > > > > > > > > i i i i i i i i i i 8 i 8 8 i i i i > > > > > > > > > > > > > > > > > i i i i i i i i i i i i i i i s i i i i i > > > > > > > > > > > > > > > > > & & & & & & & & & > > > > & & & & % % % % % % % % % % % % : : & & % % : : : % & & % % % % % % > > > > > > > > > > > > > & > > > > > > > > % % % % : % & & > > % % % % % % % % % % % % % % % % % % % % % : : : : % % % % % % % % % : % % % : : : : : : : : : : : : : : : : > > , , , , , , , , , , A A A A S F F F F F S S F F F F F J J J J K K K P c.L L c.A.fXdXdXfXP A.dXaXx.a.a.a.d.a.d.d.c.a.z.z.z.z.z.z.z.z.z.a.c.c.rXiXMXzXzXxXzXbXNXNXzXzXlXlXuX$XyXuXuXuXuX%X$X#X%XuXuXuX#X#X#X#XyX+X+X+X#XyXiXiXuXuXuXuXjXjXuXjXjXjXuXhXjXlXlXiXuXuXuXuXuXiXuX#X#X!.yXiXiXpXyXA.Z.Z.^.yXuXuX#X#XjXMXzXjXuXyXuXhXhXuXuXyXyX#X#X~.~.~.~.!.^.Q.v.v.).).Q.Q.!.!.~.yXyX^.Z.v.v.c.c.x.x.x.x.x.c.c.j.j.c.c.j.j.j.j.j.j.j.s.s.s.f.s.s.a.f.f.d.a.a.a.a.a.L L L L d.d.a.L L L L L P P P P I P I I I J I I Y Y F J J Y Y F F F F F F F F F F F F a F a a a a a a a a a a a a a a a p p p p p p p p u p p u u u u 9 p p 8 9 8 8 8 8 8 8 8 8 i i i i & & & & 1 1 s > s s w w 8 8 s s s s s s s s s s i i i i s s s s s s s s s s s s d d s d g g x x g g d w w s d d g R o.o.x x d d l g d d g g x x x x l j j j d d d d d d d d d d s s s i i i i i s s s i i i p p i s d d d d s s p p d d d d p p d d d d d d d d d d d d i s s s p p p p p p p p p p d j j j d d p p p p p p p p p p d d d d j j d d d d d d d d d d d d j j j j d p p p p p i i 8 8 8 8 & & & & & & & & & & * * * * * * * * & & & & & & & & & & & & & & & * & & ",
"> > > > > > > > > > > > > > > > > > > > > > > > > > > > > > > > > > > > > > > > > > > > > > i i i i i i i i i i i i 8 8 i i i i > > > > > > > > > > > > > > i i > > i i s i i i i i i i i i i i s i i > i i > > > > > > > > > > > > > > > > & & & & & & & & & & > > > > & & & & & & % % % % % % % % % & : : & % % % > > % % % % % % % % % % > > > > > > > > > > > > > > > > > > > > : : % % % % % % & % : > % % % % % % % % % % % % % % % % % % % % % % % % % % % & % % % % % % : : : % : : : : : : : : : : : : : : : : > > , , , , , , , , , , A A A A S S F F F F S S F F F F F J J J J K K K P P L L K c.c.pXKXdXc.d.x.s.s.a.s.c.A.x.a.d.c.c.z.z.z.z.z.z.z.z.c.c.c.^.lXlXzXzXxXzXmXbXNXNXzXlXuX%X#X$XuXuXuX#X#X#X#X#XuXuXuX#X#X#X#X#X+X+X~.+X~.#XyXyXyXuXuXuXjXiXuXjXlXjXjXlXMXzXlXjXuXuXuXuXuXiXuXyX~.!.yXiXiXpXtXA.Z.Z.^.yXlXjX#XyXlXzXjX$X(.(.#XuXuXuXhXuXyX#X~.~.~.~.~.~.).v.v.v.).).Q.!.#X#XyX#X~.A.v.v.v.c.c.M.M.x.x.x.c.c.j.j.c.c.j.j.j.j.j.j.s.s.j.s.j.s.s.a.f.f.d.a.a.a.a.a.a.L L L d.d.a.a.L L L L P P P P P J J J J I J J Y Y F F J I Y J F F F F F F F F F F F F a a a a F a a a a a a a j j a c c c c c c c c c c c c c c c c u u p 9 p p 8 8 8 8 8 8 8 8 8 8 8 & & & & 1 1 1 1 s w w w 8 s s s i s s s s s i i i i i i s s s s s s s s s s s s s d s j l g x x g g d d s d g g Q *.7.-.o.V g d d d d d d g g x x x x x x j d i d d d d d d s d s s s i i i i i s s s s i i p p i i d s d d s s p p d d d d p p p p p p p p p p i i i i i i i i p p p p p p p p p d j j j d d p p p p p p p p p p p d d d d j j d d d d d d d d d d d d d d d d p p p p p p i i 8 8 8 8 & & & & & & & & & & * * * * * * * & & & & & & & & & & & & & & & & * & & ",
"> > > > > > > > > > > > > > > > > > > > > > > > > > > > > > > > > > > > > > > > > > > > > > > > i i i i i i i i i i i i i i i i > > > > > > > > > > > > > i i i > > i i s s i i i i s s i i i i s i i > i i > > > > > > > > > > > > > > > & & & & & & % & & & & > > > > & & & & : : % % : % > > % & & & % % % % % % > & % % % % % % % % % % % % > > : : > > > > > > > > > > > > : : : : % % % % % % % % : % % % % % % % % % % % % % % % % % % % % % & % % % % % % % & & : : % : & & % : : : : : : : : : : : : : : > > : , , , , , , , , , , , , A A A A F F F F F F F F F F F F J J J J J J J J K L L L f.f...A.S.pXZ.L c.A.Z.A.Z.Z.sXeXc.d.d.c.z.z.z.z.z.z.z.c.c.c.+XMXlXlXhXhXjXzXNXNXNXNXxX%X%X#X#XyXuXyX+X!.Q.!.#XuXfXuX#X#XyX#X#X#X+X!.!.~.~.#XyXyX#X#X#XuXuXuXjXjXlXlXzXNXNXzXjXuXuX#X#X#XyXjXjXuX~.!.yXiXiXyXrXA.Z.Z.^.yXlXlXuXuXlXjXyX~.~.~.(.#X#XuXlXjXyX#X~.!.!.!.^.Q.v.v.v.).Q.Q.!.~.#XyX~.^.Q.Z.Z.v.c.c.c.M.Z.x.x.x.c.c.j.j.c.c.c.c.j.f.j.j.j.j.j.s.j.s.f.a.f.f.d.a.a.a.a.a.a.a.a.a.d.d.a.a.L L L L P P P P P J J J J J J J Y J F F J J Y Y F F F F F F F F F F F F a a a a F F a a a a c c c c c c ' ' ' ' ' ' ' ' ' ' ' ' ' ' c u c c c c p 9 8 8 8 8 8 8 8 8 & & 8 8 & & > s > i 8 8 8 w s s s i s s s i i i i i s s i i i i i i s s s s s i i i s s s j j j z x d d j d d g x x @.-.-.=.o.o.W x g d d d g g g g l x x x x l j d s s s s s s s s s s s s i i i i i i s i i i i i i i i s d d d d p p d d d p p p p p p p p p i i i i i i i i i i i i s s p p p p p d j j d d p p p p p p p p p p p p d d d j j j d d d d d d d d d d d d d d d d p p p p i i i i 8 8 8 8 & & & & & & & & & & & & & & & & & & & & & & & & & & & & & * & & & & & & ",
"> > > > > > > > > > > > > > > > > > > > > > > > > > > > > > > > > > > > > > > > > > > > > > > > i i i i i i i i i i i i i i i i > > > > > > > > > > > > > i i i > > > i s s i i i i i s i i i i s i i > i i > > > > > > > > > > > > > > & & & & & & & & & & & & > > > > & & & & : : : % > > > > % % & & % % % % % % > > % % % % % % % % % % % % % % : : > > > > > > > > > > > > : : : : % % % : % % % % : : % % % % % % % % % % % % % % % % % % : % & % % % % % % % & % : : % & & > > : : : : : : : : : : : : : : < < < , , , , , , , , , , , A A A A A F F F F F F F F F F F F J F J J J J J J L K L L L L L P ..v.sXZ.c.c.A.Z.M.Z.tXtXZ.d.c.s.z.z.z.z.z.z.x.c.Z.fXfXiXuX$X%XhXzXzXzXNXzXjXuX%X$X#X#X#X+X!.Q.Q.Q.+X#X#X+X~.+XyXuXuX#X+X+X!.!.~.~.#XyX#X#X#X#XuXuXuXjXjXlXjXzXNXzXlXhXuXuX#X#X#XyXlXMXlX#X!.yXiXpXrX^.A.Z.Z.^.+XiXMXlXuXjXuX~.~.~.~.#X#XuXjXjXiXyX#X~.~.~.!.Q.v.v.v.v.).Q.!.~.!.~.~.Q.Z.v.Z.Z.Z.c.c.x.M.Z.x.x.x.g.g.g.j.c.c.c.c.f.f.j.j.j.j.j.s.j.f.s.a.f.f.d.a.a.a.a.a.a.a.a.d.d.d.d.a.L L L L L L P P P J J J I J J J Y Y F F J J Y F F F F F F F F F F F F F F a a a a c c c c c c c ' ' ' ' ' ' ' ' ' ' ' ' ' ' { { ' ' ' ' _ c u c c u p 9 8 8 8 8 6 8 8 8 8 8 & & > > > i 8 8 s s s s s s s s s i i i i i s s s s i i i s s s s i i i i i i s s j j j g d d d j j l l x M R o.Q x x W o.o.M x g g g g g g l g x x x x l l s s s s s s s s s s s s i i i i i i i i i i i i i i i i d d d d p p d d d d p p p p p p p p i i i i i i i i i i i p p p p p p p d j j j d p p p p p p p p p p p p p d j j j j j d d d d d d d d p p d d d d d d p p p p i i i i 8 8 8 8 & & & & & & & & & & & & & & & & & & & & & & & & & & & & * * & & & & & & ",
"> > > > > > > > > > > > > > > > > > > > > > > > & > > > > > > > > > > > > > > > > > > > > > > > > > > > > > > > > > > > > > > > > > > > > > > > > > > > > > > > > > > > i i i i i i i i i i i i i s s s > > > > > > > > > > > > > > > > > > > > > > > > > > > > > & & & % % : : > & & % % % % : % % % % & % % % % % % % > > % % : : & & & % % % % % % % % % : : & & & & > & & & > > > & & & > > : : > & % % : : : : : : % % % % % % % % % % % % % % % % % % % % % % % : > > % % : : : : : : : : : : : : < < < < < < < < , , , , , , , , , A A A A S S F F F F F F F F F F F F F J J J J J J K K K P L L L L L L L d.c.tXdXdXsXtXc.Z.A.eXZ.L z.c.c.z.z.z.s.z.c.Z.iXiXuX#X!.#XuXjXxXzXzXzXhXuX#X#X#X~.!.!.!.!.Q.Q.+X+X+X+X!.Q.+XuXlXuXyXyX+X+X+X+X~.#XiX#X#XyX#XuXuXiXzXlXzXMXzXNXlXzXjXjXuXyXyX#XuXMXNXMX#X!.yXyXyX~.^.A.Z.Z.^.rXuXAXNXiXuX#X!.!.~.yXuXuXjXjXiXuXyX#X~.~.~.Q.Q.v.v.A.).Q.^.~.~.~.!.Q.v.v.Z.v.v.x.c.c.c.M.M.x.x.x.z.z.z.c.c.z.c.c.c.c.c.j.j.j.c.f.s.s.s.s.d.d.a.a.a.a.d.s.d.a.a.d.L d.f.f.f.L L L L L L L L P P P P P J J Y Y J J J J J F F F F F F Y Y F F F F F F Y Y c c c ' ' ' ' ' ' ' ' ] { ] ] {  . . .] { ] { { { { { { { { ' ' _ u u u p p 9 8 9 9 i 8 * 8 & & & & & & & i i i i s s s s s s s s i i w s s s s s s s s s p p s s s 8 w 8 s s j j j j j g j j j j x l l l x x x x g x V o.o.V z g x x M x g g x l M R M x x j d s s s s i i i i i s s i i s s s i i i i i i p p p p p p d d a a a a p p p i i i i i i i i i i i i i i i i p p p p p p d j x x j j p p p p p p p p d d d d d d p p d d d d d p p p p p p p p p p p p p p p p p p p i 8 i i 8 8 8 8 8 8 8 8 8 8 8 8 8 8 8 8 8 8 8 8 8 8 8 8 & 8 8 8 * * * * 8 8 & * & & & & ",
"> > > > > > > > > > > > > > > > > > > > > > > > & & > > > > > > > > > > > > > > > > > > > > > > > > > > > > > > > > > > > > > > > > > > > > > > > > > > > > > > > > > > i i i i i i i i i i i i i i i i > > > > > > > > > > > > > > > > > > > > > > > > > > > > > > & & % % : : & & % % % % % % % % % % & % % % % % % % > & % % : : & & & % % % % : % % % % > > & & & & > > & & > > & & & & > & : : > & % % % : % : : > % % % : % % % % % % % % % % % % % % % % % % % % > > % : : : : : : : : : : : : : < < < : < < < < , , , , , , , , A A A A S S S S F F F F F F F F F F F F J J J J J J K K P P L L L L L L d.f.c...S.fXdXpXc.x.Z.c.d.s.c.Z.N.c.z.z.c.c.A.yXuXuX#X!.!.#XuXxXxXxXxXhX%X#X#X#X+X~.~.+X+X~.+X+X+X+X!.^.Q.Q.+XuXfX$X#X#X+X+X+X+X+X#X#X#X#XuXuXiXjXlXMXzXMXMXlXzXzXlXjXuXuX#XyXyXyXiXMXBX~.~.yXpXpXtX^.A.Z.Z.^.rXuXNXMX#X#X(.~.~.#X#XyXiXiXuXuXuX#X~.~.~.~.^.Q.Q.Q.Q.Q.!.#XyX#X~.^.Z.Z.Z.Z.Z.x.x.c.c.c.M.M.x.x.x.x.z.z.g.c.z.j.j.c.c.j.j.j.j.c.j.s.f.s.s.d.d.a.a.a.a.d.d.d.a.a.d.d.d.f.f.f.L L L L L L L L L L P P P J J J Y J J J J Y F F F F F Y Y Y F F F F F Y Y c c ' ' ' ' ' { X.X. .]  . . . . . . . . . .]  . . .{ { { { { { ' ' _ _ u c u d u p p p 8 6 8 8 8 & & & & & i i i i i s s s s s s s i i 8 s s s s s s s s s p i s i 8 8 w w s d j j j j j g j j j j j j j j j j j j d d z M o.W M M x V W W N M x g x M N R x x x j d d i i i i i i s s i i s s s s i i i i i p p p p p p p a a a p p p p p i i i i i i i i i i i i i i i p p p p p d j j j x c j p p p d d p p p p d d d d d d p p d d d d p p p p p p p p p p p p p p p p p p p p i 8 i i 8 8 8 8 8 8 8 8 8 8 8 8 8 8 8 8 8 8 8 8 8 8 8 8 8 8 8 8 * * * * 8 8 & 8 & & & & ",
"> > > > > > > > > > > > > > > > > > > > > > > > & & & > > > > > > > > > > > > > > > > > > > > > > > > > > > > > > > > > > > > > > > > > > > > > > > > > > > > > > > > > > > > > > > > i > > > > > > > > > > > > > > > > > > > > > > > > > > > > > > > > > > > > : : : : % % % : % % % % % % % % % % : : & > % % % % % % > > % % : : : & % % % : > > : % % % > > & & & & & & & & > > & & & & & & : % & & % % : : % % & & % % : : % % % % % % % % % % % % % % % % % % % % > % % : : : : : : : : : : : : : < < < : < < < < , , , , , , , , A A A A S S S S F F F F F F F F F F F J J J J J J J K K P P L L L a.L d.d.L c.d.c.S.Z.A.Z.c.Z.Z.A.Z.N.A.sXA.c.d.c.^.pXyX#X~.Q.Q.+XuXjXhXhXhXuX%X$X#X~.(.#X#X#XyXyX#X+X+X+X^.Q.A.Q.Q.+XuXlXyX#X+X+X+X+X+XyXyX#X#XyXyXiXjXlXzXNXMXzXzXjXlXzXlXuXuXyX~.yXyX~.yXBXpX~.+XpXiXiXtX^.A.Z.Z.^.rXyXMXlX~.!.~.~.~.#XyXpXiXiXiXuXyX~.~.~.~.!.~.~.~.Q.Q.~.yXyXyX~.Q.Q.Z.Z.Z.Z.x.x.x.c.c.x.M.M.x.x.x.x.z.z.g.g.g.j.j.x.x.x.x.j.j.j.c.s.s.s.s.d.d.a.a.a.a.d.s.d.a.a.d.d.L f.f.f.a.L L L L L L L P P P I P P J J J Y Y Y J J J F F F F F F Y F G F Y Y c c ..' ..{ X.X. . . . . . . . . . . . . . . . . . . . . . . . .{ { { { ' ' _ u u u c c u 9 p 8 6 6 8 8 i & & 8 8 i i i i i s s s s s s i i w s s s s s s s s s i i i i 8 8 w s f f j j j j j g j j j j d d d d d d s d w w d z V B R V R Q o.@.@.W M z M M N E R R x x l j s s s s s s s s s s s s s s i i i i i i i i i i i s d i i i i i i i i i i i i i i i i i i i i i p i p p j j j j j j d d p p p i i i p p p p d d d d d d p p d d d d p p p p p p p p p p p p p p p p p p p p i i i i 8 8 8 8 8 8 8 8 8 8 8 8 8 8 8 8 & 8 8 8 8 8 8 8 & & 8 8 * * * * 8 8 8 8 & & & & ",
"> > > > > > > > > > > > > > > > > > > > > > > > & & & & > > > > > > > > > > > > > > > > > > > > > > > > > > > > > > > > > > > > > > > > > > > > > > > > > > > > > > > > > > > > > > > i > > > > > > > > > > > > > > > > > > > > > > > > > > > > > > > > > > > > : : : : % % % % % % % % % % % % % % : : > > % % & & % : : : % % : : % & % : : : > > > % % % > > & & & & & & & & > & & & & & & & % % % % % % > > % % & & & % : : % % % % % % % % % % % % % % % % % % % % > : % : : : : : : : : : : : : : < < < : < < < < , , , , , , , , A A A A S S S S F F F F F F F F F F F J J J J J J J K K P P L L L a.L L d.d.d.c.c.c.c.A.^.Z.A.A.tXA.Z.Z.sXtXZ.c.~.yXuX#XQ.Q.Q.!.yXlXjXuX%X%X%X$X#X#X#X#X#XyXyXuXuXyXyX+X+X^.Q.A.Q.^.#XuXlXuX#X#X+X+X#X+XiXyX#XyXyXuXuXjXlXMXMXzXzXzXhXjXMXjXuXuXyX~.yXyX~.yXiXyX^.~.pXiXiXrX^.A.Z.A.^.tXyXlXiX~.~.#XyXyXyXpXiXiXiXBXlXpX~.~.~.Q.^.~.+X#X!.~.yXyX#XyX~.).v.v.Z.Z.x.x.x.x.c.c.x.M.M.x.x.z.x.z.z.z.g.g.j.j.x.x.x.x.x.j.c.j.s.s.s.s.s.d.a.a.a.a.d.s.d.a.a.d.d.L f.f.f.a.L L L P L L L P P P I P P P J J Y Y Y Y J J Y Y F F F F Y F Y j c c ..' ....X.X.:.:. . . . . . . . . . . . . . . . . . . . . . . . .| | { { { ' ' [ _ _ _ u c u u p 9 9 8 8 8 i 8 8 8 i i i i i s s s s s i i i s s s s s s s s s s i i i i 8 8 s s j d d d j j j j j j j j d d d d s 8 w w w w g x M V W W W o.#.=.*.@.W N M M M W R R R H H x k d s s s s s s s s s s s s i i i i i i i i i i i i i i i i i i i i i i i i i i i i i i i p p p p p p p j j j j j j p p p p i i i i p p p p p d d d d d p p p p d d p p p p p p p p p p p p p p p p p p p p p i i i 8 8 8 8 8 8 8 8 8 8 8 8 8 8 8 8 8 8 8 8 8 8 8 8 * & & & * * * * 8 8 8 8 & & & & ",
"> > > > > > > > > > > > > > > > > > > > > > > > > > > > > > > > > > > > > > > > > > > > i i > > > > > > > > > > > > > > > > > > > > > > > > > > > > > > > > > > > > > > 1 s s s i i > > > > > > & & & & & & & & > > > > > > & & > > > > > > > > > > & & & & > > > : : : % % % % % : % % % % > > & > > > : : : % > > : : % % % % & & % : % & & & % % % % : : % % > > & & % : : : % % % % % % % % % % % % % % & & % % % & & & & : % % % % % % % % % % % % % % % % > > > > % % & > : : : : : : : : : : : : < < < : < , , < , , , , , , , , A A A A S S S S F F F F F F F F J J J J J J K J K K L L P P L L a.a.d.d.d.d.s.f.d.d.d.a.c.^.pXfXdXA.c.A.A.A.c.c.+XyX+XQ.Q.b.!.yXiXiXuXuX$X$X#X/.(.#XuXuX$XuXuXuXuXyX#X+X+XQ.A.A.^.^.yXlXlXuXuXyX$X#X#XyXuX#X#XyXuXuXuXjXMXMXzXlXzXzXjXjXzXlXiXiXpXyXyXtXyXyXpX~.~.tXiXiXyX^.^.A.Z.A.^.rXyXiXiXpXyXyXyXyXyXpXiXBXMXMXBXpXyX~.Q.Q.Q.~.+X#X~.~.~.~.~.~.~.).v.v.v.M.M.M.x.x.x.x.x.x.N.M.x.z.l.z.z.g.g.z.g.z.g.z.x.x.c.c.c.j.j.s.s.s.s.s.s.s.d.d.d.s.d.a.a.d.d.d.d.d.f.d.L L L L L L L L L L I P P P J J Y J J J J J J J J F G Y F j c c ....' ' X.X. . .`.:. . . . . . .:.:.:.:. . . . .>. . . . . . . . . . . .| | { | | [ ' [ _ ' u u c u p p p 8 i 8 8 8 8 i s s s s s s 8 8 i i s s s s s s s s d i i i 8 8 8 8 i i s s d d d d j j j j f s s s s s w w s w r g d g N o.@.O.o.o.Q W @.*.*.*.@.Q E E E E R R R R R R M x l j s s i i i i i i i i i i i i i i i i i i i i i i i i s s s s i i i i i i i i p p i 8 p p p d d j j j j j j d p p p p i i s i p p p p p p p p p p p p p p p p p p p p p p p p p p p p d p p p d p p p i i i i 8 8 8 8 8 8 8 8 8 8 8 8 8 8 8 8 8 8 8 8 8 8 8 i * * 8 8 8 8 8 8 8 8 8 8 & & & & ",
"> > > > > > > > > > > > > > > > > > > > > > > > > > > > > > > > > > > > > > > > > > > > i i > > > > > > > > > > > > > > > > > > > > > > > > > > > > > > > > > > > > > > > > > > i i > > > > > > & & & & & & & & > > > > > > & & > > > > > > > > > > & & & & > > > > : : % % % % : : % % % % > > & & : : > > : % > > % : : : % % & & & : % > % & % % % % : % % % > & & % % % : : % % % % % % % % % % % % % % & & % % & & & & & & % % % % % % % % % % % % % % % % % : > > % & & : : : : : : : : : : : : : < < < : < < < , , , , , , , , , A A A A S S S S F F F F F F F F J J J J J J J K K K L L P P L L a.a.d.d.f.c.f.d.s.d.c.c.z.c.A.tXpX^.P Z.v.c.c.c.v.+X+XQ.Q.Q.+XyXuXuX%X$X$X$X#X#XuXuXuXuXuXlXlXuX$X#X+X~.^.A.A.A.Q.^.yXlXlXlXfXuXuX#X$XuXuX$XuXuXiXiXuXlXlXMXMXzXzXzXzXlXzXlXiXiXpX~.~.~.yXpXpX~.~.tXiXiXtXeXeXA.A.A.^.~.pXiXiXiXiXyXyXyXpXiXfXBXMXKXMXiXpXyX~.^.~.~.~.!.Q.Q.~.(.~.^.Q.v.v.v.Z.Z.Z.N.M.x.x.x.x.m.N.M.x.z.l.z.z.z.g.g.z.z.g.g.x.x.c.c.c.j.j.s.s.s.s.s.s.s.d.d.d.s.d.a.a.a.d.d.d.d.f.d.L L L L L L L L L L P P P P J J J J J J J J J J J Y Y Y Y c ........X.X.X.X. . .'. . . . .:.:.:.:.:.:.:.>.>.>.>.>.>.>.>.>.p. . . . . . . .| | | | | { ' ' ' _ _ u u u p p p p i 8 8 i i i s s s s s 8 8 i i s s s s s s s s s i i 8 8 8 8 8 i s s s s d d d d d d d s s s w s s s w w r g z x V o.#.-.*.%.#.@.W W Q @.=.@.~ E W E E R R R R R R E R M x l j s i i i i i i i i i i i i i i i i i i i i i i i i i i i i i i i i i i i p p p p p p j j j x j j j j d d p p p p i i s s i p p p p p p p p p p p i p p p p p p p p p p p p p p p d p p p p p p p i i i i 8 8 8 8 8 8 8 8 8 8 8 8 8 8 8 8 8 8 8 8 8 8 8 8 8 8 8 8 8 8 8 8 8 8 8 8 & & & & ",
"> > > > > > > > > > > > > > > > > > > > > > > > > > > > > > > > > > > > > > > > > > > > i i i > > > > > > > > > > > > > > > > > & & & & > > > > > > > > > > > > > > > > > > > > > > > > & & & & & & & & & & & & > > > > > > & & > > > > > > > > > > > > > > > > > > > > % & % % > > > % % % : > % % : : > > % % % % % % > > > % & & % : : : % % % % > > > > % % : : % % % % : : % % : > & & % % : > & & % % % % : : & & % % % % % % % % % % % % % % % % % % % % % : % % % % & : : : : : : : : : : : : : < < < < < < , < , , , , , , , , A A A A S S S S F F F F F F F F J J J J J J J K K K L L K K L L a.d.d.d.a.c.c.s.c.d.d.s.s.s.c.c.c.Z.c.c.c.A.A.S.b.tXfX+Xb.!.#XuXuXuXuXuXuXuXuXuXjXiXuXuXjXlXiXuX#X~.~.^.A.A.A.A.Q.^.+XiXuXlXlXfXuXuXuXlXuXuXuXuXiXiXuXiXjXlXzXzXlXlXzXlXzXlXiXuXyX~.^.^.eXtXyX^.tXyXiXpXyXrXeXA.A.A.^.eXyXyXiXBXlXiXyXyXyXiXlXBXMXKXMXdXpXyX~.~.+X#X~.!.Q.!.#XyX~.Q.v.v.Z.Z.Z.Z.Z.N.M.x.x.x.x.m.N.M.x.x.l.l.z.g.z.z.z.z.g.g.z.z.x.x.c.j.j.s.s.s.s.s.s.s.d.d.d.d.d.a.a.d.d.d.f.f.f.d.L L L L L L L L L L L L P P J J J J J J J J J J J Y Y Y Y ......X.X.X.X.:.`.'.'.'.'.'.:.:.:.:.'.>.>.>.>.>.>.>.>.>.>.>.>.>.>.>.p.p.p. . . . .| | | | | | ' ' ' _ _ c c c u p p p 8 8 8 i i s i i s s 8 8 i i i i i 8 s s s s i i i 8 8 8 8 8 s s s s s s s s s s s s s s s s s s s s d g m B o.#.-.4.4.4.4.-.#.o.R M W W W W W W E W W E E E R W R R E R M l j s i i i i i i i i i i i i i i i i i i i i s s s s s s i i i i i i i i p p p p j j x j x x j j j d d p p p p i i s s s i p p p p p p p p p p p p p p p i i i i i i i i p p p p d p p p p p i i i 8 8 8 8 8 8 8 8 8 8 8 8 8 8 8 8 8 8 8 8 8 8 8 8 8 8 8 8 8 8 8 8 8 8 8 8 8 8 8 8 8 8 8 ",
"> > > > > > > > > > > > > > > > > > > > > > > > > > > > > > > > > > > > > > > > > > > > i i i > i i i > > > > > > > > > > > > > & & & & > > > > > > > > > > > > > > > > > > > > > > > > & & & & & & & & & & & & > > > > > > & & > > > > > > > > > > > > > > > > > > > > & & % : > > & & % % : : % % % % & & % % % % % % > > > % % % % : : % % % % % % > > > % % : : % % % % % % : : : > > & % % : > & & % % % : : : > > % % % % % % % % % % % % % % % % % % % % % % % % % % % : : : : : : : : : : : : < < < < < < < < < , , , , A , , A A A A A S S S S F F F F F F F F J J J J J J K K K K K K K K L L d.d.d.d.c.a.s.c.s.s.x.s.z.x.s.d.c.c.A.Z.+X+X+Xc.A.tXtXb.v.!.yXuXuXuXuXuXhXuXjXjXjXuXuXlXlXuX#X~.!.!.^.^.A.A.A.A.A.^.~.yXyXfXlXfXlXiXlXzXuXuXuXiXjXuXuXuXuXiXlXlXjXjXzXlXzXlXiXpX+X^.^.^.~.~.pX^.~.yXpXiXpXtXeXA.A.A.^.eX+XyXiXBXBXiXiXpXuXiXiXlXMXMXBXiXiXyX^.^.~.yX#X~.~.yXyX^.Q.Z.Z.Z.v.Z.Z.Z.Z.N.M.x.x.x.x.m.N.m.x.x.l.l.z.z.z.z.z.z.g.z.z.z.z.c.j.s.j.s.s.s.s.s.s.s.d.d.d.d.d.a.a.d.d.d.d.f.f.d.d.L L L L L L L L L L L P K J J J J Y J J J J Y Y Y Y ......X.X.X.X.X.'.`.'.'.'.'.'.'.:.:.>.'.].>.>.}.>.>.>.>.>.>.>.>.>.>.>.>.>.p.p.p. . . . . .| | | | { { ' _ _ u u c u p p p p 8 8 i i i i s s s 8 8 8 8 i i i 8 s s s s i i 8 8 8 8 8 8 s s s s s s s s i i s s s s i i s s s s d M W O.-.6.w.6.7.6.7.#.@.o.Q E b g M N E E W W Q W W R W W R R R R E R l j i 8 i i i i i i i i i i i i i i i i i i i s i i i i i i i i i i i i p p p d x x x x x x j j d d p p p p p i i s s s i p p p p p p p p p p p p p p p i i i i i i i i p p p p d p p p p i i i i 8 8 8 8 8 8 8 8 8 8 8 8 8 8 8 8 8 8 8 8 8 8 8 8 8 8 8 8 8 8 8 i i i i i i i i i i i i ",
"> > i i > > > > > > > > > > > > > > > > > > > > > > > > i i i i > > i > > > i i i i i i > > > > i i i i > > > > i i i > > > & & > > > > > > & > > > > > > > > > > > > > > > > > & & & & & & & & & & & & & & & & & & & & & & & & > > > > > > > > & & & & > > > > : % % % % % : : % % : : % % % % % % : : % % % % % % > > > > % % % % % % % % % % > > > & & & % % % % % % : : : % % % % % > > : : : : & & & > > : % % % % % % : : & % % % % % % % % % % % % % % % % % % % % % % : : : : : : : : : : : > > > : < < , , , , , , , , A A A A A A S S S F F F F F F F J J J J J J J J J J J K K K K K L L a.a.a.d.d.d.d.s.z.z.x.z.c.z.z.x.z.z.c...yXfXdXfXfXS.c.v.c.c...b.fXfXfXuXuXhXhXjXjXjXuXjXjXlXuX#X!.!.~.~.^.^.A.Q.Q.A.Q.A.^.+XyXiXfXuXuXlXzXlXuXyXiXlXiXpX#X#XyXuXjXlXlXzXzXzXlXzXiXyXyX^.^.^.tXtXtX~.~.yXpXiXfXtX^.A.A.A.eXeXyXpXiXMXMXiXpXuXuXuXiXlXBXBXiXyXyX#X~.~.~.~.yX~.~.~.Q.Z.Z.Z.Z.M.M.M.Z.Z.Z.N.M.x.x.x.x.x.N.m.x.l.l.l.l.z.z.z.z.z.x.x.x.x.x.c.s.s.g.s.s.s.d.s.s.s.s.d.s.s.s.s.d.d.f.f.f.f.f.f.d.d.L L L L L L L L L P P P J J P J Y Y Y Y J Y Y Y ......X.X.X.:.`. .`.`.`.'.'.'.'.].].y.].>.}.}.}.>.>.i.i.>.>.>.y.>.>.>.>.>.>.>.p.p.p.p.p. . .| | | | | | [ _ _ u u u u p p 9 p p i i 8 8 8 8 8 8 i i i i s s i i s s s i s i i i i i i s s s s s 8 8 8 i i i w w w w s d s s s d g M #.4.F.K.W.J.6.#.W #.=.N N W N M g g b M N E W N N N N N N E R R R Q E j 8 & s s i i i i i i i i i i i i i i i i i i i i i i s s i i 8 i i p p c c x x x x x j j d d d p d p p p p p i i s s i p p p p p p p p p p p p p p p p p p i i i p p p p p p p p p p i i i i 8 8 8 8 8 8 8 8 8 8 8 8 8 8 8 8 8 8 8 8 8 8 8 8 8 8 8 8 8 8 8 8 8 8 8 8 i i 8 8 8 8 8 8 ",
"> > i i > > > > > > > > > > > > > > > > > > > > > > > > i i i i > > i > > > i i i i i i i i i i i i i i > > > > i i i i > > & & > > > > > > & > > > > > > > > > > > > > > > > > & & & & & & & & & & & & & & & & & & & & & & & & > > > > > > > > & & & & > > > > : : % % % % : > % : : : % % % % % % : : % % % % % % > > % : % % % % % % % % % % > > % % > > % % % % % % > > % % % % % % > > : : % : % % & > : : : : % % & % : : > % % % % % % % % % % % % % % % % % % % % % % : : : : : : : : : : : > > > > < < , , , , , , , , A A A A A A S S F F F F F F F F J J J J J J J J J J J K K K K K K L a.a.d.d.d.d.s.s.s.z.z.c.c.z.g.x.c.c.c.Q.MXMXfXfXpXc.c.Z.Z.c.c.Z.pXMXlXuXuXlXzXlXhXhXhXlXuXuX#X~.!.~.+X+X~.^.A.^.^.^.^.Q.~.tXyXyX#X#XyXlXMXlX#XyXuXiXiXuXyX~.#XyXuXjXjXlXzXzXMXMXiXyXtX~.~.~.tXtXtX~.tXyXpXpXtXtX^.A.A.A.eXtXyXiXBXJXNXBXiXuXyXuXiXiXiXiXpXyXpXyXyXyX~.rXyX~.Q.Q.Z.Z.Z.Z.Z.M.M.M.M.M.N.M.m.m.x.x.x.x.N.x.x.l.l.l.z.z.z.z.z.z.x.x.x.x.x.c.s.s.g.s.s.s.s.s.s.s.s.d.d.s.s.s.d.d.f.f.f.f.f.f.d.d.d.L L L L L L L L P P K J J P P J Y Y F Y Y Y ....X.X.X.X.:.:.`.'.`.`.`.'.'.'.].].].].}.}.}.}.}.}.i.i.i.>.>.>.>.>.>.>.>.>.>.>.>.p.p.p.p. . . .|  . .| | | | [ _ u u u p p 9 9 9 i i 8 8 8 8 8 8 i i i i s s s s s s i i i i i i i i i s s s s s w w 8 8 i i w w w w s d s s s s g N *.F.J.J.J.6.%.B B *.*.B N W #.@.Q N k k b b E N m m N N N N R W R R M M g w 6 s s i i i i i i i i i i i i i i i i i i i i i i i s i 8 8 p p c c x H x x c c j j d d p p p p p p p p i i s i p p p p p p p p p p p p p p p p p p i i i i p p p p p p p p p p i i i 8 8 8 8 8 8 8 8 8 8 8 8 8 8 8 8 8 8 8 8 8 8 8 8 8 8 8 8 8 8 8 8 8 8 8 8 8 i i 8 i 8 8 8 8 ",
"> > > > > > > > > > > > > > > > > > > > > > > > > > > > > > i > > > > > > > i i i i i i i i i i i i i i > > > > > i > > > > & & > > > > > > > > > > > > > > > > > > > > > > > > & & & & & & & & & & & & & & & & & & & & & & & & > > & & > > > > & & & & & & & & > : & & % & & > % % > > % % : % % & & > & & % % % % % % % % % % % % % % % % % % % % % % % % % % & & % % > > & % > > % % & & % % % % % % % % : % : : & & & & % : > > % % % % % % % % % % % % % % % % % % % % % : : : : : : : : : : : : > < < < < , , , , , , , , A A A A A A A A F F F F F F F F F F J J J J J J K J K K K K K K L L a.a.d.d.d.d.s.s.z.z.z.c.c.c.z.c.z.c.v.iXNXlX#X!.+X^.Z.c.b.A.Z.Z.+XpXyXuXlXxXxXxXhXhXjXuX$X%X#X+X+XyXpXyX~.~.Q.~.+X+X~.^.^.+X~.~.^.!.+XiXMXlXyXyXuXuXiXlXpX~.~.yXuXuXiXBXlXlXMXMXiXyXyXrXeXrXtXyXtXeXtXtXtXtXeXeX^.A.A.eXeXtXpXiXMXKXKXBXiXiXiXjXBXiXpXyXyXyXyXpXiXyX~.yX~.Q.Z.Z.Z.Z.Z.Z.Z.M.x.x.x.M.M.x.m.x.x.x.x.x.M.x.x.l.l.z.z.z.z.z.z.l.z.x.x.x.z.g.g.s.g.s.s.s.s.s.s.d.s.s.d.s.s.s.d.d.f.f.f.f.f.f.d.d.d.L L L L L L L L J J K K K K K J J Y Y Y Y ....X.X.X.:.:. .'.'.'.'.`.].].].].].}.}.}.}.}.}.}.{.}.}.}.}.}.}.>.>.>.>.>.>.>.>.>.>.p.p.p.p.p. .| |  . . .| | | | _ _ u u u p p p p i i 8 8 8 8 i i i i i i s s s s s i i i 8 8 i i i i i s s s s s w w w w i w w w w w s s s s s s g M #.F.J.6.<.%.O.B B O.@.B V N #.=.@.W E E W W W W N N M M M M R W R M M N M j 8 s i i i i i i i i i i i i i i i i i i i i i i i i s i 8 p j c x H H H x x j j p p p d p p p p p p p p i i i i p p p p p p p p p p p p i i i p p p i i i i p p p p p p p p p p i i 8 8 8 8 8 8 & & & & 8 8 8 8 & & & & & & & & 8 8 8 8 8 8 8 8 8 8 8 8 8 8 8 8 i i i i i i i i ",
"> > > > > > > > > > > > > > > > > > > > > > > > > > > > > > > > & & & & > > i i i i i i i i i i i i i i i > > > > > > > > > & & > > > > > > > > > > > > > > > > > > > > > > > > & & & & & & & & & & & & & & & & & & & & & & & & > > & > > > > & & & & & % % % % > > & % % % & > % % & & & & : : % & > > > & % % % % % % % % % % % % % % % % % % % % % % % % % % > & % % > > & % : > & & % % % % % % % % % % % % : : : & & & : : > > % % % % % % % % % % % % % % % % % % % % % : : : : : : : : : : : : : < < < < , , , , , , , , A A A A A A A A F F F F F F F F F F F J J J J J K J K K K K K L L L a.a.a.d.d.d.d.s.z.z.z.z.c.z.s.a.d.c.~.lXhX$X#X#XuX+X+XtXdXdXZ.M.A.v.Y v.+XlXlXhXjXjX%X%XuXuXuXuXiXfXpX+X^.^.^.+XyX+X~.Q.A.Q.^.^.A.Q.+XiXlXiXyX#XyXyXlXMXiX~.~.yXpXyXyXpXBXMXMXMXiXyXtXtXeXeXeXtXtXtXeX^.^.^.^.^.eXeXeXeXtXtXpXfXMXNXMXiXiXiXiXlXiXpXpXiXiXiXtXyXiXyX~.rX^.A.Z.Z.Z.Z.Z.Z.Z.x.x.x.x.x.m.x.x.m.x.m.x.x.M.m.l.l.l.z.z.z.z.z.z.l.z.x.x.x.z.g.g.s.g.s.s.s.s.s.s.d.d.s.d.d.s.s.d.d.f.f.f.f.f.f.d.d.d.L L L L L L L L J J K K K K K J Y Y Y Y ....X.X.X.X.`. .'.'.'.'.'.].].].].}.}.}.}.}.}.{.{.{.{.{.{.{.{.}.}.}.}.}.>.>.>.>.>.>.>.p.p.p.p.p.p. . . . .| | | | | | _ z u u u p p p 9 i 8 8 8 8 i i i i i i s s s s i i i i 8 8 i i i i i s i s s s w w w w s w w w w w s s s s s s g x o.-.7.4.<.$.%.O.B V B o.@.V W @.@.W N N N N @.@.W Q M M M M V M M R R x l M l 8 * & i i i i i i i i i i i i i i i i i i i i s i i i p d x H H H x x j j j j p p p p p p i i p p p p i i i i p p p p p p p p p p p p i i p p i p i i i i p p p p p p p p p i i 8 8 8 8 & 8 8 & & & & 8 8 8 8 & & & & & & & & 8 8 8 8 8 8 8 8 8 8 8 8 8 8 8 8 s s s s s i i i ",
"> > > > > > > > > > > > > > > > > > > > > > > > > > > > > > > > > > > > > > > > i i i i s s s s i i i i i i i i > > > > > > > > > > > > > > > > > > > > & & > > & & & & & & & & & & & & & & & & & & & & & & & & & & & & & & & & > > & & > > & & > > > > & & & & % % % % % % % % % % & & & & > : : : > > > : : : > > : % % % % & % % % % % % % % % % % % % % % % % % % % > > % % : : % & & & % % % % % % % % % & % & & & & & % % > > > > > > > : % % % % % % % % % % % % % % % : : : : : : : : : : : : : < : < < , , , , A A , , A A A A F F F F F F F F F F F F F J J J J J J J K K K K K K L L L a.a.a.a.a.d.d.s.s.s.z.c.c.c.x.f.f.c.Q.iXuX$X$X%X%X$XyXyXpXMXMXZ.Z.c...c.v.U fXlXlXuX$XuXuXuX$XiXfXiXyX~.Q.Q.~.+XyX#X+X~.^.^.^.~.^.A.^.+XiXlXjXuX#X#XyXiXMXlXyXyXtX~.~.yXpXiXBXMXBXiXyXrXrXeX^.^.eXeXeX^.A.A.^.^.eXeXeXeXeXtXyXiXdXBXfXiXiXiXiXiXBXBXpXiXiXpXrXQ.^.tX^.Z.A.A.^.A.Z.Z.Z.Z.Z.M.x.x.x.x.x.x.x.m.m.m.x.x.x.m.x.l.z.z.z.l.l.l.l.l.l.l.l.x.x.z.g.g.g.g.g.s.s.s.s.s.s.d.d.s.s.s.s.s.d.s.s.s.f.f.f.f.d.a.a.a.L L L L L P P K K K K P P P Y Y ......X.X.X.X.`.`.`.`.`.`.`.`.].].].}.}.}.}.{.{.-X-X>X>X>X>X>X{.{.{.}.}.}.}.}.i.>.>.>.>.>.>.p.p.p.p.p.p. .p.| | | | | | | [ _ u c u u p p p p 8 9 8 8 8 8 i 8 8 8 s s s i i i i i & & & 8 i i i i s s i i i > 1 s s s s s i i i i i i i 8 s l V o.O.#.$.$.<.%.O.#.o.W @.Q Q M M M M M M V W @.@.W N M M E M N N E R M l R R g w 8 & & i i i i i i i i i i i i i i i i i i i 8 6 8 j x H [ ..H x x j j p p p p p i i i i i i i i i p p i p p p p p p p p p p p p p p p p p i i i i i i i s s s s s i i i i 8 8 8 8 8 8 8 8 & & & & & & & & 8 8 8 8 8 8 8 8 8 & 8 8 8 8 8 8 8 8 8 8 i i i i i i i i s i i i ",
"> > > > > > > > > > > > > > > > > > > > > > > > > > > > > > > & & & & & > > > > i i i i s s s i i i i i i i i i > > > > > > > > > > > > > > > > > > > > & & > > & & & & > > & & & & & & & & & & & & & & & & & & & & & & & & & & > > & & > > & & > > > > & & & & % % % % & % % % % % & & & & > : : : > & > : % % > > % % % % % > % % % % % % % % % % % % % % % % % % % % : : % % % : % % > > % % & % % % % % & & % % & & & & % % > > > > > > > : % % % % % % % % % % % % % % % : : : : : : : : : : : : : < < < < , , , , A A A , A A A A F F F F F F F F F F F F J J J J J J J J K K K K K L a.a.L L a.a.a.a.d.d.d.d.s.s.c.z.c.c.c.c.v.yXuX$X$X2X%XuXuX%XuXfXlXfXA.....b.tXv.A.yXMXfXyX#XuXuXuXlXiXyX+XQ.Q.Q.~.#XlXlXiX#X+X~.^.Q.^.^.^.^.yXfXlXlXlXuX#X#XuXMXMXBXyXrX~.~.yXyXpXiXiXiXpXtXeXeXeX^.^.eXeXA.A.A.^.eXeXeXeXeXeXtXpXiXiXfXdXpXpXiXiXBXBXMXBXpXrXrX^.A.~.rX~.^.Z.A.A.A.A.Z.Z.Z.Z.Z.Z.M.x.x.x.x.m.m.m.m.m.m.x.x.m.m.l.z.l.z.l.l.l.l.l.l.l.l.l.l.z.z.g.g.g.g.s.g.s.s.s.s.d.d.d.d.s.s.s.d.s.s.s.f.f.f.f.d.a.a.L L L L L P P K K K K K K P P Y ......X.X.X.X.`.`.`.`.`.`.`.].].].].}.}.}.}.{.{.;X,X,X8X7X7X6X,X,X>X{.{.{.}.}.}.}.}.>.>.>.>.>.>.p.p.p.p.p.p.p.p.p.| | | | | [ _ z u u u u u p p p 8 8 8 8 8 i i 8 i s i i i i i i i & & & & i i i i s s i i i & s s s s s s i i i i i i i i s d g M m m B B %.4.4.#.W V o.W o.Q V M N N R W b E @.@.W N b M M M M M E Q E l M M l w + & s i i i i i i i i i i i i i i i i i i 8 p j H H H x H H x j j p p p p p s i i i i i i i i i p p p p p p p p p p p p p p p p p p p p i i i 8 i i i s s s s s i i i i 8 8 8 8 8 8 8 8 & & & & & & & & 8 8 8 8 8 8 8 8 8 8 8 8 8 8 8 8 8 8 8 8 i i i i i i i i s i i i ",
"> > > > > > : > > % : : : : > > > > > > > > > > & & > > > & & & & & & & > > > > i i i i s s s i i i i i i i i i i i i i > > > > > > > > > & & & > > > > > > > > & & & & & & & & & & & & & & & & & & & & & & & & & & & & & & & & > > > > > > > > > > > > & & > > % % : : & & % % : : > > % % % % : % & & % % % % > > % % % % > > % % % % % % % % % % % % % % % % % % % % : % % % % % % % > : : % & & % % : : > > % % : : % % % % : : : : > > > > % % % % % % % % % % % % % % % : : : : : : : : : : : : : < : < < , , , , A A , , A A A A F F F F F F F F F F F F J J J J J J J J K K K K L L a.a.a.a.a.a.a.a.d.d.d.d.d.d.s.s.z.c.c.c.b.+X#X&X%XhXhXjXhXhXhXxXlXlX#XfXuX+XtXP tXA.b...v.yXuXuXfXuX+X!.Q.Q.!.#X#XyXiXfXuXuXyXyX~.~.^.A.^.~.#XiXiXlXlXiXuXuXyXiXlXlXpXtXrXtXtXyXyXyXpXpXpXrXeXeXeXA.eXeXeXqXA.A.eXeXeXeXeXeXeXtXpXiXiXiXiXyXyXiXiXBXBXBXpX^.^.^.^.^.rXrXeX^.A.Z.Z.A.A.Z.Z.Z.Z.Z.Z.Z.Z.M.x.x.m.m.M.M.m.m.x.m.M.m.l.z.l.l.l.l.l.l.l.l.l.l.l.z.l.z.g.g.g.g.g.g.s.s.s.s.d.d.d.d.s.s.s.d.s.s.s.f.f.f.f.d.a.L L L L L P P P K K K K K K P P Y ....X.X.X.`.`.`.`.`.`.`.`.].].].].}.}.}.}.{.-X;X8X8X9X9XCXvX7X7X6X,X-X{.{.{.}.}.}.}.i.>.>.>.>.>.>.p.p.p.p.p.p.p.p.| | | | | [ [ _ u u u u c p p p 8 8 8 8 8 i i i i i i 8 8 8 i i i & & & 8 i i i i s i i i 8 & & > s > > > > > > > s s s s g g g z t t m B B 4.4.#.M N #.@.o.~ Q E M M M M b N @.*.*.~ E M M b b l E Q W M M N R g & & s i > > > > i i i i i i i i i i i i i p j H o.o.H x x c j c p p p p d d i i i i s i i i i i p p p p p p p p p p p p i i i i p p p p i i 8 8 i i i s s s s s i i i i 8 8 8 8 8 8 8 8 & & & & & & & & 8 8 & & & & & & 8 8 8 8 8 8 8 8 8 8 8 8 8 8 8 8 i 8 i i i i 8 8 ",
"> > > > > > > > > % : : : : > > & & & & > > > > & & & & & & & & & & & & > > > > i i i i s s s i i i i i s i i i i i i i > > > > > > > > > & & & > > > > > > > > & & & & & > & & & & & & & & & & & & & & & & & & & & & & & & & & > > > > > > > > > > > > & & & & % : : > > > % % % : : > % % % % % % % % % % % % : : % % % % > > % % % % % % % % % % % % % % % % % % % % % % % % % % % % > : % % > > % % % : : > % % : : % % % % : : : : > > > > % % % % % % % % % % % % % % % : : : : : : : : : : : : : < : < < , , , , A A , , A A A A F F F F F F F F F F F F F J J J J J J J K K K K L L a.a.a.a.a.a.a.a.a.a.d.d.d.d.s.s.s.c.c.Z.+X+X(.%XhXxXzXzXxXxXxXhX%XhXlXMXfXfXfXP S.c.....c.b.pXuX#X+XQ.Q.!.#XyXuXuXuXiXlXlXiXiXiXyX^.A.A.A.~.~.yXyXlXlXlXMXiX#XyXyXiXiXtXrXtXtXpXpXrXyXtXtXeXeXeXeXA.A.eXeXqXqXqXeXeXeXeXeXeXeXtXiXiXiXiXpXtXyXpXpXiXpXpXrXrXrXeX^.eX^.rXrXrXeXA.A.eXA.Z.Z.Z.Z.Z.x.M.Z.M.x.m.M.m.M.M.m.m.m.m.N.M.l.l.l.l.l.l.l.l.l.l.l.l.l.z.l.z.z.g.g.g.g.g.s.s.s.s.s.d.d.d.d.s.s.d.s.s.s.f.f.f.f.d.a.L L L L P P P K K K K J K K P P ....X.X.X.`.`.`.`.`.`.`.`.].].].].}.{.}.{.{.{.;X;X8X9XCXCXVXnXnXvX7X,X>X-X{.{.}.}.}.}.}.i.i.>.>.>.>.>.>.p.p.p.p.p.p.p.| | | | | [ [ _ u u u u p p p p 9 8 i 8 i i i i 8 8 8 & & 8 i i & & 8 i i i i i s i i i 8 & & > & & & & > > > > s s s w g s d g r e m B O.4.4.#.V z V Q E W W R R V M z g b W *.*.@.E N M b k k M M E Q E M M R l & # s & & & & i i i i i i i i i i i i p c H o.o.H H H c c p p p p p d d i i i 8 i i s i i i i p p p p p p p p i i i i 8 i i i p p p i i i 8 8 i i i i i i i i i 8 8 8 8 8 8 8 8 8 8 8 & & & & & & & & 8 8 & & & & & & 8 8 8 8 8 8 8 8 8 8 8 8 8 8 8 8 8 8 8 8 i 8 8 8 ",
": : : : > > > : % % % > > > > > : : : % % % : > > > > > > > > > > > > > & > > > i s i i i s i s s s i i i i i i i i i > > > > > > > > > > > & & & & & & > > & & & & > > & & & & & & & & & & & & > > > > > > > > > > > > > > > > > > > > > > > > : : & & & % % % > > : % % % > > > % % % % % % % % % % % % % % % % % % % % % % % % % % % > > > : % % % % % % % % % % % % % % % & > > % % % : > > > : : % % % % % % > % % % % % % > > > > > > > > & & & & & & & % % % % % % % : : > > : : : : : : : : : : : < , , , , , , , , , , A A A A F F F F F F F F F J J J J J J J J K K K K K K K L L L a.a.a.a.a.d.d.d.d.d.d.d.s.s.s.s.f.c.Q.^.!.#X%XhXzXzXzXzXxXhX%XhXzXzXMXNXlXfXb...A.A.A.Z.A.fXpX^.^.Q.!.yXlXiXiXuXjXlXlXlXlXlXiXyX~.^.A.A.A.^.tXyXiXlXlXlXjXuXyX~.yXyXrXrXtXtXpXpXtXeXeXtXeXeXeXeXA.A.eXeXqXeXeXeXeXeXeXeXeXrXtXpXpXiXpXyXtXyXpXiXiXiXyXrXeX^.^.^.^.eXeXeXeX^.A.A.qXA.C.Z.Z.Z.Z.N.N.N.M.M.m.m.m.m.m.m.m.x.m.M.M.m.l.l.l.l.l.l.l.l.l.l.l.z.h.z.z.h.h.g.g.g.g.g.g.s.s.s.s.s.s.s.s.s.d.s.s.s.f.f.f.d.d.a.L a.L L L L P K K K K K K K P ......X.X.`.`.`.`.`.`.`.`.].].].}.}.}.}.}.{.{.{.;X8X9X9XCXVXVXVXnXvX7X,X-X{.{.{.{.}.}.}.}.}.}.i.>.>.>.>.>.p.p.p.p.p.p.| | | | | [ | [ _ z u u c u c u p 9 p p 8 8 8 8 8 & & > > & & 8 8 i i i i i i i i s s i 8 i i i 8 i i i i s s w w 8 w s w s s d d g z V W #.$.O.V m N M l l g l l N N b g g g M W W N M N b l g g l W W N W M M E R j > & > & & & i i i i i i 8 8 8 i p d x H ..H o.H x j p p p i i p p d i i i i i i i i i i p p p p p p i i i i i i i i i i i i i i i i 8 8 8 8 8 8 8 8 i i i i i i i 8 & & & & 8 8 & & & > > > & & & & 8 & & & & & & & & & 8 8 8 & & & 8 8 8 8 i i i i i i i i i i i i ",
": : : : > > > > % % % % > > > > : : : : % % & & > > > > > > > > > > > > & & > > i s i i i i i i s s i i i i i i i i > > i > > > > > > > > & & & & & & & > & & & & > > & & & & > & & & & & & & & > > > > > > > > > > > > > > > > > > > > > > > > : : & & & & % % > > % % % % > > > : % % % % % % % % % % % % % % % % % % % % % % % % % % > > > : % % % % % % % % % % % % % % % & > & % % % : > > : : % % % % % % > > % % % % % % > > > > > > > > & & & & & & & & % % % % % % : : > > : : : : : : : : : : , < , , , , , , , A , , A A A A F F F F F F F F F F J J J J J J J K K K K K K L L L L a.a.a.a.a.d.d.d.d.d.d.s.s.g.s.d.c.Z.Q.!.!.$XhXxXxXxXxXhXhXhXhXxXxXzXlXlXuX~.+X^.S.A.A.c.A.Z.Z.c.Q.yXuXfXiXlXlXlXzXlXlXzXzXlXuXyX+X~.^.A.A.A.^.~.~.pXiXlXlXiXpXyXrXrXrXrXtXtXsXsXeXeXeXtXtXeXeXeXeXqXeXeXeXeXeXeXeXeXeXeXeXtXpXiXiXpXpXyXtXpXpXpXpXpXtXeXeX^.^.eXeXeXeXeXeXA.Z.Z.A.C.Z.Z.Z.Z.N.N.N.M.M.m.m.m.m.m.m.m.m.x.m.M.M.x.l.l.l.l.l.l.l.l.l.l.l.l.z.z.h.h.h.g.g.g.g.g.g.s.s.s.s.s.s.s.s.s.d.s.s.s.f.f.f.d.d.a.L a.a.L L L P K K K K K P P ......X.X.`.`.`.`.`.`.`.`.].].].}.}.}.}.}.}.{.{.{.;X8X9X9XCXVXVXnXbX7X6X>X{.{.{.{.{.{.{.}.}.}.}.}.i.>.>.>.>.>.p.p.p.p.p.| | | | | | | _ _ u u u c c c u 9 p p p 8 8 8 8 * * & > > & & & 8 i s i i i i i i s i & & & & i i i i i i s s w w 8 8 s w s s d d g M W @.W W W z g g g d g g g l b M b g g g x M M l z M v g g f l E W W @.W E M R H h > & > 8 & i i i i i 8 8 8 i i p x [ ..o.H x x j p p i i i i i p p i i i i 8 8 i i p p p p p p p p i s s s s s s s s s s s s s s i i i 8 8 8 8 8 8 i 8 i i i i 8 8 8 8 8 8 8 8 & & & > > & & & & & 8 8 & & & & & & & & 8 8 8 8 & & 8 8 8 8 i i i i i i i i i i i i ",
"> > : : % % % % % % % % : : > > & % & & % & & & % % % % % % > > : : > > & & & > i i i i i i i i d s i i i i i i i i i 8 > > > > > > > > > > & & & & & & > > & & & & & & & & > > & & & & & & & & > > > > & & > > > > > > & & & > > > > & > > > > : : : % : : % % > > % % % % % % % % % % % % > > % % % % % % % % % % % % % % % % % % % % : % % % % % % % % % % % % % % % % % > > : : % % % % > > % % % % % % % : > > : % : : & & > > > > & & & > & & & & & & & & % % % % % % : : > : : : : : : : : : < , , , , , , , , , A A A A A A A A F F F F F F F F F F F J J J J J K K K K K K L L L L L a.a.a.a.a.d.d.d.d.d.d.s.s.s.s.c.Z.^.~.+XuXhXjXxXxXhXhXhXhXhXzXzXzXxXzXhX$X+X+X+XfXfX+X..b.c.c.c.Z.pXdXlXiXjXlXzXzXzXzXzXzXjXuXyXyXyXtX^.A.A.A.^.^.tXyXpXfXlXiXpXyXrXrXrXtXtXsXsXeXeXeXeXtXtXtXeXeXqXeXeXeXeXeXeXeXeXeXtXtXpXpXpXiXpXpXtXrXyXyXyXpXpXrXeXeXeXeXeXeXeX^.A.A.C.Z.Z.Z.Z.Z.Z.Z.Z.N.M.M.m.m.m.m.m.m.m.m.m.m.x.m.M.M.m.l.l.l.l.l.l.l.l.l.l.z.l.l.z.z.h.h.g.g.g.g.g.g.s.s.s.s.s.s.d.s.s.d.s.s.s.f.f.f.d.d.a.L L L L L L P K K K K K P P ......X.X.`.`.`.`.`.`.`.].].].].}.}.}.}.{.{.{.{.-X;X8X9X9XCXCXVXvXvX6X>X>X{.{.{.{.{.{.{.{.{.{.}.}.i.i.>.>.>.>.p.p.p.p.p.| | | | | | [ [ [ u u u u u c u 9 p p 9 9 8 6 6 * * * & & & & & & s s i i i i i i s i & & & & & & & & > > 1 > & & s s s s s s s f g l N E M b g s r w s s s s s g k b M M m z z M g g g M g g s r g l N W @.#.@.E R R l f i & i i > > i i 8 8 8 i p p x H ..o.[ x j j p p i i i s i i i i i i i i 8 8 8 i i i i i i p i i i i i i s s s s s s s s s s s i i i 8 8 8 8 8 8 8 8 8 8 i 8 8 8 i i i i 8 8 & & & & & & & & & & & & & & 8 8 8 8 & 8 8 8 & & & & & & 8 8 8 8 8 8 & 8 8 8 i i i i ",
"& : : : % % % % % % % % : > > > & & & % % % & & % % % % : : > > % % > > & & & & i i i i i i i i d i i i i i i i i i i 8 > > > > > > > > & & & & > & & & & > & & & & & & & & > > & & & & & & & & > > > > > & & & > > > > & & > > > > & & > > > > : : : : % : : % : : % % % % % % % % % % & > > > % % % % % % % % % % % % % % % % % % % % % % % % % % % % % % % % % % % % % % > > : : % % % % > > % % % % % % % > > > : : : > > > > > > > & & > > & & & & & & & & % % % % % % : : : : : : : : : : : : < , , , , , , , , , A A A A A A A A A F F F F F F F F F F J J J J J K K K K K K L L L L L a.a.a.a.a.d.d.d.d.d.s.s.s.d.d.v.^.+X#X%XlXlXxXhXhXhXhXhXzXbXbXbXzXNXzXjX$X#XyX#XyXpX^.c.v.Z.v.v.A.pXiXyXlXlXlXzXzXNXNXMXMXlXuXuXuXiXiXtX^.A.A.A.^.^.~.tXpXiXfXiXiXyXrXrXtXtXpXpXtXeXeXeXtXtXtXeXeXeXeXeXeXeXeXtXtXeXtXtXtXpXsXpXpXpXtXtXrXrXtXyXyXyXrXrXeXeXeXeX^.eXeXA.C.Z.Z.C.C.Z.Z.N.N.N.N.m.M.m.m.m.m.m.m.m.m.m.m.x.m.M.M.m.l.x.x.l.l.l.l.l.l.z.z.l.l.z.z.h.h.g.g.g.g.g.g.s.s.s.s.s.s.d.s.s.s.s.s.s.f.s.f.d.d.a.L L L L L L L K K K K P P ......X.X.X.`.`.`.`.`.`.`.].].].].}.}.}.{.{.{.{.-X;X;X8X9X9XCXCX7X7X6X>X>X{.{.{.{.{.{.{.{.{.{.{.}.}.}.i.>.>.>.>.p.p.p.p.p.| | | | | | [ [ [ z u u c c c u 9 p p p 9 8 6 * * # * & & & & & & s s i i i i i i i 8 & & & & & & & & & > 1 1 & & s i s s f s f f g g g g l f s w w - w s s s s g g v N m B V m N V M M N M g k g r w g N Q =.*.@.E R R l f i > i > > > & 8 8 i p d x H o.H H x c j p p i 8 i i i s i 8 8 i i i i 8 8 8 8 8 8 8 i i i p i i i i i i i i i i i i i s i i i i i 8 8 8 8 8 8 8 8 8 8 8 8 8 8 i i i i 8 8 & & & & & & & & & & & & & & 8 8 8 8 & 8 8 8 & & & & & & 8 8 8 8 8 8 & 8 8 8 i i i i ",
"& & % % % % % % % % : : % % % % % % % % % & % % % % > % % % : > % % > > & & > > > i i i i i d d j j d d i i i i i i i i > > > > > > > > & & & & > & & & & & & & & & & & & & & > & & & & & & & & > > > > > > > > > > > > > > > > & & & & & & & & & & : : % > & & % % % % % % % % % % % % % % % % % % % % % % % % % % % % % % % % % % % % % % % % % % % % % % % % % % % % % % % % % % % % % % % % % & : : % % & & % % : : % % % % > > > > > > > > : : % % % % % % % % % % % % : : : : : : : : : : : : < < < < < , , , , , A A A A A A F F F F F F F F F F F F F J J J J J J J K K K K L L L L L L a.a.a.d.d.d.d.d.d.s.g.g.d.d.Z.~.#X%XjXlXxXxXhXuXhXhXzXNXNXNXNXNXbXzXbXxXuXuXlX#X+X+X^.+X^.A.c.c.A.v.v.#XMXNXNXNXNXMXzXzXlXiXuXuXiXiXyXrX^.A.A.A.A.eXeXtXyXiXiXpXpXtXtXtXtXtXtXtXtXeXeXtXaXtXeXeXeXqXeXeXeXeXtXeXtXtXtXpXpXpXpXtXpXtXrXeXtXtXpXpXpXyXrXrXeXeX^.^.^.A.Z.Z.A.A.C.C.Z.Z.Z.N.N.N.N.N.M.m.m.m.m.m.m.m.m.m.n.m.M.M.M.n.x.x.x.l.l.l.l.l.z.z.z.z.z.z.h.g.g.g.g.g.g.g.s.s.s.s.s.s.s.s.s.s.s.s.s.f.f.f.f.d.a.a.L L a.a.L K K K K K P P ....X.X.X.`.`.`.`.`.`.`.].].].].].}.{.{.{.{.{.{.;X;X;X,X8X8X7X7X6X,X>X>X{.{.{.-X{.:X:X:X{.{.{.{.{.}.}.i.>.>.>.>.p.p.p.p.p.| | | | | [ [ [ Z u u u u c c u p p p p p 8 8 8 & & & & & & & & i s i i i i i i & i & & & & & & & & & > > > > > > s i s s f f h f f s w & s s s & & & & s s f k v M W O.W B W O.#.#.O.W W W N M M g r g N W @.#.*.@.E l x l s i 8 & & & & 8 8 p j x H H o.H x j c p p i 8 i i 8 & 8 8 8 8 8 8 8 8 8 8 8 8 8 8 i i p p i i i i 8 i p p p p p p p p p p p i s i i i 8 8 8 8 i 8 8 8 8 8 i i 8 8 8 8 & & & & & & & 8 & & & & 8 8 & & & & 8 8 & & & & & 8 8 8 8 8 8 8 8 8 8 8 & & & > i i > > ",
"& & % % : : % % % % % : % % % % % : % % & % % % % % > > % % % % % % > > & & > > > i i i i s d d j j d d i i i i i i i i i > > > > > > > & > & & > > & & & > & & & & & & & & & > & & & & & & & & > > > > > > > > > : > > > > > > & & & & & & & & & : : : % % & & % % % % % % % % % % % % % % % % % % % % % % % % % % % % % % % % % % % % % % % % % % % % % % % % % % % % % % % % % % % % % % % % & & : : % % & & % % % : % % % % > : > > > > > > % : % % % % % % % % % % % % : : : : : : : : : : : : < < < < < , , , , , A A A A A A F F F F F F F F F F F F F J J J J J J J K K K K L L a.a.L L a.a.a.a.d.d.d.d.s.s.s.s.d.c.^.#XuXuXhXhXhXhXhXhXjXzXzXzXzXzXNXNXNXNXzXzXzXzXlXiX+X+X+XyXfXtXv.c.c.c.c.v.lXNXlXMXzXzXlXlXlXjXuXuXuXuXpXyXeXA.A.A.A.eXeXeXeXpXiXiXiXsXpXeXeXeXrXtXaXtXeXtXaXaXeXeXeXeXeXeXeXeXtXtXtXtXtXpXpXtXtXtXtXrXeXtXtXtXpXpXpXyXtXpXtXeXeXA.A.A.C.C.A.C.C.C.Z.Z.Z.Z.N.N.N.N.M.m.m.m.m.m.m.m.m.m.n.m.M.M.M.l.x.x.m.l.l.l.l.l.z.z.z.z.l.z.h.g.g.g.g.g.g.g.s.s.s.s.s.s.s.d.s.s.s.s.s.f.f.f.f.d.a.a.L L a.a.L K K K K K P ......X.X.X.`.`.`.`.`.`.].].].].].].}.{.{.{.{.{.{.;X;X;X;X;X,X,X,X>X>X-X{.{.{.-X-X-X:X:X:X:X:X:X{.{.{.}.}.i.>.>.>.p.p.p.p.| | | | | | [ [ [ Z z u u u u c u p p p p p 8 8 8 & & & & & & & i s i i i i i i i & i & & & & & & > & & > & > > > > s s s s f f s s s & & & & & & & & w s s f k b N O.$.4.4.<.<.4.4.$.O.B B B N W @.@.N v v Q Q @.=.*.~ R M l l s i & & & & 8 i d x H H H H x j p p p i 8 8 i i 8 & 8 8 8 8 8 8 8 i 8 8 8 8 8 8 i i i p i p i 8 8 i p p p p p p p p p p p i i i i i i 8 8 8 8 8 8 8 8 8 i i 8 8 8 8 8 8 8 8 & & 8 8 & & & & 8 8 & 8 & & 8 8 & & & & 8 8 8 8 8 & 8 8 & 8 8 8 & & & & i i > > ",
"& % % % : > > % % % : : & & % % : : % % & & : : % : : : % % % % % % > > & & > > > i i i i s j j j j d d p p i i i i i i i i i > > > > > > > & & & & & & > > & & > > & > & & & & & & & & & & & & > > & > > > : : % % % % % % > > & & & & > > & & & & % % % % & % % % > > % % % % % % % % % % % % % % % % % % % % % % % % % % % % % % % % % % > > % % % % % % % % % % % % % % % % % % % % % % : % % % % % % % % % % % > > & & % % % % % % % % > > % % % % % % % % % % % % % % : : : : : : : : : : : : : : < < , , , , , , A A A A A A F F F F F F F F F F F F J J J J J J K K K K K K L L a.a.a.a.a.a.a.a.d.d.d.d.s.s.s.s.c.A.#X#X%X%XuX%XhXhXhXhXzXzXzXhXhXzXzXNXzXNXzXzXzXzXhX#X#XyXuXuXfXyXb.S.c.A.c.c.+XiXyXlXlXlXlXjXlXlXjXiXuXuXyXiXpXeXA.A.A.qXeXeX^.rXpXiXsXsXtXeXeXeXrXtXsXaXeXtXaXaXeXeXeXeXeXeXeXtXtXtXtXtXtXtXtXtXtXtXtXtXtXpXtXpXpXpXpXyXpXsXsXtXeXeXA.A.A.A.A.C.C.C.C.Z.Z.Z.Z.N.N.N.M.m.m.m.m.m.m.m.m.m.n.m.M.M.m.l.m.x.n.l.l.l.l.l.l.l.z.z.z.z.h.g.g.g.g.g.g.g.s.g.s.s.s.s.d.d.s.s.s.s.s.f.d.s.f.f.a.a.a.a.a.a.L K K K K K P ......X.X.X.`.`.`.`.`.`.].].].].].}.{.{.{.{.{.{.;X;X;X-X-X-X-X-X-X-X-X-X-X-X-X-X-X-X{.{.:X:X:X:X:X{.{.}.}.i.i.i.>.p.p.p.p.| | | | | | [ [ [ [ z u u u c c c p p p 9 9 8 8 8 & & & & & & & 8 i i i i s i i 8 & & & & & - - - 1 & & & - - - > 1 1 1 1 f f f s 1 # - # & & - - w w f f f g m E ! $.7.J.e.6.6.e.J.6.$.O.B m N ! *.7.=.W g N B @.=.-.*.@.E M l l s 8 8 & & i d x H H H x c j p p p i 8 8 i i i 8 & & 8 8 8 8 8 8 8 8 8 8 8 8 8 8 8 i i i i i i 8 i i i i i p p p p p p p i i i i i i i 8 8 8 8 8 8 8 8 8 i 8 8 8 8 8 8 8 8 & 8 i i i i i i 8 8 8 8 & & & 8 8 8 & & & 8 8 8 & & & & & & & & & & & & i i i > ",
"% % % % > > > % & & : : % % % % : : : & & & : : % % : : % % % % % % > > & & > > > i i i s d j j j j d d p p i i s i i i i i i > > > > > > > > & & & & & > & & & & > > > & & & & & & & & & & & & > > & & & > : : % % % % % % % % & & & & > > & & % & : : : % % % & > > > % % % % % % % % % % % % % % % % % % % % % % % % % % % % % % % % & > > > % % % % % % % % % % % % % % % % % % % % % % % % % % % % % % % % % % > > > % % % % % % % % % % % % % % % % % % % % % % % % % : : : : : : : : : : : : : : < < , , , , , , A A A A A F F F F F F F F F F F J J J J J J J J K K K K K L L a.a.a.a.a.a.a.a.a.d.d.d.s.d.d.s.c.c.^.#X+X#X$X%X%XhXhXhXzXzXhXhX%XhXxXzXzXmXzXzXzXzXhXhXuXuXuXuXfXfXfXfXyX+XpX..b.c.c.c.Q.lXlXzXlXlXlXlXjXuX#XuXlXiXrX^.A.A.A.^.eX^.^.eXpXpXeX^.eXeXeXeXrXaXaXaXeXaXaXtXeXeXeXeXtXtXtXpXtXpXpXtXtXtXtXpXsXpXpXpXpXpXsXsXsXiXpXpXsXsXsXtXeXA.A.A.A.A.C.C.C.Z.N.Z.N.N.N.N.N.N.M.M.m.m.M.M.M.m.m.n.m.M.M.m.l.m.m.n.l.n.n.l.l.l.l.l.z.z.z.h.g.g.g.g.g.g.g.g.g.g.s.s.s.s.s.s.s.s.s.s.s.f.s.s.f.a.a.a.a.a.a.L K K K K P P ......X.X.`.`.`.`.`.`.].].].].].].}.{.{.{.{.{.;X;X;X;X-X-X-X-X-X-X-X-X-X-X-X-X-X{.{.{.{.{.{.{.:X{.{.{.{.}.i.i.i.>.p.p.p.p.p.| | | | [ [ [ [ [ V z u u u d c u p p 9 8 8 8 8 8 * * & & & 8 i i 8 i s s i i 8 & & & & & - - 1 1 & & & & - - > > 1 1 1 s f f 1 - # # & & & - w w w s f f v N O.#.$.6.J.J.e.e.H.J.J.6.4.$.O.N W #.7.7.#.m v W @.@.*.3.-.Q E M x g 8 8 6 6 d x H o.H x j p p p p p 8 8 i i i i 8 & & 8 8 8 8 8 8 8 8 8 8 8 8 8 8 8 i i i i i i 8 8 i i i 8 p p p p p p p i s i i i i i i 8 8 8 & & & 8 8 8 8 8 8 8 8 8 8 8 8 8 i i i i i i 8 8 8 8 & & & & 8 8 & & & 8 8 8 > > > > > > i i & & & & i i i > ",
"& & & & & & & & & & % % % % % % : : : % % % : : % % % % > > > > > > > > & > > > s i i i s d p p j j j j d p s s s i i i i i i i > > > & & & & & & & & > > > & & & & & > & & & & & & & & & & & & > & & & % % % % % % % % % % % % % % % % > > % % % % : > > & & % % % % % % % % % % % % % % % % % > > > & : : : : % % % % % % % % % % % % % % % % % % % % % % % % % % % % % % % % > > > > > > > > % % % % % % % % % % % % % % % % % % % % % % % % & > > % % % % % % : : : : : : : : : : : : : : : > > > > , , , , , , , , A A A , A F F F F F F F F F F F F F J J J J K J K K K K K K a.a.a.a.a.a.d.d.a.a.d.d.d.j.s.d.j.c.A.+X!.!.#X&X$XhXhXxXzXzXhX$X$XuXhXlXzXzXzXzXzXzXxXjXhXhX$X%XjXlXlXlXlXfXfXAXc...S.b...b.pXAXMXlXlXlXlXlXjXuX#XiXBXiXrXeX^.^.A.^.eXeXeXeXtXeXeXeXeXeXeXtXaXsXaXaXaXaXaXeXeXeXeXtXtXpXsXsXsXpXtXpXtXpXsXsXsXsXsXsXdXsXdXdXsXsXsXsXpXpXtXeXA.A.A.A.qXC.C.C.C.N.N.N.N.N.N.N.N.M.M.M.M.M.M.M.M.M.m.m.M.M.M.n.m.m.n.n.n.l.l.l.l.l.l.l.h.h.h.h.h.h.g.g.h.h.g.g.s.s.s.g.s.s.s.s.s.s.s.s.s.s.f.d.a.a.a.a.a.a.a.L L L L P P ....X.X.X.`.`.`.`.`.`.].].].].].[.{.{.{.{.{.{.-X;X;X;X;X;X-X-X-X-X-X-X-X-X-X-X{.{.{.i.i.{.{.{.{.{.{.{.{.}.i.i.i.>.p.p.p.p.p.| | | | [ | [ [ [ V z z u u u d d p p 9 9 8 8 8 8 6 * & & i 8 8 8 i i i i i i 8 & > > > 1 & & & & & & & & s > > & & s s f f s > & & & & & - - s f w s g k m m B B %.4.e.I.H.w.1.4.7.6.6.4.4.$.$.4.7.D.*.W m M E @.-.*.=.#.W M l j j 8 8 j x H H x x j j p 8 8 8 8 8 8 8 8 i 8 8 8 8 8 8 8 i i i i 8 8 8 8 i i i i i i i i i 8 i i i i 8 8 8 8 i i i i i i i i i i i i i i 8 8 8 8 8 8 8 8 8 8 8 8 8 i i i i i i i i i i i i 8 8 8 & & & & 8 8 & & 8 8 8 8 & & & > & & & & & & & & & & & & ",
"& & & > & & & & & & % % % % & % : : : : & % % % % % % % : > > > > > > > & > > i i i i i s d p p d d d d p p s i s i i i i i i i > > & & & & & & & & & > > > & & & & & & & & & & & & & & & & & & > > > & % % % % % % % % % % % % % % % % > : % % % % : : & & % % % % % % % % % % % % % % % % % % > > % % : % : : % % % % % % % % % % % % % % % % % % % % % % % % % % % % % % % % > > & % % % % % % % % % % % % % % % % % % % % % % % % % % % % % & > % % % % % % : : : : % : : : : : : : : : : : , , > > , , , , , , , , , A A , A F F F F F F F F F F F J F J J K K J J K K K K K a.a.a.a.a.a.a.d.d.a.a.d.d.d.s.j.a.L v.^.!.!.&X&X$XhXzXzXzXzXhX$X$X$XuXhXlXlXhXjXjXxXzXzXzXjXhXhXxXzXzXhXuXjXfXMXyXyXA...^.A.S.+XA.A.iXlXlXzXzXMXMXjXuXlXiXpXrX^.eXeX^.eXeXeXeXeXeXeXeXeXeXrXtXsXsXsXaXaXaXaXeXeXeXeXtXtXsXsXsXsXpXtXtXtXsXsXdXsXsXsXsXdXdXdXdXsXsXsXsXpXtXeXeXqXA.A.qX0XC.C.C.C.N.N.N.N.N.N.N.N.M.M.M.M.M.M.M.M.M.M.m.M.M.M.n.m.m.n.n.n.n.l.l.l.l.l.l.l.h.h.h.h.h.g.g.h.h.g.g.s.s.g.g.s.s.s.s.s.s.s.s.s.s.f.f.a.a.a.a.a.a.a.a.a.L L P P ....X.X.X.`.`.`.`.`.`.].].].].].[.{.{.{.{.{.{.-X;X;X;X;X;X-X-X-X-X-X-X-X-X{.{.[.i.q.p.p.p.q.i.i.i.{.{.{.{.}.i.i.>.p.p.p.p.p.| | | | | [ [ [ [ V z z e u u u u p p 9 9 p 8 8 8 8 6 & & 8 8 8 8 i i s i i i 8 & > > > - & & & & & & & & i i > > - 1 s f s s 1 & & > - - 1 s f f w s g g g m m B O.<.J.T.U.r.5.5.6.J.J.6.6.6.6.7.3.7.4.#.W W W E M R E W ~ W x l z j x x H [ x j j p p i 8 8 8 8 8 8 8 8 8 8 8 8 8 8 8 8 i i i i 8 8 8 8 i i i i i i i i i i i i i i 8 i 8 8 i i 8 8 8 i 8 8 i i i i 8 i 8 8 8 8 8 8 8 8 8 8 8 8 8 i i i i i i i i i i i i 8 8 8 & & & & 8 8 & & 8 8 8 8 & & & > & & & & & & & & & & & & ",
"& & > > & & & & & : : : : : & & % % % % & % & % & & & & > > > > > > > > & > > i i i i i d d p p d d d d i i i i s i i i i i i & > & & & & & & & & & & & > & & & & & & & & & & & & & & & & & & & > > > > : : : % % % % % % % % % % % % % % % % % % % % : % % % % % % % % % % % % % % % % % % % % % % % % % % & & % % % % % % % % % % % % % % % % % % % % % % % % % % % % % % % % % % % % % % % % % % % % % % % % % % % % % % % % % % % % % % % % % % % % % % % % : % : : % : : : : : : : : : : : , , , , , , , , , , , , A A , , A F F F F F F F F F J J J J J J J J J J K K K K a.a.a.a.a.a.a.a.d.d.d.d.d.d.d.d.j.f.c.~.+X!.!././.2XzXbXbXzXuX$X$XuXuXuXjXhXhX$X%XhXlXzXzXlXlXjXxXjXhX%XhXjXhXuXuXfXMXdXfXdXfXc.A.c...A.fXlXMXMXMXNXMXMXMXMXiXtX^.eXeXeXeXeXeXeXeXeXeXeXeXeXrXtXsXsXsXsXaXaXaXaXaXeXtXtXaXsXsXsXpXtXtXtXpXsXdXMXsXsXsXMXMXMXMXdXdXsXpXtXeXeXeXqXqXqXqXqXC.C.C.C.C.C.N.N.N.N.N.N.N.M.M.M.M.M.M.M.M.M.M.M.M.M.M.n.n.n.n.n.n.n.l.l.l.l.l.l.l.l.h.h.h.h.h.g.h.h.g.g.s.s.s.s.s.s.g.s.s.s.s.s.d.d.d.d.a.a.a.a.a.a.a.a.a.a.a.P P ....X.X.`.`.`.`.`.`.`.].].].].[.[.{.{.{.{.{.-X-X;X;X;X;X;X;X;X-X-X-X-X-X{.{.i.p.1.} [ Z V } +.p.q.i.{.{.{.}.i.i.>.p.p.p.p.p.} | } | } [ [ [ V m u z e u u d e p p 9 9 8 8 8 8 * 8 & & 8 8 8 i i s s i i i & & > > - - & & - - - - & & i i i s s s s s 1 1 1 > 1 1 - - s s f f w f g g g g m m O.$.e.R..XU.e.8.8.e.J.J.J.8.4.*.#.#.#.O.#.2.*.@.E b b M W ~ R x z x H H H x c p p p i 8 i & & & 8 8 & & 8 8 8 8 8 8 8 8 8 8 i i 8 8 & & & 8 & & 8 8 > > 8 8 8 8 i i i i i i i i i 8 i i 8 i i i 8 8 8 8 i 8 i i 8 8 8 8 8 8 8 8 & i i i i i i i i i i i i 8 8 8 & & & & 8 8 8 & 8 8 8 8 & & & & & & & & & & & & & & & & ",
"& & & & & & & & & > : : : : : & % % % % % & % & & & & & > > > > > > > > & > > i i i i i s d p p d d d d i i i i s i i i i > & & & & & & > & & & & & & & & & & & & & & & & & & & & & & & & & & & > > > > : : : % % % % % % % % % % % % % : % % % % % : : % % % % % % % % % % % % % % % % % % % % % % % % % % & & % % % % % % % % % % % % % % % % % % % % % % % % % % % % % % % % % % % % % % % % % % % % % % % % % % % % % % % % % % % % % % % % % % % % % % % % % % : : : : : : : : : : : : : : , , , , , , , , , , , A A A , , A F F F F F F F F F J J J J J J J J J J K K K K a.a.a.a.a.a.a.a.d.d.d.d.d.d.d.d.a.L Q.iX#X+X+X!.$XzXNXNXxXhX$X$XuXhXjXuXuXuX$X#X#XuXlXzXjXhXlXzXxXhX%X$XjXlXhXuX#XfXfXfXfX^.+X..A.^.^.A.pXfXMXMXNXAXNXNXMXlXiXpXrXeXeXeXeXeXeXeXeXeXeXeXeXeXrXtXaXsXsXsXsXaXaXaXaXtXtXtXpXsXdXdXsXtXtXtXpXsXdXdXsXsXdXHXKXKXMXdXsXpXtXrXeXeXqXA.qXqXqXqXC.C.C.C.C.C.B.N.N.N.N.N.M.M.M.M.M.M.M.M.M.M.M.M.M.M.M.n.n.n.n.n.n.n.l.z.l.l.l.l.l.l.h.h.h.h.h.h.h.h.g.g.s.s.s.s.s.s.g.s.s.s.s.s.d.d.d.d.a.a.a.a.a.a.a.a.a.a.a.P ......X.X.`.`.`.`.`.`.].].].].].[.[.{.{.{.{.{.-X-X-X;X;X;X;X;X;X-X-X-X-X{.[.q.+.Z Z y y q r t Z Z } p.i.i.{.{.i.>.>.>.p.p.p.p.} | | } | [ [ [ V Z z u e u u e p e p 9 9 8 8 8 8 * 8 & & 8 8 i i i i i i i i & & & & - - & & - - - - & & & i s s s s s s 1 1 1 1 s s s s s f f s w f g g g g m m O.%.6.U.oXT.U.J.6.7.8.H.K.4.O.! W N m m B #.*.*.W M l b M Q o.R x R o.o.x c c p p i 8 8 & & 8 8 8 8 & & 8 8 8 8 8 8 8 8 8 8 8 i 8 8 & & 8 8 & & & & & & 8 8 8 8 i i i i i i i i i i i i 8 8 8 i 8 8 8 8 i i i i 8 8 8 8 8 8 8 8 & i i i i i i i i i i i i 8 8 8 8 8 & & 8 8 & & 8 8 8 8 & & & & & & & & & & & & & & & & ",
"& & & > > > > > : : > > : % % % & & & & & & & & > > > > > > > > > > > > > > > i i i i i s s p p i i i i i i i i s s i i i > > > & & & & & & & & & & & & & & & & & & & & & & & & & & & & & & & & > > > & : : > > > & % % % % % % > % % % % % % % % % % % % % % % % % % % % % % % % % % % % % % % % % > > : : % % % % % % % % % % % % % % % % % % % % % % % % % % % % % % % % % % % % % % % % % % % % % % % % % % % % % % % % % % % % % % % % % % % % % % % % % % % % % % % : : : : : : : : : : : > > > , , , , , , , A A A F F F F F F F F F F F F F J J F F J J K K K K K K K K K K a.a.a.a.a.d.d.d.d.d.d.d.j.a.f.c.lXuX$X&X/.$XxXlXhX%X$X$X#X%XuXjXjXuXuX#X(.(.#XuXlXzXzXzXzXzXxXxXxXxXzXlXjXyX#XyXfXuXfXyXpX+Xc.A.b.b.b.c.v.MXMXMXMXMXMXiXpXyXpXtXrXeXeXeXeXeXeXeXeXeXtXrXrXaXsXsXsXsXsXsXsXaXaXaXaXaXaXsXsXsXsXtXtXaXsXsXdXMXdXdXMXKXLXKXHXdXsXpXtXtXeXA.A.A.A.qXqX0XC.C.C.C.C.C.C.N.N.N.N.N.M.M.M.M.M.M.N.N.M.M.M.m.M.M.M.n.m.m.n.n.n.n.l.l.l.l.l.l.l.l.h.h.h.h.z.z.g.g.g.g.g.g.g.s.s.s.s.s.s.s.s.s.s.d.d.d.a.a.a.a.a.a.a.a.a.a.P P ....X.X.X.X.`.`.`.].].].].].].].{.{.{.{.{.{.{.-X-X;X;X;X;X;X;X-X-X-X-X-X{.i.+.Z e w w 8 & 8 8 6 q t C +.i.{.{.i.i.>.>.p.p.p.| | } | } [ [ [ Z Z z z z e u u p p y p 9 p 8 9 8 8 & * & & 8 8 i i i i i 8 8 & & & & - - - & - - - & & & & & & & > & > 1 1 s s s s s 1 & w s f f f f f g g t g m B O.%.5.U.E.oXXXR.H.8.J.R.R.J.$.B N m v g g M W W ~ W M M g x R W o.Q o.H c p p p 8 8 8 8 i i i i i i 8 8 8 8 8 8 8 8 8 8 i i 8 8 > > & & & & & & & & & & & & & & & & & & & & & & & & & & 8 i i 8 i i i i i i i i i i i i i i i i i i i i i i i i i i i i i i i i i i i 8 & 8 8 8 & & & & & & & & & & & & & & & & & & & & ",
"& & > > & & > > : : : > : : % % & & & & & & & & > > > > > > > > > > > > > > > i i i i i s s p p i i i i i i i i s i i > > > > > & & & & & & & & & & & & & & & & & & & & & & & & & & & & & & & & > > & & % % % % > & % % % % % % & % % % % & % % % % % % % % % % % % % % % % % % % % % % % % % % % % > > : : % % % % % % % % % % % % % % % % % % % % % % % % % % % % % % % % % % % % % % % % % % % % % % % % % % % % % % % % % % % % % % % % % % % % % % % % % % % % % % : : : : : : : : : : : : > > , , , , , , , , A A A A F F F F F F F F F F F F J J F F J J K K K K K K K K K a.a.a.a.a.a.d.d.d.d.d.d.d.d.a.L pXMXuX$X&X$XuXxXuX#X&X&X$XuXhXuXuXuX%X#X(.!.#X$XhXlXlXzXzXNXzXzXzXzXzXNXzXiXyX+XyXuX#XuXyXpXdXdXdX+Xc.A.b.c.^.MXBXBXiXBXfXBXpXpXtXrXtXeXeXtXtXaXeXeXeXtXtXtXpXsXsXdXdXsXsXsXsXsXaXaXaXaXsXsXsXsXaXaXsXsXsXdXMXdXdXMXHXKXHXMXdXsXpXpXtXtXeXeXqXqXqXqXC.C.0XA.A.C.C.C.N.N.N.N.N.N.M.M.M.M.N.M.N.M.M.M.M.M.M.M.m.M.M.m.n.n.n.l.l.l.l.l.l.l.l.z.h.h.h.h.z.g.g.g.g.g.g.g.s.s.s.s.s.s.s.s.s.s.s.d.d.a.a.a.a.a.a.a.a.a.a.a.P ....X.X.X.X.`.`.`.].].].].].].[.{.{.{.OX{.{.{.-X-X;X-X;X;X;X-X-X-X-X-X{.i.1.V t s i i > , > > & # q t Z p.i.{.i.i.>.p.p.p.| | | [ [ [ V [ [ Z u u z u u u y p p 9 9 9 p 8 9 8 8 6 8 8 & 8 8 i i i i i 8 & & & & & & - - & & - - & & & & & & & & & > 1 1 s s s s s 1 - - - s f f f f g g v m B B } %.4.H.R.XXT.K.J.6.7.7.I.I.6.O.m v t r g z M o.o.Q R R x x x W o.o.H x x d p 8 8 8 8 s i i i i i i 8 8 8 8 8 8 8 8 8 8 i i 8 8 > > & & & & & & & & & & & & & & & & & & * & & & & & & & 8 8 8 8 i i i i i i i i i i i i i i i i i i i i i i i i i i i i i i i i i 8 8 8 & 8 8 8 & & & & & & & & & & & & & & & & & & & * ",
"& & > > & & > > : : > > > > > > > > > > > > > > > > > > > > > > > > > > > > i i i i i i i i p p i i i i i i i s i i > > > > > > & & & & & & & & & & & & & & & & & & & & & & & & & & & & & & & & > & & & % % % % > : % % % % % % % % % % > > % % % % % % % % % % % % % % % % % % % % % % % % % % % % % % % % % % % % % % % % % % % % % % % % % % % % % % % % % % % % % % % % % % % % % % % % % % % % % % % % % % % % % % % % % % % % % % % % % % % % % % % % % % : : % % % % % % : : : : : : : : > > > > , , , , , , A A F A F F F F F F F F F F F F F F J F J J J J K K K K K K K a.a.a.d.d.d.d.d.d.d.s.s.d.j.a.v.MXlXhX&X$XhXuX#X/./.#X%X%X%X%X%X$X#X#X#X(.#X$XhXhXlXlXzXzXzXNXzXzXzXzXlXlXuX#X!.!.#XyXpXyXfXpXfXuX+XS.b.A.A.^.~.tXpXdXBXiXdXfXiXpXtXtXtXpXpXpXaXaXeXtXtXpXpXsXsXdXdXMXdXdXsXsXsXsXaXaXaXsXsXsXsXaXsXsXsXsXdXdXdXdXdXHXHXMXdXdXsXsXaXaXaXeXeXqXqXA.A.qXqXqXqXqXqXqXA.C.N.N.N.N.N.N.N.N.N.N.N.N.N.N.M.M.M.N.M.m.M.M.M.m.n.n.l.l.l.l.l.l.l.l.h.h.h.h.z.z.h.g.g.g.g.g.g.g.s.s.s.s.s.s.s.s.s.s.d.d.a.a.a.a.a.a.a.a.a.a.a.P ....X.X.X.`.`.`.`.].].].].].[.[.{.{.{.OX{.{.{.-X-X-X-X-X;X;X-X-X-X-X{.u.1.[ t r i , , , > , > & & # q t } i.{.{.i.>.p.p.p.| | | [ [ [ V [ Z Z u u u e u y y p p 9 9 9 p 8 6 8 8 8 8 8 & * 8 i s i i i 8 & & & & & & & & = ; ; ; ; = ; = & - & & & 1 1 1 1 s s s 1 1 1 1 1 s f f f f k g m W B m B %.4.H.E.oXE.U.U.e.7.6.J.U.W.7.! v r t M M V Q o.Q M x x V x W o.o.R j x j d 8 8 8 8 i i i i i i i i i i i i i i 8 8 8 i i 8 & & & & & & & & & # # # # # # # # & & & # # # # & & & & & & & 8 8 8 i i i 8 8 8 8 i i i i i i i i i i i i 8 8 8 8 8 8 8 8 & & 8 & 8 8 8 8 8 & 8 8 8 8 & & & & & & & & & & & & & & & & * * ",
"& & > > > > > > : : > > > > > > > > > > > > > > > > > > > > > > > > > > > > i i i i i i p i p s i i i i i i i s i > > > > > > > & & & & & & & & & & & & & & & & & & & & & & & & & & & & & & & & & & & & % % % % > > % % % % % % % : : : > > % % % % % % % % % % % % % % % % % % % % % % % % % % % % % % % % % % % % % % % % % % % % % % % % % % % % % % % % % % % % % % % % % % % % % % % % % % % % % % % % % % % % % % % % % % % % % % % % % % % % % % % % % % : % % % % % % % : : : : : : : : > > > , , , , , , , A A F F F F F F F F F F F F F F J F F J J J J J K K K K K K a.a.a.a.d.d.d.d.d.d.s.s.d.s.f.f.MXMXlXhXhX$X$X#X!.!.$XuX%X%X%X%XuX#X#X#X#X#XuXhXlXzXzXxXzXzXzXzXzXzXzXzXzXlXuX!.!.!.#XuXuXuXfXiXfXfXfXfX+XtXA.A.v.c.v.iXfXdXiXMXiXpXpXpXpXpXpXpXsXsXaXtXtXpXsXsXsXdXMXMXdXdXdXdXsXsXsXaXaXsXsXsXsXsXsXsXsXsXsXdXdXdXdXMXdXdXdXsXsXsXsXaXtXeXeXqXqXA.A.qXqXqXeXeXqXqXqXA.B.N.N.N.N.N.N.N.B.N.M.M.N.N.N.M.M.N.M.m.M.M.M.m.m.n.l.l.l.l.l.l.l.l.h.h.h.h.z.z.z.g.g.g.g.g.g.g.g.s.s.s.s.s.s.d.s.s.s.d.a.a.a.a.a.a.a.a.a.a.P P ....X.X.X.`.`.`.`.].].].].].[.[.[.{.{.OXOXOX{.{.{.-X-X-X;X;X-X-X-X{.[.i.} Z w s , , , , > > > : & $ ; t } q.[.{.i.>.p.p.p.| | | [ [ [ V [ Z u u z u e e y y p 9 9 9 9 9 8 6 8 8 8 8 8 & * 8 i s i i i 8 & & & & & & & - & - - - - - - - - - & & & 1 1 1 1 1 1 1 1 1 s s s 1 s f f f k g N B B m B %.5.H.T.T.U.T.R.6.4.J.J.I.R.L.7.B g g M V W V M V R x x V R V R o.o.Q x x d j 8 8 8 8 i i i i i i i i i i i i i 8 8 8 i i 8 & 8 & & & # # # # # # # # # # # # & & # # # # & & & & & & & & * * 8 8 8 i 8 8 8 8 8 8 i i i i i i 8 8 8 8 8 8 8 8 8 8 8 8 & & & & 8 8 8 8 8 & 8 8 8 & & & & & & & & & & & & & & & & * * * ",
"> > > > > & & > > > > > > > > > & & & & > > > > > > & & & & > > & & & & > > i i i i i i i i i i i i i i i i i i i i i i > > > > > > > > & & & > > > & & & > > > > > > > > & > > > & & & > > > & > & & & : % % % > > > : % % % & % > > > > > > > % % % % % % % % % % % % % % % % % % % % % % % % % % % % % % % % % % % % % % % % % % % % % % % % % % % % % % % % % % % % % % % % % % % % % % % % % % % % % % % % % % % % % % % % % % % % % % % % % % % % % % % % % % % % % % % % : : : : > , < < , < < < , < < < , , A A F F F F F F F F F F F F F F J J J J J J J J J K K K K K a.a.a.a.a.a.a.d.a.a.d.s.L f.J yXMXzXxXhX$XR.L.!.#X%XhXhXhX%XhXhX%X#X/.#XuXuXjXjXzXxXxXxXzXzXzXzXbXzXzXlXlXuX$X#X~.#XyXyXiXiXlXlXlXlXlXlXfXiXA.Z.A.b.S.tXfXyXfXfXBXfXiXiXiXiXsXpXpXsXsXpXpXpXsXdXdXMXMXHXHXMXdXdXdXsXsXsXsXsXsXsXsXsXsXsXsXsXsXsXsXdXMXMXdXdXsXsXsXaXaXeXeXeXwXqXA.qXqXqXqXeXaXaXaXeXqXA.C.N.N.N.N.N.N.N.N.N.N.N.N.N.N.N.N.N.M.M.M.M.M.M.m.n.n.l.n.n.l.l.l.l.l.l.l.l.l.l.z.z.z.h.h.g.g.z.g.g.g.s.s.s.s.s.s.s.s.s.d.d.d.d.a.a.a.a.a.a.P ......X.X.X.`.`.`.=X].].].].[.[.{.{.{.OXOX{.{.{.{.{.{.-X-X;X;X;X;X-X{.i.p.Z t s i i , , > < < > > > > & q V 1.i.{.i.>.p.p.p.| | } } } [ [ Z Z u u u u u e e y y y y p 9 p 8 8 8 i i 8 * * 8 8 i i i i i i & & & & & & & & s > & & & & & & 1 1 1 > 1 1 s s s s 1 1 s s s s s s s s f g k g g m m m m O.5.U.T.XXXXE.I.7.,.8.U.R.R.R.J.2.M v g g M R o.V x R W W x x x R R M R x l l j s i 8 i i i i i i i i i i i i i i 8 8 i i 8 & i 8 & & & & & & # $ $ $ $ $ $ $ $ # # # & & & & & & & & & & & & & & i i i i i i i i i i > > > > > > i i & & & & & & & & & & 8 8 8 8 & & & & & & & & & & & & & & & & & & & & & & & & & & ",
"> > > > > & > > > > > > > > > > & & & & > > & & > > & & & & > > & & & & > > > i i i i i i i i i i i i i i i i i i i i i > > > > > > > > & > & > > > > > > > > > > > > > > & > > > > & & > > > > > & & & : : % % > > > : % % % > > > & & % % % % % % % % % % % % % % % % % % % % % % % % % % % % % % % % % % % % % % % % % % % % % % % % % % % % % % % % % % % % % % % % % % % % % % % % % % % % % % % % % % % % % % % % % % % % % % % % % % % % % % % % % % % % % % % % % % % % : : : : : > < < , < < < , , , , , , A A A F F F F F F F F F F F F F J J J J J J J J J K K K K K K a.a.a.a.a.a.d.a.a.s.a.f.L Z.jXMXxXhX$XL.L./.#X%XhXhXhXhXhXhXhXuXjXjXuX$XuXhXhXlXlXxXxXzXzXzXNXzXzXjXhXjXiXuX#XyXyXyXuXiXiXlXlXzXlXzXzXlXlX+X^.tXtXS.^.b.^.yXMXMXBXBXBXBXfXiXsXsXsXdXdXsXsXsXdXMXMXHXJXKXHXMXdXdXdXsXsXsXsXsXsXsXsXsXsXsXsXdXsXsXdXdXMXdXsXsXsXsXaXeXeXeXeXqXqXqXqXqXqXeXtXsXgXsXaXqXqXC.N.N.N.N.N.C.C.N.N.N.N.N.N.N.N.N.V.M.M.M.M.M.M.m.n.n.l.n.n.l.l.z.l.l.l.l.l.l.l.z.z.z.z.h.h.z.z.g.g.g.g.g.s.s.s.s.s.s.s.d.d.d.d.a.a.a.a.a.a.P ......X.X.X.`.`.`.=X].].].].[.*XOX[.{.OX{.{.{.{.{.{.{.{.-X-X-X-X;X-X{.i.} Z e i i > > > , > < > > % : & ; z } i.i.}.>.p.p.p.| | | } } [ [ Z Z u u u u u e e y y u p p 9 p p 8 8 i 8 8 8 8 8 8 i i i i 8 i & & & & & & & & i > & & & & & & 1 1 > > 1 1 s s 1 1 1 1 s s s s s s s s g g g g z m m B } 4.H.T.XXoX@XXXJ.4.2.8.I.U.W.L.J.7.! N M M g x R R V R W V x g g x M x R x x x l j s 8 i i i i i i i i i i i i i i 8 8 i i 8 & 8 & & & & & & & % % $ $ $ $ $ $ $ $ % # & & & * & & & # & & & & & & 8 8 i i i i i i i i i i > > > > i i & & & & & & & & & & 8 8 8 8 & & & & & & > & & & & & & & & & & & & & & & & & & & ",
"> > > > > > > > > > > > & & & & & & & & & & & & > > & & & & & & & & & & & > > i i i i i s s s s i i i i i i i i i i i i > > > > > > > > > > > > > > > > > > > > > > > > > > > > > > > > > > > > > > & & : > % % : % % % % % > > % % & % > > > > % % % % % % % % % % % % % % % % % % % % % % % % % % % % % % % % % % % % % % % % % % % % % % % % % % % % % % % % % % % % % % % % % % % % % % % % % % % % % % % % % % % % % % % % % % % % % % % % % % % % % % % % % % % % : % % % : : : : < < < < , , , , , , , , , , A A S F F F F F F F F F F F F F J J J J J J J J K K K K K K K a.a.a.a.a.a.d.d.d.s.a.L f.pXMXjXuX&XR.R.#XuXuXhXhXhXhXuXuX%XuXuXhXuX#X$XhXhXhXhXjXlXxXzXzXNXNXzXjXhXuXjXiXuXuXyX#XyXyXiXiXjXlXlXzXNXMXMXMXfXiXfXpXS.A.Z.Z.^.dXdXMXMXMXdXdXdXsXsXsXdXdXdXdXdXdXMXHXJXKXKXHXHXHXMXdXdXsXsXsXsXdXsXdXsXdXdXsXdXdXdXdXdXdXsXsXsXsXaXaXeXeXeXeXqXqXqXqXwXqXeXaXdXHXgXaXeXqXC.C.N.B.N.N.C.C.N.N.N.N.N.N.N.N.N.V.M.M.M.M.M.M.m.m.l.l.l.l.l.l.l.l.n.l.l.l.l.l.z.z.z.h.z.z.z.z.g.g.s.s.g.s.s.s.s.d.s.s.d.d.d.d.a.a.a.a.a.a.P ......X.X.X.`.`.`.=X*X*X].].*X*X*X[.|. X{.{.{.{.{.{.-X-X-X-X-X-X-X{.[.q.} z d i i , , , , , < > : : : > & t } q.i.i.>.p.p.p.| } } } } [ V Z Z Z u z u e e e e y y p p 9 p p i 8 8 8 8 8 8 8 8 i i 8 8 8 8 & & & & i i s i i > > & & & & & 1 1 1 1 1 1 1 s 1 1 1 1 1 s s s s s s s g g g g g m B O.5.U.T.E.oX@X<X@XR.J.8.H.I.I.J.8.7.2.#.O.W M g g x V V V x x x x g g g l l M R R x l j s i 8 8 8 i i i i i i i i i 8 8 8 i i & & & & & & & & & & % % % % % % $ $ $ $ % % & * $ $ # # * * * & & & & & & & 8 8 i i > > > > i i i i > > > i & & & & & & > > & 8 8 8 & & & & & & & & & & & * & & & & & & & & & & & & & & & & ",
"> > > > > > > > > > > > & & & & & & & & & & & & & & & & & & & & & & & & & > > > i i i i s s s s i i i i i i i i i i i i > > > > > > > > > > > > > > > > > > > > > > > & > > > > > > > > > > > > > > & & > > % % % % % % % % > > % % % % % % % % % % % % % % % % % % % % % % % % % % % % % % % % % % % % % % % % % % % % % % % % % % % % % % % % % % % % % % % % % % % % % % % % % % % % % % % % % % % % % % % % % % % % % % % % % % % % % % % % % % % % % % % % % % % % : % % % : : : : < < < < , , , , , , , , , A A A S S F F F F F F F F F F F F J J J J J J J J K K K K K K K a.a.a.a.a.a.a.d.s.a.d.L v.fXiX$X#X&X/.$XhXjXuXuXuXuXuX%X%X%X%XuXuX%X$X$X$XuXhXhXhXlXlXzXNXNXNXzXjXhXhXiXuXuXyXyX#XyXuXlXlXlXlXzXzXNXNXNXMXMXfXpXyX^.v.tXc.A.^.~.pXMXMXfXMXMXdXdXdXdXdXdXdXdXdXHXJXLXLXKXKXHXHXHXMXdXsXsXdXdXdXdXdXdXdXdXdXdXdXdXdXdXdXsXsXsXsXaXtXeXeXeXeXqXqXqXqXwXqXeXtXsXgXdXaXqXqXA.C.B.B.N.N.C.C.N.N.N.N.N.N.N.N.N.N.M.M.M.M.M.M.m.m.l.l.l.l.l.l.l.l.l.l.l.l.l.l.z.z.z.h.z.z.z.z.g.g.s.s.g.s.s.s.d.d.s.s.d.d.d.d.a.a.a.a.a.a.P ......X.X.X.`.`.`.=X*X*X*X*X*X*X*X[.|. X{.{.{.{.{.-X-X-X-X-X-X-X-X{.[.q.} z d i a , , , , , , > : : > > 8 z } q.{.i.p.p.p.p.| } } } [ V Z Z Z Z Z z z e e e e y y p p p p p i 8 8 8 8 8 8 8 8 i i i 8 8 8 & & & & s s s s i > & & & & & s 1 1 1 - 1 1 s s 1 1 1 1 1 s s s s f s s g g g g g m O.4.H.T.XXT.T.XX@XXXE.R.U.I.U.I.F.7.@.#.7.7.*.W x x x x x x x d d x g j s s f l M x x x l j s 8 8 8 i i i i i i i i i 8 8 8 i i & & & & & & & & & & % % % % % % $ $ $ $ % % $ * % % # # * * $ # & & & & & & & & 8 8 & & & & i i i i > > i i & & & & & & > > & & 8 8 & & & & & & & & & & & & & & & & & & & & & & & & & & & & ",
"> > & & & & & & % & & & > & & % & & & & & & & & & & & & & & & & & & & & & & > > i i i i i i i i i i i i i i i i > > > > & & & & > > > > > > > > > > > > > & & > > & & & > > > > > > > > > > & > > > > > % % % % % % % % % % % % % % % % % % % % % % % % % % % % % % % % % % % % % % % % % % % % % % % % % % % % % % % % % % % % % % % % % % % % % % % % % % % % % % % % % % % % % % % % % % % % % % % % % % % % % % % % % % % % % % % % % % % % % % % % % % % % % % % % : : : : : : : : : < < < , , , , , , , , A A A A A A F F F F F F F F F F F F J J J J J J J J K K K K K K L a.a.a.a.a.d.d.d.d.a.L c.~.yX#X#X#X$XhXhXhXuX$X$X$X$X$X$X#X#X#X%X%X$X$XuX%X%XuXhXhXlXzXzXNXzXzXlXxXjXjXuXuXuX$XyX#XyXuXlXlXlXzXNXzXzXNXNXMXMXiXfXfXfXtXdXc.Z.Z.A.~.dXMXdXfXfXdXdXdXdXdXdXdXMXdXHXKXPXPXKXKXHXHXHXHXdXdXdXdXdXMXdXMXdXMXMXMXMXdXMXMXMXdXdXsXsXsXaXaXeXeXeXqXqXeXwXwXwXwXwXeXaXaXaXtXqXqXC.C.C.B.B.B.N.N.N.N.N.N.N.N.N.N.N.V.M.M.M.M.m.m.m.n.l.l.n.n.n.n.l.l.l.z.l.l.l.l.z.z.z.z.h.z.z.z.g.g.s.s.s.s.s.s.d.d.d.d.d.d.d.d.a.a.a.a.a.a.L P ....X.X.X.`.`.=X].*X*X].].].[.[.[.[.[.{.{.{.{.-X-X-X-X-X-X-X-X-X{.i.q.} z s > i , , , , , , > > > > > s t } q.i.i.p.p.p.p.p.| } [ [ Z Z Z Z Z u z u e e e e e y y 9 p p 8 8 8 8 8 8 8 8 i i 8 & & & & & & & & & s s 1 1 1 & & & & - 1 1 > & & 1 1 1 1 s 1 1 1 1 s s s s s s s f g g g z m } 4.H.T.T.T.R.E.E.E.E.E.E.R.R.U.I.J.7.2.7.J.J.*.Q M M V x x x x d d g g d s w w d g g g l l k j d 8 8 i i i 8 i i i i i 8 8 8 > > & & & & & & & & & & % $ % % % % % % $ % % % $ $ $ $ $ $ $ $ $ * # & & & & & & & & & & & & & & & & & & & & & & & & & & & & > & & & & & & & & & & & & & & & & & & & & & & & & # # # $ & & & & ",
"> & & & & & & & & & & & > & & & & & & & & & > > & & & & & & & & & & & & & & & > i i i i i i i i i i i i i i > > > > > > & & & & > > > > > > > > > > > > & & > > > > & & > > > > > > > > > > & & > > > > > % % % % % % % % % % % % % % % % % % % % % % % % % % % % % % % % % % % % % % % % % % % % % % % % % % % % % % % % % % % % % % % % % % % % % % % % % % % % % % % % % % % % % % % % % % % % % % % % % % % % % % % % % % % % % % % % % % % % % % % % % % % % % % % : : : : : : : : : < < < , , , , , , , , A A A A A A A F F F F F F F F F F F J J J J J J J K K K K K K K L a.a.a.a.a.d.d.d.d.d.L b.uXuXuX%X%X%XhXhX2XuX%X$X#X#X&X#X#X+X!./.#X$X%XjXjXhXuXhXjXlXjXlXlXlXlXlXzXlXhXuXuXuXuXuXyXuXuXlXlXzXzXzXzXzXzXNXMXMXlXlXfXBXdXMXv.S.A.^.A.+XtXtXdXdXdXsXdXdXdXdXdXMXMXHXKXLXLXKXHXHXHXHXHXMXdXdXdXMXMXMXMXMXMXHXMXMXMXMXMXHXdXdXdXsXsXaXaXaXeXeXeXeXeXwXeXeXeXwXeXeXeXeXeXqXqXC.C.C.C.C.B.N.N.N.N.N.N.N.N.N.N.N.V.M.M.M.M.m.m.m.n.l.n.n.n.n.n.l.l.z.z.l.l.l.l.z.z.z.z.h.z.z.z.g.g.s.s.s.s.s.s.d.d.d.d.d.d.d.d.a.a.a.a.a.a.L P ....X.X.X.`.=X=X*X*X*X].].].].[.[.[.[.[.{.{.{.>X-X-X-X-X-X-X-X{.{.i.q.+.V d > i , , , , , > > > : % > w Z +.q.i.>.p.p.p.p.| } } [ Z Z Z Z Z u u u u e e e e e y y 9 p p 8 8 8 8 8 8 8 8 i 8 & & & & & & & & & & > > 1 1 1 & & & - 1 1 1 > > & 1 1 1 1 s 1 1 1 1 s s s s s w s g g z m B %.4.J.E.E.T.R.R.E.E.E.E.E.E.R.W.U.J.8.6.6.F.J.F.3.@.R M x x x W R x d d g g s w w s f s s j k l l j s 8 i i i i i i i i i 8 8 8 > & & & & & & & & % % $ $ $ % % % % % % $ % % % $ $ $ $ $ $ $ $ $ $ # # & & & & & & & & & & & & & & & & & & & & & & & & & & & & & & & & & & & & & & & & & & & & & & & & & & & & & & & & & & & & ",
"> > & & & & & & & & & & > > & & & & & & & & & & & & & & & & & & & & & & & & & & & & & > i i i i i i > > > > > > > > > > & & & & > > > > > & & > & & & & & & & & > > > > > > > > > > & > > > > & > > > > > > : > > > % % % % % % % % % % % % % % % % % % % % % % % % % % % % % % % % % % % % % % % % % % % % % % % % % % % % % % % % % % % % % % % % % % % % % % % % % % % % % % % % % % % % % % % % % % % % % % % % % % % % % % % % % % % % % % % % % % % % % % % % % % : : : : : : : : : : < < < < < < , , , , A A , A A A A F F F F F F F F F F F J J J J J J K K K K L L K K a.a.a.a.a.a.d.d.d.a.P v.#XjXuXhX%X%X$X$X&X$X$X$X$X#X#X#X#X$X$X#X#X%XjXzXzXlXjXlXlXlXhXhXuXhXhXlXzXzXlXjXuXuXuXyXuXiXiXiXlXlXzXMXzXzXzXMXzXlXjXjXjXMXMXMXMXpXtXtX^.b.A.Z.A.sXdXdXsXdXdXdXdXMXMXMXMXHXHXHXHXHXHXHXHXHXHXHXMXMXMXMXHXHXHXHXHXHXHXMXMXHXMXMXdXdXsXsXaXaXaXeXeXeXeXeXeXeXeXeXeXeXqXqXqXqXwX0XC.C.C.C.C.N.N.N.N.N.N.N.N.N.N.N.N.V.V.M.M.V.m.m.n.n.n.n.l.l.n.n.n.l.l.l.l.l.l.l.z.z.z.z.h.z.z.z.g.g.s.s.s.s.s.s.d.d.d.d.d.d.d.d.a.a.a.a.a.a.L P ....X.X.X.`.=X=X].*X].].].[.[.[.].[.[.[.{.{.{.{.{.{.-X-X{.{.{.{.{.[.i.1.} m s i , , , , , , > > % # w g C p.q.i.>.p.p.p.p.| | | Z Z Z Z Z Z z u u e e e e e e y y 9 9 p 8 8 8 8 8 8 8 8 8 & & & & & & & & & & & > > 1 1 1 & & > 1 1 1 1 > > 1 1 1 1 1 1 1 1 1 1 s s s s s s f g g N O.#.7.H.T.E.U.U.U.T.R.T.R.W.E.R.I.I.U.J.7.7.8.6.7.4.3.-.@.N x x V o.o.V g e g g f s s s j s f j j l l l j s i 8 8 i i i i i i 8 8 8 & & & & % & & & & % % % $ $ $ $ $ $ $ $ $ $ $ % % % $ % % % % % $ $ $ $ % & & & & & & & & & & & & & & & & & & & & & & & & & & & & & & & & & & & & & & & & & & & & & & & & & & & & & & & & & & & ",
"> > & & & & & & & & & & > > & & & & & & & & & & & & & & & & & & & & & & & & & & & & & & & & 8 & i i > > > > > > > > > > > & & & > > > > & > > > & & % % % % % % > > > > > > > > > > & & > > > > > > > > > > > > > > % % % % % % % % % % % % % % % % % % % % % % % % % % % % % % % % % % % % % % % % % % % % % % % % % % % % % % % % % % % % % % % % % % % % % % % % % % % % % % % % % % % % % % % % % % % % % % % % % % % % % % % % % % % % % % % % % % % % % % % % % % : : : : : : : : : : < < < < < < , , , , , , , A A A F F F F F F F F F F F F J F J J J J K K K K L L K K a.a.a.a.a.a.a.d.a.d.P Q.lXhX$X#X/./.&X&X/.&X/./.$X$X%X$X$X%XhXjXxXhXxXzXzXzXzXjXlXlXhXhXuXhXhXhXzXlXlXzXlXjXuX#XuXuXuXiXBXlXlXlXlXzXMXMXzXlXjXjXlXzXMXMXMXMXMXfXA.Z.A.A.A.tXtXsXdXdXdXMXHXMXMXHXHXHXHXHXHXHXHXHXHXHXHXHXMXHXHXHXHXHXHXHXHXHXHXHXHXHXHXMXMXdXdXsXaXaXaXeXtXtXeXtXtXtXtXtXeXeXqXqXqXA.C.0X0XC.C.C.B.N.N.B.N.N.N.N.N.N.N.N.N.V.V.V.M.V.M.m.n.n.n.n.l.l.n.n.l.l.l.l.l.l.l.l.z.z.z.z.g.z.z.z.g.g.g.s.s.s.s.s.s.d.d.d.d.d.d.d.a.a.a.a.a.a.L P ....X.X.X.`.`.=X`.].].].].[.[.].].[.[.[.{.{.OXOX{.{.{.{.{.{.{.{.{.{.i.0.+.B g s > , , , , > > & # # r Z } 0.i.>.>.p.p.p.p.} } | Z Z V V Z z u t u e e e u u u p 9 p 9 p 8 8 8 8 8 8 8 8 & & & & & & & & & & & & & & - - - & > 1 > 1 1 1 > > 1 s s 1 1 1 1 1 1 1 s s s s s s g g z B #.4.J.T.E.U.I.U.T.E.E.R.W.I.I.I.I.U.J.8.7.7.6.7.,.*.4.3.#.M x g x R W R x g g g f s s s j j j j f j l l l j i i 8 8 8 8 i i 8 8 & & & & $ * $ $ % $ % % % % $ $ % $ $ $ $ $ $ $ $ $ % % % % % % % % $ $ $ $ % % % % & & & & & & & & & & & & & & & & & & & & & & & & & & & & & & & & & & & & & & & & & & & & & & & & & & & & & & & & ",
"> > > > & & & & & & & & & & & & > > > > > > > > > > > > > > > > & & & & > > > > & > & & > > > 1 > > > > > > > > > > > & & & & & > > > > & & & & > & & % & & & & & & & & & & & & > > > > & > & & & & & & % % % % % % % % % % % % % % % % % % % % % % % % % % % % % % % % % % % % % % % % % % % % % % % % % % % % % % % % % % % % % % % % % % % % % % % % % % % % % % % % % % % % % % % % % % % % % % % % % % % % % % % % % % % % % % % % % % % % % % % % % % % % & & & & : : % % : : : : : < < < < < < < , , , A A A A A S S S F F F F F F F F F F J J J J J J J K K K K K K K K a.a.a.d.d.a.a.a.a.P b.uX%X&X&X&X/.L./.(.&X$X&X&X$XhXhXhXuXjXzXzXzXzXzXzXhXhXlXzXNXlXuXuXjXjXhXlXzXzXzXzXzXuX~.#X#XuXuXuXiXBXlXlXlXMXMXzXzXzXlXlXzXzXMXMXMXMXAXAXdXtXtXtXA.A.A.A.sXdXMXMXKXMXMXMXHXHXMXMXMXHXHXHXKXKXKXHXHXHXHXHXHXKXKXKXKXKXHXHXHXHXMXMXMXdXdXsXsXaXaXaXaXaXaXaXaXaXaXaXaXtXeXqXwXwX0X0XC.C.C.C.B.B.B.B.B.B.B.B.B.B.N.N.N.V.V.V.V.M.M.m.m.n.n.n.n.n.n.n.n.n.l.l.l.l.z.l.l.l.z.z.h.h.h.h.g.h.h.s.g.s.s.s.s.s.s.s.d.d.d.d.a.a.a.a.a.a.a.P ......X.X.X.`.=X].].*X].].].[.[.[.[.[.[.{.{.{.{.{.{.{.{.{.{.-X-X{.{.i.i.p.} V t j s i i , * # w q q Z } 0.q.i.>.p.p.p.p.} } } [ [ [ V V Z z t t e e e e e c p p p p 8 8 8 8 8 8 8 & & * & & # # & & & & & > & & & & - - & = 1 1 1 1 1 1 > 1 1 1 & > 1 1 1 1 s s s s s f g g g t m O.7.J.K.U.U.U.T.T.XX@XE.R.I.W.W.I.I.W.H.8.8.F.7.%.O.#.#.*.=.@.M e g R W W M x g j d s s s j g x x x g g g g l d 8 6 8 & & 8 8 i & & & & * $ * $ # & & & & % % % $ $ % $ $ $ $ $ $ $ $ % % % $ $ $ % % % % % % % % % % % & & & & & & & & & & & & & & & & & & & & & & & & & & & & & & & & & & & & & & & & & & & & & & & & & & & & & * * ",
"> > > > & & & & & & & & > > & & > > > > > > > > > > > > > > > > & & & & & > > > & > & & > > & & > > > > > > > > > & & & & & & & > > > > & & & & > & & % & & & & & & & & & & & & > > > > & > & & & & & & % % % % % % % % % % % % % % % % % % % % % % % % % % % % % % % % % % % % % % % % % % % % % % % % % % % % % % % % % % % % % % % % % % % % % % % % % % % % % % % % % % % % % % % % % % % % % % % % % % % % % % % % % % % % % % % % % % % % % % % % % % % % % % % % : : : : : : : : : : < < < < < < , , , A A A A A S S S F F F F F F F F F F J J J J J J J K K K K K K K K K a.a.a.a.a.a.L L c.Q.$X&XR./.$X/.R.$XhXmXbXzXzXzXxXhXhXxXxXzXzXzXxXjXhXhXhXxXzXzXjX%X$XuXuXiXjXlXzXzXzXzXhXyXyXuXuXyXpXiXlXlXlXjXlXlXMXMXjXlXMXMXMXNXMXMXMXMXMXdXpXpX^.Z.A.tXA.pXpXsXMXdXKXKXKXHXHXMXMXMXMXHXKXKXKXLXKXKXHXHXHXKXKXLXKXKXKXKXHXHXHXHXMXMXdXdXsXsXaXaXaXaXaXaXaXaXaXsXsXaXaXtXeXwXwX0XC.C.C.C.C.B.B.B.B.B.B.B.B.B.N.N.N.V.V.V.V.M.m.M.n.n.n.l.l.n.n.n.n.n.n.l.l.l.l.z.z.z.z.z.z.g.g.g.g.g.h.h.h.g.g.s.s.s.s.s.s.d.d.d.a.a.a.a.a.a.a.a.d.......X.X.X.`.=X`.].].].*X*X*X*X].[.[.[.{.{.{.{.{.{.{.{.{.{.{.{.{.{.{.i.i.1.} V m g w w 8 & q q Z Z } p.>.>.>.>.p.p.p.p.} } [ [ Z Z Z V u u t e e e e z d p 9 9 p p 8 8 8 8 8 8 & & & * & # # # # & & & & > & & & & ; ; = = 1 1 1 1 1 1 > 1 1 1 & & 1 s 1 1 s s s s s s s g g m m O.6.K.U.U.U.U.T.E.XXoXE.R.W.W.J.8.8.8.J.F.J.8.#.%.O.O.#.4.7.*.W z g M o.Q M x j d s s s f g l M R R M x g j j j s 8 8 & & 8 & & & & & & * * * $ # & & & & % % $ $ $ $ % $ $ $ $ $ $ $ % % % % $ $ % % % % % % % % $ $ % % & & & & & & & & & & & & & & & & & & & & & & & & & & & & & & & & & & & & & & & & & & & & & & & & & & & & * * ",
"> > > & & & & & > > & > > > & & > > > > > > > > > > > > > > > > > & & & & & > > & > & & > > & & & & & & & & & & & & & & & & & & > > : : % % > & : % % % % % % % & & > > > > > & & & & & & > & & & & & & : : : : % % % % % % % % % % % % % % % % % % % % % % % % % % % % % % % % % % % % % % % % % % % % % % % % % % % % % % % % % % % % % % % % % % % % % % % % % % % % % % % % % % % % % % % % % % % % % % % % % % % % % % % % % % % % % % % % % % % % % % % % % % % % : : : : : : : : : : : : < < < < , , , A A A A A S S S S F F F F F F F F F J J J J J J J K K K K K K K K K a.L J P P L f.v.!.$X%X#X&X$X%X%X%XxXbXNXZXNXNXZXNXbXbXzXxXhXuX%XuXuX%X%XuXlXzXxXhXuX$XuXuXuXjXzXzXNXNXzXlXuXuXuXuXyXiXiXiXiXiXuXuXiXlXiXuXjXMXzXzXMXzXMXAXMXfXpXpXfXsXtXtXtXA.tXA.A.dXKXKXKXKXHXHXHXMXMXHXHXKXKXLXLXLXKXKXKXKXKXLXPXLXLXKXKXHXHXHXHXHXMXMXdXdXsXsXaXaXaXaXaXaXaXdXHXHXdXaXaXeXqXwXC.C.C.C.C.C.C.C.C.B.B.B.B.N.B.N.N.N.V.V.V.M.m.m.n.n.m.n.n.n.n.n.n.n.n.n.l.l.l.l.z.z.z.z.z.z.z.z.z.z.h.g.h.h.g.h.s.s.s.s.s.s.d.d.d.a.a.a.a.a.a.a.a.d.c.....X.X.X.`.=X`.=X].].*X*X].].].[.[.[.[.{.{.{.{.{.{.{.{.{.{.{.{.{.{.{.i.q.p.} } B Z z z t Z Z } +.p.>.>.>.>.>.p.p.p.+.} } [ Z Z Z Z Z t t e y e e e e e 9 9 p p p 8 8 8 8 8 8 & & & * # # # % # # & & - - & - & & & & - - - - - - - - 1 1 1 1 1 1 1 1 1 1 w s f s s s g g g m B ,.J.I.K.U.U.T.oXoXXXE.@XE.T.I.6.2.2.2.7.8.7.,.$.,.,.2.*.4.7.3.#.E b M R R M g d s f f s g g l M R Q W M g g g M x s * & & & & & & & & & * $ $ $ % & & & & & & $ % $ $ % $ $ $ $ $ $ $ % % % % $ $ $ % % % % % % % $ $ % % & & & & & & & & & & & & & & & & & & & & & & & & & & & & & & & & & & & & & & & & & & & & & & & & & & & & & & ",
"> > & & & & & & > > > > > & & & > > > > > > > > & & & & > > > > > & & & & & & > & > & & & & & & & & & & & & & & & & & & & & & & > > : : % % > > : % % % % % % % & & > > > > & & % % % % > > & & & & & & : : : : % % % % % % % % % % % % % % % % % % % % % % % % % % % % % % % % % % % % % % % % % % % % % % % % % % % % % % % % % % % % % % % % % % % % % % % % % % % % % % % % % % % % % % % % % % % % % % % % % % % % % % % % % % % % % % % % % % % % % % % % % % % % : : : : : : : : : : : : < < < < < < , , A A A A S S S S S F F F F F F F F J J J J J J J K K K K K K K K L K J L J v.Q.#X#XuXhX2X%X2XhXhXhXzXNXNXZXZXZXZXZXNXNXNXzXhX&XL.!.(.#X#X$XuXjXlXuXuX$XuXuXuXuXuXlXzXNXNXNXMXjXuXyXyXpXpXpXpXyXyXyXuXBXBXiXiXjXBXlXzXMXNXNXAXMXiXiXiXpXfXsXsXpXA.A.tXA.tXKXdXKXKXKXHXHXMXHXHXHXKXLXLXPXPXLXKXKXKXLXPXPXPXLXLXKXKXHXHXHXHXHXMXdXdXdXsXsXaXaXaXaXaXsXHXKXKXdXsXaXeXqXwXC.C.C.C.C.C.C.C.B.B.B.B.B.N.B.N.N.V.V.V.M.m.m.m.n.n.n.m.n.n.n.n.n.n.n.n.l.l.l.l.z.z.z.z.z.z.z.z.z.z.h.g.h.h.h.g.s.s.s.s.s.s.d.d.a.a.a.a.a.a.a.a.a.d.......X.X.X.=X=X`.=X].].].].].].].[.[.[.[.[.[.[.}.}.{.{.{.{.{.{.{.{.{.{.i.i.q.0.1.+.} } } } } 1.p.q.q.q.>.>.>.p.p.p.p.+.} [ Z Z Z Z Z Z t t e y e e e e 9 9 p p p 8 8 6 8 8 8 8 & & & * & # % % % # & & - - - - & & & & - - - - - - - - s 1 1 1 1 1 s s 1 1 s w s s s s g t m m $.6.K.U.U.T.T.@X<X<X@XXX@X@XR.I.8.6.8.8.7.,.+.+.4.4.2.7.7.2.*.7.*.@.M g g g g d s s f f s f g g x M W W V z g g R R x w & & & & & & & & & * $ $ $ % & & & & & & % % $ $ % $ $ $ $ $ $ $ % % % % $ $ $ $ % % % % % % $ $ % % & & % % & & & & & & & & & & & & & & & & & & & & & & & & & & & & & & & & & & & & & & & & & & & & & & & & & & ",
"> > & & > > > > & & & & > > & & & & & & & > & & % % % : > : % % : : % % % % & > > > & & & & & & & & & & & & & & & & & & % % % & % % % % : : : > > : : % % % % % % % & & & & & & & & & & & & > & & & & & : % % & % % % % % % % % % % % % % % % % % % % % % % % % % % % % % % % % % % % % % % % % % % % % % % % % % % % % % % % % % % % % % % % % % % % $ % % % % % % % % % % % % % % % % % % % % % % % % % % % % % % % % % % % % % % % % % % % % % % % $ % % % % % % % % : : : : > > : : < < : : < < < < , , , , A A A A S S S S S F F F F F F F J J J J J J J J K K K K K L L I J I I U Q.uXuX$XhXhXhXhXxXxXkXzXbXZXZXZXZXZXNXzXbXmXzXxXhX%X&XL.!.(.#XuXuXuXuXuX#X#X#XyXyX#X#X#XuXjXzXNXzXzXjXuX#XuXiXpXyXyXyXyXpXiXlXBXBXBXBXiXlXlXMXNXMXlXuXiXpXpXpXsXdXfXpX+XA.sXA.tXA.tXMXHXKXHXHXMXHXHXKXKXLXPXIXPXPXLXKXLXLXPXIXPXLXLXKXKXKXKXKXHXMXMXMXMXdXsXsXaXaXaXaXaXsXdXHXHXdXaXaXeXqXwXC.C.C.C.C.C.C.C.B.B.B.B.N.N.V.V.V.V.V.V.M.m.M.M.M.m.m.m.m.n.n.n.n.n.n.n.n.n.l.l.l.l.z.z.z.z.z.z.z.g.h.h.h.h.g.g.s.s.s.s.s.s.d.d.d.a.a.d.a.a.L L P P c.....X.X.X.`.=X=X=X*X].].].].].].[.[.[.[.[.[.[.[.[.{.{.{.{.{.}.{.{.{.{.{.i.i.q.q.q.0.0.1.0.q.0.q.q.>.>.>.p.p.p.p.+.} } } Z Z V u Z V m t t e y e e e e e 9 p p 8 8 6 6 6 6 & & & & * * # % $ $ # # & & - - & & & & & & - - - - - - - - & w s f f s - 1 s w f f r d g g t m W $.7.e.J.H.H.H.H.H.U.T.XXXXE.E.R.I.J.J.J.F.7.7.,.,.7.,.$.7.6.4.2.*.*.@.E b r g g k r s f f w f g g x M V W V m g g M W Q Q g w 8 s i i & * & & & $ & & & & & & & & & & & & O O O O $ $ $ $ $ $ $ $ % % % % $ $ $ $ $ $ $ $ % % % % % % & & & & & & & & & & & & & & & & & & * * & & & & & & & & 8 8 8 8 & & * * 8 8 8 8 8 8 8 8 8 8 8 8 8 8 ",
"> > & & > > > > & & & & > > & & & & & & > > & & % % % % : > % % : : % % % % & > > > & & & & & & & & & & & & & & & & & & % % % % % % % % % % : : % : % % % % % % % % & & & & > & & & & & & & & & > & & > : % & & % % % % % % % % % % % % % % % % % % % % % % % % % % % % % % % % % % % % % % % % % % % % % % % % % % % % % % % % % % % % % % % % % % % $ % % % % % % % % % % % % % % % % % % % % % % % % % % % % % % % % % % % % % % % % % % % % % % % $ % % % % % % % % % : : : > > : : < < : : < < < < , , , , A A A A S S S S S S F F F F F F J J J J J J J K K K K J J J J F U / ).$XuX$X%X%XxXkXxXxXzXmXbXnXnXZXnXZXZXbXzXxXxXxXxX2X%X$X&X!.!.#X#X$X#X#X#X!.!.!.#X#XyX#X~.~.#XuXlXzXlXjXuXyXuXuXiXpXyXpXpXyXuXiXMXMXlXlXBXBXBXMXMXlXuXyXyXpXiXpXfXdXdXdXdXMXdXKXA.tXtXtXaXHXMXHXHXHXHXKXKXLXLXPXIXIXPXLXLXLXLXPXPXPXLXLXKXKXKXKXKXJXHXMXMXMXMXdXsXaXaXaXaXaXaXsXdXsXaXtXeXwXwX0XC.C.0XC.C.C.C.C.B.B.N.N.N.N.V.V.V.V.V.V.V.M.V.V.M.M.m.m.m.m.n.n.n.n.n.n.n.n.l.l.l.l.l.z.z.z.z.z.z.h.h.h.h.h.g.g.s.s.s.s.s.s.d.d.d.a.a.d.a.a.L L L P c.....X.X.X.X.`.=X=X=X].].].].].].].[.[.[.[.[.[.[.}.}.{.{.{.{.}.}.}.{.{.{.}.i.>.>.q.q.q.q.q.q.q.q.>.>.>.>.p.p.p.+.| } [ [ Z Z Z u Z m m t t e e e e e 9 9 9 p 8 8 9 6 6 6 6 & & & & * * # % $ $ # # & > - - & & - & ; ; - - - - - - - - w w s f f s s s w f f s w e g g m V O.<.5.8.e.H.U.U.H.e.r.I.R.R.E.T.R.W.I.H.8.7.7.7.,.2.6.8.6.4.$.7.6.4.=.#.@.E g g f r r f s f w s g l x M V W o.W W B W W W Q o.M w * * 8 & & & & & $ & & & & & & & & & & & & $ % % % % % % % $ O $ $ % % % % $ $ $ $ $ % $ $ % $ $ $ % % & & & & & & & & & & & & & & & & & & * * & * & & & & & & & & 8 8 & & 8 8 8 8 8 8 8 8 8 8 8 8 8 8 8 8 ",
"> > > > > > > > & & % & > & & & % % % % : % % % % % % % % % % % % % % % : : % > > > & & & & & & & & & & & & & & % % % % % % % % % % % % % % % % % % % % % % % % % % % % & & & & & & & & > > & & & & > > % % & & % % % % % % % % % % % % % % % % % % % % % % % % % % % % % % % % % % % % % % % % % % % % % % % % % % % % % % % % % % % % % % % % % % % $ % % % % % % % % % % % > % % % % % % % % % % % % % % % % % % % % % % % % % % % % % % % % % % % $ % % % % % % % % % : : : : : : : , , , < < < < < , , , , A A A A S S S S F F F F F F F F F J J J J J K J J J K J J J U v.Q.#XhXhXhXxXkXkXkXcXmXzXmXmXbXbXnXZXbXbXbXzXxXzXzXxXxXhX$X#X!.!.!.!.~.!.!.!.!.!.~.#X#XyXyX#X~.~.yXuXjXlXlXuXuXuXuXuXyXyXyXyXyXyXuXlXMXlXlXMXMXMXMXNXNXBXiXiXiXpXiXdXdXdXdXMXMXMXMXAXtX^.pXtXeXtXsXMXHXKXKXKXLXLXLXPXPXPXPXLXLXLXLXPXPXLXLXLXLXKXKXKXKXKXJXHXMXMXMXdXsXaXaXaXaXaXaXaXaXaXtXeXwXqXwXwX0X0X0XA.C.C.C.C.B.B.N.N.N.N.B.N.V.V.V.V.V.V.V.V.M.M.M.M.m.m.n.n.n.n.n.n.n.n.l.l.l.l.l.l.z.z.z.z.z.h.h.h.h.h.g.g.s.s.s.s.s.s.d.d.a.a.a.a.a.a.a.a.L P c.c...X.X.X.X.`.`.`.=X=X].].].].].[.].].].].[.}.[.[.}.}.{.{.{.i.i.}.}.{.{.}.i.>.i.i.i.>.>.>.>.>.>.>.>.p.>.p.p.| | | } } [ Z Z Z u Z u z t e e e e e e 9 9 9 8 8 8 9 6 6 8 8 & & & & * * $ $ $ $ # & & & & & & & ; ; ; ; - - - - - - - - s s s s w w f f f f f s e t g m B } $.5.H.H.U.T.U.U.H.8.8.e.J.J.U.U.R.T.R.U.J.7.2.,.,.4.6.J.6.2.#.4.6.7.2.#.#.@.N g r w f f s s w w d g M M B o.@.@.W W @.o.W M @.o.M s * * & & & & & & & & > & & & & & & & & & % % % % % % % % O O O O % % % % $ $ $ $ % % $ $ % % $ $ $ & & & & & & & & & & & # & & & & & & & & & & & & & & & & & & & 8 8 8 8 8 8 8 8 8 8 8 8 8 8 8 8 8 8 8 8 ",
"> > > > > > > > & & % & & & & & % % % % : : % % % % % % % % % % % % % % : : & > > > & & & & & & & & & & & & & & % % % % % % % % % % % % % % % % % % % % % % % % % % % % & & & > > & & & > & & & & & & & % % % & % % % % % % % % % % % % % % % % % % % % % % % % % % % % % % % % % % % % % % % % % % % % % % % % % % % % % % % % % % % % % % % % % % % $ % % % % % % % % % % % > & % % % % % % % % % % % % % % % % % % % % % % % % % % % % % % % % % % $ % % % % % % % % % % : : : : : : , , < < < < < < , , , , A A A A S S S S S F F F F F F F F J J J J J J J J J J J U v.~.zXjXhXhXmXmXmXkXvXmXmXmXbXbXbXbXbXnXbX2X4XhXhXxXzXhX2X$X$XuX%X$X$X#X#X#X~.+X#X#XyX#XyXuXyXyXyX#X#XyXuXjXjXzXjXuXuXuXuXyXyXpXpXpXuXjXlXlXjXlXMXMXMXMXMXMXBXBXiXiXpXiXsXdXMXMXMXMXMXMXdXfXpXdXtXtXtXtXdXHXHXKXKXKXLXLXPXPXLXLXLXLXLXLXPXPXPXPXLXLXKXKXLXKXKXKXKXJXHXMXdXsXsXsXsXaXaXaXaXaXaXeXeXwXwXqXwX0X0X0XC.C.C.C.C.B.B.B.C.C.C.B.B.B.B.V.V.V.V.V.M.M.M.M.M.M.m.m.m.n.n.n.n.n.n.l.l.l.l.l.l.z.z.z.z.z.h.h.h.h.g.g.g.s.g.s.s.s.s.d.d.a.a.a.a.a.a.a.a.a.P P ......X.X.X.`.`.`.=X`.].].].].].].].].].}.i.i.i.[.}.}.}.}.i.i.i.i.}.}.}.}.i.>.>.i.>.>.>.>.p.>.>.>.>.>.p.p.p.| | | } } [ V Z Z u z z t t e e e e e e 9 9 8 8 6 9 6 6 6 8 8 & & & * * * $ $ $ % # # & & & & & & ; ; ; ; - - - - - - - & s s s s w w f f f f f g g z m B O.7.K.T.U.I.H.H.I.I.r.5.6.e.J.J.6.6.J.U.R.R.I.8.7.7.7.6.7.4.2.O.%.#.2.7.7.2.*.*.#.N g w f f f f s w w g M V W o.@.o.B N W W W M R =.*.o.g # * & & & & & & & & & & & & & > & & & % % % % % % % % O O O O $ $ % % $ $ $ $ % % $ $ % % $ $ $ $ & # & & & & & & & # # & & & & & & & > > > > & & & & & & & & i i i i 8 8 8 8 8 8 8 8 p p p p i i i i ",
"> > > > > > & & % % % & % % % % % % % % % % % % % % % % % % % % % % % % % % % > : > > : > : : > > : > > % % % % : % % % > > > > > : : : & & % % % % % % % % % % & & & % % % & & & & & & & & & & % % % % % % % % % % % % % % % % % % % % % % % % % % % % % % % % % % % % % % % % % % % % % % % % % % % % % % % % % % % % % % % % % % % % % % % % % % % % % % % % % % % % % % % % % % % % % % % % % % % % % % % % % % % % % % % % % % % % % % % % % % % % % % % % % % % % : : : : : : : : : : < < , , , , , , , A A A A A S S F F F F F F F F F F F J S K J S J J F F U v./.lXNXNXmXmXmXbXmXmXbXmXbXbXbXbXbXbXbXmXzX2X2X2X2XhXxXxXhX$X#X#X#X#X#X%X%X$X#X#X#X#X#X#XyXuXiXlXiXyX#X~.#XuXuXuXuXhXhXhXjXuXuXiXuXuXiXlXMXjXuXjXMXNXMXMXMXiXiXiXBXBXdXdXdXdXiXMXMXNXNXJXHXdXsXdXdXsXaXsXsXsXsXsXKXKXKXLXLXLXPXPXPXPXLXLXLXLXPXPXPXLXLXLXLXLXLXKXKXKXHXMXMXdXdXsXsXaXaXaXtXeXeXeXtXeXqXwXwXqXqX0XC.C.C.C.C.C.B.C.C.C.C.C.C.C.B.V.V.V.B.N.N.V.M.M.M.M.M.M.m.m.m.n.m.n.n.n.l.l.l.l.l.l.z.z.z.z.z.z.h.h.g.g.g.s.s.s.s.s.s.s.d.d.d.d.a.d.a.a.a.a.a.L a.z.c...X.X.X.X.`.`.`.`.=X].].].y.y.y.y.].i.i.i.i.}.}.i.i.}.}.i.i.i.}.}.}.i.i.>.i.>.i.i.>.>.>.>.q.q.>.p.p.| | | | } } } [ V Z z z t t t e e e e e e 9 8 8 8 8 6 6 8 6 6 & & & & * # # # % % $ % # & & & # # & & # # = = - 1 1 s s & 1 f s s s s - f f f f f g g m B O.4.J.U.E.U.J.H.H.5.I.H.5.<.e.K.J.J.6.4.4.8.J.J.J.e.J.J.8.4.7.2.2.$.*.#.O.2.7.4.#.2.7.@.W g f w w r s f g g g N W o.o.W N M l l x M M *.D.*.M s # # & & & & & & * > > > & & & & & # & & & & & & % $ $ $ $ $ % % % % % % % % $ $ @ @ % % % % % % > > & & & & * * * * * * & > > > > & & & & & & & & & i 8 8 8 8 8 8 8 i i i i i i i i p p p p p p p p ",
"> > > > > > > & % % % > % % % % % % % % % % % % % % % % % % % % % % % % % % % % : > : > > : > % % : > > % % % % > % : % % % & > > : : : & > % % % % % % % % % % & & % % % % & & & & & & & & & & % % % % % % % % % % % % % % % % % % % % % % % % % % % % % % % % % % % % % % % % % % % % % % % % % % % % % % % % % % % % % % % % % % % % % % % % % % % % % % % % % % % % % % % % % % % % % % % % % % % % % % % % % % % % % % % % % % % % % % % % % % % % % % % % % % % % : : : : : : : : < : < < , , , < , , , A A A A A S S F F S F F F F F F F F J F J F I F F H v./.jXNXZXNXNXbXmXmXmXmXbXnXbXbXbXmXmXmXkXkXxX2X2X2X2X%XhXhXhX#X&X#X$X&X/.#X%X%X$X#X#X%X%X%X$X#XyXyXuXuX#X+X~.#XuXiXjXiXuXuXhXjXjXjXjXiXlXMXMXlXjXlXzXMXMXBXBXBXiXpXiXBXBXdXsXsXiXiXBXMXNXNXMXMXMXdXdXMXMXdXdXtXaXsXsXMXKXKXPXPXPXLXPXLXLXLXPXLXLXLXPXPXLXLXLXLXLXLXLXLXKXHXMXMXdXdXsXsXaXaXaXaXtXeXeXeXeXqXqXwXwXqXqX0XC.C.C.C.C.C.C.C.wXwXqXwXwXC.C.N.V.V.V.N.N.M.M.M.M.M.M.m.m.n.n.m.n.n.n.l.l.l.l.l.l.z.z.z.z.z.z.h.h.g.g.s.s.s.s.s.s.s.s.d.d.d.d.a.d.a.a.a.a.a.L a.d.c...X.X.X.X.X.X.:.`.`.`.y.y.y.y.y.y.y.y.].].}.i.i.i.i.}.}.y.>.i.}.}.i.i.i.>.>.>.>.>.q.>.q.>.>.p.p.p.+.| | | } } } } V Z z z t t t e e e e e e 9 9 8 8 6 6 6 8 8 6 8 & & & & # # # $ % % % # # & & & # # # & ; & = - 1 1 1 & k f s - s s s s f f s s f f g m O.4.J.R.@XT.U.H.J.H.H.e.H.H.e.5.J.H.e.8.8.,.,.4.4.4.8.J.I.J.F.7.7.7.7.4.2.7.2.$.7.7.#.2.J.2.~ M f f s s r r s f g M V W B N M l g g x x v =.7.=.W k & # & & & & & & * & > > & & & & & # & & & & & & % $ $ $ $ $ % % % % $ $ % % $ $ @ O % % % % % % % & & & & & * * * * * & > > > > > & & & & & & & & & i 8 8 8 8 8 8 8 i i i i i i i i p p p p p p p p ",
"> > > > & & & & % % > > % % % % % % % % % % % % % % % % % % % % % % % % % % : % % % > > > > % % % % > > % % : % > > % % % % > > % % % % % % % % % % % % % % % % & & & & % % & & > > & & & & & & % % % % % % % % % % % % % % % % % % % % % % % % % % % % % % % % % % % % % % % % % % % % % % % % % % % % % % % % % % % % % % % % % % % % % % % % % % % % % % % % % % % % % % % % > & % % % % % % % % % % % % % % % % % % % % % % % % % % % % % % % % % % % % % % % % % % : : : : : : : : < < < < , < < < , , , A A A A A S S S S S F F F F F F F S J K K J F U G./.$XzXNXZXNXNXnXnXbXmXmXmXbXNXbXmXmXkX3X2X2X2XhX%X2X2X%X2XhX%X&X/./.$X$X$X$X$X%X%X#X#X#X#X$X%X$X#X#X$XyX#X+X!.!.#XuXiXlXjXuXjXlXzXzXzXlXlXlXNXMXBXBXMXMXBXiXiXiXiXpXpXiXBXBXdXsXiXiXiXdXMXMXMXMXBXMXMXMXMXHXMXdXdXdXdXsXdXdXMXLXLXPXLXLXLXLXPXPXLXLXLXPXPXPXPXPXLXLXLXLXLXJXHXMXMXdXsXsXaXaXaXaXaXaXaXtXeXeXeXqXwXqXwXqXwXqX0XC.C.C.C.wXwXqXtXtXeXqXwXC.B.B.B.N.V.N.N.M.M.M.M.M.M.M.m.m.n.n.n.n.l.l.l.l.l.z.z.z.l.z.z.z.z.h.g.g.s.s.s.s.s.s.s.s.d.d.d.d.a.d.a.a.a.a.a.L P P c.....X.X.X.X.X.X.X.`.:.].].].y.y.y.y.y.y.y.y.y.y.y.i.i.y.y.>.i.i.i.i.i.>.>.>.>.>.>.p.p.p.p.p.p.p.+.| } | [ | } V V Z Z t t t y e e e e e e 9 8 8 8 6 8 6 6 8 8 6 6 * * & & # $ $ $ O $ # & # & - - # # # & = 1 1 1 1 1 & & # # 1 f f w w f f k f r f v W O.6.J.E.@X&XXXU.I.R.T.U.H.U.e.e.e.H.U.J.e.J.<.$.,.,.4.7.J.J.J.J.J.F.F.8.6.7.4.,.$.7.#.^ 7.F.*.#.! k k f w r s s f g v m M N M l g g g l g g @.*.#.@.M w # * * & & & & * & > > & & & & & # & & & & & & % $ $ $ $ $ % % % % $ $ $ $ $ O O O $ $ $ $ $ % & & & & & & & & * * & & & & & & & & & & & & & & & & i 8 8 8 8 8 8 8 i i 8 8 i p i i p p p p p p p p ",
"> > > > & & & & % % > > % % % % % % % % % % % % % % % % % % % % % % % % % % > > % % % % % % % % % % & % % % : > : : % % % % % % % % % % % % % % % % % % % % % % & & & & % % & & > & & & & & & & % % % % % % % % % % % % % % % % % % % % % % % % % % % % % % % % % % % % % % % % % % % % % % % % % % % % % % % % % % % % % % % % % % % % % % % % % % % % % % % % % % % % % % % % > % % % % % % % % % % % % % % % % % % % % % % % % % % % % % % % % % % % % % % % : : % % : : : : : : : : < < < < < < , < , , , A A A A A S S S S S F F F F F F F J J J F F F Q.zXNXNXNXbXNXNXNXnXbXbXmXmXbXbXmXzXhX2X$X(.@X2X2X4X&X$X$X$X%X%X$X/.&X#X%XuX%XhXuXuX$X#X#X$X#X%XuXuXuXuXuXyX#X+XQ.!.yXuXiXlXlXlXzXMXNXMXlXlXMXBXMXBXBXMXMXBXpXpXiXpXiXpXiXpXsXsXsXsXsXsXdXBXMXMXMXdXdXMXMXHXKXHXHXHXKXKXMXdXdXdXdXKXHXLXLXKXLXLXIXPXPXPXPXPXPXPXPXPXLXLXLXLXKXJXHXHXMXdXsXsXaXaXaXaXaXaXaXaXeXeXeXeXqXqXqXwXwXqXqXC.C.C.wXwXqXaXaXsXaXtXqXA.C.B.B.B.V.V.V.M.M.M.M.M.M.M.M.m.m.n.n.n.l.l.z.z.z.z.z.z.l.z.z.z.z.h.g.g.s.s.s.s.s.s.s.s.d.d.d.d.a.d.a.a.a.a.a.a.a.P ......X.X.X.X.X.X.X.:.:.`.].].y.y.y.y.y.y.y.y.y.y.y.y.y.y.y.>.i.i.i.y.i.>.>.>.>.p.p.p.p.p.p.p.&.+.| | | [ [ | [ V V Z t t t t e e e e e e 9 9 8 8 9 8 6 8 6 8 8 6 * * * & # # $ $ $ O $ & 1 & & - - ; & = & = = 1 = & & & 1 1 f 1 = w w f f w k f g N O.4.J.K.U.R.E.@X%XXXT.@X<X<X@XXXH.H.H.J.U.U.T.J.4.4.4.7.4.7.F.F.F.J.L.J.J.J.F.F.F.2.,.*.! M *.@.@.*.@.N M k w s f g g g v g g M M x g g g g g g W #.#.@.W k & # # & & & & * & > > & & & & & # & & & & & & % $ $ $ $ $ % % % % $ $ $ % $ $ $ $ $ $ $ $ $ % & & & & & & & & * * & & & & & & & & & & & & & & & & i 8 8 8 8 8 8 8 i i 8 8 p p i i p p p p p p p p ",
"& & & & & & & & % % : % % % % % % % % % % % % % % % % % % % % % % % % % % % > > > : > > > > & % % % % % & & & > : % % % % % % % % % % % % % % % % % % % % % % % % % % % % % % % % % % % % % % % % % % % % % % % % % % % % % % % % % % % % % % % % % % % % % % % % % % % % % % % % % % % % % % % % % % % % % % % % % % % % % % % % % % % % % % % % % % % % % % % % % % % % % % % % % % % > > % % % % % % % % % % % % % % % % % % % % % % % % % % % % % % % % % % : : : : : : : : : : : : < < < < < < < < , , , A A A A A S S S S F F F F F F F F J J F S F v.jXNXbXbXbXbXNXZXnXmXbXbXbXmXmXzXhX2X&X(.R.R.$X2X2X&X&X$X$X$X$X#X#X#X$XhXlXjXhXxXjXuXuX%X%XuXuXjXlXzXhXuXuX#X#X~.Q.!.~.yXiXiXlXMXMXMXMXjXiXiXlXuXBXiXiXBXBXiXyXpXiXiXiXsXdXsXsXpXpXsXsXdXdXdXMXMXBXdXdXdXMXHXKXHXHXHXKXKXKXMXMXKXMXMXMXKXLXKXKXPXIXPXPXPXPXPXPXPXPXPXLXLXLXLXKXJXHXHXHXMXdXdXsXsXsXsXaXaXaXaXeXeXeXeXeXeXeXqXwXwXwXqXqXqXqXqXeXaXgXKXsXtXqXA.C.B.B.B.V.V.N.V.M.M.M.M.M.M.m.m.m.n.n.n.n.l.l.l.z.z.l.l.l.z.z.z.z.z.g.g.s.s.s.s.s.s.s.s.d.d.d.d.a.a.a.a.a.a.a.a.L P ........X.X.X.X.X.X.X.:.`.`.].].y.y.y.y.y.y.y.y.y.y.y.y.y.>.y.>.>.i.>.>.>.>.p.p.p.p.p.p.&.| | | | | | | [ [ [ [ Z Z u t u u e e u e e 9 9 9 e w 8 8 8 8 6 6 * * & * * & & * $ $ $ $ O % & = = = = = = ; = = 1 1 1 1 % 3 f 1 = 1 f - - f # f k =.7.F.6.8.J.J.J.J.e.e.U.U.K.J.E.@X<X@XR.J.K.U.J.6.H.E.U.6.4.4.4.7.4.4.2.7.D.F.7.7.F.J.J.J.6.2.#.#.! N N 2.7.#.#.~ N M N g f g g v v m M M M M l g g b M W @.#.@.N M w & # * & & & & & & > & & & & & & & # * * # # # & * $ $ $ $ $ $ $ $ $ $ $ % * * * & & & & & & & & # # # # * * * * & & & & i & & & & & & & 8 8 8 i 8 8 8 8 8 8 8 8 i 8 8 8 p p p p p p p p p p p p ",
"& & & & & & & & % % % % % % % % % % % % % % % % % % % % % % % % % % % % % % > > % % % % > > % % % % % % % % % % % % % % % % % % % % % % % % % % % % % % % % % % % % % % % % % % % % % % % % % % % % % % % % % % % % % % % % % % % % % % % % % % % % % % % % % % % % % % % % % % % % % % % % % % % % % % % % % % % % % % % % % % % % % % % % % % % % % % % % % % % % % % % % % % % % % % % > > % % % % % % % % % % % % % % % % % % % % % % % % % % % % % % % % % : : % : : : : : : : : : < < < < < < < < , , , A A A A A S S S S F F F F F F F F F F J F I !.NXmXbXnXbXbXmXmXkXkXkXkXkXxXhX2X&X(.R.L.R.&X2X%X&X.X$X$X$X$X$X$X$X$XuXuXjXjXlXzXzXhXuXuXuXuXjXzXzXzXlXuX#X#X#X~.Q.b.~.yXiXiXiXiXBXBXiXyXyXyXyXyXpXyXyXpXiXpXpXrXpXpXpXsXdXsXpXtXpXsXsXdXdXdXBXMXBXBXdXMXHXHXHXMXHXHXKXKXKXKXKXKXdXMXMXMXKXKXLXPXPXIXPXPXPXPXUXIXUXPXPXLXLXLXLXKXHXHXHXHXdXdXdXsXsXsXaXaXaXaXaXaXaXaXeXeXeXeXqXwXwXwXwXqXqXqXqXaXdXgXsXtXqXqXC.B.B.N.V.V.V.V.M.M.M.M.M.M.m.m.m.n.n.n.n.n.l.l.l.z.l.l.l.z.z.z.z.z.g.g.s.s.s.s.s.s.s.s.d.d.d.d.a.a.a.a.a.a.a.a.a.P P ......X.X.X.X.X.X.X.X.`.`.`.`.y.y.y.y.y.y.y.y.y.y.>.y.>.y.>.q.>.>.q.q.q.>.p.p.p.0.1.&.&.&.| | | | | [ [ [ [ [ V Z u z u u e e e e 9 9 9 9 8 8 8 8 6 8 6 8 * * * * * & # * $ $ $ $ % % & = = = = = = = = = = 1 1 1 1 % # f g 1 - - M #.D.W./.4X$X@XE.I.e.e.J.e.6.6.8.8.6.6.8.J.8.6.6.,.J.R.J.J.H.U.U.J.J.6.7.2.@.W ! ! ~ ~ E W 2.8.J.J.J.6.2.2.*.! ! 7.D.$.*.2.#.*.#.@.N b M N N N N N M M b l l b E ! @.#.@.E N s s & # # & & & & & > & & & & 8 8 & & * * * # # # & & * * * $ $ $ % % % $ # * * * & & & & & & & & # # # # # # # # & & & & i & & & & & & & & & > i 8 8 8 8 8 8 8 8 i i 8 8 p p p p p p p p p p p p ",
"& & & & > & & > > % % % % % % % % % % % % % % % % % % % % % % % % % % % % % % % % % % % > % % % % % % % % % % % % % % % % % % % % % % % % % % % % % % % % % % % % % % % % % % % % % % % % % % % % % % % % % % % % % % % % % % % % % % % % % % % % % % % % % % % % % % % % % % % % % % % % % % % % % % % % % % % % % % % % % % % % % % % % % % % % % % % % % % % % % % % % % % % % % % % % % > > % % % % % % % % % % % % % % % % % % % % % % % % % % % % % % % % % % % % : : : : : : : : < < < < < , < < , , , A A A A A S S F F F F F F F F F F S F J F I $XbXmXnXbXmXkX2X2X4X%X2X4X2X2X4X$X(./.R./.$X%X%X#X&X&X#X+X+X#X$X$X$X#X(.~.~.~.yXjXuXyX(.!.!.!.uXuXjXjXjXuX#XyX~.^.Q.Z.^.+XyX+XyX~.rXyXrX~.~.~.~.~.rXrXrXeXrXrXtXrXrXtXtXpXpXeXtXtXpXpXsXsXsXsXdXdXdXdXdXHXHXMXMXMXHXHXHXKXKXKXKXKXKXKXAXMXKXPXPXIXIXIXIXIXIXIXIXIXIXPXPXLXLXLXLXLXKXHXHXHXMXdXdXdXsXsXsXaXaXaXsXsXaXaXtXeXeXeXqXwXqXwXqXqXqXqXqXtXaXaXaXeXqXA.C.B.B.N.V.V.V.N.M.M.M.M.M.M.M.M.m.n.n.n.n.n.l.z.l.l.l.l.l.z.z.z.z.z.g.g.g.g.s.s.s.s.s.s.d.d.a.a.a.a.a.a.a.a.a.a.a.L P ......X.X.X.X.X.X.X.X.X.:.:.:.:.y.y.y.y.y.y.y.y.0.0.0.0.0.0.>.>.>.0.0.>.p.p.p.0.0.&.&.| | | | } } [ [ [ [ [ V Z u u u e e e e e e 9 9 9 9 8 8 8 6 6 6 8 8 * * * * * * % % $ $ $ $ % & > & & & & # ; # = = = = 1 1 1 f f f ; w *./.@X$X<X2XkXmXkX3X@XR.e.8.H.e.e.U.R.J.e.8.<.<.4.4.7.$.7.J.H.U.U.U.I.K.K.F.4.#.W M M b l k f g B 4.8.8.J.J.8.4.2.#.! 2.7.#.@.#.#.*.7.4.*.! ! ! @.@.! W W E b l l b ^ ! ! #.~ E E f f s # # * * & > i i i i i i i i 8 & & & & & & & & & & & & & & & # # # # * * * * & & & & * * * * # * # # * * * * # * & & 8 & & & & & & & & & & & 8 8 8 8 8 8 8 8 i i i i p p p p p p p p p p p p ",
"& & & & > & & > % % % % % % % % % % % % % % % % % % % % % % % % % % % % % % % % % % % % % % % % % % % % % % % % % % % % % % % % % % % % % % % % % % % % % % % % % % % % % % % % % % % % % % % % % % % % % % % % % % % % % % % % % % % % % % % % % % % % % % % % % % % % % % % % % % % % % % % % % % % % % % % % % % % % % % % % % % % % % % % % % % % % % % % % % % % % % % % % % % % % % % % > & % % % % % % % % % % % % % % % % % % % % % % % % % % % % % % % % % % % : : : : : : : : < < < < < < < < , , , , A A A A S S F F F F S S F F F F F F F F H zXmXbXnXcX2X<X@X@X$X%X%X$X2XhX2X4X$X$X&X%X$X$X(.#X#X#X!.!.+X#X!.#X~.!.).v.v.v.).Q.!.!.!.!.Q.).Q.Q.~.#XyXyX~.~.^.Z.Q.A.A.Q.Q.Z.A.Q.^.~.^.^.^.^.^.^.^.eX^.^.^.^.eXeXrXeXeXeXeXeXeXtXsXaXtXpXpXsXsXsXdXdXdXdXdXdXMXHXMXHXHXHXKXLXKXLXLXLXAXMXKXPXIXIXIXIXIXIXIXIXIXIXIXPXPXLXLXLXLXLXLXKXHXHXMXMXMXdXdXsXsXsXsXsXsXsXsXaXtXtXeXeXeXqXqXqXqXqXqXqXqXqXeXeXqXqXwXC.C.B.N.N.V.V.V.N.M.M.M.M.M.M.m.m.m.n.n.n.l.l.l.z.z.l.l.l.l.z.z.z.z.h.g.g.g.g.s.s.s.s.s.s.d.d.a.a.a.a.a.a.a.a.a.a.a.L P P ......X.X.X.X.X.X.X.X.:.:.:.:.:.:.:.:.:.:.:.:.:.:.:.:.>.:.>.0.p.p.p.p.p.&.&.1.1.&.{ { { | } } } [ [ [ [ [ z u z e e e e e e e p 9 9 9 9 8 8 6 6 6 6 8 * * * * * * % % $ $ $ $ $ % & > & & & & # # # # & & = = = ; w k N 6./.4X@X@X@X@X<X3XkX5X<XE.U.e.5.5.1.5.U.e.<.+.e.J.J.J.e.6.4.<.<.<.e.e.e.H.U.I.6.@.E M E M b k f g r m O.8.J.J.J.J.6.,.#.! O.#.@.E ! N N #.7.7.2.#.*.*.*.@.@.! W M l l M @.~ ! #.! N E f k s & # * * & i i i i i i i i i i 8 & & & & & & & & & & & & & & # # # # & & & & & & & & * * * * * * # # * * * * * * & & 8 & & & & & & & & & & 8 8 8 8 8 8 8 8 8 i i p p i i p p i p p p p p p p ",
"& & & & & & & & % % % % % % % % % % % % > > > & % % % % % % % % % % % % % % % % % % % % % % % % % % % % % % % % % % % % % % % % % % % % % % % % % % % % % % % % % % % % % % % % % % % % % % % % % % % % % % % % % % % % % % % % % % % % % % % % % % % % % % % % % % % % % % % % % % % % % % % % % % % % % % % % % % % % % % % % % % % % % % % % % % % % % % % % % % % % % % % % % % % % % % % % & % % % % % % % % % % % % % % % % % % % % % % % % % % % % % % % % % % % : : : : : : : : : : < < < < < < , , , , A A A A S S S S F S S S F F F F J J S F hXzXmXmXnX5X@X@X@X%X%X$X&X&X4XhX2X2X2X3XxXxX$X/.!.!./.!.!.Q.P.Q.).b.v.v.v.v.v.v.v.v.Z.Q.^.~.^.Q.v.Q.Q.^.^.^.^.A.A.Z.Z.Z.Z.Z.Z.Z.Z.Z.A.A.^.A.^.^.^.eXeX^.^.^.^.^.eXeXeXtXtXeXeXeXtXaXtXeXtXtXaXaXsXsXsXsXsXsXdXdXMXMXHXHXHXHXKXKXKXLXLXLXLXLXLXPXIXIXIXIXIXIXIXIXIXIXIXUXPXLXLXLXLXLXLXLXJXMXMXMXMXBXdXdXsXsXsXsXdXsXsXsXsXtXeXeXeXeXqXqXqXqXqXA.qXqXqXqXqX0XC.C.C.B.B.N.N.N.V.N.N.N.N.M.M.M.m.m.m.n.n.n.l.l.l.l.l.l.l.l.z.z.z.z.g.g.g.g.g.g.g.g.s.s.s.s.d.d.d.d.d.d.a.a.a.a.a.a.a.L L P d.........X.X.X.X.X.X.X.:.:.:.:.:.:.:.:.:.:.:.:.:.:.:.:.:.:. . .p.p.p.&. .&. .&.{ { { | [ [ [ [ [ [ [ [ z z u u e e e e e e 9 9 9 9 8 8 8 6 8 8 8 8 * * * * * * & $ O $ % o $ 1 3 & > > % # # ; # # # # # ; ; ; N M O.2.6.U.@X@X@XU.U.@X4X5X3X@XR.U.H.J.e.5.8.I.5.4.4.J.J.J.5.<.$.%.O.$.,.e.H.8.J.U.R.F.@.E E b g f ; ; w g M B 7.L.I.J.4.4.2.2.2.! ! ! ! ! N @.@.7.J.6.2.2.3.#.@.! ^ ^ W E b b W #.! ~ @.E E b f f s & & & 8 8 8 i i i i i 8 i i i i i i i i i 8 8 8 8 & & & & & & & & & & & & & * * * & & & & > > > > & & & & 8 8 & & & & & & * * * * 8 8 8 8 8 8 8 i p p i i p p i i i p p p i i i i i i i i ",
"& & > > & & % & % % % % % % % % % % % % > > % % % % % % % % % % % % % % % % % % % % % % % % % % % % % % % % % % % % % % % % % % % % % % % % % % % % % % % % % % % % % % % % % % % % % % % % % % % % % % % % % % % % % % % % % % % % % % % % % % % % % % % % % % % % % % % % % % % % % % % % % % % % % % % % % % % % % % % % % % % % % % % % % % % % % % % % % % % % % % % % % % % % % % % % % % % % : % % % % % % % % % % % % % % % % % % % % % % % % % % % % % % % % : : : : : : : : : : : < < < < < < , , , , , , A A S S S S F S S S F F F F F I , H NXzXmXkXkX2X4X4X%XR.U.W.R.R.$X2X2X2X3XkXzX#XP.P.L.Q.).v.G.v.v.v.v.v.v.c.v.c.c.c.c.v.v.v.Z.Q.Q.Z.v.Z.A.Q.A.A.A.A.Z.Z.v.x.Z.Z.Z.Z.Z.Z.Z.Z.Z.Z.A.A.eXeXeXeXeXA.A.^.eXeXeXeXtXeXeXeXeXtXtXeXeXtXaXaXaXaXaXaXaXsXsXdXdXdXdXMXHXHXHXKXKXLXLXLXLXLXPXPXUXUXIXIXIXIXIXIXIXIXIXUXUXPXPXPXLXLXLXLXKXJXHXHXMXMXMXdXdXsXsXdXdXdXdXdXsXsXtXtXeXeXeXeXqXwXqXA.qXqXqXqX0XC.C.C.C.B.B.B.N.N.V.V.N.N.N.M.M.M.m.m.m.n.n.n.l.l.l.l.l.l.l.l.z.z.z.z.g.g.g.g.g.g.s.g.s.s.s.s.d.d.d.d.d.d.a.a.a.a.a.a.L L L P P P ........X.X.X.X.X.X.X.:.:.:.:.:.:.:.:.:.:.:.:.:.:.:.:.:. .&.&.&.&.&.{ { { &.{ { { [ [ [ [ [ [ [ [ [ z u u e e e e 9 e e 9 8 9 8 8 6 6 6 & & & & * * * * * & # & % O   $ % & > & & & 1 - # # @ # w w v W #.O.O.O.O.O.$.5.H.T.T.T.T.E.T.T.T.E.U.I.I.U.U.I.U.E.H.5.8.I.H.5.,.%.$.$.<.4.4.I.E.T.T.E.T.J.2.^ E l f w & ; w g m B #.F.W.U.J.6.7.F.2.! C ! W ! N @.! 2.D.2.#.#.3.2.2.@.! ^ W E W E E #.~ @.@.E E b f f f s 8 * * & 8 8 8 i i i 8 8 i i i i i i i 8 8 8 8 8 & & & & & & & & & & & & 8 8 8 8 8 & & 8 > > > > & & & & 8 8 & & & & & & 8 8 8 8 8 8 8 8 i i 8 8 p p i p p p i p p p p i i i i i i i 8 8 ",
"& & > > > & % & % % % % % % % % % % % % % % % % % % % % % % % % % % % % % % % % % % % % % % % % % % % % % % % % % % % % % % % % % % % % % % % % % % % % % % % % % % % % % % % % % % % % % % % % % % % % % % % % % % % % % % % % % % % % % % % % % % % % % % % % % % % % % % % % % % % % % % % % % % % % % % % % % % % % % % % % % % % % % % % % % % % % % % % % % % % % % % % % % % % % % % % % % % % : % & % % % % % % % % % % % % % % % % % % % % % % % % % % % : : : : : : : : : : : : : < < < < < < , , , , , , A A S S S S F F S S F F F F J F F L.NXmXmXmXkX3X2X4X&XXXR././.$XxXkXhXkXkXkX$XL.P.P.G.b.b.).Q.v.v.v.v.v.v.x.x.x.c.c.c.Z.v.c.v.Z.Z.Z.v.v.Z.Z.Z.Z.A.A.Z.Z.x.x.x.M.N.Z.N.N.Z.Z.Z.Z.Z.A.qXeXeXeXqXA.A.A.eXeXeXeXeXeXeXeXeXeXeXeXeXeXtXaXaXaXaXaXaXsXsXsXsXdXdXdXMXHXHXHXKXKXLXPXPXPXPXIXUXUXIXIXIXIXIXIXIXIXIXIXIXUXUXPXPXPXLXLXLXLXKXJXKXJXHXMXMXMXMXMXMXBXdXdXsXsXsXtXeXeXeXeXqXqXqXqXqXA.C.C.C.C.C.C.C.C.C.B.N.N.V.V.N.N.N.N.M.M.M.m.m.m.n.n.l.l.l.l.l.l.l.l.z.z.z.z.g.g.g.g.g.g.s.s.s.s.s.s.d.d.d.d.d.d.a.a.a.a.a.L L L L L L P ........X.X.X.X.X.X.X.:.:.:.:.:.:.:.:.:.:.:.:.:.:.:.:.:. .&. . .| | { { { { { { [ [ [ [ [ [ [ [ [ z u e y y e 9 9 9 9 9 9 9 8 8 6 6 * & * * & * * * * * # # O O % $ @ # # # = ; - # w ; w w q v O.#.*.6.7.O.$.4.5.4.<.&.<.e.T.oX@X@XoXR.Y.@XR.J.J.H.J.H.R.E.E.U.E.2X2XT.8.6.6.7.4.<.8.R.@X@XE.U.I.7.2.~ ^ E f w ; ; r f g m O.7.L.R.H.6.$.,.2.@.%.! ^ @.@.#.W ! 7.@.W W @.2.2.#.~ ~ ^ W W W W #.#.#.#.E E b f f f k s * * * & & 8 8 i i 8 8 i i i i 8 & & & 8 8 8 8 & & & & & & & & & & & & 8 8 8 8 i i i i 8 8 i i & & & & & & & & & & & & 8 8 8 8 8 8 8 8 i i i i p p p p i i 8 8 8 8 i i 8 8 8 8 8 8 8 8 ",
"& & > > > & & & % % % % % % % % % % % % % % % % % % % % % % % % % % % % % % % % % % % % % % % % % % % % % % % % % % % % % % % % % % % % % % % % % % % % % % % % % % % % % % % % % % % % % % % % % % % % % % % % % % % % % % % % % % % % % % % % % % % % % % % % % % % % % % % % % % % % % % % % % % % % % % % % % % % % % % % % % % % % % % % % % % % % % % % % % % % % % % % % % % % % % % % % % % % : > & & % % % % % % % % % % % % % % % % % % % % % % % % % % : : : : : : : : : : : : : < < < < < < , , , , , , A A S S S S F F F F F F F F F A G lXbXNXmXmX2X2X%X@XR.XX$X%XhXbXNXzX4X4X2X&X/.L./.!.G.v.v.).Q.v.v.v.v.v.v.v.x.x.x.x.x.Z.Z.v.x.M.Z.Z.Z.x.x.Z.x.Z.A.A.Z.Z.M.x.m.M.N.Z.N.N.N.Z.C.C.C.Z.A.qXeXeXqXA.A.A.eXeXeXqXqXeXeXeXeXeXeXeXeXeXtXaXaXaXaXaXsXsXsXsXsXdXdXMXMXMXHXHXJXKXLXPXPXPXUXIXUXIXIXIXIXIXIXIXIXIXIXIXUXUXPXPXPXPXPXLXLXKXKXLXKXKXHXHXMXHXHXHXMXMXdXsXsXsXsXaXeXeXeXeXqXqXqXqXqX0XC.C.C.C.C.C.C.C.C.B.B.N.V.V.N.N.N.M.M.M.m.m.m.m.n.n.l.l.l.l.l.l.l.z.z.z.z.z.g.g.g.g.g.g.s.s.s.s.s.s.d.d.d.d.d.d.a.a.a.a.a.L K K K L L P P ..........X.X.X.X.X.X.X.:.:.:.:.:.:.:.:.:.:.:.:.:.:.:.:.:.| { | | { { { { [ [ [ [ [ [ [ [ z z z u u u e y 9 9 9 9 9 9 8 9 8 8 6 * * * # * * * * $ # # * * & $ O O $ # & w # ; ; # g v O.#.7.6.4.$.O.$.6.4.$.e.H.H.e.1.1.5.r.T.oX<X<XoXoX<X@XI.J.J.J.H.U.T.T.U.XX2X2XE.H.H.J.6.4.<.5.U.XXXXXXT.R.I.F.2.~ E f f ; ; r s g g W *.F.L.L.J.6.4.7.7.7.,.~ 2.2.,.^ @.7.~ W E ~ 2.2.#.#.#.#.~ W ^ W #.#.#.#.W W b f f f l k & * & & & & 8 8 8 8 8 & 8 & & & & & & 8 8 8 8 * * * * & & & & & & & & & & * * 8 8 8 8 8 i i i & & & 8 & 8 & & & & & & 8 8 8 8 8 8 8 8 i i i i p p p p i i 8 8 8 8 i i 8 8 8 8 8 8 8 8 ",
"& & > > > & & & % % % % % % % % % % % % % % : : % & & & % % % % % % % % % % % % % % % % % % % % % % % % % % % % % % % % % % % % % % % % % % % % % % % % % % % % % % % % % % % % % % % % % % % % % % % % % % % % % % % % % % % % % % % % % % % % % % % % % % % % % % % % % % % % > > > % % % % & > > % % % % % % % % % % % % % % % % % % % % % % % % % % % % % % % % % % % % % % % % % % % % % % % % % % % > % % % % % % % % % % % % % % % % % % % % % % % % % % % % % % : : : : : : : : < < < < < < < < , , , , A A A , S S S S F F F F F F F F A G G bXNXnXbXkXkX2X2X&XE.$XzXNXbXbXxX%X/.(.$X&X/.!.(.!.v.v.v.v.v.v.v.b.Z.v.v.x.x.x.x.x.x.x.x.x.x.x.x.Z.Z.M.x.x.x.x.Z.Z.Z.Z.N.m.N.N.N.N.N.N.C.C.C.C.C.C.C.A.A.A.A.A.A.A.eXeXeXqXqXqXeXeXeXeXeXeXeXeXaXaXaXsXsXsXsXsXdXdXdXMXHXHXHXHXHXKXKXLXLXPXUXIXIXIXIXIXIXIXIXIXIXIXIXIXIXIXUXIXIXUXIXUXPXPXLXLXKXLXKXHXHXHXHXHXMXBXdXdXdXdXsXsXsXtXeXeXeXeXqXqXqXqXqXC.C.C.C.C.C.C.B.B.N.N.N.N.N.N.M.M.M.M.M.M.m.m.n.n.n.n.l.l.l.l.l.l.z.z.z.z.z.z.g.g.g.g.g.g.s.s.s.s.s.s.d.d.d.d.d.d.a.a.a.a.L L L K K L K P P P ............X.X.X.X.X.X.X.X.:.:.:.:.:.:.:.:.:.:.{ {  .&.{ { { { { { { [ [ [ [ [ [ [ [ _ u x u u u u p p 9 8 8 8 8 8 8 8 8 6 8 * * * * # $ $ # & & # & * $   O @ @ # # ; r q v B J.R.U.J.J.e.J.5.$.$.4.<.&.<.e.K.e.r.r.K.r.r.I.Y.oX<X<X<X@XE.@X4X@XE.@X@X@X@X@X@X@XR.I.W.W.J.e.8.J.I.U.U.W.I.W.E.R.7.=.^ b f - - w f f g N O.*.6.H.W.H.J.L.J.6.2.~ @.@.^ ^ ~ 7.#.~ ^ ^ 3.2.2.*.#.=.#.#.^ ^ ! #.#.~ E R M f w f l R f * * & & & & & & & & & & & & & & & * & 8 8 8 * * * * & & & & & & & & & & & 8 8 8 8 8 8 8 8 8 & & & & & & & & & & & > 8 8 8 8 8 8 8 8 8 i i 8 p p i i 8 8 8 8 8 8 8 8 8 & & & & & & & ",
"& & > > > > & & % % % % % % % % % % % % % % > > % % & & % % % % % % % % % % % % % % % % % % % % % % % % % % % % % % % % % % % % % % % % % % % % % % % % % % % % % % % % % % % % % % % % % % % % % % % % % % % % % % % % % % % % % % % % % % % % % % % % % % % % % % % % % % % % > > % % % % % % & & % % % % % % % % % % % % % % % % % % % % % % % % % % % % % % % % % % % % % % % % % % % % % % % % % % % % > % % % % % % % % % % % % % % % % % % % % % % % % % % % % % : : : : : : : : < < < < < < < < , , , , A A A , S S S S F F S S F F F F F a /.bXnXnXbXmXkX5X2X&X&XxXbXzXhX$XR.R.P.L./.#XL.P.!.Q.v.v.v.v.v.v.v.A.Z.v.x.x.x.x.x.x.x.x.x.x.x.x.x.x.Z.M.x.x.x.x.Z.N.Z.N.N.m.N.N.N.N.N.N.C.Z.C.C.C.C.C.A.A.A.A.qXqXqXqXeXeXqXqXeXeXeXeXeXeXeXaXaXaXaXsXsXsXsXdXdXdXdXdXMXMXHXHXHXHXKXLXLXPXPXPXUXIXIXIXIXIXIXIXIXIXIXIXIXIXUXUXIXIXUXPXPXLXLXLXLXLXKXKXJXMXMXMXMXBXdXdXdXdXsXsXsXsXaXeXeXeXeXeXqXqXqXqXC.C.C.C.C.C.C.B.B.N.N.B.N.V.V.M.M.M.M.M.M.M.m.n.n.n.n.l.l.l.l.l.l.z.z.z.z.z.z.g.g.g.g.g.g.s.s.s.s.s.s.d.d.d.d.d.d.a.a.a.a.a.L L K K K K K P P P ..................X.X.X.X.X.X.:.:.:.:.:.:.:.:.:.{ { { { { { { [ [ [ [ [ [ [ [ [ [ [ z u u c u u 9 p 9 8 8 8 8 8 8 8 6 8 * * * * * # # $ $ & & & # * # # # $ O # v m m 6.J.E.R.U.H.H.K.e.e.e.w.4.%.O.$.%.+.0.K.K.Y..X.XT.Y.Y.U.U.@X4X<X@X<X3XcX3X4X<X<X@X@X@XR.J.J.J.J.H.J.J.J.e.4.4.8.J.2.7.W.E.W.3.^ b f - - s s f f g M W $.6.6.8.H.W.6.,.#.@.^ ! ~ 2.3.D.2.=.=.~ 3.2.2.2.*.*.=.@.^ ^ ^ #.#.^ E M M l f f g R k 8 * & & & & & & & & & & & & & & & * & 8 8 8 * * * * & & & & & & & & & & & & 8 i 8 8 8 8 8 8 & & & & 8 & & & & & & & 8 8 8 8 8 8 8 8 8 8 i i p i i 8 8 8 8 8 8 8 8 8 & & & & & & & & ",
"& & & > & & & & % % % > % % % % > > % % % % > > : : % % % % % % % % % % % % % % % % % % % % % % % % % % % % % % % % % % % % % % % % % % % % % % % % % % % % % % % % % % % % % % % % % % % % % % % % % % % % % % % % % % % % % % % % % % % % % % % % % % % % % % % % % % % % % % % % % % % % : : % % % % % % % % % % % % % % % % % % % % % % % % % % % % % % % % % % % % % % % % % % % % % % % % % % % % % % % > % % % % % % % % % % % % % % % % % % % % % % % % % % % % : : : : : : : : < < < < < < < < , , , , A A A , S S S S F F F S F F F F F / NXNXbXbXmXmXkX3X4X4X3XbXkXR./.L.L.$XL.G.G.G.P.G.v.v.v.v.v.v.v.v.v.v.v.v.c.c.x.c.x.x.x.x.x.x.x.x.x.x.M.x.x.x.x.x.M.M.N.M.m.m.N.N.N.N.N.Z.Z.C.Z.Z.C.C.C.C.C.C.C.0X0XqXqXqXqXqXqXeXeXeXeXeXeXeXeXaXaXaXsXsXsXsXdXdXdXdXdXMXHXHXHXHXKXKXLXLXLXPXPXPXUXIXIXIXIXIXIXIXIXIXIXIXUXUXUXUXPXLXLXLXLXKXKXLXLXLXKXJXMXMXMXBXdXsXsXsXsXsXaXaXaXaXeXeXeXeXeXeXqXqXqX0XC.C.C.C.C.C.C.B.B.B.B.N.N.N.M.M.M.M.M.M.m.m.n.n.n.n.l.l.l.l.l.l.z.z.z.z.z.z.g.g.g.g.g.g.s.s.s.s.s.s.d.d.d.d.d.a.a.a.a.a.L L L L K K K K K P P P P ................X.X.X.X.X.X.X.{ { { { { { { { { { { { [ [ [ [ [ [ [ [ x x x x u u c c d 9 p p p p 8 8 8 8 8 8 8 8 * * # # * # # $ $ $ % & & $ * & O # w g @.J.@X@X@XXXR.H.K.U.T.T.H.H.e.w.w.&.} &.+.<.e.Y.T..X.XoXoXoXoXT.T.E.<X4X<X3X3X3X3X<X@X@XE.E.J.4.@.@.=.7.J.U.R.U.I.8.7.8.R.5.2.W.E.E.3.^ b f w - s s f f d g z B %.$.7.J.J.8.2.2.2.! 2.2.F.F.7.3.2.3.=.2.2.2.2.2.3.*.#.^ ^ W ! @.W N M M b f f f R R g & & & & & & & & & & & & * * * * # * * * * * * * * & & & & & & & & 8 8 & 8 8 8 8 8 8 8 8 8 8 8 8 8 8 8 & & & & & & 8 8 8 8 8 8 8 8 8 8 i i i i 8 8 8 8 8 8 8 8 8 8 & & & & & & & & ",
"& & & & & & & & % % % > % % % % > > % % % : > > : : : % % % % % % % % % % % % % % % % % % % % % % % % % % % % % % % % % % % % % % % % % % % % % % % % % % % % % % % % % % % % % % % % % % % % % % % % % % % % % % % % % % % % % % % % % % % % % % % % % % % % % % % % % % % % % % % % % % % : : % % % % % % % % % % % % % % % % % % % % % % % % % % % % % % % % % % % % % % % % % % % % % % % % % % % % % % % : > % % % % % % % % % % % % % % % % % % % % % % % : % % % : : : : : : : : < < < < < < < < , , , , A A A , F S S S F F F S F F F F A /.NXnXnXcXmXzXmX3X4X2X2XhX&XD.P.P.G.L.v.v.v.v.v.v.v.v.c.c.v.c.v.v.v.v.v.v.x.f.x.x.x.c.x.x.x.x.x.x.x.x.x.x.x.x.x.x.x.x.M.m.m.N.m.m.M.N.N.Z.Z.Z.Z.Z.Z.C.C.C.C.C.C.C.C.C.0X0X0X0XqXqXeXeXeXeXeXeXeXaXaXaXaXsXsXsXsXdXdXdXdXMXHXHXHXHXHXKXLXLXLXLXLXPXPXUXUXIXIXIXIXIXIXIXIXIXIXUXLXLXLXLXLXLXKXJXKXKXKXLXLXJXMXMXBXdXsXsXsXsXsXaXtXeXeXeXeXeXeXeXeXqXqXqXqXA.C.C.C.C.C.C.C.C.B.B.B.N.N.N.M.M.M.M.M.M.M.m.n.n.n.n.l.l.l.l.l.l.z.z.z.z.z.h.g.g.g.g.g.g.s.s.s.s.s.s.d.d.d.d.d.d.a.a.a.a.a.L L L K K K K K P P P P P ..................X.X.X.X.X.{ { { { { { { { { { { { [ [ [ [ [ [ ' x x x x x u c c d p p p p 8 p 8 i 8 8 i 8 8 * # * # # * * % % $ $ % # % $ # & g N *.J.R.@XE.T.U.U.H.r.H.R.T.T.U.U.J.e.e.4.+.<.4.e.e.H.Y.T..X@X1X2X3X1X@X@X<X3X3X3X3X4X4X<XE.R.W.J.4.@.W g b ! 6.J.H.H.H.J.J.I.E.I.J.<XE.W.2.^ N b f f f s s s w w e g m O.4.6.K.R.W.J.2.@.2.2.7.F.#.#.~ #.~ #.2.2.2.3.3.3.#.W ^ N ! ~ E N M M M k s s l E b s & & & & & & & & & & & * * * * # * * * * * * * * & & & & & & & & 8 8 & & 8 8 8 8 8 8 8 8 8 8 8 & i i i i & & & & 8 8 8 8 8 8 8 8 8 i i i i 8 8 8 8 8 8 8 8 8 8 8 & & & & & & & & ",
"> > > > & & & & & & > & & & & & > & & & & & > > & & & & & & & & % % % % % % % % % % % % % % % % % % % % % % % % % % % % % % % % % % % % % % % % % % % % % % % % % % % % % % % % % % % % % % % % % % % % % % % % % % % % % % % % % % % % % % % % % % % % % % % % % % % % % % % : % % % % & & > : % % % & % % % % % % % % % % % % % % % % % % % % % % % % % % % % % % % % % % % % % % % % % % % % % % % % % % % % % > % % % % % $ % % % % % % % $ % % % % % % % % : : : : : : : : : : > > < : : < < < , , , , , , A A A A S S F S S S S S F F S F a uXbXnXbXkXkXmXkX2X2XhX2X/.L.L.L.G.=.;.;.v.v.v.v.v.v.v.v.v.c.c.c.c.v.v.c.c.x.c.x.x.x.x.x.x.x.x.x.x.x.x.x.x.m.x.x.x.x.M.M.M.M.N.N.N.N.N.C.A.C.C.C.C.C.C.C.C.C.C.C.C.0X0XwXwXwXwXqXqXeXeXeXeXeXeXeXaXaXaXaXaXsXsXsXsXsXdXdXHXHXKXHXHXHXHXKXKXLXLXLXLXPXPXPXUXIXIXIXIXIXIXIXIXIXIXUXUXLXLXLXLXLXLXJXKXKXKXLXKXJXMXMXdXdXsXpXpXsXsXaXtXeXeXeXeXeXqXqXqXA.qX0XC.C.C.C.C.C.C.C.C.B.B.N.N.N.N.N.M.M.M.M.M.M.M.m.m.n.n.l.l.l.l.l.z.l.z.h.h.h.g.h.h.h.h.g.g.g.g.s.s.s.s.s.s.d.d.a.a.a.a.a.a.a.a.a.a.K K K K K K K P P P Y Y ..................................{ { { { { { [ [ [ [ ' ' ' [ x x x c c c c j p 9 8 p p 8 8 8 i i i 8 8 * * & & & # # # $ O O # # & w r m O.<.6.U.T.E.E.E.XXT.T.U.H.H.H.H.U.U.H.e.e.e.4.e.1.5.w.e.U..X.X.XoX1X1X2X5X4X1X3X3X3X2X4X4X4X4XE.W.F.2.#.^ M g g N O.2.8.J.H.H.H.I.R.R.R.E.E.I.7.^ ^ N b l f s f f j e w t m B %.7.J.U.E.R.J.2.#.2.7.3.#.#.#.#.@.@.#.=.3.2.3.3.=.^ ^ W ^ ~ W M b M M l f f l M M l s # # & & & & & & & & & & & & # * * # # * * # # * * * & & & & & 8 8 8 8 8 8 8 8 8 8 8 8 i i i i 8 8 8 8 8 8 & & i i 8 8 8 8 8 8 8 8 8 8 8 8 8 8 8 8 8 8 8 8 & & 8 8 8 8 8 8 8 8 ",
"> > > > > & & & & & > > & & & & > > & & & & > > & & & & & & & & % % % % % % % % % % % % % % % % % % % % % % % % % % % % % % % % % % % % % % % % % % % % % % % % % % % % % % % % % % % % % % % % % % % % % % % % % % % % % % % % % % % % % % % % % % % % % % % % % % % % % % % > % % % % & % > > % % % > % % % % % % % % % % % % % % % % % % % % % % % % % % % % % % % % % % % % % % % % % % % % % % % % % % % % % % > % % % % % % % % % % % % % % % % % % % % % : : : : : : : : : : : : < : < < < < , , , , , , A A A A S S F F S S S S S S F < , lXbXcXkX5XkXkX3X2X2X%X/.L.L.!.G.v.;.;.;.v.v.c.f.c.v.v.v.v.c.c.c.c.c.c.c.c.c.c.x.c.c.x.x.x.x.x.x.x.x.x.x.x.x.m.M.x.M.M.M.M.M.N.N.M.N.C.eXtXqXC.C.C.C.C.C.C.C.C.C.C.0X0X0XwXwXwXqXqXqXeXeXeXeXeXeXeXaXaXaXaXaXsXsXsXsXsXdXdXHXHXHXHXHXHXKXKXKXLXLXLXPXPXPXUXIXIXIXIXIXIXIXIXIXIXUXUXPXLXPXLXLXLXJXKXLXLXLXLXLXHXMXMXdXdXsXsXsXsXaXeXeXeXeXeXeXqXqXA.A.A.C.C.C.C.C.C.C.C.B.B.B.N.N.N.N.N.M.M.M.M.M.M.M.M.m.n.n.n.l.l.l.l.l.z.z.z.h.h.g.g.h.h.h.h.g.g.g.g.s.s.s.s.s.s.d.a.a.a.a.a.a.a.a.a.a.a.K K K K K K K K J P P Y P P Y Y ............................{ { { { [ [ [ ' ' ' ' ' x c c c c c p p p p i i i 8 i i p i 8 8 8 * * * & # # # $ $ O $ # w g m C %.7.e.U.U.T.R.R.U.R.XX4X@XXXU.H.5.<.1.e.e.e.e.e.w.H.w.5.J.U.T.Y.U.Y.oX1X3X5X5X5X3X3X3X3X4X<X<X<X4XE.W.F.2.=.^ b f r g W ! ,.8.I.U.R.T.<X<XE.W.F.F.F.2.^ E M b s f f s x g g z m B O.$.6.J.R.E.L.2.@.~ 3.2.3.#.#.@.@.~ ^ ~ #.=.2.2.#.^ ^ W W ~ W M M M M b f s l b b l f & # & & & & & & & & & & & & & * * # * * * # # * * & & & & & & 8 8 8 8 8 8 8 8 & & & & 8 8 8 8 8 8 8 8 8 8 & & i i 8 8 8 8 8 8 8 8 8 8 8 8 8 8 8 8 8 8 8 & & & 8 8 8 8 8 8 8 8 ",
"> > > > > > & & & & & > & & & & > > & & & & & > & & & & & & > > % % % % % % % % % % % % % % % % % % % % % % % % % % % % % % % % % % % % % % % % % % % % % % % % % % % % % % % % % % % % % % % % % % % % % % % % % % % % % % % % % % % % % % % % % % % % % % % % % % % % % % & & > > % % % % % % % % > > % % % % % % % % % % % % % % % % % % % % % % % % % % % % % % % % % % % % % % % % % % % % % % % % % % % % % % % % > % % % % % % % % % % % % % % % % % % % % % % % : : : : : : : : < < < < < < < < , , , , A A A A S S S S S S S S F F F F G.zXxXkXkXkXkXkX2X$X&XR.D.G.P.G.v./ U / U U f.f.f.f.c.v.v.v.c.c.c.c.c.c.c.c.c.x.x.x.x.x.x.x.x.x.x.x.x.x.x.x.m.m.M.M.M.M.M.M.M.N.N.N.N.A.aXaXeXC.C.C.C.C.C.C.C.C.C.C.C.0X0X0XwXqXqXqXqXqXeXeXeXeXeXeXeXaXaXaXaXaXsXsXsXsXdXdXdXgXHXHXHXHXHXHXKXKXLXLXLXLXPXPXIXIXIXIXIXIXIXIXIXIXIXUXUXPXLXLXLXLXKXKXKXLXLXPXPXLXHXMXMXdXsXsXsXsXpXtXeXeXeXeXeXeXqXqXA.C.C.C.C.C.C.C.C.C.C.B.B.N.N.N.N.N.M.M.M.M.M.M.M.M.m.n.n.n.l.l.l.l.z.z.z.z.h.h.z.h.h.h.h.h.g.g.s.d.s.s.s.s.d.d.d.a.a.a.a.a.a.a.a.a.a.a.K K K K K K K K J P Y P Y Y Y Y Y Y ........................[ [ [ [ [ [ [ x x x c c c c c c p p p p p a a i i i i i i 8 8 8 8 * * * + O O # & & w g N O.-.6.J.K.T..XT.U.H.e.e.5.e.U.XX@X@XT.e.1.<.1.<.5.e.H.e.5.w.e.5.H.K.K.r.r.U..X<X6X3X4X5X3X3X5X3X2X4X<XE.<XE.R.F.3.#.^ M g s d M m ! 7.I.R.E.@X<X<XE.W.6.F.F.2.#.^ E b k g g f g z z m m } O.%.4.6.U.E.W.7.#.~ ~ ~ #.#.#.@.@.~ ^ ^ ^ ~ =.3.#.~ ^ W W ~ W R M M M b g f l b l l k w & & & & # # * * & & & & & & * * * * * * & & * * & & & & & & 8 8 8 8 8 8 8 8 8 8 8 8 8 8 8 8 8 8 8 8 8 8 i i i i 8 8 8 8 8 8 8 8 8 8 8 8 8 8 & & & & & & & & 8 8 8 8 8 8 i i ",
"> > > > > > > & & & & > > & & % > & & & & & & & & & & & > > > > % % % % % % % % % % % % % % % % % % % % % % % % % % % % % % % % % % % % % % % % % % % % % % % % % % % % % % % % $ $ $ $ % % % % % % % % % % % % % % % % % % % % % % % % % % % % % % % % % % % % % % % % % % & > > % % % % % % % % % > > % % % % % % % % % % % % % % % % % % % % % % % % % % % % % % % % % % % % % % % % % % % % % % % % % % % % $ $ % % % % > % % % % % $ % % % % % % % % % % % % % % % : : : : : : : : < < < < < < < < , , , , A A A A S S S S S S S S F J a ;.hXhX2XkX3X2XkX2X@XR.L.P.v.D.v.;./ U U k.U f.f.f.k.k.c.c.c.c.c.f.c.c.c.c.c.c.c.x.c.c.x.x.x.x.x.x.x.x.x.x.x.x.m.m.x.M.M.M.M.m.M.N.N.N.N.C.qXeXqXC.N.B.C.C.C.C.C.C.C.C.C.C.0X0XwXwXqXqXqXqXqXeXeXeXeXeXeXeXaXaXaXaXsXsXsXsXsXdXdXdXdXdXHXHXHXHXJXKXKXLXLXLXPXPXIXIXIXIXIXIXIXUXIXIXIXUXPXLXLXLXLXKXKXKXKXKXKXLXPXLXHXHXMXMXsXsXdXdXsXpXtXtXaXtXeXeXeXeXqXC.C.C.C.C.C.C.C.C.B.B.N.N.B.N.N.N.M.M.M.M.M.M.M.m.m.n.n.n.l.l.l.l.z.z.z.z.h.h.z.h.h.h.h.h.g.g.d.d.s.s.s.s.d.d.a.a.a.a.a.a.L a.L L a.a.K K K K K K J J J J J J J Y Y Y Y Y Y Y Y Y ..........' ........[ [ ' x x x c c c c c p p p p p p p a a a a i i 8 8 8 8 8 8 * * * + + + 6 g M N O.4.4.6.J.K.U.T.T.T.T.K.w.<.+.<.7.e.K.T.XXT.U.H.e.e.<.+.4.H.H.w.4.H.w.w.w.w.w.5.r..X<X1X1X1X2X3X3X3XkX3X4X<XE.E.E.R.F.3.#.^ M g s r r v B %.8.U.oX@XXXE.R.I.F.F.F.2.2.~ W M b b b b M m V B B O.#.$.,.6.J.R.W.D.2.=.^ ^ ^ ^ ^ ~ ~ ~ ~ ^ W E ~ =.=.@.^ W W ~ W R M M E b k f l l l k k f s & & & # # * * * * & & & & * * * * * * * & * * & & & & & & 8 8 8 8 8 8 8 8 8 8 8 8 8 8 8 8 8 8 8 8 i 8 i i i i 8 8 8 8 8 8 8 8 8 8 8 8 8 8 & & & & & & & & 8 8 8 8 8 i i 8 ",
"> > & & & > & & & > > > > > > & % % % % % % % % : : % % % % % % % % % % % % % % % % % % % % % % % % % % % % % % % % % % % % % % % % % % % % % % % % % % % % % % % % % % % % % % % % % % % % % % % % % % % % % % % % % % % % % % % % % % % % % % % % % % % % % % % % % % % % % % > > % % % % % % % % : : % % % % % % % % % % % % % % % % % % % % % % % % % % % % % % % % % % % % % % % % $ $ $ $ % % % % % % % % % % % $ % % % % % % % % % % % % % % % % % % % % : : : : : : : : : : : : < < : : , , < < , , , A A A A A S S S S S A S S A a < L.%X$X2X2X@X2X4X&XL.P.P.G.=.;.;.U U U U k.f.f.f.f.k.k.k.f.c.c.c.c.c.c.c.c.f.f.j.x.c.x.x.x.x.x.x.x.x.x.x.x.m.m.m.M.x.M.M.M.m.m.m.m.M.N.N.M.C.C.N.B.N.N.B.C.C.C.C.C.C.C.C.C.C.0XwXwXwXwXwXwXeXeXeXeXeXeXeXeXeXaXaXaXaXaXsXsXsXsXsXdXdXdXHXHXHXHXHXJXKXKXLXLXPXIXIXIXIXIXIXIXIXIXIXIXUXPXPXLXLXLXKXKXKXKXHXHXKXKXKXKXHXKXKXMXdXsXdXMXdXsXpXtXtXtXeXeXeXeXeXqX0XC.C.C.C.C.B.B.B.B.N.N.N.N.N.N.M.M.M.M.M.M.M.m.n.n.n.n.n.l.l.l.l.z.l.l.g.g.g.h.h.h.g.g.g.g.s.s.s.s.s.s.d.d.a.a.a.a.a.a.a.a.a.a.L L K K K K K K J J J J J J J J J Y Y Y Y Y Y Y Y Y ..........' ' H H H Y c c c c c a j p p p i p i i a i i 8 * 8 i i i i i 8 6 + # 8 w g m W $.4.6.J.H.K.U.T.T.T.U.Y.U.U.K.w.&.+.<.4.7.w.5.w.H.T.oXoXT.r.1.<.e.H.e.4.5.w.w.5.5.5.w.U.oXoX@X<X<X<X3X3X4X4X4X4X<X<XE.E.E.F.3.#.^ b l f w w g N O.4.H.T.oX<X@XT.U.J.6.2.3.2.~ E E N N W @.O.#.#.@.O.#.4.4.$.2.8.J.W.F.3.=.~ ^ W E W ^ ^ ^ ~ ^ E N E ~ @.~ ! W W ! W M M M E M l f g l l g g g k f & $ * & # # & & & # # # * * * & & * * * * & & & & & & & 8 8 8 8 8 8 8 8 8 8 8 8 8 8 8 8 i i i i i i i i 8 8 8 8 8 8 8 8 8 8 8 8 8 8 8 8 & & & & & & & & & & > i i 8 8 8 ",
"> > & & > & & & & > > & > > & & % % % % : % % % : : % % % % % % % % % % % % % % % % % % % % % % % % % % % % % % % % % % % % % % % % % % % % % % % % % % % % % % % % % % % % % % % % % % % % % % % % % % % % % % % % % % % % % % % % % % % % % % % % % % % % % % % % % % % % % % : > % % & % % : % % > > % % % % % % % % % % % % % % % % % % % % % % % % % % % % % % % % % % % % % % % % $ $ $ $ % % % % % % % % % % % % % % % % % % % % % % % % % % % % % % % % : : : : : : : : : : : > < < : : , , < < , , , A A A A A S S S S S S F F F a a /.&X&X@XXXR.$XR.W.P.D.D.G.;.U U I U U U U f.f.f.f.f.f.f.k.c.c.c.c.c.c.c.c.j.f.j.x.x.x.x.x.x.x.x.x.x.x.x.x.x.x.m.m.x.x.M.M.m.m.m.m.M.N.N.M.M.N.N.N.N.N.N.C.C.C.C.C.C.C.C.C.0X0XwXwXwXwXqXqXeXeXeXeXeXeXeXeXeXeXaXaXaXaXaXsXsXsXsXsXdXdXgXHXHXHXHXHXKXKXLXLXPXIXIXIXIXIXUXUXUXIXIXUXPXPXLXLXLXLXLXLXKXKXKXKXKXHXMXHXHXHXKXHXMXdXdXdXdXsXsXpXaXtXeXeXeXeXqXqX0X0XC.C.C.C.C.B.B.N.N.N.N.N.N.M.M.M.M.M.M.M.M.m.n.n.n.n.n.l.l.l.l.z.l.l.g.g.g.h.h.g.g.g.g.g.s.s.s.s.s.s.d.d.a.a.a.a.a.a.a.a.a.a.L L K K K K K K J J J J K K J J J J J J Y Y Y Y Y Y Y Y Y c c c c c c c c c j a a a a a a a i 8 a a a i 8 8 8 8 8 * + + + + + # w x W O.$.7.J.H.R.T.T.R.T.T.T.T..X.XY.K.K.H.w.<.+.$.$.%.+.O.+.5.T.1X3X1X@XoXT.r.H.H.w.5.w.w.w.e.e.e.I.T.T.XX<X<X<X4X4X<XE.E.<X@XE.E.E.E.I.8.2.@.N b k s g v N %.<.5.r.XX<X1XoXR.H.,.~ 2.~ ^ ^ ^ N N #.7.4.4.4.2.2.4.4.4.2.2.7.F.J.D.3.=.~ ^ W E E ^ W E ^ W N b N ^ ~ ~ W W W W W M M M R M l f f g g f f f l l s & $ & # # & & # # # # * * * & * * * * * & & & & & & & 8 8 8 8 8 8 8 8 8 8 8 8 8 8 8 8 i i i i i i i i 8 8 8 8 8 8 8 8 8 8 8 8 8 8 8 8 & & & & & & & & & & > & 8 8 8 8 ",
"> > > & & & & > & & & & & & & & & & > > : : % % : % % % % % % % % % % % % % % % % % % % % % % % % % % % % % % % % % % % % % % % % % % % % % % % % % % % % % % % % % % % % % % % % % % % % % % % % % % % % % % % % % % % % % % % % % % % % % % % % % % % % % % % % % % % % % % % : % % % & > > : % % > > % % % % % % % % % % % % % % % % % % % % % % % % % % % % % % % % % % % % % % % % $ $ % % % % % % % % % % % % % % % % % % % % % % % % % % % % % % % % % % : : : : : : : : : : : : < < : : , , < < , , , A A A , A S S S S S S J S F a v.#X&X.XU.K.J.R.J.P.D.v.;.v.;.U U U U U U U U f.f.f.U f.f.f.f.c.c.v.c.c.c.f.j.f.j.x.x.c.x.x.x.x.x.x.x.x.x.x.x.x.x.x.M.M.M.M.m.m.M.m.M.N.N.M.M.N.B.B.N.N.N.C.C.C.C.C.C.C.C.0X0XwXwXwXwXwXwXwXqXqXqXeXeXeXeXeXeXeXeXeXaXaXaXaXsXsXsXsXdXdXdXdXMXMXHXHXKXKXLXLXPXIXIXIXIXIXUXPXPXUXIXPXLXLXLXLXLXLXLXLXLXLXLXLXKXHXMXMXMXMXMXMXMXdXdXdXdXsXsXsXsXaXtXeXeXeXeXqXqXqX0XC.C.C.C.C.C.B.B.B.N.N.N.N.M.M.M.M.M.M.M.n.n.n.n.n.l.l.l.l.z.z.l.z.g.g.g.h.h.h.h.h.g.g.s.s.s.s.s.s.d.a.a.a.a.a.a.a.a.a.L L L L K K K K K K J J J J J K K K J J K F F F F Y Y Y Y j c c c c c c c c c a a a a a a a i i 8 8 a a a 8 8 * * 8 8 # 6 w g x N W #.7.F.J.H.U.T.T.T.T.T.U.T.U.U.K.T.Y.Y.r.r.e.5.<.+.} B B B V } +.1.r.T.oXoX1XoXH.e.H.H.6.4.5.e.e.r.r.r.Y.R.T.oXoX<X1X<X@XE.E.E.E.E.R.W.W.I.F.F.6.2.#.W M N N m C +.+.5.I.T.<X<XR.F.@.W #.^ W ! E N O.4.6.7.4.2.*.2.2.2.7.2.*.2.F.F.3.3.~ ~ ^ W E E E E E W W N v b E ^ ^ W E E W W M M M R b k s f f f s f s l R l 1 # % % % # # # # # # & & & & & & & & & & & & & & & & 8 8 8 8 8 8 8 8 i i i i p p p p i i i i i i i i 8 8 8 8 8 8 8 8 8 8 8 8 8 8 8 8 8 8 8 8 & & & & 8 8 8 8 & & & 8 ",
"> > > > & & & & & & & & % & & & & > > : % : % & % % % % % % % % % % % % % % % % % % % % % % % % % % % % % % % % % % % % % % % % % % % % % % % % % % % % % % % % % % % % % % % % % % % % % % % % % % % % % % % % % % % % % % % % % % % % % % % % % % % % % % % % % % % % % % % % : : % % & & : : % : > > % % % % % % % % % % % % % % % % % % % % % % % % % % % % % % % % % % % % % % % % % % % % % % % % % % % % % % % % % % $ $ % % % % % % % % % % % % % % % % : : : : : : : : : : : : < : : : , < < , , , , , , A , A S S S S S S F S F a /.$XR.R.J.J.D.P.P.=.=.;./ / U U U f.U U U U L U f.L f.f.f.f.f.f.c.v.c.c.f.f.f.f.j.x.x.j.c.x.x.x.x.x.x.x.m.m.x.x.x.x.x.x.x.x.m.m.M.m.M.N.N.M.B.N.N.N.N.N.N.C.C.C.C.C.C.C.0X0X0X0XwXwX0XwXwXwXqXqXwXwXwXqXeXeXeXeXeXeXaXaXaXaXsXsXsXsXdXdXdXdXdXdXHXHXKXKXLXLXIXIXIXIXIXIXUXUXPXPXUXPXLXLXLXLXLXLXPXPXLXLXLXLXKXKXHXMXBXdXsXdXBXBXMXdXiXsXdXdXsXsXsXaXeXeXeXqXqXqX0X0XqXC.C.C.C.C.B.B.B.N.N.N.M.M.M.M.M.M.M.n.n.n.n.n.l.z.l.l.z.z.l.z.g.g.g.h.h.h.h.g.g.g.s.s.s.s.s.d.d.a.a.a.a.a.a.a.a.a.L L L L K K K K K K J J J J J J K J F F J J F F F F F F Y a a a a p a a a a a a a a i a a a a 8 < < < < < < 8 # # 6 6 6 g o.-.7.J.J.W.U.T.T.T.T.T.T.U.U.U.U.H.T.T.U.Y.r.t.Y.H.r.e.5.<.} B B } } +.+.&.1.r.U.Y.oXH.<.<.4.4.} $.<.5.e.U.U.Y.Y.E.oX@XoX1X<XE.<X<XE.E.E.R.W.I.I.J.F.J.W.F.D.2.@.W W m m V } 1.e.Y.<X<XE.8.#.^ E W ! N v N *.7.2.7.,.#.@.#.#.*.2.2.2.2.7.D.3.2.~ ~ ^ W E b R E E E W N v k N W W W E E W E M b M M b g f f s s f f s l E R k & # % % % % # # # # & & & & & & & & & & & & & & & & 8 8 8 8 8 8 8 8 i i i i p p p p i i i i 8 8 8 8 8 8 8 8 8 8 8 8 8 8 8 8 8 8 8 8 8 8 8 8 & & & & 8 8 8 8 & & & & ",
"& & & & & & & & % % & & & & & & % % % % % % & > % % % % % % % % % % % % % % % % % % % % % % % % % % % % % % % % % % % % % % % % % % % % % % % % % % % % % % % % % % % % % % % % % % % % % % % % % % % % % % % % % % % % % % % % % % % % % % % % % % % % % % % % % % % % % % % % > > > : % % % & % % % % % % % % % % % % % % % % % % % % % % % % % % % % % % % % % % % $ % $ $ $ % $ $ $ % % % % $ $ $ $ % % % $ % % % % % % % % % % % % % % % % % % % % % % % % : : : : : : : : : : : : , , < : < < < < , A A A A A A A S S S S S S F F , Q (.&XR.K.F.7.D.v.-.-.=.;./ U U U U U U U U U f.f.a.f.f.f.f.f.f.f.c.c.c.c.c.c.x.x.f.c.j.j.c.x.z.x.x.x.l.x.x.x.x.m.m.m.m.m.m.m.M.m.m.N.N.N.N.N.M.N.N.N.B.B.C.C.C.C.C.C.C.C.C.0X0X0X0X0X0X0XwXwXwXwXwXwXwXwXeXeXeXeXeXeXaXaXaXaXaXsXsXsXsXsXsXsXdXMXHXHXKXLXLXPXPXIXIXUXIXIXUXLXPXPXLXPXLXLXLXLXLXPXUXUXPXPXPXLXKXMXMXMXBXfXsXdXBXBXBXdXsXdXdXsXsXpXpXaXtXeXeXeXeXqXA.C.C.C.C.C.C.C.C.C.C.B.N.N.M.M.M.M.m.m.n.n.n.n.n.n.l.l.l.l.z.z.h.h.h.h.g.g.g.g.g.g.g.g.s.s.s.s.d.d.d.d.d.d.a.a.a.a.a.a.a.a.L K K L K K K J J J J J J J J J F F F F F F F F F F F F a a a a a a a a a a a a a , < < < < < < > > & 8 6 6 w g o.4.e.H.R.T.XX@X<X@X@XXX.XU.U.T..XU.r.e.H.oX@X.XU.Y.Y.r.r.U.U.H.+.[ B } $.<.5.6.w.K.T.oX.XK.H.} <.5.<.$.B } +.5.U.T.T.U.E.oXoXY.T.oXXXR.E.E.E.R.W.I.J.F.8.3.6.F.F.J.J.7.#.! N B B +.5.Y.E.oX<XXXI.2.! W W ! ! W #.7.7.2.F.8.2.2.#.^ ! ~ 2.@.#.2.3.#.^ #.~ ^ E M b R E R E E M b b M E W W E W E E l l b b b g s f f f f f f g b E T f # # # & & # # # # * * & & * * * * & & & & & & & & i 8 8 8 8 8 8 8 i i p p p p i i i i i i i i 8 8 8 8 8 8 8 8 8 8 8 8 8 8 8 8 8 8 8 8 8 8 8 8 8 8 & & 8 8 i 8 & & ",
"& & & & & & & & % % & & & & & & % % % % % % % % % % % % % % % % % % % % % % % % % % % % % % % % % % % % % % % % % % % % % % % % % % % % % % % % % % % % % % % % % % % % % % % % % % % % % % % % % % % % % % % % % % % % % % % % % % % % % % % % % % % % % % % % % % % % % % & > > > > : % % % > % % % % % % % % % % % % % % % % % % % % % % % % % % % % % % % % % % $ $ % % $ $ $ $ % $ % % % % $ $ $ $ % % % $ % % % % % % % % % % % % % % % % % % % % % % % % % % : : : : : : : : : : , , < : < < < < , , A A A , A A S S S S F F F F F v.$XR.K.F.-.-.-.-.=.;.;./ / / U U U U U U U U f.f.a.a.f.f.f.f.f.f.c.c.c.f.f.f.x.f.f.x.j.j.x.z.z.z.x.x.x.x.x.x.m.m.m.m.x.x.x.m.m.M.m.N.N.N.N.N.B.B.B.B.B.B.B.C.C.C.C.C.C.C.C.C.C.C.0X0XC.0XwXwXwXwXwXwXwXwXeXeXeXeXeXaXaXaXaXaXaXaXsXsXsXsXsXsXdXMXHXJXKXLXLXLXIXIXIXUXIXIXPXLXPXLXLXPXLXLXLXLXLXPXUXUXUXIXIXUXLXKXMXMXMXdXfXdXdXBXMXMXMXMXdXsXtXtXtXtXaXtXeXeXeXeXeXeXqX0XC.C.C.C.C.C.C.B.N.N.N.M.N.M.M.M.m.n.n.n.n.n.l.l.l.l.z.h.h.h.h.h.g.g.g.g.s.s.g.s.s.s.s.s.d.d.d.d.d.d.a.a.a.a.a.a.L L L K K L K K J J J J J J J J J J F F F F F F F F F F F F F a F a a a a a a a , , < < < < < < > , i & * + g W *.4.e.H.U..XoX@X@X<X1X<X@XoX.X@XoXXXU.r.H.oXoXoX1X1X@XoXY.r.H.T.oXT.U.H.e.4.7.6.H.K.K.T.oXoXT.H.U.w.4.5.7.7.$.&.+.<.r.T.oXT.T.T.U.r.Y.oXXXR.I.U.W.I.I.F.7.2.#.! #.#.#.F.W.F.7.#.@.$.8.J.I.U.oXoX@XE.E.J.7.@.! #.2.2.2.2.#.! $.,.#.#.#.~ #.2.3.3.2.2.=.~ ^ ~ ^ W E b b b M b E M b b b b E E E E E E M k k k b b g f f f f f f f f l R R l w # # # & & # # # * * * * * * * * * * * * & & & & 8 8 8 8 i i i i i i p p i i i i i i i i i i 8 8 8 8 8 8 8 8 8 8 8 8 8 8 8 8 8 8 8 8 8 8 8 8 8 8 8 & 8 8 8 8 & & ",
"& & > > & & & & % % % % % % % % % % % % % % % % % % % % % % % % % % % % % % % % % % % % % % % % % % % % % % % % % % % % % % % % % % % % % % % % % % % % % % % % % % % % % % % % % % % % % % % % % % % % % % % % % % % % % % % % % % % % % % % % % % % % % % % % % % % % % % > > : % % % % % > > % % % % % % % % % % % % % % % % % % % % % % % % % % % % % % % % % % $ $ % % $ % % % % % % % $ $ $ $ % % % % $ $ % % % % % % % % % % % % % % % % % % % % % % % % % % % % : : : : : : : : : : < < < < < < , , , A A A A A S S S S F S A , a L.$XL.F.7.*.-.v.v.;.;.U / / / U U U U U U U U U U a.a.f.f.f.f.f.f.f.f.f.f.f.f.f.f.f.j.j.c.x.z.x.z.x.x.x.x.m.m.m.m.m.m.m.m.m.m.m.M.N.N.N.N.N.Z.Z.N.B.B.N.B.B.C.C.C.C.C.C.C.C.C.C.C.C.C.C.0XwXwXwXwXwXwXwXwXeXeXeXeXeXeXaXaXaXaXaXaXaXaXaXaXsXsXdXHXHXKXKXLXLXPXIXIXIXPXUXIXPXPXPXLXLXLXLXLXLXLXLXPXUXUXUXIXIXIXPXLXKXMXMXBXdXiXdXBXMXMXMXdXiXpXeXeXtXsXaXaXeXeXeXeXeXeXqXqXA.C.C.C.C.C.C.B.N.N.N.N.M.M.M.M.M.n.n.n.n.l.l.l.l.l.h.h.h.h.h.h.g.g.g.g.s.s.g.s.s.s.s.s.d.d.d.d.d.d.a.a.a.a.a.L L L K K L L K K J K J J J J F F F F F F F F F F F F F F F F F F F F F F a a a , , < < < < > > * * & s l Q #.#.7.F.J.U.T.T.oX<X1X1X<XoXoX.X.XT.T.U.K.U.H.U.T.T.T.oXoXT.Y.T.oX@X<X1X1X@X@XXXR.H.I.U.T.T.XXoXoXH.1.e.H.4.7.e.e.6.,.+.<.r.U.Y.oXT.Y.Y.Y.@X<XE.8.7.J.J.J.8.7.2.#.! %.2.#.C 2.J.F.7.2.2.7.8.J.U.T.XXXX@XE.E.J.7.#.#.3.D.7.! ! #.#.*.#.~ #.#.~ ~ ~ 2.2.2.#.#.#.~ ^ W E b g g b b b b b b l b b E E E N N N b g f g b l k f s s s s f f s g b M b g & # & & & & & # & & & * * * * * * * * * & & & & 8 8 8 i i i i i p p p p i i i i i i i i 8 8 8 8 8 8 8 8 8 8 8 8 8 8 8 8 8 8 8 8 8 8 8 8 8 8 8 8 8 8 8 8 8 & 8 i ",
"% & > > > & & & % % % % % % % % % % % % % % % % % % % % % % % % % % % % % % % % % % % % % % % % % % % % % % % % % % % % % % % % % % % % % % % % % % % % % % % % % % % % % % % % % % % % % % % % % % % % % % % % % % % % % % % % % % % % % % % % % % % % % % % % % % % % % % > > % % % % % % > > % % % % % % % % % % % % % % % % % % % % % % % % % % % % % % % % % $ $ $ % % % $ % % % % $ $ $ $ $ $ % % % % $ % % % % % % % % % % % % % % % % % % % % % % % % % % % : : : : : : : : : : : : : < < < < < , , , , A A A A S S S S S F F a H L./.L.D.-.-.D.P.v.;.U U U / U U U U U U U U U U U a.a.f.f.f.f.f.f.f.f.f.f.f.f.f.f.j.j.c.x.x.z.x.z.z.x.x.x.m.m.m.m.m.m.m.m.m.m.m.M.N.N.N.N.Z.Z.C.N.B.N.N.B.B.B.C.C.C.C.C.C.C.C.C.C.C.C.0X0X0X0XwXwXwXwXwXwXeXeXeXeXeXeXeXaXaXaXaXaXaXaXaXaXsXsXMXHXHXKXKXLXLXPXIXIXUXPXPXUXPXPXLXLXLXLXPXUXUXUXLXLXLXLXLXPXUXUXLXLXLXKXNXMXMXMXiXiXiXiXdXiXpXpXtXeXeXtXaXaXtXeX^.^.A.A.qXA.qXA.qXA.Z.Z.B.B.N.N.N.N.N.M.M.M.M.m.n.n.l.l.l.l.l.l.h.h.h.h.h.h.g.g.g.g.s.s.g.g.s.s.s.s.d.d.d.d.d.d.a.a.a.a.a.L K K K K L K K K J K J J J J J F F F F F F F F F F F F F F F F F F F F a a a , , , , < : > & 8 s R =.*.*.*.*.F.H.R.T.oX@X<X<X1X1X<X@X.XT.Y.U.e.1.1.r.U.e.5.w.w.5.U.oXoXoXoX<X1X1X3X3X<XXXU.H.U.U.H.J.U.U.U.U.H.<.5.e.<.<.e.J.7.%.+.e.H.H.I.Y.Y.Y.Y.E.E.XXT.J.4.8.J.8.7.2.,.#.,.7.F.F.2.6.J.F.$.*.2.4.4.6.I.XX@X@X@XE.J.7.#.#.~ 3.J.J.*.! #.#.^ W N ^ #.#.2.#.2.2.2.#.~ ~ ^ E E b g f f g k g g g g f b b E E N N N N b f f f l k k g f s s s f s f f l l l l s # # # & & & & * * * * * * * * * * * # & & & & 8 8 i i i i i i p p p p p i i i 8 8 8 8 8 8 8 8 & 8 & & & & * * 8 8 8 8 8 & 8 8 8 8 8 8 8 8 8 8 8 8 & & & & i i ",
"& & > > > > > & & & & & % % % % % % % % % % % % % % % % % % % % % % % % % % % % % % % % % % % % % % % % % % % % % % % % % % % % % % % % % % % $ % % % % % % % % % % % % % % % % % % % % % % % % % % % % % % % % % % % % % % % % % % % % % % % % % % % % % % % % % % % % % % % % % % % % % % % % % % % % % % % % % % % % % % % % % % % % % % % % % % % % % % % % % % % $ % $ % % % % % % % % $ $ X % % % X X X % % % % % % % % % % % % % % % % % % % % % % % % % % % % % : : : : : : : : : < < < , < < < , , , , A A A A F F F F F F , G P./.L.D.D.7.D.P.L.v./ U U U U U U U U U U U U U U f.f.f.f.f.f.f.f.f.f.f.f.f.f.f.j.j.j.j.x.x.x.x.x.x.l.l.l.l.m.m.m.m.m.m.m.m.m.m.M.N.N.N.N.N.B.N.C.C.N.N.N.N.N.N.B.B.B.B.C.C.C.C.C.C.C.0X0X0XwXwXwXwXwXwXwXeXeXeXeXeXeXeXeXeXeXaXeXeXeXeXaXsXsXdXMXMXHXKXLXLXLXLXIXPXLXLXLXPXPXLXLXLXLXLXUXUXPXPXLXLXLXLXLXLXLXLXLXLXLXLXLXNXMXMXBXBXBXiXdXsXiXpXtXeXeXeXrXtXtXeXeXeX^.A.^.eXA.A.A.A.A.A.Z.Z.N.N.N.N.N.N.M.m.m.m.m.x.l.l.l.l.l.z.z.z.h.h.g.g.g.g.g.g.g.g.g.s.s.s.s.s.d.d.d.d.d.a.a.a.a.a.a.L L L K K K K K K J J J J J J J J F F F F F F F F F F F F F F A , A F F , < , < : * * > H Q =.D.3.7.6.6.7.6.J.K..X@X<X<X<X<X1X@XoX.XT.H.r.r.r.<.<.5.U.T.U.w.1.<.&.5.U.XXoXoXoXU.U.oX<X<X@XXXT.I.H.1.,.5.r.e.w.5.4.5.7.<.} <.J.%.C O.5.e.H.I.H.H.U.Y.U.r.e.e.e.7.F.J.J.F.7.7.6.7.7.J.J.4.7.J.F.%.#.7.8.F.J.R.@X@XE.I.J.6.#.~ ~ 2.#.#.#.M W ~ ^ N N N E W ^ 3.3.3.3.3.=.^ W E E b g f f f f f f f s f f f b N W N N N E M g s s f k g f s s s f f 1 - f g l b b f - & % & & & # * * * * * * * * # * & & & & & & 8 i i i s s s i i i i i 8 8 8 8 i i i i 8 8 & & 8 8 8 8 8 8 8 8 8 8 8 8 8 8 8 8 8 8 8 8 i i 8 8 8 & 8 8 8 8 & & ",
"& & > > > & > > & & & & % % % % % % % % % % % % % % % % % % % % % % % % % % % % % % % % % % % % % % % % % % % % % % % % % % % % % % % % % % % $ % % % % % % % % % % % % % % % % % % % % % % % % % % % % % % % % % % % % % % % % % % % % % % % % % % % % % % % % % % % % % % % % % % % % % % % % % % % % % % % % % % % % % % % % % % % % % % % % % % % % % % % % % % $ % % % % % % % % % % % $ $ X X % % X X X $ % % % % % % % % % % % % % % % % % % % % % $ % % % % % % : : : : : : : : : : < < , , < < , , , , A A A A F F F F A A F ;./.L.7.D.D.D.D.P.D.;./ / U U U U U U U U U U U U U U f.f.f.f.f.f.f.f.f.f.f.f.f.j.j.j.j.j.z.z.z.z.x.x.x.l.l.l.x.m.m.m.m.x.m.m.m.m.m.m.m.m.M.N.N.N.B.N.B.B.N.N.N.N.B.B.B.B.C.C.C.C.C.C.0X0X0X0XwXwXwXwXwXwXwXeXeXeXeXeXeXeXeXeXeXeXeXeXeXeXaXaXsXdXMXMXMXKXLXLXLXLXPXLXLXLXLXLXLXLXLXLXLXLXUXUXUXLXLXLXKXZXLXLXLXLXLXLXLXKXLXAXNXMXMXMXBXBXiXiXiXpXtXeXeXeX^.eXeXeXeX^.^.^.A.A.^.^.A.A.A.A.A.Z.Z.Z.N.N.M.M.M.M.m.m.m.m.x.x.l.l.l.z.z.z.h.h.g.g.g.g.g.g.g.g.g.s.s.s.s.s.d.d.d.d.a.a.a.a.a.a.a.L L L L K K K K K J J J J J J J J J F F F F F F F A F F F F F F , , , < < < < s f l R *.J.W.R.K.J.J.J.J.J.H.U.T.XXoXoXoX.XT.T.T.R.H.r.w.1.<.<.<.1.5.r..X@XT.1.} &.5.5.5.U..X@XoXoXoXoX@X1X4X<XXXU.4.,.<.5.5.e.<.$.&.+.4.<.$.J.O.V Z B <.5.5.5.5.e.U.T.e.<.<.4.7.8.H.H.W.J.F.J.F.7.7.4.$.#.2.2.,.2.6.J.H.I.R.E.F.7.7.8.2.@.! ~ #.@.~ ~ W W W E ^ E E E W ~ 3.3.=.~ #.#.~ W T T l f 1 f f f - - w w w w f l M E N N E E M g s r g k g f s - f f f 1 - - f g l b k 1 & & & & & # * * * * & & & & * * & & & & & & i i i i s s s i i i i i 8 8 8 8 8 8 8 8 8 8 & & 8 8 8 8 8 8 8 8 8 8 8 8 8 8 8 8 8 8 8 8 8 8 8 8 & & i i 8 8 & & ",
"& & > & & & & & & & & & % % % % % % % % % % % % % % % % % % % % % % % % % % % % % % % % % % % % % % % % % % % % % % % % % % % % % % % % % % % $ % % % % % % % % % % % % % % % % % % % % % % % % % % % % % % % % % % % % % % % % % % % % % % % % % % % % % % % % % % % % % % : % > > % % % % % % % % % % % % % % % % % % % % % % % % % % % % % % % % % % % % % % % % % % % $ $ $ % % % % % % % $ X X % % % % % $ % % % % % % % % % % % % % % % % % % % % $ $ $ $ : : % % : : : : : : : : < < < < , , , , , , , , A , A , F F F F F A a =.L.D.-.-.D.D.P.D.;./ U / U U U U U U U U U U U U f.f.f.f.f.f.f.f.f.f.f.f.f.j.j.j.j.j.j.j.c.z.g.z.l.x.x.x.x.x.x.m.x.m.x.x.m.m.m.m.m.m.m.m.M.M.M.N.N.N.B.B.B.B.N.N.N.N.B.B.C.C.C.C.C.C.0X0X0X0XwXwXwXwXwXwXwXeXeXeXeXeXeXeXeXeXeXeXeXeXeXaXaXsXsXdXMXMXMXKXLXLXLXLXLXKXKXLXLXLXLXLXAXLXLXLXUXUXPXLXLXLXLXNXAXAXAXAXKXLXLXZXAXNXNXMXMXMXBXBXiXiXpXpXrXeX^.^.^.^.eXeXeXeX^.^.A.A.A.A.^.^.eXeX^.^.A.Z.Z.N.M.M.M.M.m.m.m.x.x.x.l.l.l.z.z.z.z.h.g.g.g.g.g.g.g.g.s.s.s.s.s.s.s.s.d.d.a.a.a.a.a.a.a.L L L L K K K K K J J I J J J J J J F F F F F F F F A F F F F , , , i > i H / -.P.W.@X4X4X@XR.R.U.U.U.T.T.T.T..X.XY.Y..X.X.XT.R.U.H.H.r.w.1.<.&.<.5.e.U.@X@XT.<.} } } +.1.r.U.E.oX<X1X4X2X2X4X4X@XR.J.J.5.5.U.e.4.%.%.w.e.+.J.4.O.V V B } %.<.5.5.U.T.K.e.e.J.8.8.J.J.H.J.6.8.J.8.7.4.2.,.,.2.7.7.8.J.J.J.F.I.2.@.,.8.2.#.#.#.! ^ W ^ E E E W ^ E N N ^ 2.F.2.^ ^ ~ ~ W b f - f 1 = 1 1 1 - - - w w w w k M E W W E W M g s s f k g f s - 1 f f f f f f f l b k f 1 1 > & & & & & & & & & & & & & & 8 i i 8 8 i i i i i i i i i i i i i 8 8 8 8 8 8 8 & & & & 8 8 8 8 8 8 8 8 8 8 8 8 & & 8 8 8 8 8 8 8 8 8 8 8 8 i 8 & & 8 8 ",
"& & & & & & & & & & & & % % % % % % % % % % % % % % % % % % % % % % % % % % % % % % % % % % % % % % % % % % % % % % % % % % % % % % % % % % % $ % % % % % % % % % % % % % % % % % % % % % % % % % % % % % % % % % % % % % % % % % % % % % % % % % % % % % % % % % % % % % % > > > > % % % % % % % % % % % % % % % % % % % % % % % % % % % % % % % % % % % % % % % % % % % $ $ $ % % % % % % % $ X X % % % % % $ $ % % % % % % % % % % % % % % % % % % % $ $ $ $ : : : : : : : : : : : : : < < < , , , , , , , , , , , , F F F S F F G G.P.-.=.-.-.D.D.;.R Q H I I U U U U U U U U U U U U f.f.f.f.f.f.f.f.f.f.f.j.j.j.j.j.j.j.j.c.z.g.g.l.l.x.x.x.x.x.x.x.x.x.m.m.m.m.m.m.m.M.M.M.M.M.M.M.M.N.N.B.B.N.N.N.B.C.C.C.C.C.C.C.C.0X0X0X0XwXwXwXwXwXwXwXwXwXeXwXwXwXeXwXqXwXeXeXeXeXaXaXsXsXsXMXMXMXKXLXLXLXLXLXKXKXLXKXLXLXKXAXLXLXLXLXLXLXLXLXLXLXZXNXNXNXNXNXAXAXNXNXNXMXMXBXBXBXiXiXiXiXpXrX~.^.^.A.A.A.A.qXA.^.A.A.A.A.A.^.eXeXeXrXeX^.A.Z.Z.Z.M.M.M.M.m.m.m.x.x.l.l.l.h.z.z.h.h.g.g.g.g.g.g.g.g.s.s.s.s.s.s.s.s.d.d.a.a.a.a.a.a.a.L L L K K K K K K J J I J J J J J F F F F F F F F F F , , , , < > j x R =.P./.$X2XkXkX5X3X1XoX.XE.XXoXoXoXoXoX.XoX.X.XoX.XT.Y.T.U.U.U.H.H.e.e.e.e.e.H.U.XX@X@XE.5.+.+.%.+.+.5.r.U.oX4X1X1X1X2X4X1X@XoXR.6.5.E.@XH.<.<.7.w.} w.8.e.4.[ m B +.<.5.5.H.T.U.H.J.e.H.8.7.6.6.4.4.7.6.7.2.4.8.6.7.7.J.6.8.J.J.6.7.7.7.,.! 2.~ @.#.#.2.#.W W ^ W W ~ ^ E N E E 3.D.2.^ ^ ^ W b b f 1 1 = % = - - = & & - w w f k b N W W W W N g f f f k g f 1 - 1 f k k f f g f f l k f f f i i & & & * * & & & & & & 8 8 8 i i i i i i i i 8 8 8 8 i 8 i i 8 8 8 8 8 8 8 8 & & * & 8 8 8 8 8 8 8 8 & 8 8 8 8 8 8 8 8 8 8 8 8 8 8 8 8 8 & & & & 8 i ",
"% % % % > > > > > > > & % % & & % % % % % % % % % % % % % % % % % % % % % % % % % % % % % % % % % % % % % % % % % % % % % % % % % % % % % % % % % % % % % % % % % % % % % % % % % % % % % % % % % % % % % % % % % % % % % % % % % % % % % % % % % % % % % % % % % % % % > > % % % % : : % % % % % % % % % % % % & & & & % % % % % % % % % % % % % % % % % % % % $ $ % % % % $ $ % % $ $ % % % % % % $ $ $ $ $ $ % % % % $ $ % % % % % % % % % $ % % % % % % % % % % : : % % : : : : : : > > > , , , < < , , , , , , A A F F S A F , =.!.D.=.=.-.D.v.=./ Q H I I I U U U U U U U U U U U f.f.f.f.a.f.f.f.f.f.f.f.f.f.j.j.j.j.j.j.g.g.g.x.x.x.x.x.l.l.l.l.x.x.x.x.x.m.m.m.m.m.m.M.M.M.M.M.N.N.N.N.B.B.N.N.B.B.B.B.C.C.C.C.C.0X0X0X0XwX0XwXwXwXwXwXwXwXwXwXqXqXqXqXwXwXwXeXeXeXeXaXaXsXsXsXdXMXMXKXKXKXLXLXLXKXNXKXKXLXLXMXKXLXLXLXLXLXLXLXLXLXLXLXZXNXNXMXNXNXJXKXMXMXMXMXiXiXiXiXBXiXiXpXpXeX^.A.A.A.A.A.^.^.^.A.A.A.A.A.A.^.eXrXtXtXtXrX^.A.Z.Z.Z.m.m.m.m.m.x.x.l.l.l.z.l.z.z.z.z.g.g.g.g.g.g.g.s.s.j.j.s.s.d.d.d.a.a.a.a.a.a.a.a.L L L L L K K J J J J J J J J J J F F F I J F F F F F a a a a R o.7.P.W.&X2XhXcXcXcXkX5X2X@XoXT.T.T.T..XoXoX.XoXoX.XoX<XoXT.T.T.Y.U.r.U.H.e.e.e.e.U.XXXX@X@X@XoXT.r.4.O.O.%.%.5.I.oX4X4X<X@X@XXXoXE.T.I.8.e.@X4XXXU.e.H.5.V 5.J.U.E.4.} C +.5.e.<.J.K.T.T.I.4.e.7.8.8.7.,.$.*.4.$.#.#.2.2.$.$.,.4.7.6.J.8.7.2.7.2.#.#.~ ~ #.2.2.#.W ^ ~ ~ ~ ^ ^ N W W ^ ^ ~ =.W ^ ^ E b g f - # & = = = = - - & > s w w g b E W W W W V M g f f g g s w w s l b k k f k k f l g j s w i 8 8 8 & i 8 & 8 8 8 8 i i i i i i i i i i 8 8 p p i i 8 8 8 8 8 8 8 8 & & & & 8 8 8 8 8 8 8 8 8 8 8 8 & & & & & & & & 8 8 8 8 i i 8 8 8 8 & 8 8 8 8 8 ",
"% % % % % % % % & & > > % % & % % % % % % % % % % % % % % % % % % % % % % % % % % % % % % % % % % % % % % % % % % % % % % % % % % % % % % % % % % % % % % % % % % % % % % % % % % % % % % % % % % % % % % % % % % % % % % % % % % % % % % % % % % % % % % % % % % % % % > > % % % % > > % % % % % % % % % % % % & & & & % % % % % % % % % % % % % % % % % % % % $ $ $ % % $ $ $ % % % $ % % % % % % % % $ $ $ $ % % % % $ $ % % % % % % % % % $ % % % % % % % % % % : : % % : : : : : : : : > > , , < , , , , , , , A A F F S A , H v.L.v.-.=.-.v.v.;./ H H I I I U U U U U U U U U U U a.f.f.f.a.a.f.f.f.a.f.f.f.f.j.j.j.j.j.j.z.z.g.x.x.x.x.l.l.l.l.l.x.x.x.m.l.m.m.m.m.m.M.M.M.M.M.M.N.N.N.N.N.N.N.N.B.B.B.B.C.C.C.C.C.0X0X0X0XqXqXwXqXwXwXwXwXwXwXwXwXwXwXwXwXwXwXeXeXeXaXaXaXsXsXsXsXdXMXHXKXKXLXKXKXKXNXKXKXLXKXNXNXLXLXLXLXLXLXLXLXLXLXLXKXAXNXNXNXNXNXNXMXMXMXBXiXiXiXiXiXiXiXpXpXrX^.A.A.A.A.A.^.eX^.^.^.A.A.^.^.^.^.^.~.yXyXyXtX^.^.A.Z.N.m.m.m.x.x.x.x.l.l.z.l.z.l.l.l.l.l.l.j.g.g.g.s.s.j.j.s.d.d.d.a.a.a.a.a.a.a.a.a.L L K K K L K J J J J J J J J J J F F I G F F a a j a G Q -.D.P.J.R.&X2XkXvXmXcXkX5X2X@XoXT.T.T.T.U.U.T.T..XoXoX@X@XoXoXoXoXoX.X.XT.T.T.H.e.e.H.H.T.XXoX@X@XoXY.U.U.T.J.O.B O.+.e.Y.oXE.T.T.XXU.H.e.e.8.H.E.4X4X@XXXE.R.8.} <.U.E.@XJ.,.+.+.+.J.7.J.K.U.T.U.J.J.8.J.I.J.6.2.#.! W N W #.#.O.O.$.2.4.7.8.8.7.2.7.7.2.2.#.#.#.#.! ~ W W ^ #.~ E W N W W E ~ 2.2.W W W M g f - = & & = = = = 1 > > i s s s j l N Q W W W V x g d s f k g f w s l b k k f k k f l g j s s i i i i 8 i 8 8 8 8 8 8 i i 8 8 i i i i i i 8 8 8 8 8 8 8 8 8 8 8 8 8 8 & & & & 8 8 8 8 8 8 8 8 8 8 8 8 & & & & & & & & 8 8 8 8 i 8 8 8 & & & & 8 8 8 8 ",
"% % % % % % % % & & & & % % % % % % % % % % % % % % % % % % % % % % % % % % % % % % % % % % % % % % % % % % % % % % % % % % % % % % % % % % % % % % % % % % % % % % % % % % % % % % % % % % % % % % % % % % % % % % % % % % % % % % % % % % % % % % % % % % % % % % % % > % % % % % > > % % % % % % % % % % % % % % % % % % % % % % % % % % % % % % % % % % % % $ $ % % % % $ $ % % $ $ $ $ % % % % % % % % $ $ % % % $ $ $ $ % $ $ % $ % % % % % % % % % % % % % % % % % % : : : : : : : : : : , , < , , , , , , , A A F F S A a H G.v.;.-.-.D.-.;./ H U I I I I I U U U U U U U U U U a.a.f.f.a.a.f.f.a.a.a.a.f.f.j.j.j.j.j.j.z.z.z.z.x.x.x.l.l.l.l.l.l.l.l.l.n.n.l.m.m.m.m.m.M.M.M.M.N.N.N.N.N.N.N.N.B.B.B.B.B.C.C.C.C.0X0X0XC.0XwX0XwXwXwXwXwXwXwXwXwXwXwXwXwXwXwXeXeXaXaXaXaXaXaXsXsXdXMXMXKXKXKXNXNXNXNXKXKXKXJXNXNXAXLXLXZXZXLXLXLXAXNXKXNXNXNXNXMXMXMXMXMXMXMXBXBXBXiXiXiXiXiXpXyXrXeX^.A.A.A.A.A.^.^.^.^.^.^.^.^.^.^.^.^.~.#XyXyXyX~.^.A.Z.N.m.m.m.x.x.x.x.l.l.l.l.g.g.g.g.g.g.g.s.s.s.j.d.d.d.d.d.d.a.a.a.a.a.L a.a.L J K K K K K K J J J J J J I F F F F F F G F a G i R v.D.P.P.J.L.W.R.E.@X2X3X3X1X@XoX.XT.T.T.T.R.Y.Y.oXoXoXT.U.T.T.<XoXT.T.T.oX.X.XoX<X<X<XT.H.r.e.e.r.U.U.T.T.U.r.w.H.@XE.6.B V } <.e.U.H.e.e.e.e.5.5.<.<.J.XX4X4X<X@X4X@XI.4.,.e.I.H.8.,.<.,.} +.+.5.J.U.T.T.U.R.H.J.I.J.4.#.! M M M M ! ! ! ! 4.7.7.6.6.7.2.#.@.#.2.2.2.*.#.@.N N M M #.7.2.W ^ N ! ^ ^ 2.3.=.W E N v f - = # & & & & > > & & i s d d s d l R W W W W R x g d s g l k s w s k l k g f l l s g g g j s i s i i i i i i i i i i i 8 8 8 i i i i i i i 8 8 8 8 8 8 8 8 8 8 8 8 8 6 * & & 8 8 8 8 8 8 8 8 8 8 8 8 & & & & & & & & & 8 8 8 8 8 & * & & & & & & 8 8 ",
"% % % % % % % % & & & & % % % % % % % % % % % % % % % % % % % % % % % % % % % % % % % % % % % % % % % % % % % % % % % % % % % % % % % % % % % % % % % % % % % % % % % % % % % % % % % % % % % % % % % % % % % % % % % % % % % % % % % % % % % % % % % % % % % % % % % % & % % % % : > > % % % % % % % % % % % % % % % % % % % % % % % % % % % % % % % % % % % % $ $ % % % % $ $ % % $ $ $ $ % % % % % % % % % % % % % $ $ $ $ $ % $ $ $ % % % % % % % % % % % % % % % % % % : : : : : : : : : : , , < , , , , , , , A A F F A A G H P.v.-.D.-.=.;.;.Q H U I I I I I U U U U U U U U U U a.a.f.f.a.a.f.f.a.a.a.a.f.f.j.j.j.j.j.j.z.z.z.z.x.x.x.l.l.l.l.l.l.l.l.l.l.l.l.l.m.m.m.m.M.M.M.M.N.N.N.N.V.V.N.N.B.B.B.C.B.B.C.C.C.0X0X0XwX0XwXwXwXeXwXwXwXwXwXwX0X0XwXwXwXwXeXeXeXeXeXaXaXaXaXaXsXsXMXMXHXKXKXMXMXNXMXNXKXKXNXNXNXLXLXLXZXZXLXLXKXNXNXKXZXZXZXZXNXNXMXMXlXBXBXBXBXiXiXpXuXiXiXpXyXyXrX^.A.Z.Z.A.A.A.^.^.^.^.A.A.Q.^.^.^.^.~.~.yXpXyXyX~.^.A.Z.M.M.x.x.x.x.x.x.g.g.g.g.g.g.g.j.j.j.s.s.s.d.d.a.a.a.a.a.a.L a.L L L L L L U U U U I I J I I I G G F F G G I G G G a G / =.L.R./.R.J.J.J.H.K.U.R.T.T.T.T.U.H.U.U.U.T.E..XT.Y..X<X1X<XXXY.U.Y..XT.H.U.E..XT.Y.oX4X6X5X1X.Xr.e.5.1.5.5.e.r.w.r.5.w.U.R.U.J.7.+.} <.e.R.U.H.r.5.w.1.} <.7.e.R.@X@X@X<X<X@XF.$.4.8.,.<.<.4.$.V [ +.<.e.H.XXU.H.U.I.8.J.7.! ! ! N M b N W ! @.$.6.6.F.F.6.7.4.*.@.~ ~ #.#.#.#.! ! N b N #.7.3.~ ^ W @.@.=.D.3.~ W N v f - = % & & & & & & & & & i p d d d d x x W W W W R x g d s g k l s w s g l g g f k l s d g g j d s d d s i i i i i i i i 8 8 i 8 8 8 8 8 i 8 8 8 8 8 8 8 8 8 8 8 8 8 8 8 6 & & & 8 8 8 8 8 8 8 8 & & & & & & & & & & & & & 8 8 8 8 & * * & & & & & & 8 8 ",
"% % % % % % % % & & & & & & & & % % % % % % % % % % % % % % % % : % : : % % % % % % % % % % % % % % % % % % % % % % % % % % % % % % % % % % % % % % % % % % % % % % % % % % % % % % % % % % % % % % % % % % % % % % % % % % % % % % % % % % % % % % % % % % % % % % % % % % % % % % % % % % % % % % % % % % % % % % % % % % % % % % % % % % % % % % % % % % % % $ % % % % % % $ % % % $ $ $ $ % % % % % % % % % $ $ $ $ % % $ $ $ $ % % % % $ % $ $ % % $ $ $ $ % % % % : : : : : : : : : : : : : : , , , , , , , , , , A , A a i Q D.;.v.-.=.=.;.Q H U U I I I I I I I I U U U U U a.a.a.a.U a.a.a.f.f.f.f.a.a.f.f.j.j.j.j.j.j.j.j.c.c.x.x.x.l.l.l.l.l.l.l.l.l.l.l.m.m.m.m.m.m.M.M.M.M.M.N.N.N.N.N.N.V.B.B.B.B.B.C.C.C.C.C.C.C.wX0X0X0XwXeXwXwX0X0X0X0X0XwXwXwXwXwXwXeXeXeXeXeXaXaXaXaXsXsXdXMXMXKXJXMXMXMXMXNXKXNXMXMXNXLXLXZXNXZXLXLXLXAXNXNXLXKXZXNXNXNXNXMXMXMXBXBXBXiXiXpXuXiXlXBXiXiXpX^.Q.Z.Z.Z.Z.A.^.^.^.^.^.Q.Q.Q.Q.Q.^.^.~.yXuXuXyXyX~.^.Z.Z.Z.Z.x.x.x.x.x.x.x.x.j.j.j.j.j.j.f.f.j.j.f.f.f.f.a.a.f.f.f.f.f.f.U U U U U I I I U / / ;./ / =.=.v.v.v.G.D.D.G.G.P./.&X%X%X$X@XR.R.T.U.U.R.T.E.XXE.T.U.U.T.XX@X<X<X@XoXE.E.<X4X5X3X@XU.r.u.r.U.Y.oXoXY.U.U..X1X1X1XoXT.r.r.e.5.1.1.1.5.1.5.w.r.H.U.XXE.H.<.+.} 5.U.T.Y.H.w.w.&.+.<.+.} <.H.R.@X@X<X<X8.#.O.7.7.J.R.T.H.O.O.4.4.w.e.T.E.H.J.F.7.8.7.! @.! N E M v M m W #.$.#.4.7.6.6.4.2.2.@.W E W W ~ @.! ! M M ^ #.#.@.N ! #.@.~ #.#.^ ^ E k w # # & & & & & & & 8 8 i p p d d j x x x R R R R V x g j s s g M g s w s l f s s l x s d g g j j d s i i i i p p i i i i 8 8 8 8 8 8 8 8 8 8 8 8 8 8 8 8 8 8 8 8 8 8 8 8 8 8 > > & & & & * 8 8 8 8 8 & & & & & & & & & & & & 8 8 6 8 & & & & & & & & & & ",
"% % % % % % % % > > & & & & & > % % % % % % % % % % % % % % % % : : : % % % % % % % % % % % % % % % % % % % % % % % % % % % % % % % % % % % % % % % % % % % % % % % % % % % % % % % % % % % % % % % % % % % % % % % % % % % % % % % % % % % % % % % % % % % % % % % % % % % % % % % % % % % % % % % % % % % % % % % % % % % % % % % % % % % % % % % % % $ $ % % $ % % % % % % $ % % $ $ $ $ $ % % % % % % % % % $ $ $ $ % $ $ $ $ $ % % $ % $ $ $ $ % % $ $ $ $ % % % % : : : : : : : : : : : : : : , , , , , , , , , , , , , a ;./.D.=.-.=.=.;.Q Q H U I I I I I I I I I U U U U U a.a.a.a.U a.a.a.f.f.f.f.a.a.f.f.j.j.j.j.j.j.j.j.c.c.z.z.z.g.l.l.l.l.l.l.l.l.l.l.n.m.n.n.m.m.M.M.M.M.N.N.M.M.N.N.N.N.B.B.B.B.B.B.B.C.C.C.C.C.C.0X0X0XwXwX0X0X0X0X0X0X0XwXwXwXwXwXwXeXeXeXeXeXeXaXaXaXsXsXdXMXHXHXMXBXMXMXMXNXNXMXMXMXAXLXLXNXNXZXLXLXAXZXNXNXLXLXZXNXNXZXNXMXMXBXBXiXiXiXpXyXuXjXMXMXMXBXpX~.Q.A.Z.Z.Z.A.Q.^.^.^.~.~.^.Q.Q.Q.Q.Q.Q.^.~.yXyXyXyX~.^.^.Q.A.Z.Z.Z.Z.Z.Z.v.v.x.x.c.f.f.f.f.f.f.f.f.f.f.f.f.f.f.k.f.U k.k.v.v.v.v.v.v.v.v.G.G.G.G.L.L.L.L.L.L.L././.$X2XhXhXhX2X4X&X@XE.U.R.E.XX@X@XXXT.T.U.T.XXoXoX<X1X4X4X@XoXE.XXoX1X5X3X<XR.r.U.U.T.oX@XR.r.w.r.U.oXoXT.H.r.H.e.e.e.5.1.w.e.e.1.1.w.H.T.XXT.H.<.+.+.<.e.H.r.r.r.e.K.K.4.} [ m %.6.I.R.@X<X8.O.N 7.J.R.<X4X@X5.$.e.J.J.e.T.E.I.J.J.7.7.7.%.O.! ! W E M M g v V W O.4.J.J.6.$.O.#.~ E M b b M N B N m N #.6.2.! ! N W N E ~ ~ ^ E b g - # # # # & & & & 8 8 i d d d j z x x x x x x x x x l g g s s k M k s s s j s s w l l s s j g j j d d i i i i p p i i i i 8 8 8 8 8 8 8 8 8 8 8 8 8 8 8 8 8 8 8 & 8 8 8 8 8 8 > > & & & & * * 8 8 8 8 8 & & & & & & & & & & & 8 8 8 8 & & & & & & & & & & ",
"% % % % % % % % > > & & & & > > % % % % % % % % % % % % % % % % % : & & % % % % % % % % % % % % % % % % % % % % % % % % % % % % % % % % % % % % % % % % % % % % % % % % % % % % % % % % % % % % % % % % % % % % % % % % % % % % % % % % % % % % % % % % % % % % % % % % % % % % % % % % % % % % % % % % % % % % % % % % % % % % % % % % % % % % % % % % $ $ $ $ % % % % % % % % $ $ $ $ $ $ % % % % $ % $ $ $ $ % $ % % % % $ $ $ % % % $ $ $ $ $ $ % % % % $ $ % % % % : : : : : : : : : : > : : : , , , , , , A A , , , , , a Q P.=.-.-.-.=./ Q H H I I I I I I I I I I U U U U U a.a.U U U U a.a.a.f.f.f.f.a.f.f.j.j.j.j.j.j.j.j.j.j.z.z.g.g.l.l.l.l.l.l.l.l.l.l.m.m.n.n.n.m.M.M.M.M.M.M.M.M.N.N.N.N.B.B.B.B.B.B.B.B.C.C.C.C.C.0X0X0X0X0X0X0X0X0X0X0X0XwXwXwXwXwXwXwXeXeXeXeXeXeXeXaXaXsXsXBXHXMXMXBXMXMXMXNXMXMXMXNXLXLXZXNXNXNXZXLXZXNXNXZXLXLXLXLXZXZXZXNXMXMXBXiXiXiXiXpXyXiXlXlXBXiXyX~.rX~.^.^.^.Q.).A.Q.Q.^.~.~.^.^.Q.Q.Q.Q.).Q.!.~.~.~.~.~.^.^.Q.Q.Q.Q.Q.Q.A.A.A.A.Z.Q.Z.Z.v.v.v.v.v.v.v.v.v.v.v.v.v.v.v.).).Q.Q.Q.Q.L.L././.!.L.L.L.L.L.L.L./.&X%X2XkXxX2X2X@X@XE.R.R.U.R.R.R.T.T.E.T.T.XX@X@XoXT.T.XXoX<X<X@X@XXXXXoXoXoX<XoXR.I.U.R.Y.Y.R.U.e.5.5.r.H.Y.U.e.5.r.U.H.J.w.7.5.e.J.J.e.w.w.r.U.T.T.U.e.<.$.<.r.U.Y.r.w.r..X@XJ.<.O.Z m O.$.7.R.<XU.$.B 7.U.E.<X@XR.5.,.w.H.K.R.E.E.e.J.F.7.2.7.,.O.W W W E M M g g m t B $.7.J.5.%.B ! ~ ^ E v b M m m m N @.6.F.7.! W m M M #.#.W W b k f ; # # # # & & & & 8 i d d j j j j x x x x j x x x x g g g s s g M l f s s j s s s g x s d j g l l d d d i p p p p i i a i 8 & & & & 8 & & 8 8 8 8 8 8 8 8 8 8 8 8 8 8 8 8 8 8 8 & & & & & & * & 8 8 8 8 8 & & & & & & * * & & & 8 8 8 & & & & & & 8 8 & & ",
"% % % % % % % % > & & & % & > > % % % % % % % % % % % % % % % % % % % & % % % % % % % % % % % % % % % % % % % % % % % % % % % % % % % % % % % % % % % % % % % % % % % % % % % % % % % % % % % % % % % % % % % % % % % % % % % % % % % % % % % % % % % % % % % % % % % % % % % % % % % % % % % % % % % % % % % % % % % % % % % % % % % % % % % % % % % % $ $ $ $ % % % % % % % % $ $ $ $ $ $ $ % % % $ $ $ $ $ $ % % % % % % $ $ % % % % $ $ $ $ $ $ % % % % % % % % % % : : : : : : : : : : > : : : , , , , , , A A A , , , F G L.D.3.D.7.-.-.Q H H U I I I I I I I I I I U U U U U a.a.U U U U a.a.a.a.f.f.a.a.f.f.j.j.j.j.j.j.j.j.j.j.g.g.g.g.l.l.z.z.l.l.l.l.l.l.m.m.n.n.n.m.n.M.M.M.M.M.M.M.M.N.N.N.B.B.B.B.B.B.B.B.B.B.C.C.C.0XC.0XC.B.0X0X0X0X0X0X0X0XwXwXwXwXwXwXeXeXeXeXeXeXeXeXaXsXsXdXMXMXMXBXMXMXMXMXMXMXMXZXLXLXZXNXNXNXAXZXZXNXZXLXLXUXUXLXZXNXNXNXMXBXiXpXpXpXpXpXuXpXuXuXyXyXyXpXiXpXyXpXrX^.).Z.Z.Q.Q.Q.^.~.~.~.~.~.^.Q.Q.Q.^.!.!.Q.Q.Q.Q.Q.Q.Q.Q.Q.Q.Q.Q.Q.Q.Q.Q.Q.Q.^.^.Q.Q.Q.Q.Q.Q.Q.Q.Q.).).G.G.G.P.P.Q.Q.L.L.P.P.P.P.P.L.L./.(.$X4X2X2XhX2X@XR.W.L.J.J.J.L.W.L.W.R.R.R.XX4X%X&X&XXX@XXXXXoXoX<X1X<XXXXXXXoXoXXXoXoXXXH.e.I.U.I.r.5.5.e.H.H.T.T.U.e.<.w.U.T.T.H.6.4.&.4.4.4.5.e.K.Y.Y..X.XT.T.J.$.%.e.U.Y.9.1.w.K.T.U.J.4.B N C C 6.I.@XE.8.C $.U.E.E.I.8.4.$.$.5.H.XX@X@XJ.,.,.2.,.4.2.! B M M M b l g g t m B %.$.w.K.K.J.2.2.@.b M ! ! N m B #.F.F.6.@.N m n M W #.@.M E b f w # # # # # & & & & i s d j j j x x x x x x z x x x g g g g s s g M b f s s d s s s l l s s d g l l j d d s p p p p i i a i 8 & & & 8 8 & & 8 8 8 8 8 8 8 8 8 8 8 8 i i i i 8 8 8 & & & & & 8 * & & 8 8 8 8 & & & & & & * * & & & & 8 6 & & & & & & 8 8 8 8 ",
"% % % % % % % % > > > & % & & > & & & & & & & & > > > > & & & & % % % % % % % % % % % % % % % % % % % % % % % % % % % % % % % % % % % % % % % % % % % % % % % % % % % % % % % % % % % % % % % % % % % % % % % % % % % % % % % % % % % % % % % % % % % % % % % % % % % % % % % % % % % % % % % % % % % % % % % % % % % % % % % % % % % % % % % % % % $ $ % % $ $ $ $ % % % % % % $ $ $ $ $ $ % % % $ $ $ $ $ $ % % % % % % % % $ $ $ $ $ % % % % $ $ $ $ $ $ $ $ % % % % % % : : : : : : : : > > : < > , , , , , A A F , F < a H !.D.7.P.D.-.-./ Q U I I I I I I I I I I U U U U U U L L U U U U f.a.a.a.a.f.f.f.f.f.f.f.s.s.s.s.g.s.g.g.j.j.g.g.l.l.z.z.l.l.l.l.m.m.m.m.n.n.n.n.M.M.M.M.M.M.N.N.V.V.V.V.N.N.B.B.B.B.B.B.B.B.B.C.0X0X0XC.B.B.C.0X0X0X0X0X0XwXwXwXwXwXwXwXeXeXeXeXeXeXeXeXaXeXsXdXMXdXdXdXMXMXMXMXMXNXMXZXLXLXNXNXNXNXZXZXZXZXZXLXLXLXUXUXLXZXNXMXMXMXiXyXyXpXiXiXpXyXyXyXyXyXyXiXBXiXrX~.^.~.^.^.Q.Z.).Q.Z.).Q.^.!.~.~.#X#X~.(.~.(.(.(.~.~.~.!.Q.Q.Q.).).v.).).v.).).).).v.).G.v.v.v.v.v.v.v.v.v.v.v.v.v.v.v.G.D.G.P.P.P.L.L.!.R.R.R.R.R.R.L.J.J.F.F.D.J.L.L.J.P.D.-.#.=.*.D.L.R.R.R.R.@X@XXXXXXX@X@X@X@X@X@X@XoXXXT.J.7.<.$.$.,.<.<.1.e.H.U.T.XXoXE.I.e.4.6.J.K.6.<.%.O.<.$.%.O.O.$.5.U.T..XoX1X<XU.&.+.5.H.Y.r.5.4.e.U.U.K.7.V V C %.+.8.E.XX4.C ,.J.H.W.J.4.4.$.} $.} J.@X@XJ.C B ! 7.7.#.#.! ! N b M E M M } O.$.4.e.R.T.E.E.W.J.3.N N ^ N N t m #.2.F.J.#.W v N E ^ 3.#.M W b f - # @ % # # * * 8 i i d j j x x x x x x x x x x x l g g g g g d j x x j s d d d i s j l d i d x x x d d s i i i i 8 i i i i 8 8 8 8 i i i i & & & & & & & & 8 8 8 8 8 8 8 8 8 8 8 8 * * * * * & & & & & & & 8 8 8 8 * * * * & & & & & & & & 8 8 & & i i i i ",
"% % % % % % % % > > & & & & & & & & & & & & & & > > > > & & & & % % % % % % % % % % % % % % % % % % % % % % % % % % % % % % % % % % % % % % % % % % % % % % % % % % % % % % % % % % % % % % % % % % % % % % % % % % % % % % % % % % % % % % % % % % % % % % % % % % % % % % % % % % % % % % % % % % % % % % % % % % % % % % % % % % % % % % % % % $ $ $ % % % % $ $ % % % % % % % % $ $ $ $ % % $ $ $ $ $ $ $ % % % % % % % % $ % $ $ $ % % % % $ $ $ $ $ $ $ $ % % % % % % : : : : : : : : : > : < , , , , , , F , , , F a i =.P.D.7.D.-.-.=./ Q H I I I I I I I I I I I U U U U U L L U U U L a.a.a.a.a.a.a.f.f.f.f.f.f.s.s.s.g.g.g.g.c.j.g.g.z.z.z.z.l.l.l.l.l.l.n.n.n.n.n.n.M.M.M.M.M.M.N.N.V.V.V.V.N.N.N.B.B.B.B.B.B.B.B.B.B.C.B.B.B.B.C.C.0X0X0X0X0XwXwXwXwXwXwXwXwXeXeXeXeXeXeXeXeXaXsXdXdXdXdXdXMXMXMXNXNXNXNXLXLXZXNXNXNXNXZXZXZXLXZXLXLXLXLXLXNXNXMXMXMXBXiXyXpXpXiXpXyXpXpXyXyX~.~.~.rX~.Q.).).Q.Q.Q.~.^.Q.Q.Q.^.^.Q.Q.!.!.!.(.(.#X#X(.#X(.~.!.!.!.Q.Q.).).).v.v.v.v.v.v.v.v.v.v.G.G.G.G.G.G.G.G.v.G.v.G.P.P.P.G.G.D.D.G.G.D.D.D.D.D.D.D.D.D.D.F.F.D.J.J.D.D.D.-.o.R R R R R R o.#.*.7.7.6.F.J.J.J.J.K.T.@X@X@X@X@XXXU.J.4.%.O.O.} } } <.e.U.T.oX<X4X2X@XJ.4.$.%.O.O.O.B m B W B B V m V } 5.U.oX<X3X5X2XXXH.5.e..X<X@X5.<.e.J.J.K.4.C } O.%.$.8.J.J.,.J.U.H.J.F.7.7.<.} B } 5.@X4XI.#.C #.8.7.2.#.! W N M g M N o.$.<.4.e.K.R.R.T.E.F.7.#.! #.! v v t ! 2.6.J.6.! W g M W *.D.3.W E b f 1 & % # # & & i s s j l l x x x x x H H H H j x x l g g g g j s j l l j s s d d i s j l d p d x x l l j s i i i i 8 i i i i 8 8 8 8 8 8 8 8 & & & & & & & & 8 8 8 8 8 8 8 8 8 8 8 8 & & & * & & & & & & & & 8 8 8 8 * * * * & & & & & & & & 8 8 8 8 i i 8 8 ",
"% % % % % % % % & & & & & & & & & & > > & & & & > > > > & & & & % % % % % % % % % % % % % % % % % % % % % % % % % % % % % % % % % % % % % % % % % % % % % % % % % % % % % % % % % % % % % % % % % % % % % % % % % % % % % % % % % % % % % % % % % % % % % % % % % % % % % % % % % % % % % % % % % % % % % % % % % % % % % % % % % % % % % % % % % $ % % % % % % $ $ $ % $ $ % $ % % % % $ % % % % % $ $ $ $ % % $ $ % % % % % % % % $ $ % % % % $ $ $ $ $ $ $ $ % % : : % % : : : : : : : : > > < < , , , , , , , A F , < , R !.D.D.D.P.D.=.;.Q H I I I I I I I I I I I I U U U U U L L L L U L a.a.a.a.a.a.a.a.s.f.j.s.j.s.s.s.g.g.g.g.c.z.z.g.z.z.z.z.l.l.l.l.l.l.l.l.n.n.n.n.M.M.M.M.M.M.N.N.V.V.V.V.V.V.N.B.B.B.B.B.B.B.B.B.B.B.B.B.B.B.C.C.0X0X0X0X0X0XwXwXwXwXwXwXwXwXqXeXeXeXeXeXeXaXsXdXsXsXsXdXMXMXMXNXNXNXZXLXLXZXNXNXNXNXZXZXZXLXLXLXLXZXNXNXMXzXlXjXBXiXpXpXpXpXpXpXtXyXyXyXrX~.~.~.^.Q.Z.Z.Z.Z.A.A.Z.A.Q.Q.~.yXyX~.!.!.!.(.#X#X#XyX#X#X#X(.~.~.~.^.^.Q.Q.Q.Q.).P.L.).G.G.G.v.G.G.v.G.G.G.v.G.G.G.v.D.D.v.v.v.-.v.-.-.v.v.D.D.D.D.D.L.P.P.J.L.J.F.D.=.=.=.;.Q H j j G H R R R M N R B N B O.%.%.$.$.<.6.J.H.e.8.5.1.<.<.O.B B B O.O.,.6.U.T.XXXXXX@XH.6.O.N m m m m v v v M M m m m B m V } 4.H.R.oX<X3X1XXXH.w.U.E.@X<.V C $.,.K.K.7.$.C C C #.6.J.J.U.I.4.#.%.#.7.6.<.V } +.U.R.I.J.8.I.W.J.8.$.%.N m m g g W #.O.$.<.5.r.H.I.U.E.R.J.7.2.2.! r r v $.4.8.J.4.! M v E 2.F.F.3.W M b f - & % % & & & i s f j k k j j j j j j j j l j j g g l g g g g s f k k f s i d s s s j l j d w d g l l g f s i i 8 8 i i i i 8 8 8 8 8 8 8 8 8 8 8 8 8 8 8 8 8 8 8 8 8 8 8 8 8 8 8 8 8 8 8 8 & & & & & & & * * * * * 8 8 8 8 & & & & & & & & & & & & & & & & ",
"% % % % % % % % & & & & & & & & & % > > > > & & > > > > & & & & % % % % % % % % % % % % % % % % % % % % % % % % % % % % % % % % % % % % % % % % % % % % % % % % % % % % % % % % % % % % % % % % % % % % % % % % % % % % % % % % % % % % % % % % % % % % % % % % % % % % % % % % % % % % % % % % % % % % % % % % % % % % % % % % % % % % % % % % $ $ % % % % % % $ $ $ $ $ $ $ $ % % % % % % % % % % $ $ $ $ $ % $ $ % % % % % % % % $ $ $ % % % $ $ $ $ $ $ $ $ % % % : % % : : : : : : : : > > < < , , , , , , , A F , < a G./.D.D.P.D.D.=./ R I I I I I I I I I I I I I I U U U U L L L L U L a.a.a.a.a.a.a.a.a.s.j.s.j.s.s.g.g.g.g.g.j.z.g.z.h.g.z.z.l.l.l.l.l.l.l.l.n.n.n.n.M.M.M.M.M.M.N.N.N.N.N.N.N.V.N.N.N.B.B.B.B.B.B.B.B.B.B.B.B.B.C.0X0X0X0X0X0X0X0X0X0XwXwXwXwXwXwXeXwXeXeXeXeXaXsXsXsXsXsXdXMXMXMXNXNXNXLXLXZXZXNXNXNXZXZXZXZXLXLXUXZXNXzXlXjXjXuXuXjXiXiXiXpXrXrXrXtXyXyXyXyXyX~.~.^.Q.Q.Q.Q.Q.A.Q.Q.Q.v.Z.^.~.uXlXuXuXuXuXuXuXuXyX#X#X(.!.!.^.Q.Q.).).).).P.P.L.L.L.L.L.L.Q.!.!.!.!.!.!.L.P.P.P.G.D.D.D.D.v.D.D.D.P.P.P.P.P.P.L.L.L.L.R./.R.F.$.o.Q / Q H G G j G G H R R R N R W W N m m m m V B B $.<.<.,.} } +.$.<.4.4.$.$.4.J.H.H.U.R.R.H.6.,.B m g g g g g g g g g g g v m m m B m m B O.4.H.T.<X2X4X1XT.I.I.T.J.%.Z O.4.W.U.J.4.O.m m B #.4.4.4.4.$.! N v ! 7.6.B } <.e.8.I.I.H.U.U.J.8.4.2.#.W V W W *.-.O.O.%.<.5.8.J.I.R.W.I.F.3.#.! v v m 2.$.2.F.4.! v v ! 6.J.F.#.E M g 1 # & % % & & & 8 s s s s s s s s s d j j j j s 8 f f l g g g g f s f g f s 8 d s s s d l j d s d d g l g j s i i 8 8 i i i i 8 8 8 8 8 8 8 8 8 8 8 8 8 8 8 8 8 8 8 8 8 8 8 8 8 8 8 8 8 8 8 8 & & & & & & * * * * * * 8 8 8 8 & & & & & & & & & & & & & & & * ",
"% % % % % % % % & & & & & & > & & & > > > > > & % & & > & % % % % % % % % % % % % % % % % % % % % % % % % % % % % % % % % % % % % % % % % % % % % % % % % % % % % % % % % % % % % % % % % % % % % % % % % % % % % % % % % % % % % % % % % % % % % % % % % % % % % % % % % % % % % % % % % % % % % % % % % % % % % % % % % % % % % % % % % % % % % % % % % % % % $ $ $ $ $ $ % % $ $ % % % % % % % % $ $ $ $ % % $ $ % % % % $ $ % % % % $ $ $ $ % % % % % % $ . % % % % % % : : : : : : : : : : , , > > > , , , A , , , G j L.D.7.J.P.7.-./ R R H G G I I I I I I I I I I I I I U U U U L L L L a.a.a.a.a.a.a.a.a.d.d.j.j.j.j.s.s.g.g.g.g.g.g.g.z.z.z.z.l.l.l.l.l.l.l.l.n.n.n.n.m.M.M.M.M.M.M.M.M.V.V.V.N.N.V.V.B.B.B.B.B.B.B.B.B.B.B.B.B.B.C.C.C.0X0X0X0X0X0X0X0XwXwXwXwXqXqXqXqXeXeXeXeXaXaXaXsXpXsXdXMXMXNXNXMXNXLXZXAXNXNXMXNXZXZXZXZXLXLXUXNXzXjXjXlXjXjXjXlXlXBXiXpX~.^.^.rXyXyXyXyXyX~.^.~.^.^.^.^.Q.A.Z.Q.Q.Z.Z.Q.~.#XuXjX$X(.!.Q.Q.Q.Q.Q.Q.b.v.G.).G.G.).).).v.G.L.L.P.P.P.P.G.G.P.L.L.L.L.R./.R.L.L.L.L.P.L.P.P.P.P.P.P.P.D.D.D.D.P.P./.R./.&XR.J.*.@.Q Q H H G G G G G H R R R E E Q E W N V m B } O.} O.<.8.5.<.<.1.5.J.W.W.J.F.J.U.R.H.J.6.7.$.N t w r g f r f f f f g k k v v v v M N m N N N O.4.H.XX1X2X4XoXT.R.H.I.6.m ! $.J.W.J.w.4.B m v O.4.#.N C #.#.B t v $.6.<.$.6.e.6.J.R.I.J.F.6.4.4.$.#.B W O.O.*.4.4.<.4.<.4.8.e.H.I.J.7.2.#.! N v t #.7.#.2.F.2.! M v #.2.7.7.2.! ^ b 1 # % % % # # & & & > & & & # & & & & & & & & & & w l b f f k g f s s f f s s s d s s s j j s s s s k l l f s s i 8 8 8 8 8 8 8 8 8 8 8 8 8 8 8 8 8 8 i 8 8 8 8 8 8 8 8 8 & 8 8 8 8 8 8 8 8 8 8 8 * * * * 8 8 & & 6 6 * * & * & & & & & & & & & & & & & & & * ",
"% % % % % % % % & & & & & & > > & & > > > & > & % & & & % % % % % % % % % % % % % % % % % % % % % % % % % % % % % % % % % % % % % % % % % % % % % % % % % % % % % % % % % % % % % % % % % % % % % % % % % % % % % % % % % % % % % % % % % % % % % % % % % % % % % % % % % % % % % % % % % % % % % % % % % % % % % % % % % % % % % % % % % % % % % % % % $ % % % $ $ $ $ $ $ % % $ $ % % % % % % % % $ $ $ $ % % $ $ % % % % $ $ % % % % $ $ $ $ % % % % % % $ . % % % % $ % : : : : : : : : : : , , > > > > , , < , , a , s L.P.J.J.D.=.;.Q R H H I I I I I G I I I I I I I I I U U L U L L L L a.a.a.a.a.a.a.a.a.d.d.j.j.j.j.s.s.s.g.g.g.g.g.g.z.z.z.z.l.l.l.l.l.l.l.l.n.n.n.n.M.m.M.M.M.M.M.M.M.M.V.V.N.N.N.V.N.N.N.N.N.N.B.B.B.B.B.B.B.B.C.C.C.0X0X0X0X0X0X0XwXwXwXwXwXwXwXwXqXeXeXeXeXeXaXaXtXpXpXdXMXMXMXMXNXZXZXAXNXNXNXzXZXZXZXZXLXLXLXZXNXzXjXlXlXlXMXzXzXzXjXpX~.^.^.^.^.rXyX~.yXrX~.~.~.!.~.~.^.Q.Q.Z.Q.Q.).v.G.~.uXiXuX~.^.Q.Z.v.v.v.v.v.v.v.P.Q.P.G.Q.!.!.!.!./.(.(.L.L.L.P.P.P.L.L.P.W.&X%X%X&X!.L./.R.L.L.P.P.P.P.P.P.P.P.P.P.P.D.P.L.W.L.J.J.D.*.;.Q R G G G G H H Q Q Q R E E W W W W W W O.$.&.$.<.5.e.J.8.8.e.U.E.XXE.W.J.J.L.J.4.%.B m v r r - f f f f g g g k b v v b b v g v M v M N m B %.1.H.XX1X1XXXR.I.H.L.W.6.@.! J./.F.4.#.O.B m O.4.4.! B N B B v v O.4.e.e.J.H.J.O.8.H.J.F.7.%.$.$.#.O.#.*.*.6.J.K.H.J.6.6.8.8.8.F.7.#.@.@.W M N ! J.J.6.F.F.#.! N v ! #.2.F.7.#.^ T f = & % % # # # & & & & & & # # # # # & & & & & # - g l f f f k f s s f f s s s j s s s j j s s s s j g l g w s s 8 8 8 8 8 8 8 8 8 8 8 8 8 8 i i i i i 8 8 8 8 & 8 8 8 8 8 8 8 8 8 8 8 8 8 8 8 8 6 8 6 * 8 & & & 8 8 * * & * & & & & & & & & & & & & & & & * ",
"% % % % % % % % & > > & & & & > & & > & & & & & % % & & & & % % % % % % % % % % % % % % % % % % % % % % % % % % % % % % % % % % % % % % % % % % % % % % % % % % % % % % % % % % % % % % % % % % % % % % % % % % % % % % % % % % % % % % % % % % % % % % % % % % % % % % % % % % % % % % % % % % % % % % % % % % % % % % % % % % % % % % $ $ % % % % $ $ $ $ % % $ % $ $ % % % % $ $ $ $ % % $ % % % % $ $ % % % $ % % % % $ $ $ X X X X . . . . % % % % X X X . % % $ $ $ $ : : : : : : : : : : > > > > > , , , , , , < i D.L.L.J.D.*.o.Q Q R H H I I I I I G I I I I I I I I I L L L L L L L L L L a.a.a.a.a.a.a.s.d.j.d.j.j.s.g.s.g.j.g.g.g.g.z.z.z.z.z.z.l.l.l.l.l.l.n.n.n.n.n.M.M.M.M.M.M.M.M.V.M.M.N.N.V.V.V.V.V.V.N.N.N.N.B.B.B.B.B.B.B.B.B.B.0X0X0X0X0X0XwXwXwXwXwXwXwXwXwXwXwXwXeXeXaXeXeXtXpXsXBXBXMXNXNXNXNXNXNXNXMXMXZXZXZXLXLXZXNXNXMXzXlXlXzXMXMXMXzXzXjXyX~.~.^.^.~.rX~.~.~.~.~.~.!.!.~.~.^.^.Q.Z.Z.Q.Q.Q.!.#XuX#X!.Q.v.v.v.v.v.v.v.v.v.v.P.!.!.L.L.!./.!./.&X$X$X$X$X&X/.L.L.L.L.L.R.$XxXxX2X&X&X&X(./.L.P.G.G.G.G.G.G.P.P.G.v.-.-.7.7.-.D.J.L.P.D.*.~ R G H G R Q Q ~ ~ Q Q W E E W W W #.*.4.7.4.6.8.e.J.K.U.U.I.U.I.H.J.6.7.4.! W v r - - r f k b n g g k b b b b v v n n n t f v f v N M m C %.5.I.E.oXR.J.7.F.F.J.L.#.N 4.L.7.O.N N m v N ! *.O.! B N N v t m B 4.J.J.J.I.$.B ,.8.J.7.$.,.,.$.#.*.*.*.6.K.R.W.J.6.6.F.8.7.8.,.! ! ! N W 2.F.W.J.F.J.D.#.~ N v M #.6.F.7.#.W E g = & % % % % % % % & & & & % % % % % % & & # # % - g l f f f f f f s f f f s s j j s s j j s i s w s f l k s s r s 8 8 8 8 8 8 8 8 8 8 8 8 8 i i i i i 8 8 8 8 & 8 8 8 8 8 8 8 8 8 8 8 8 8 8 & & & & & & & & & 8 8 8 * * * * & & & & & & & & & & & & & & & & ",
"% % % % % % % % > > > & & & & > & & & & & & & & % % & & & & % % % % % % % % % % % % % % % % % % % % % % % % % % % % % % % % % % % % % % % % % % % % % % % % % % % % % % % % % % % % % % % % % % % % % % % % % % % % % % % % % % % % % % % % % % % % % % % % % % % % % % % % % % % % % % % % % % % % % % % % % % % % % % % % % % % % % % $ $ % % $ $ $ $ $ $ % % % % % % % % % % $ $ $ % % % $ $ % % % $ % % % % $ $ % % $ $ $ $ X X X X . . . . X X % X X X X . % % $ $ $ $ 4 : : : : : : : : : > > > > > > , , , , , , s &XP.J.D.-.@.Q Q Q R H I I I I I I G I I I I I U U I I L L L L L L L L L L a.a.a.a.a.a.f.f.d.j.d.j.j.s.s.g.g.g.j.g.g.g.z.z.z.z.z.z.l.l.l.l.l.l.n.n.l.n.n.n.M.M.M.M.M.M.M.M.M.M.N.N.V.V.V.V.V.V.V.V.V.V.B.B.B.B.B.B.B.B.B.B.C.C.0X0X0X0XwX0X0X0XwXwXwXwXwXqXqXwXeXeXeXeXeXtXpXiXBXBXMXNXNXNXzXzXNXMXMXNXZXZXLXLXZXNXzXzXMXMXzXzXMXNXNXNXzXzXjXuXyXyX~.~.^.^.^.~.~.^.^.~.Q.!.!.!.~.~.^.Z.v.Z.^.!.!.!.(./.Q.Z.v.v.v.x.c.c.v.v.v.v.P.!.!.!.!./././.R./.&X$XhXhXhXhX2XhXhXhXxXxXxXzXzX2X$X$X(.(./.L.G.v.v.v.;./ / ;.;.;.;./ =.;.o.o.@.-.D.P.P.3.@.Q R R T R Q ~ ~ ~ ~ @.~ W W W W ! #.7.F.6.6.6.6.6.J.J.J.7.<.4.4.$.#.$.#.! v g f ; f - f g v b n f f g b b b b v v b N N N v b b M M M m B %.,.5.H.J.4.%.M W ! #.6.6.*.*.7.F.$.N v r r v r N N B N m m v t v V B <.4.4.J.J.C #.8.8.F.8.2.7.6.7.7.2.7.J.R.R.J.7.$.$.2.2.2.2.! W W N v ^ 2.7.7.7.6.7.#.#.2.M v v @.F.7.#.#.#.W n 1 # % % % % % % % % & & & % % % % % % % # % # % - f l g f - f f s s f f s s s j j s s j j s s s s 8 s l l r d s s 8 8 8 8 8 8 8 8 8 i i i i i i i i i 8 8 8 8 8 8 8 8 8 8 8 8 8 8 8 8 8 8 8 & & & & 8 8 8 8 8 8 8 8 * * * & & & & & & & & & & & & & & & & & ",
"% % % % % % % % % % & % & & & & % % % % & & % % % % % % % % % % % % % % % % % % % % % % % % % % % % % % % % % % % % % % % % % % % % % % % % % % % % % % % % % % % % % % % % % % % % % % % % % % % % % % % % % % % % % % % % % % % % % % % % % % % % % % % % % % % % % % % % % % % % % % % % % % % % % % % % % % % % % % : : % % % % % % % % % % % % : : : : : : % % % $ $ $ % % % % % % $ $ $ $ % % % % $ % % % $ $ % % % $ $ $ $ $ $ % % % % % % % $ $ % % % $ $ $ $ $ % % $ $ 4 4 : : < < < > > , , , , , , , F , , i =./.D.F.-.=.o./ Q H H H I I I I I I G G I I I I I I I I L L U L L U L L L L a.a.a.a.a.a.f.f.j.j.f.s.j.s.s.s.s.g.g.g.g.g.g.g.g.g.l.l.z.z.l.l.l.n.n.n.n.m.n.n.n.n.m.m.m.m.M.M.M.M.V.V.M.N.V.V.V.V.V.V.V.V.B.B.B.B.B.B.B.B.B.C.C.C.C.0X0X0X0X0X0X0XwX0X0XwXwXqXqXwXeXeXeXeXeXeXpXiXiXBXMXNXNXMXMXMXzXMXMXNXNXZXLXZXzXzXzXzXzXNXMXlXlXMXNXNXMXNXlXhXuX~.~.^.A.Q.Q.^.~.~.Q.~.!.!.~.yX~.^.Q.v.v.v.Q.Q.!.#X(.!.).Z.v.v.v.v.v.v.v.v.v.v.P.L./.#X$X$X%X%X%X%X2XhXhXxXzXjXhXhXjXhXhXhXhXhX2X%X$X&X(.L.G.v.v./ / Q U I I G H H H H H R H R Q @.-.D.D.-.=.Q R Q Q R R ~ @.@.~ Q W @.@.W W @.=.4.7.7.3.4.*.*.=.=.#.@.! N N N N b k g g f f f g g g g g n n f r f f v f v v f b b M v N M N N N ! $.4.5.6.8.6.2.! M k g r v ! *.7.7.7.7.2.#.C v r t v v N N N g g M m B B O.%.O.$.,.4.#.4.8.,.7.W.8.2.F.8.F.F.J.R.R.F.2.#.! ! #.*.#.#.! E M v M E ^ ! @.@.#.#.~ ~ ~ N r v 2.F.3.~ ^ W W k 1 % % % % % % % % % % # % % % % & & & % % % & & 1 f l l f w s s s s j s i s s l j s s s g s s s s w s l l j d d s 8 8 8 8 8 8 8 8 8 i i i i i i i i i i 8 8 8 8 8 8 8 8 8 8 8 8 8 8 & & 6 8 i > > > i i i i 8 8 8 8 & & & & > > > > & & & & & & & > > > > & ",
"% % % % % % % % % % & % & % % & % % % % > > % % % % > > % % % % % % % % % % % % % % % % % % % % % % % % % % % % % % % % % % % % % % % % % % % % % % % % % % % % % % % % % % % % % % % % % % % % % % % % % % % % % % % % % % % % % % % % % % % % % % % % % % % % % % % % % % % % % % % % % % % % % % % % % % % % % % % % : % % % % % % % % % % % % % % % : : % : % % $ $ $ $ % % % % $ $ $ $ $ $ % % % $ $ % % % $ $ % % % $ $ $ $ $ % % % % % % % % $ $ % % % $ $ $ $ $ % % % % 4 4 : : < < < < > > , , , , , , F , , i L.L.F.7.=.o.Q Q R H H H I I I I G I G G I I I I I I I I L L L L L L L L a.L a.a.a.a.a.a.f.f.f.f.f.s.j.s.s.s.s.s.g.g.g.g.g.z.h.h.l.l.z.z.l.l.l.l.n.n.n.m.n.n.n.n.m.m.m.m.M.M.M.M.V.V.M.N.V.V.V.V.V.V.V.V.B.B.B.B.B.B.B.B.B.C.C.C.0X0X0X0X0X0X0X0X0X0X0XwXwXwXqXqXeXeXeXeXeXeXtXiXiXBXMXMXNXNXMXzXMXMXzXzXNXLXZXzXjXjXzXzXzXNXNXzXzXMXzXjXjXjXuX$X#X(.!.Q.A.Z.Z.A.^.^.Q.!.~.~.#X~.^.Q.Q.Z.v.v.Z.).!.#X#XP.Q.Q.).v.v.v.v.v.).Q.P.L./.$X%X#X$X2XhXhXhX%X2XhXjXhXuXuX$X$X$X(.(.(.$X$X$X&X/./.L.G.v.v./ U I I I I I G I H H H H H H Q Q / =.=.-.=.@.Q R Q Q R Q Q ~ ~ ~ @.@.@.@.#.#.@.@.W Q Q Q W R E M M b b l g f f f f 2 1 f f 2 f f f f f f v v f f v v v v b b v k k f v b b N W #.$.4.6.7.6.7.2.! b f ; w ; w v N ! #.2.4.2.,.#.N v t v v M N N r w m B W O.#.#.$.$.4.4.6.2.2.7.J.J.7.2.2.2.D.F.F.F.6.2.@.@.! ! #.2.#.~ E N b v b N E N E E W E N N E b ; m 3.F.2.W ^ ~ E b 2 = = % % % % % % % % # % % # % & & & % % % & & 1 f k k f s s s s s j s i s i k j s w w g s s s s s s j l l s d j j w 8 i 8 8 8 8 8 i i i i i i i i i i 8 8 8 8 8 8 8 8 8 8 8 8 8 8 8 & 8 & & & & & & & & & 8 8 8 8 & & & 8 > > > > > > > > & & & & > > & & ",
"% % % % % % % % & & % % & & & & : : % : > % % % % % % % % % % % % % % % % % % % % % % % % % % % % % % % % % % % % % % % % % % % % % % % % % % % % % % % % % % % % % % % % % % % % % % % % % % % % % % % % % % % % % % % % % % % % % % % % % % % % % % % % % % % % % % % % % % % % % % % % % % % % % % % % % % % % % % % : : % % % % % % % % % % % % % % % % % % % % % % $ $ % % $ $ $ $ % % % % % % $ $ $ $ % % $ $ % % % % $ $ % % % % $ $ $ $ % $ $ $ % % % $ $ $ $ $ % % % % : 4 : : : : < < > > , , , , , , F , , > &XF.D.*.@.Q Q Q H H H H I I G G G G I G I I I I I I I I L L L L L L L L a.a.a.a.a.a.a.a.a.d.d.d.s.j.s.s.s.s.g.g.s.g.g.g.z.z.z.h.l.l.l.z.l.l.l.l.l.l.n.n.n.n.n.n.m.m.m.m.M.M.M.M.V.V.M.N.V.V.V.V.V.V.V.V.B.B.B.B.B.B.B.B.B.C.C.C.0X0X0X0XC.0X0X0X0XC.0XwX0XC.qXeXeXeXeXeXeXeXtXiXiXiXMXMXNXNXMXlXlXzXMXzXNXZXNXhXjXzXzXzXNXNXNXNXzXzXzXzXuXuX#X#XuXyXuXyX^.Z.Z.Z.Q.Q.Q.Q.+X#X#X~.!.Q.Z.Z.A.Z.Z.v.Q.~.#X!.!.Q.Q.Q.Q.v.v.v.Q.Q.L./.uXlXzXhX%XhXhXhX%X&X(.$X/.L.P.L.L.L.L.L.L.L.L.L.L.G.v.v.v.v./ / U I G G G G I I I I I I U I H Q Q / ;.;.=.;.~ Q R R R R Q Q R Q @.=.=.=.#.@.Q E l l l l g g g f w f f f 1 - = - 1 1 f f f f f f f f f f f f f f g b b n g b b g f f f g v v M N #.$.$.$.$.4.$.O.v w ; # w ; ; r g b N ! O.#.*.2.#.W N m v m N M k g M W B ! #.#.4.6.F.F.6.O.$.7.6.7.! @.! ~ #.2.*.#.@.! ! #.~ ^ @.#.~ ^ N b b f k b b g b b b k v v b f ; b 2.3.^ N E W E b g 1 1 = % % % % % % % % % % # # # & & & & & 1 & 1 1 f k f f s s s s j s i s i j f s 8 w j j s s s s s f l x d d j j d w 8 i i i i i i i i i 8 8 8 8 i 8 8 8 8 8 8 8 8 8 8 8 8 8 8 8 & & & & & & & & & & & & 8 8 & 8 & & 8 8 & & & & & & & & & & & & & & & & ",
"% % % % % % % % & & % % > & & & : : : : % % % % % % % % % % % % % % % % % % % % % % % % % % % % % % % % % % % % % % % % % % % % % % % % % % % % % % % % % % % % % % % % % % % % % % % % % % % % % % % % % % % % % % % % % % % % % % % % % % % % % % % % % % % % % % % % % % % % % % % % % % % % % % % % % % % % : % % % : : % % % % % % % % % % % % % % % % % % % % % % $ $ % % $ $ $ $ % % % % % % $ $ $ $ % % $ $ % % % % $ $ % % % % $ $ $ $ % $ $ $ % % % $ $ $ $ $ % % % % 4 4 : : : : < < > > < , , , , , a , i i L.D.-.@.Q Q R H H H G G I G G G G G I G I I I I I I I I L L L L L L L L a.a.a.a.a.a.a.a.a.a.d.d.s.j.s.s.s.s.s.g.s.s.g.g.z.z.l.h.l.l.l.z.l.l.l.l.l.l.l.n.n.n.n.n.m.m.m.m.M.M.M.M.V.V.M.M.V.V.V.V.V.V.V.V.B.B.B.B.B.B.B.B.B.B.C.C.C.0X0X0XC.0X0X0XC.C.0XwXC.C.qXeXqXqXqXqXqXeXtXpXiXiXlXzXMXMXlXjXjXlXzXzXMXzXzXzXzXzXzXzXNXNXNXNXzXzXzXNXlXuX#X#X#X#XuXiXyX^.Q.Q.Z.Q.Q.Q.+X#X#X~.!.Q.Z.v.Z.v.v.v.v.).!.#XL.G.Q.~.~.v.v.v.Q.!.!./.%X%X$X#X$X&X(./.W.P.P.L.D.v./ v.v.v./ =./ ;.=.=.=./ / / U I I U I I I G G I I I I U U U I U U U Q / / ;./ / Q R G G G H H H R Q =.=.=.=.Q R l k h k k f s s s s s s f f 1 1 1 f f f f f f f f f f f f f f f f f g b b g f f f f f f g g g f k v M m m m W O.! N r ; ; - g f w w w r g v v N O.#.3.*.*.#.v g g v M b M v m B o.@.*.4.6.7.W M ! #.W N M N N M E W E N E W #.#.! E E W E E M b g f f f f f f f f f ; r f ; ; f ^ ^ N b N b E b n f f - & % % % % % % % % % # # & & = = = = 1 & > s f f f f s s s f j s i s & j f s & w j j f s s s s s g x l j j l j f w 8 i i i i 8 8 8 8 8 8 8 8 i i 8 8 8 8 8 8 8 8 8 8 & & & 8 & & & & & & & & & & & & 8 8 & & & & 8 8 & & & & & & & & & & & & & & & & ",
"& & & & % % % % > & & & > > > & % % % % % % % % % % % % % % % % % % % % % % % % % % % % % % % % % % % % % % % % % % % % % % % % % % % % % % % % % % % % % % % % % % % % % % % % % % % % % % % % % % % % % % % % % % % % % % % % % % % % % % % % % % % % % % % % % % % % % % % % % % % % % % % % % % % % % % % % : : : : % % % % % % % % % % % % % $ $ $ % % % % $ $ $ % % % % $ $ % % $ $ $ % % % $ $ $ $ $ % % $ % % % % % % $ % % $ % % % $ $ % % % % % % % $ $ $ $ $ $ $ $ $ 4 4 4 4 : : : : > > > < < , , , , , > / D.-.#.o.Q R H H G G G G G G G G G G I J I I I I I I I I I I I I L L L L L a.a.a.a.a.a.a.a.a.d.d.j.j.j.s.g.s.s.s.s.s.s.g.g.g.h.h.l.l.l.l.l.l.l.l.l.l.l.l.n.n.n.n.m.m.m.m.m.m.M.M.V.V.M.M.V.V.V.V.V.V.V.V.B.B.B.B.B.B.B.B.B.B.C.C.0XC.C.C.C.0X0XC.C.C.0X0X0XC.wXeXqXqXqXqXqX^.pXpXiXiXBXlXzXzXlXuXlXlXlXlXlXlXzXNXNXNXNXzXNXNXNXZXNXzXzXzXjXyX#X!.(.#XuXlX#XQ.Q.~.Q.v.Q.Q.~.#X#X#XQ.v.v.Z.).Z.v.v.v.P.Q.!.P.G.G.Q.Q.).v.v.Q.L.L./.uXxXzXxXzXzXhX&X/.L.P.G.v.v.k./ U I I I I I I I U U U U I I I J I I I I G I I I H H I I I I I R H R Q Q R H k k G G G G G T R Q @.~ E R k h h h k k h f h f 3 1 1 1 3 3 3 3 f f 3 f h f 2 2 2 f 1 1 2 2 f f f f g f f f f 2 1 - - - - - 1 w f f f r t g g v v v w ; r k g f r w w w ; q g v W #.3.7.4.#.N v k b g k k g M W W M N N N N b k b l g k g f f b b f g l M M @.=.@.W E E M b b g - ; - - f f f f w w ; ; - ; - 2 f g g b b b E b b g f 1 - = = % % % % % % % & & & & = - 1 1 & & w 8 s s s s w s s f h s & & s s f s & w s l g s w s r s s g M g j g l g w 8 8 8 8 8 8 8 i i i i 8 8 8 8 8 8 i 8 8 8 8 8 8 8 8 8 8 8 8 8 8 8 & & & & & & & & & & & & 8 8 8 8 & & & & i i > > 8 8 8 8 & & & & ",
"& & & & & & & & > & & & > > > > % % % % % % % % % % % % % % % % % % % % % % % % % % % % % % % % % % % % % % % % % % % % % % % % % % % % % % % % % % % % % % % % % % % % % % % % % % % % % % % % % % % % % % % % % % % % % % % % % % % % % % % % % % % % % % % % % % % % % % % % % % % % % % % % % % % % % % % % : : % : : : % % % % % % % % % % % $ $ $ % % : : $ $ $ $ % % % $ % % % % $ $ % % % % $ $ $ $ % % $ $ % % % % % $ $ % $ $ % % $ % % % % % % $ % $ $ $ $ $ % $ $ $ 4 4 4 4 : : : : > > < < < < < , , h : P.D.@.o.Q E H H H G G G G G G G G G G G J I I I I I I I J I I I I L L L L L a.a.a.a.a.a.a.a.a.a.d.f.f.s.s.g.s.s.s.s.s.s.g.g.g.h.h.z.z.l.l.l.l.l.l.l.l.l.l.n.n.n.n.m.m.m.m.m.m.M.M.V.M.M.M.V.V.V.V.V.V.V.V.B.B.B.B.B.B.B.B.B.B.C.C.C.C.C.C.C.C.C.C.C.C.0XC.0XwXwXqXqXqXqXqXqX^.pXiXpXpXiXlXzXzXlXjXlXlXlXjXlXzXzXzXZXNXzXzXNXNXNXNXNXNXNXzXuX#X#X(.(.(.#XuX#X!.~.iX+X).Q.Q.!.~.yXuX!.v.v.).).).).v.).!.!.!.!.G.v.v.v.v.G.!.(.uXhXhXxXzXmXzXzXzXxX2X$X$X#X~.).v.v.U U U I I I U U U / U U I I I I I I I I I I I I H H H H I I I I I I H H G G G k G G G G G G G T R Q R b l k h h h > 3 3 3 h h 3 3 3 3 3 3 3 3 3 3 3 3 3 1 2 2 f f f f f k g g g f f f f f 1 1 = = = ; ; ; ; = - f w w w f f g k g f f v b b g f r w w w r g v M W #.#.#.O.N v f f k M b g g g g f w w w w w f f s s s s w w f f w s s g l W ! W N E M k g f f f f f f f f f f f w f f f w - 2 f g f f b v b b n b g g f 1 1 1 = & % % % & & & & & = 1 1 1 w s s s f s s s s s s f h s & & & > s s & s s g l s s s w s s g M g j g x l g s 8 8 8 8 8 8 i i i i 8 8 8 8 8 8 i i 8 8 8 8 8 8 8 8 8 8 8 8 8 8 & & & & & & & & & & & & 8 8 8 8 & & & & i i > i 8 8 8 8 & & & & ",
"> > > > > > > > & & & & & & & & % % % % % % % % % % % % % % % % % % % % % % % % % % % % % % % % % % % % % % % % % % % % % % % % % % % % % % % % $ $ % % % % % % % % % % % % % % % % % % % % % % % % % % % % % % % % % % % % % % % % % % % % % % % % % % % % % % % % % % % % % % % % % % % % % % % % % % % % % % % % % % : : : % % % % % % % % % % % $ $ % % : : $ $ % % % % $ $ % % % % $ $ $ % % $ $ $ $ $ $ $ % % % % % % % % $ $ $ $ % % % % $ $ % $ % % % $ $ $ $ $ % % $ $ 4 4 4 4 : : : : : : : : < < < > > , > P.-.Q Q R R H H H G G G G G G G G G G G G I I I I I J J J J J L L L L L L L L a.a.a.a.a.a.a.a.a.d.d.d.d.s.g.g.s.s.s.s.s.g.z.z.z.z.z.z.l.l.l.l.l.l.l.l.l.l.n.n.n.n.m.n.m.m.m.m.M.M.V.M.M.M.M.V.V.V.V.V.V.V.V.V.B.B.B.B.B.B.B.B.C.C.B.C.C.C.C.C.C.C.C.C.C.C.C.wXwXwXqXqXqXqXA.^.pXiXyXyXiXlXzXNXMXlXlXlXlXjXlXzXzXzXZXNXzXzXNXNXzXlXxXzXNXzX#X#X#X$X$X#X!./.#X!.!.~.!.Q.Q.Q.Q.!.#XyX!.Q.Q.Q.).).G.v.P.(.(.(./.L.P.G.v.v.P.#XjXxX%X(./.$XhXhX4X2X$X/././.L.).).v.k.f.I U I I U U / / v.v./ U U I I I U U U I I I I I H H I I I I G G G G G G k G G G G G G G G T T R T G k k k k h 3 > > 3 3 h 3 h h h h 3 3 3 3 3 3 1 1 1 1 1 1 2 f 2 f f k f f f f f f 1 1 1 1 1 = = = = = ; = - 1 - - - - f f g f f v M M b b f f r w w r g g k M W B N W N v t r g M b f w w w ; ; & & & & s s 1 s s s w - w w w s w r g E W ! O.@.N v v r w w g b g f f f f f f M b k g f f g g f f f f g n b b b b n f 1 1 = ; # # = = & & & & 1 1 1 s s s f f s s s s s s s s f s & & # & f s > s w g M f w w s w r s x l g g l M l f 8 i i 8 i i i i i i i i i i i i i i i 8 8 8 8 8 * * * * 8 8 8 8 & & & & * & * * 8 & & & & & & & & & & & & & & & & & & & & & & & ",
"> > > > > > > > > & & & & & & & % % % % % % % % % % % % % % % % % % % % % % % % % % % % % % % % % % % % % % % % % % % % % % % % % % % % % % % % $ $ % % % % % % % % % % % % % % % % % % % % % % % % % % % % % % % % % % % % % % % % % % % % % % % % % % % % % % % % % % % % % % % % % % % % % % % % % % % % % % % % % % : : : % % % % % % % % % % % $ $ % : : : $ $ % % % % $ $ % % % % $ $ $ % % $ $ $ $ $ $ % % % % % % % % % $ $ $ $ % % % % $ $ % % % $ $ $ $ $ $ $ : % $ $ 4 4 4 4 4 4 : : : : : : < < < < > % h =.@.~ E E R H G H G G G G G G G G G G G I I I I I J J J J J J I L L L L L L L a.a.a.a.a.a.a.a.a.d.d.d.d.j.g.g.s.s.s.s.s.g.z.z.z.z.z.z.h.z.l.l.l.l.l.l.l.l.l.n.n.n.n.n.m.m.m.m.M.m.m.m.m.m.M.M.V.V.V.V.V.V.V.V.B.B.B.B.B.B.B.B.C.C.B.B.C.C.C.B.B.C.C.C.C.C.C.wXwXqX0X0XqXqXA.^.pXpXyXyXiXMXNXZXMXlXiXjXlXjXjXjXzXNXNXNXNXNXZXzXhXhXhXhXhXlX#X$XuXhXhXuX#X(.$X#X!.!.~.#X~.b.b.Q.!.!.!.Q.!.!.~.!.).G.!.#X#X#X$X$X#XL.v.v.G.!.!./.L./.%X2X2X$X&X&X/.L.P.D.v.v.k.U U U U U U U U U / ;.v.v.;.U I I I I U I I I I I I I H H I I G I G G G G G G G G G G G G G G G T R E T G l k h f 3 3 3 3 h 3 3 3 h k h 3 3 3 3 3 3 3 = 1 = = = = 1 1 1 1 2 2 1 1 = = 1 1 1 = 1 1 1 1 = = = = = = - - - - f f - f f - f v b n b b b g f f r f g t v M M g m N M m v k g k k w s w - & & & & & # s & # s f s w f w w r g w s M W #.2.7.7.#.N M f - - g M b g f r w f k E M b b b b b b g f - - f f b n b b b b 1 1 = # = = = - & & & & 1 1 1 s f f g g s s s s f s r s f s & & & & s s > s s f M g s w s w r s x l g j l M x d 8 i i i i i i i i i i i i i i i i i i i 8 8 8 8 * * * * * * * * & & & & * * * * 8 & & & & & & & & & & & & & & & & & & & & & & & ",
"> > > > > > & & > > > & & & & & % & : > % % % % % % > > > > > : % % % % % % % % % % % % % % % % % % % % % % % % % % % % % % % % % % % % % % % % $ $ % % % % % % % % % % % % % % % % % % % % % % % % % % % % % % % % % % % % % % : : : : % % : : : : : : : : : : % % % % % % % % % % % % % % % % % % % % % % % % % : : : : : % % : : : % % % : : % % % % % % % % $ $ $ % % % $ $ % % % % $ $ % % % % $ $ $ $ $ $ $ % % % $ $ $ $ $ $ $ $ $ $ $ $ $ $ $ $ $ $ $ $ $ $ $ $ % % % $ 4 4 4 4 : : : : : : : : < < < < : > / =.R Q Q R H H G G G G G G G G G G I I I I G I I J I I I J J J J J K L L L L a.a.a.L a.a.a.a.a.a.a.a.a.d.d.s.s.s.s.s.s.s.g.g.z.z.z.z.z.z.z.l.l.l.l.l.l.n.n.l.l.n.n.n.n.n.n.n.n.n.n.n.M.M.M.V.V.V.V.V.V.V.V.V.V.V.V.N.V.N.B.B.B.B.B.B.C.C.C.C.B.B.C.0XC.B.C.0X0XwX0XC.C.C.A.A.eXpXpXrXyXiXMXZXNXzXlXlXlXiXuX%XhXzXZXNXxXxXNXNXlXhXuXuXhXhXhXlXzXzXlXlXhX$X!.#X#X/.#X#X!.Q.Q.Q.Q.P.G.P.Q.!.~.uX~.Q.G.P.!.L.!.$X$X/.L.G.G.P.L.(././././.(.&X&X&X(.&X/.L.G.v./ U U U U U U U / U / ;.v.v.v.v.Q I I I I I U U U I I H H U I I I I G G G G G G G G G h h G k k k T T H R k f s h f 3 3 h h k h 3 3 3 3 1 1 1 1 1 1 1 3 3 3 1 1 = = 1 1 f 1 1 1 = 1 1 = & 1 1 = & 1 1 1 1 1 1 1 1 = = 1 = = = 1 1 1 1 2 f g v n b b g g f f f f f w g v g w r m M g g g M M M M l f s - # & & & & & & > s s s s s w w w w w s l R #.#.2.6.6.4.O.N v r f b M f f w w f v ~ #.N f f T b k f f f - - ; - g b n b b b l g f 1 f 1 1 - - # # # - - s f k g j d d s s s f s w s k f - & & & f h > > f & l b f f f f f s g R l s g l l g s i i i 8 8 8 8 i i i i i i i i i i 8 8 8 8 8 8 8 & * * * * * * & & & & & & & & & & & 8 8 8 & & i i i i i i i i 8 8 8 8 & & & & ",
"> > > > > > & & > > > > & & & & % % > > % % % % % % & % > > % : % % % % % % % % % % % % % % % % % % % % % % % % % % % % % % % % % % % % % % % % $ $ % % % % % % % % % % % % % % % % % % % % % % % % % % % % % % % % % % % % % % % : : : : % % : : : : : : : : : % % % % % % % % % % % % % % % % % % % % % % % % % % : : % : % % : : : % % % % : % % $ $ % % % % $ $ % % % % $ $ % % % % $ $ $ % % % $ $ $ $ % $ $ $ % % $ $ $ $ $ $ $ $ $ $ $ $ $ $ $ $ $ $ $ $ $ $ $ $ % % % % 4 4 4 4 : : : : : : : : < < < < , > R / Q R H H H G G G G G G G G G G G I I I I I G I I I I I J J J J J K L L L L L a.a.L L a.a.a.a.a.a.a.a.d.d.j.j.s.s.s.s.s.g.g.z.z.z.z.z.z.z.l.l.l.l.l.l.n.n.l.l.n.n.n.n.n.n.n.n.n.n.m.M.M.M.V.V.V.V.V.V.V.V.V.V.V.V.N.N.B.B.B.B.B.B.B.B.C.C.B.B.B.C.C.C.B.C.0X0X0X0XC.C.C.A.A.eXpXyXyXyXiXMXNXNXzXlXiXuXyX#XuXlXzXzXxXzXmXNXNXjX%X$X%XhXjXhXzXNXNXlXlXzXuX/./.$X$X/.!.Q.Q.Q.Q.Q.L.L.!.P.Q.~.uXiX~.G.L.(.!./.uX$X#X/./.(.(.!./.G.D.D.L.(.4X2X4X4X2X$X/.L.G./ U U k.v.v.v./ H ;.;.v.D.G.v.=./ G I I I I I I I I I H H I I I I G G G G G G G G G k k k k k k l l R T l k k k h k k h f k k k h h h f f 1 1 & 1 1 1 1 1 1 3 1 1 3 3 1 1 = = = ; 1 1 1 = 1 1 1 = & & & & 1 1 1 1 = = 1 = = = 1 1 1 1 2 2 f f f f f f f f f f f - w w w w w g v v N M M M N M l f s - & & & & & & & & s s s s f f f w w w s s l R N B O.2.7.7.2.#.! N b N N f w - b b W @.! b f f k f f 1 = = = - - - f g g b E N b b g f f 1 1 - - = # = - 1 s f g g j j d d s s f f f f k f - & > & s h s & & & l M b g f f f f f M M g g g l g f s i i i i i i i i i i i i i i i i 8 8 8 8 8 8 8 8 * * * * * * & & & & & & & & & & 8 8 8 8 & & 8 8 8 & i i i i 8 8 8 8 & & & & ",
"> > > > > > > > > > > > & & & & % % : : % % % % % % % % % % % % % % % % % % % % % % % % % % % % % % % % % % % % % % % % % % % % % % % % % % % % $ $ % % % % % % % % % % % % % % % % % % % % % % % % % % % % % % % % % % % % % % % % : : : : : : : : : : % % : : % % % % % % % % % % % % % % % % % % % % % % % % % % % % % % % % : % % % % % : : % % % $ $ $ % % $ $ $ % % % % $ % % % % $ $ % % % % % % % % % % $ $ $ $ $ $ $ $ $ $ $ $ $ $ $ $ $ $ $ $ $ $ $ $ $ $ $ $ % % % % 4 4 4 4 4 4 4 4 : : : : < < : : , > G R / R G H G G G G G G G G G G G G G G G G G G I I I I I J I I J J K L L L L L a.a.L a.a.a.a.a.a.a.a.a.d.d.j.j.s.s.s.s.s.g.g.z.z.z.z.z.z.l.l.l.l.l.l.l.n.l.l.l.n.n.n.n.n.n.m.m.m.m.n.M.M.M.V.V.V.V.V.V.V.V.V.V.V.V.V.V.B.B.B.B.B.B.B.B.B.B.B.B.B.C.C.B.C.0X0X0XC.C.C.C.C.C.C.eXpX+XyXyXiXMXMXlXlXjXuXyX#X#XuXlXlXlXhXxXzXbXNXxXuX%X%XhXxXjXzXNXNXxXlXlXhX$X$XzXhX/.P.P.!.(./.!.!.(.#X!.Q.!.yXyXyX~.L.L.L.!.hXhX$X$X$XuX$X!.L.D.D.L.(.%XhX%X%XhXxXhX(.L.G.=./ / / v.v.v.v.;.;.=.G.!.L.D.=./ / U I I I I I I I I I I H H G G G G G G G G h G k G H H l M R R Q ~ ~ R M R R l l k k l b k k k l k k k f 1 = 1 = = = = 1 1 1 1 1 1 = # # # ; = = 1 1 1 1 1 1 1 & = & & 1 1 1 1 = - - = = = 1 1 - - - 2 2 2 - 2 1 - - 1 1 1 = - - w ; & w g N W #.W N N N l f w w w & s & & & & i i s s s s f f d s w w s f g M W E W @.2.2.#.@.@.^ E E N f - w k b E E M f - f f 1 = = % ; = - - 1 f f n b W W E b b f f f f - f - - - - s s f g f g g f s s s g g f f h f & & > & s k f & & & g E E b k f 1 f f b R l s f k l j s 8 8 i i i i 8 8 i i i i i i 8 8 8 8 8 8 8 8 8 8 8 * & * * * * * & & & & & & & & & & 8 8 8 & 8 8 & & 8 8 8 8 8 8 8 8 8 8 & & ",
"> > > > > > > > > > > > & & & & % % : : : % % % % % % % % % % % : : : > % % % % % % % % % % % % % % % % % % % % % % % % % % % % % % % % % % % % $ $ % % % % % % % % % % % % % % % % % % % % % % % % % % % % % % % % % % % % % % : % : : : : : : : : : : : % % % % % % % % % % % % % % % % % % % % % % % % % % % % % % % % % % % % % % % % % : : % % $ $ $ $ % % $ $ $ % % % % % % % $ $ $ $ % % % % % % % % % % $ $ $ $ $ $ $ $ $ $ $ $ $ $ $ $ $ $ $ $ $ $ $ $ $ $ $ $ % % % % 4 4 4 4 4 4 4 4 : : : : < < : : $ > Q G R R H H G G G G G G G G G G G G G G G G G G I I I I I J I I J J J L L L L L a.a.a.a.a.a.a.a.a.a.a.a.d.d.s.j.j.d.s.s.s.g.g.z.z.z.z.z.z.l.l.l.l.l.l.l.n.l.l.l.n.n.n.n.n.n.m.m.m.m.n.m.M.M.M.V.V.V.M.V.V.V.V.V.V.V.V.V.B.B.B.B.B.B.B.B.B.B.B.B.B.C.C.B.C.0XC.0XC.C.C.C.C.C.A.eXpX~.~.yXuXlXzXjXiXuXuX$X#X#XuXuXjXxXhXhXhXhXxXxXhXuX%XuXhXxXzXxXhXhXhX%X$X$XhXzXzXuX/.L.#XuX$X#X%X$X%X#XL.Q.#X~.yXuXL.v.G.!.%X%X$X$X$X$X$X/.P.G.P.L./.$XhX$X(.%XxXxXhX(.L.G./ / / / =.v.v.G.v.G.!.$X(.L.D.;.v.;./ H G G G G G G G G G G F G G G G G G k k H l R Q Q ~ ~ @.#.*.D.D.3.*.o./ R R R R R R T b T R T T l f 1 1 = & = % % % & 1 1 & % % % # = = = % = 1 1 3 1 1 1 1 1 1 1 1 1 1 1 1 = - = = = 1 - - - - - - - = = = = - - 1 = = ; & s w w f b W *.*.@.N M M g w - & w s s & & & & i s s s f f f f d s s w w s g k v v M W @.#.@.! ^ E N N N v f f f w f f f f - - 1 = = = % % ; = 1 f f g g b E W E E b b g g f f f f s f - s s f f f g g f s s f k g f f h s & & > % > k k 1 - s g M E E b g f f f l R b f f f g f s i 8 i i i i 8 8 i i i i i i 8 8 8 8 8 8 8 8 i 8 8 8 8 & & * * * * & & & & & & & & & 8 8 8 & 8 8 & & & & & & 8 8 8 8 8 & & & ",
"> > > > > > > > > > > > > > > > > > > > > > > > : : : : : > > > : > > > & % % % % % % % % % % % % % % % > & & % % % % % % % % % % % % % % % % % % % % % % % % % % % % % % % % % % % % % % % % % % % % % % % % % % % % % % % % % : : : : : : : : : : : : : : : : % % % % % % % % % % % % % % % % % % % % % % % % : : % % % % % % % % % % % % % : % % $ % $ $ $ $ % % % % $ $ % % $ $ $ $ % % % % % % % % % % % $ % % % $ $ $ $ $ $ $ $ $ $ $ $ $ $ $ $ $ $ $ $ $ $ $ $ $ $ $ $ $ $ $ $ $ 4 4 4 4 : : : : : : : : > > =.R H H H H G G G G G G G G G G G G G G G F I G I F J I J J I I J J K K K K L L L L L L a.a.a.a.a.a.a.a.d.d.s.s.s.s.j.s.s.g.g.h.z.z.z.z.z.z.l.l.l.l.l.l.l.l.l.l.n.n.n.n.n.n.n.n.n.n.m.m.m.m.m.m.m.m.M.M.V.V.m.M.V.V.V.V.B.B.B.B.B.B.B.B.B.B.N.B.B.B.C.B.C.0XC.C.C.C.C.C.C.C.Z.tXiX~.#XyXlXzXzXxXuXiXuX$X#X$X#X%XuXlXuX%X%XhXhXhXhXuX%X%XuXxXhXuX%XhX$X#X$XhXhXxXxXzX%X!.(.hXuX$XhXhXuX#XL.P.!.(.!.!.v.v.P.#X$X$X$X$X$X/.!.L.D.G.L.L.L.(.$X/.L.(.$XhXhXhX(.L.L.v./ =.v.G.G.L.P.G.P.!.!.L.G.G.G.v.=.;./ / H H G G G G G G G G G G G G H R Q ~ Q @.*.-.7.7.7.7.7.D.F.P.D.-.~ Q ~ ~ Q E T b E Q E R b l k f 1 1 % & & & & = = = = = = = = = 1 1 1 1 1 1 1 1 1 1 1 1 1 1 = = = = 1 1 1 1 = - - - - - - - - - - - 1 1 1 1 = = = - # w s s f k N @.@.W M b g r w w 8 w s i & & & i i s s s s s s s j j f w ; w f w s f k E W W W E M b b b g g g f f 1 - 1 1 = = = = = 1 1 = = % % - 1 f g v v n b E E b b b E b f f f w w w w s f f f f f s f s f g g f f k f - % & & # f k f & & g b E E E E b g w f b E l f g g f s i 8 i i i i p 8 i 8 8 8 8 8 i i i 8 8 8 i i i i 8 8 8 * * * * * * * & & & & 8 8 8 8 & & & i i i i i 8 8 8 8 8 8 & & i i i i ",
"> > > > > > > > > > > > > > > > > > > > > > > > % : : : : > > > > > > % & % % % % % % % % % % % % % % % > > % % % : % % % % % % % % % % % % % % % % % % % % % % % % % % % % % % % % % % % % % % % % % % % % % % % % % % % % % % : : : : : : : : : : : : : : : : % % % % % % % % % % % % % % % % % % % % % % % % : : % % % % % % % % % % % % % : % % $ % $ $ $ $ % % % % $ % % % $ $ $ $ % $ % % % % % % % % $ $ % % % % $ $ $ $ $ $ $ $ $ $ $ $ $ $ $ $ $ $ $ $ $ $ $ $ $ $ $ $ $ $ $ $ 4 4 4 4 : : : : : : : : : $ R G H G H G G G G G G G G G G G G G G G G G G G I I J I J J I I J J L K K L L L L L L L a.a.a.a.a.a.a.a.d.d.s.s.s.s.s.j.s.g.g.h.z.z.z.z.h.h.l.l.l.l.l.l.l.l.l.l.n.n.n.n.n.n.m.m.n.n.m.m.n.n.m.m.m.m.M.M.V.V.n.m.V.V.N.N.B.B.B.B.B.B.B.B.B.B.N.B.B.B.B.B.C.C.C.C.C.C.C.C.Z.Z.A.yXiX~.#XuXzXNXzXjXiXuXuXyX#X#X#XuXhXhX$X%X2XxXxXxXhXhX%X%XuXxX%X2X%X$X$X$XuXxXhXhXxXxXhX(.$XhX$X#X%XhX%X(.L.P.L.L.G.G.=.=.!.uX2X%X%X%X$X(.!.L.L.L.(.(.(.#X(.L.L.W./.&X%XhX%X(.(.L.D.G.L.L.P.G.v.=./ / ;.v.v.=.=.=.;.=.v.=./ Q H G G G G G G G G R / ;.=.*.3.7.3.D.D.P.J.J.F.6.7.4.-.=.=.Q Q ~ o.~ ~ ~ R b R R R T b b l f 1 = 1 1 1 1 & & = = = = = = & & & & 1 1 1 1 = = = = = = = = = = = = 1 1 1 = = 1 - - - - - - - - - - 1 1 1 1 1 1 1 1 w r s s g k v M M g g g g r w w s w i & & & i i s s s s s s s s j j f s ; - - = w f k M E N M M b b b g f f 2 - - - = = = = - - = = 1 1 = = % % = - 2 f f f g n E M b b E W M g f f w w w w - f f f f f f f f f f g k f k f - & & & # s k f & & f b E E E Q E b f f g b l f f g f f i & 8 8 i i p 8 i 8 8 8 8 8 i i i i 8 8 i i i i 8 i 8 8 & * * * * * & & & & 8 8 8 8 & & & i i i i i 8 8 8 8 8 & & & i i i i ",
"> > > > > > > > > > > > > > > > > > > > > > > > % & : : > > > > > > > % & % % % % % % % % % % % % % % % % % % % : % & & % % % % % % % % % % % % % % % % % % % % % % % % % % % % % % % % % % % % % % % % % % % % % % % % % % % % : : : : % : : : : : % : : : : : % % % % % % % % % % % % % % % % % % % % % % % % : : % % % % : : : : % % % % % % % % % % % % % % % % $ $ $ $ % % % % $ $ $ $ $ $ % % % % $ $ $ $ % % % % $ $ $ $ $ $ $ $ $ $ $ $ $ $ $ $ $ $ $ $ $ $ $ $ $ $ 4 $ 4 4 $ $ 4 4 4 4 : : : : < < : : : 3 k l T l G G G G j G G G G G G G G G G G G G G G I I J I J J J J J J L L K L L L L L a.L L a.a.a.a.a.a.a.d.d.s.s.s.d.s.s.s.g.g.g.h.z.h.h.h.h.l.l.l.l.l.l.l.l.l.l.n.n.n.n.n.n.m.m.m.m.m.m.n.n.n.n.n.n.M.M.V.V.M.V.V.V.N.N.N.N.N.N.N.N.N.N.N.N.B.B.B.B.B.C.C.C.C.C.C.C.C.C.Z.Z.A.pXiX#XyXlXMXzXhXhXuXuXuX#X#X#X#XlXxXuX$XhXxXbXzXzXxXhX2X%X%XxXhXhX%X$X#X%XuXhXxXxXxXzXhX$X%XhX$X&X$XhXxX%X(.L.G.G.G.L.v.v.#XjXhX%X&X&X(.(.(.(.(.(./././././.L.L.L.L./.$XhXhX2X$X(.L.L.L.L.D.=./ H G G G R / R I I / / v.v./ Q G H H H H H Q / ;.v.D.D.P.J.J.J.3.7.F.J.F.F.w.w.4.4.$.@.Q Q Q @.W ~ *.-.E b M b l l l l k 3 1 1 h 3 3 1 & & & % = = & % % % % % & & % % % % % % % % % % = = = = & & & & - - - ; - - - - - - - - 1 1 1 1 1 1 1 1 f s w g g g k g r f f s s s w w s 8 & & & i i s s s s s s s s s k k f f - ; = = ; # f l E E E b b b g f 2 1 - - - - - 1 1 = = = = = 1 1 = & & % % = = 1 f f g g b b v v N W N b f f w w w - w s f f f f 1 - 1 1 f g l f k f = & % & & 1 l k 1 1 f M W E E Q Q E l f f l b f f f f f s i 8 8 8 i p 8 i 8 8 8 8 8 i i i i 8 8 i i i i i i 8 8 8 & & & & & & & & & 8 8 & 8 & & & i i i i i 8 8 8 8 8 8 8 8 i i i i ",
"> > > > > > > > > > > > > > > > > > > > > > > > & & : : > > > > > > % % % % % % % % % % % % % % % % % % % % % % % & & > % % % % % % % % % % % % % % % % % % % % % % % % % % % % % % % % % % % % % % % % % % % % % % % % % % % % % : : : % % % : : : % % % : : : % % % % % % % % % % % % % % % % % % % % % % % % % % % % % % : : : : % % % % % % % % % % % % % % % % $ $ $ $ % % % % % $ $ $ $ $ $ $ % % $ $ $ $ % % % % $ $ $ $ $ $ $ $ $ $ $ $ $ $ $ $ $ $ $ $ $ $ $ $ % % 4 4 4 4 4 $ 4 4 4 4 : : : : < : : : : / l T T G H j G j j h G G G G G G G F F G G G G G I I J I J J J J J J L L K K K L L L L L a.a.a.a.a.a.a.a.d.d.s.s.s.s.s.s.s.s.g.h.g.h.h.g.g.h.h.h.l.l.l.l.l.l.l.l.n.n.n.n.n.n.m.m.m.m.m.m.n.n.n.n.n.n.M.M.V.M.V.V.V.N.N.V.M.M.N.N.B.B.N.N.N.N.N.B.B.B.B.C.C.C.C.C.C.C.C.C.C.Z.^.pXiX#XuXlXlXuXuXuXuXuX#X#X#X+X#XzXxX$X%XxXzXNXmXzXxXxX2X$X%XxXzXxXhX$X$XuXuXuX%XhXzXzXxX%X%X%X$X&X&X2XxXxX$XG.D.G.v.G.P.P.(.hXhX2X&X(.!.L.L.!.!.!.L.G.G.G.G.G.G.G.G.G./.$X2X%X$X$X(.L.G.G.v./ I G G G F F G I G G H / / / Q H Q ;.v.G.G.G.G.G.D.P.L.P.L.L.J.6.Q @.*.3.7.7.5.w.7.6.6.-.*.=.@.o.#.@.3.3.^ E E R l l f f 1 1 3 k k h 3 1 & > & % % % % % % % % % & % % $ % % % % % % % $ $ $ $ % % % & # - - ; - - - - - - - - - - 1 f 1 1 1 f f s s s l g l l f s d d r w r w & 8 & & & i i s s s s s s s s s s k k f f - # % = - # - g b E E b b b f f 2 1 - - - - - 1 1 = = = & & = = = & & & % % = - 1 f f f f f g g M E M l f f w - w - w w f f f f f - f f 1 g l f f f = % % > & 1 T T f f f E ^ W T E W E R f f l R f - g f f s i 8 8 8 8 p 8 i 8 8 8 8 8 i i i i 8 8 i i i i i i 8 8 8 8 8 & & & & & & > 8 & & & & & & i i i i i 8 8 8 8 8 8 8 8 i i i i ",
"% % : : : : > > > > > > > > > > > > > > > > > > > > > > > > > > > > : : % % % % % % % % % % > > > > > > % % % & & > % % % % % % % % % % % % % % % % % % % % % % % % % % % % % % : % % : : : : % % : : : : % % : : : : % % : : : : : : : : : : : : : : : : : : : % % % % % % % % % % % % % % % % % : : : : % % $ $ % $ % % % : % : % % % % % : : % % % % $ $ $ % % % % % % % % % % % : % % % % % % % % X X X % % % % % % % $ $ $ $ $ $ $ $ $ $ $ $ $ $ $ $ $ $ $ % % % % % % % $ 4 4 $ 4 4 4 4 4 : : : : : : : : < Q T h G G G h h h h h h h G G F F G G G G G G G G I G I J J J J J J J I L L L K K K P L L L L L L a.a.s.s.d.d.s.s.s.s.d.d.d.s.s.h.h.h.h.h.h.h.z.z.z.z.z.l.l.l.l.l.n.n.l.l.n.n.n.n.n.n.m.m.m.m.m.m.m.M.M.m.M.V.B.C.A.C.B.V.N.N.B.B.N.N.N.N.N.N.N.N.N.B.B.B.C.C.C.B.C.C.B.C.Z.Z.^.iXyXyXlXlX$X#X$XyXyX#XyX+X!.~.$XhXjX%X%XzXbXNXbXbXxXhX2XhXxXzXbXxXhX%XhXxX%X#X%XhX%X%X2XhX%X$X$X$X/.&XhXxX$XG.v.v.G.L.L.P.!.$XhX2X$XL.G.G.L.!.(.L.v.v.G.v.v.v.v.v./ v.G./.$X2X%X(.L.D.D.G.v./ U G G G F F G I U H R / ;.;.;.=.=.D.L.(.&XL.D.-.=.=.=.=.=.-.v.=.Q Q ~ @.=.4.7.6.&.w.J.6.#.*.7.-.7.3.*.~ Q ~ ~ E g s s f k h k k k h 3 1 : > % & % % % % % % % % % % $ $ $ $ % % % % % % $ % % % = = 1 - - - - - - - = = - - - - w f f f f f f s w s j g g j j d w 8 w 8 w w 8 8 i i s s s s s s s s s s w w s s f f s - ; # % % % % & f k l b b g b b b g - - f f f 1 = = = = = > 1 1 > - # # - & & 1 1 1 1 f f w s g g b E E M f f f f # # # & f f f f f # & f f k k f s s & & & & & & k R E l g E ~ ~ E M E ^ W b l b b f f f f f f s s 8 8 i p p p p p p i i 8 8 8 8 8 i i i i i i i i i i i 8 8 & & & & & & 8 8 8 8 8 i i i i i i i i i i i i i i i i i i i ",
"% % : : : : > > > > > > > > > > > > > > > > > > > > > > > > > > > > : : % % % % % % % % % % % % > > : : % % % % > > % % % % > & % % % % % % % % % % % % % % % % % % % % % % % % : : % % : : : : % % : : : : % % : : : : % % : : : : : : : : : : : : : : : : : : % % % % % % % % % % % % % % % % % % : : % % % $ $ $ $ $ % % : % % % % % % % : : % % % % $ $ $ % % X X X X X X X 4 4 4 4 X X % X % % X X X X % % % % % % % $ $ $ $ $ $ $ $ $ $ $ $ $ $ $ $ $ $ $ % % % % : % $ $ 4 4 $ 4 4 4 4 4 : : : : : : : : . G h 3 G G G h h h h h G h G G F F G G G G G G G G I G I J J J J J J J I I L L K K K K L L L L L L a.a.s.a.d.a.d.d.d.s.d.s.d.d.h.h.z.s.z.h.h.z.z.z.z.z.z.z.z.l.l.l.l.l.l.l.l.n.n.n.n.n.m.m.m.m.m.m.m.m.m.m.m.N.C.eXaXwXB.V.V.N.N.N.N.N.N.N.N.N.N.N.B.N.B.C.C.C.C.B.C.B.B.C.Z.Z.~.iXyXyXiXuX#X#XuXyX#X#X#X~.~.+X#X%XhX%X%XzXmXbXbXzXxXxXxXxXmXbXzXxXxXxXxXxXhX2X%X$X$X%X%XhX%X#X%X$XW./.xXxX$XL.v.v.P.L.!.L.P.(.%X$X&XL.G.L././.(.L.G.v.v.v.k.k.U U I U v.G./.(./.L.G.D.D.G.v.v./ U I G G G G I R / -.D.P.P.D.P.P.L.R./.L.D.*.=.@.@.o.@.Q H H H R R R Q =.=.*.$.4.J.R.W.6.7.7.7.7.#.Q E Q E E E g x l f f k k k 3 1 % % % % % & % % % % % % % % % $ $ $ $ $ % % % % % % $ % % % = = = - - - - - - - - - - - - - s s s s s s w w s s f f f s s s 8 8 8 8 w w w s d d s s i i i 8 8 8 w w w w s s f - & # # # % % % % % 1 f f g b T W W E T n f g f - = = = = 1 = 1 1 1 & # # ; - & > 1 1 1 1 w - w s g g l N E M f f f f - # # & f f f f s & - f f k k f s w & & & > & & f l E R b E ~ ~ E b b E Q R b b b g s s f f f f s s i s p p p p p p i p 8 8 8 8 8 i i i i i i i i i i i i i 8 & & & & & 8 8 8 8 8 i i i i i i i 8 8 8 8 8 8 8 8 i i i i ",
"% % : : : : > > > > > > > > > > > > > > > > > > > > > > > > > > > > : : & % % % % % % % % % % % % % % % % % % : > : % % : : > > % % % % % % % % % % % % % % % % % % % % % % % % : : : : : : : : : : : : : : : : : : : : : : : : % : : : : % % : % % : : % : : : % % % % % % % % % % % % % % % % % % % % % % % $ $ $ $ $ % % % % % % % % : : : : % % $ $ $ $ $ % : 4 X X X X : : : : 4 4 4 4 % % % % % % X X X % $ $ % % % % $ $ $ $ $ $ $ $ $ $ $ $ $ $ $ $ $ $ % % % % % $ $ $ 4 4 4 4 4 4 4 4 : : : : : : : : : 3 3 3 G k G G h h h h G G G G F F G G G G G G G G I G I I F F J J J I I I L L K K K K L L L L L L a.a.a.a.a.a.a.d.d.d.d.s.s.s.z.z.z.z.z.z.z.z.z.z.z.z.z.z.z.z.l.l.l.l.l.l.n.n.n.n.n.n.m.n.n.n.m.m.m.m.m.m.m.N.wXaXaXqXB.V.V.V.N.N.V.V.N.N.N.N.N.N.B.B.B.B.C.B.B.B.C.B.B.C.Z.Z.yXiXyXuXuX#X!.$XuX#X!.~.#X~.~.#X$X#X$X%X%XxXmXmXxXhXhXzXzXzXmXzXhXhXxXzXzXhXhXxX2XhXhXhX%X%XhX#X%X$XR./.hXhX$X$X!.G.L.!.!.L.L./.hX2X$X/.D.G.L.G.).G.v.v./ U I I I U I I U =.D.D.G.G.L./.W.G.D.G.=./ R G G Q / =.v.P.L./.L.P.L./.&X/.R.P.=.Q R @.D.D.7.*.~ Q Q H H l H R o.#.#.$.$.6.U.T.L.4.#.*.3.~ M b T l l b g E @.E k k k = % % % % % % % % = = % % = = % % % $ % X $ $ $ X % % % % $ % % % % = = 1 - - - - 1 1 1 1 1 1 1 1 f f f f f f - & w w w w w w w w s s s s s s s s f s s i & & & & & w s s g f f s f - - & # # # % % % % % & - f g T ^ ^ W E b g f f f - - = = = 1 1 = & % # = ; = 1 1 1 1 = = - - f f s f g M M b k k k f s & # & f f f f - # - s f k k f s w & & & & > & 1 h b E b M W ~ W b b M E T l l l g f f g g j j j s s s p p p p p p p p i 8 8 8 8 i i i i i p p p p i i i i i i 8 8 & & 8 8 8 8 8 8 8 8 i i i i 8 8 8 8 8 8 8 8 i i i i ",
"% % : : : : > > > > > > > > > > > > > > > > > > > > > > > > > > > > : : % % % % % % % % % % % % % % % % % % % : > : % % % : : > % % % % % % % % % % % % % % % % % % % % % % % % : : : : : : : : : : : : : : : : : : : : : : : : % % % : : : % % : % % : % % % : % % % % % % % % % % % % % % % % % % % % % % $ $ @ @ $ $ $ % % % % % % % % : : : % % $ $ % $ $ % : X X X X : : : : : 4 4 4 X % % % % % X X X X X $ $ $ $ % % $ $ $ $ $ $ $ $ $ $ $ $ $ $ $ $ $ $ $ % % % $ $ $ $ 4 4 4 4 4 4 4 4 : : : : : : : : G G h G G k h G h h h h G h G G F F G G G G G G I G I I I I F F J J J J I I L L L L K K K L L L L L a.a.a.a.a.a.a.a.a.a.a.d.c.c.c.c.c.c.c.z.z.z.z.z.z.z.z.z.z.z.z.z.l.l.l.l.l.l.n.n.n.n.m.m.n.n.m.n.n.n.n.m.m.N.C.eXtXqXB.V.V.V.N.V.V.V.M.N.N.N.N.N.N.B.B.B.B.B.B.N.B.B.B.C.Z.Z.yXpXuXuX$X+X#XuXuX#X!.!.#X!.#X$XuX$X$X%X%XhXxXhX2XhXxXbXmXmXmXzX2X2XhXxXxX2X%X2X%X%XhX%X$X/.%X$X/./.L.R.%XhXhXjX&XP./.#X!.P.L.R.$X%XhX$XW.L.G.G.v.v.v.k./ I G I I U U I I U / / / =.L.&X$X/.L.G.G.D./ / =.D.G./.(.2XhX2X&X/.(.$X/.L.D.=.E M @.7.R.R.L.D.*.@.Q H j j k l R ~ #.#.7.e.R.E.U.4.O.@.*.~ R b l l l l g Q 3.*.E b b = % % % % % % % % = = = % % % % % $ $ X $ X X X X % % % % $ % % % % = = 1 - - 1 1 1 1 1 1 1 1 1 1 1 s f f f s & # & & 8 8 w 8 s s s s s s s s f j s i & & & & & & s f g k b b l k g f f - ; # # % % % % % @ # - f n T W E E M b g g f f f 1 = = = = & % % = = = 1 1 1 1 1 - - - - f f s f f b M b l k l f f - & & s s f f # # # - f k k f f w & & & & & & & 1 k M b b E W ^ b b b b b l l k k f s g g g j l d s d p p p p d p p p p i 8 8 8 i i i i i p i p p p p i i i i 8 8 8 8 8 8 8 8 8 8 8 8 8 8 8 8 & & & & & & & & 8 8 8 8 ",
"& & : % : : > > > > > > > > > > > > > > > > > > > > > > > > > > & : : : > > > > % % % % > : : : % % % % % % > : % % % % % % % % % % % % % % % % % % % % % % % % % % % % % % % % % : : : : : % % : : : : : : : : % % : : : % % % : : : : : : : : : : : % % % : : % % % % % % % % % % % % % % % % % % % % % % % % @ @ % % % % % % $ % % : % % : : : : : : % % % % : : X X X X : : 4 4 X X 4 4 4 4 X X X X % % X X $ $ % % % % $ $ $ $ $ $ $ $ $ $ $ $ $ $ $ $ $ $ $ $ % : : % $ $ $ $ $ 4 4 4 4 4 : : : : : : 4 : G T k h h s G h G G h h G G G G F F G G G G G G G I J F I I I F I I I I J J J K L L K K K L L L a.a.a.a.L L L P P P P d.c.c.c.c.c.c.c.c.S.S.c.c.c.z.z.z.z.z.z.z.z.z.z.z.z.z.z.z.n.n.n.n.n.m.m.m.n.n.n.n.m.m.m.m.B.C.C.B.N.M.M.V.M.M.M.M.M.N.N.N.M.N.N.N.B.B.B.N.N.B.B.B.C.B.N.Z.yXuXuXuX#X#X$XuXuX$X#X~.+X!.!.#XuX$X$XhX2XhXhX%X&X%XhXkXmXmXmXxX2X%X2XxXxX2X2X2X2X$X&X$X%X&X&X%X$X&X/.$XxXzXmXhX(.!.!.L.#XL.v.P.W./.&X$X$X!.G.G.G.v.v.v./ U I J J I U U k./ / Q / v.L.&X4X2X$XL.P.G.v.=.D.L./.%XzXmXmXkX2X&X/.W.F.3.#.=.#.-.D.L.L.D.F.P.D.=./ / R T l b Q o.#.2.e.U.XXE.W.7.E E E R b k f f f g N Q 3.D.~ g f f 3 1 1 % % % % % = = % % % % % % % % X X X X X X X X X $ % % % % % = = 1 1 1 2 f f f 1 - - - - - - - - - = # % # # & & 1 & 1 1 - f f s s s s s w & & & & 1 1 s s f k l R E R b f b b b b f - # # % % % % % # ; - = f n g b b b g f f f f 2 2 1 1 = = % # = = = = 1 1 1 & - - 1 1 f s s s s k b l l l k f f s - s s f f s # # & - f l k f f w & & & & & & & > f l l k M W ~ E b k f g l l g g g g z g l x j j d j d d d d d d d d p p p p i p p d i i i i i i i i p p i i i i i 8 8 8 8 8 i i i i & & & & & & & & & & 8 8 8 8 & & ",
"& & : : : : > > > > > > > > > > > > > > > > > > > > > > > > > > & : : : > > > > % % % % > : : : > % % % % % > > % % % : % % % % % % % % % % % % % % % % % % % % % % % % % % % % % % : : : : : % % : : : : : : : : % % : : : : % : : : : : : : : : : : : : % : : % % % % % % % % % % % % % % % % % % % % % % % @ @ @ @ @ @ $ > 3 $ $ % : % % : : % % : : % % % % : : X X X X : : 4 4 X % 4 4 4 4 X X X X % % % X $ $ % % % % $ $ $ $ $ $ $ $ $ $ $ $ $ $ $ $ $ $ $ $ % % % % $ $ 4 $ $ $ 4 4 4 4 : : : : : : : : 3 k k k h h G h G G h h G G h G F F G F F F G G I G F F I I I I I I I I J J J J L L L L L L L L K K a.L L P P P c...c.c.c.c.c.c.S.S.S.S.S.S.S.S.c.c.c.z.z.z.z.z.z.z.z.z.z.z.l.l.l.l.l.n.l.n.m.m.n.n.n.n.m.m.m.m.m.V.M.m.m.m.M.N.M.M.M.M.M.M.M.M.M.M.N.B.B.N.B.N.N.B.B.B.C.B.Z.A.pXiXuX$X!.#X$XuXuXuX$X#X#X!.+X$X$X$X%XxXzXzXxX2X$X2X2XxXzXxXhX2X2XhXxXxXxX2XxXhXxX2X/.R.&X%X2X%XhX2X2XxXzXmXzX$X$X/.L.G.!.L.v.-.L.R./.(.$XL.D.v.v.v.v./ / U I I I I U U k./ / / / / v.P.R.(./.R.L.G.D.=.D.D.D.R.<X2X2X4X4X@XR.W.D.3.*.*.3.D.L.L.L.L.L.L.3.~ ~ =.=.~ R R Q #.6.J.E.<X2X<XR.7.@.~ M g f l g - f N W O.7.D.2.E b f f 1 1 = % & & % = % % % % % % % % % X X X X X X X X X X % % $ $ % % = = 1 1 2 f 1 1 - - - - - - - - & # @ % % # & & & 1 1 1 1 s f f f f f - & & # # & & 1 1 - - f k b R R l f w g l l l f - # % % % % % % % @ @ % 1 1 - g g b b g g g g g f 2 1 f 1 1 = 1 1 - 1 - 1 1 & - - 1 1 f - 1 s w s g f k k g f f 1 - s s f f s - & - s f l k g f f - & & & & & & & 1 f g f b M W E M b s s f g g d j j x x x x x x x x d d d p d d d d p p p p p p p p i i i i s s i p p p p i i i i 8 8 8 8 8 8 8 8 8 & 8 & & & & & & & & 8 8 8 8 & & ",
"& & % % > > > > > > > > > > > > > > > > > > > > > > > > > > > > & & : : : : > > > > & & > > : : > > > % % % % > % % : : > & % % % % % % % % % % % % % % % % % % % % % % % % % % : % : : : : : % % : : : : % % : : : : : : : : : : : % % : : : : : : : : : : : : % % % % % % % % % % % % % % % % $ % % % % % % @ = = @     $ % 1 : % : % % % : : % % % % % % % % : : : X X 4 4 : 4 4 % % % % 4 4 X X % % % % X X $ % % % $ $ $ $ $ $ $ $ $ $ $ $ $ $ $ $ $ $ $ $ $ $ $ % % % % $ 4 4 $ $ : : 4 4 : : : : : 4 : % h k h k G h G h G h h h G h h G G G G G F F G G G G F F I I J J I I J J J J J J J J L K L L K L K K L L P ....c.c.c.c.c.S.S.S.S.S.S.S.S.S.S.S.S.S.S.c.c.c.z.z.z.z.z.z.z.z.z.l.l.l.l.l.l.l.l.l.m.n.n.n.n.m.M.M.M.M.m.m.m.M.M.M.N.N.N.M.M.M.M.M.M.M.M.N.B.B.V.N.N.N.N.B.B.C.B.Z.^.iXuX$X#X!.#X$XuXuXuXuX%X$X#X$XuX%X%XhXzXNXbXxX2X2XxXxXzXmXxX2XxXzXzXxXxXkXhXxXxXxXhX$XL.R.hXhX%XhXxXxXzXxXxXhX%X/.L.L.!.L.D.D.3.D.L./.$X$X!.G.v.v.v./ / k.U U U L I I L U U / / / / =.L.&X4X<X4X&XL.D.D.=.=.2.J.@X<X<XE.R.E.R.R.D.D.3.7.D.F.L.L.L.R.R.D.-.=.3.=.=./ E Q =.6.H.U.E.@X<XE.J.2.@.Q W b b R b k b W O.#.2.7.2.^ b k f 1 1 = & = & % = = = = % % % % % % X X X X X X X X X X % % % % % % % 1 = 1 1 3 1 1 1 1 - = & & & & & # % # & & & & & > i i s s f 1 1 1 & & & & # # # = 1 1 - - f g b b g f w - f f f f 1 = = % % % % % % @ @ @ @ % = ; 2 f v n b b b b k g f 1 g f 2 - 2 - - = # = & & 1 1 1 1 1 & - 1 - - f f f f f f f 1 & - s f f s s - & - s g l g k f - & & & & & % & = 1 g f f b M E E M g s s j d d d d x x V x x x x j d d p p s s s s p p p p p p p p p p p p d d d d p p p p i i i 8 8 8 8 8 8 8 8 8 8 8 8 8 8 8 & & & & & & & & & & ",
"& & % % > > > > > > > > > > > > > > > > > > > > > > > > > > > > & & : : : > > > > > & & > > > > > > > : % % % > % % > > > & & % % % % % % % % % % % % % % % % % % % % % % % % % : : : : : : : : % % : : : : % % : : : : : : : : : : : % % : : : : : : : : : : : % % % % % % % % % % % % % % % % $ $ % % % % % @ - ; @ @   O $ $ 3 3 % % : % : : % % % % % % % % : : : : X X : : 4 4 % % % % % % X X X % % % X X $ % % % $ $ $ $ $ $ $ $ $ $ $ $ $ $ $ $ $ $ $ $ $ $ $ $ % % $ $ : 4 4 $ 4 : 4 4 : : : : : 4 : % Q T k k k h G h G h h h h h h h G G F F F G G G G G F F I I J J Y I J J J J J J J J K K L L L L K L L P ......c.c.c.S.S.S.S.S.S.S.S.S.S.S.S.S.S.S.S.S.S.c.c.z.z.z.z.z.z.z.z.l.l.l.l.l.z.l.l.l.l.n.n.n.n.m.M.M.m.m.m.m.n.N.M.M.M.N.N.M.M.M.M.M.M.M.N.N.N.V.N.M.N.N.N.N.N.C.N.Z.^.iXyX+X+X!.#X#XuXuXuXuX%X$X#X#X%X%X2X2XxXbXzXxX2XxXmXbXbXmX2X2XmXzXxXhXxXkXkXmXkX2X2XhX&XL.%XhXxXxXxXxXhX2X%X$X$X&XP.D.P.!.D.P.P.D.P.L./.(./.P.v.v.v./ / U U I U I I J J J I U U U ;.v.L.(.$X@X4X&XL.D.D.*.=.7.L.E.E.E.R.W././.W.W.L.L.W.W.W.W.L.R././.L.D.D.*./ ~ ~ *.D.J.R.E.E.E.XXE.L.7.*.@.Q E R b l l b v t B O.W m v b b f f f 1 1 = = % % = = = = % % % % % % X X X X X X X X X X $ $ $ $ $ % % % % % % & & & & & & - & & # & & & & & & & & & & > i s s s 1 1 & % % & & & # # = - 1 1 f 1 f f f f - - - - f 1 - - - = ; = % % % % % % @ @ @ @ @ @ - - f b n b b b k g g f b g f - - = = % # # & - 1 1 1 1 1 & = - = 1 - 1 s f s f f 1 - - s f f s - & & & - k l g l f 1 - & & & & % # # - g w - f b M E E x d s d x z z x x R R V x x x d p p p i i i i i i p p p d p p p p p p p d d d d p p p p i i i 8 8 8 8 8 8 8 8 8 8 8 8 8 8 8 & & & & & & & & & & ",
"% % % % % % > > : : > > > > > > > > > > > > > > > > > > > > > > > > > > & > > : : : : : > : > % > > > : % % % % % % % % % % % % % % % % % % % % % % % % % % % % % % % % % % % % : : : : : : : : : : : : : : : : : : % : : : : : % : : : : : % : % : : : : : : : % % % % % % % % % % % % % % % % $ $ % % % % $ @ @ = ; ; @ @ @ O o 1 3 : % : : % % : : $ : : : % : : X X 4 : : : 4 4 X X X X X X X X X % % % X X $ $ $ $ % % $ $ % % % % : % % % % $ $ $ $ $ $ % $ $ $ $ % % % % % % $ $ % % % % : : : : : , : % G G l k k k G G h h h h h h h G h G G G G G G F G G F F J J J J I I J J J J I I I I K K K K K K L P P ......c.S.S.S.S.S.S.S.S.S.b.b.b.S.S.S.S.S.S.S.S.S.S.S.S.c.z.z.z.z.z.z.z.h.h.z.z.z.l.l.l.n.n.n.n.n.M.M.M.M.m.m.m.n.M.M.M.M.M.M.M.M.M.M.M.M.m.N.N.M.M.M.M.M.N.N.N.N.B.Z.x.rXiXyX+X#X#X#X$X$X#XuX%X#X%X#X/.$X$X$XhXbXmXxXhXhXkXkXbXbXmX2XxXxX%X%X$X&X2XxXxXxXbXmXxX2X&X&X%X%X2X2X2X&X(.&X&X/.&X/.D.G.L.L.P.P.P.P.L./.L./.(.P.D.v./ / / F I F I I I I I I U U / / =.D.D.R.E.R.D.D.3.*.D.J.L.J.W.E.(.(.R.W././././.(./.W./.J.J.R.W.L.L.D.3.=.~ ~ =.=.7.W.U.R.E.@XE.W.F.2.~ E R b E b b b f k M N B m m v f - k f f 2 2 1 2 1 % % = 1 1 1 1 = = % X X X X . . . X X % % $ $ X X $ % % % % % & & 1 1 & & # & & & & & & & & & & & & i s s s s s s > > & & % % % & = = - 2 - f f f b g f - - - - ; = = = = = = ; ; = % % @ % @ @ @ @ @ @ @ % % 1 f l b R b l b b l f f f - - - # # & & 1 1 1 - 1 & - - - - - - - - 1 s s f s s s s f f s > & & & & & f g g l f - # % % % % # # # ; f f f f l b R R M g j x x x x x x x R Q R x x x d s i i i i i i p p p p p i i 8 p p p p d d d d p p p p i i i i 8 & 8 i & & & & 8 8 & & & & & & & & & & & & & & ",
"% % : % % & > > : : > > > > : > > > > > > > > > > > > > > > > > > > > > & & : : : : : : > > > % > > % : % % % % & & % % % % % % % % % % % % % % % % % % % % % % % % % % % % % % : : : : : : : : : : : : % : : : : : % % : : : : % % : : : : % % % : : : : : : : % % % % % % % % % % % % % % % % $ $ % % % % $ $ @ = - - @ @ @ O $ @ % 3 3 % % : % : : $ : : % % : : 4 X X : : : : 4 X % X X 4 4 X X % % % % X X $ $ $ % % % $ $ % % % % : % % % % $ $ $ $ $ $ $ $ $ $ $ % % % % $ % $ $ % % % % : : : : 4 : $ : G k k k k k h h h h h h h h h G G G G G G G G D G G F F J J I I I I J J J J I I I J K K K K K K P P ....S.S.S.S.S.S.S.S.S.S.S.b.=X=Xb.b.S.S.S.S.S.S.S.S.S.S.S.S.c.z.z.z.z.z.z.z.h.z.z.z.l.l.l.l.n.n.n.n.m.m.m.m.m.m.M.M.M.M.M.M.M.M.M.M.M.M.M.M.M.M.N.M.M.M.M.M.M.M.N.M.N.Z.Z.tXfXyX#X#X#X+X#X#X#X$X$XuXlX%X#X$X&X$XhXzXbXbXkX2XkXmXmXmXxXxX2X%X$X%X2X2X2X2X2XkXbXmXkXkX2X$X$X2X2X2X2X&XR.R./.W.L./.L.P.P.!.!.!.!./././.L.L././.D.v.v./ k.I F F F I I I I U U U Q / =.v.D.L.L.D.=./ @.=.D.J.L.L.W./.(.(./.L.L.L.L.L.L.L.F.W.W.W.W.L.F.D.D.D.3.#.=.#.3.J.E.&X@X@XR.F.2.#.=.Q T b E Q E E E E ^ B ! #.$.@.#.~ b g g f f 2 2 2 2 - = = = 1 1 1 = = = X X X . . . . X X X X $ X X $ $ % % % & & = & & # # # & & & & > & & & & & s s s s s s s s & & & & & % % & & ; ; = - 2 g n b b g f 1 - - 2 - = 1 1 1 = = = ; % = % @ @ @ @ @ @ @ @ $ $ $ % = 1 f b b b b b b k w - - - - - # # & & & 1 = & & & = = = = - = - w > s s f f s s g g f s > & & & & 1 k k g f f - # % % % % # # # ; w f f f g x M R R x x x x x x x x x R Q Q M x l s i 8 8 i i i i i p p p i 8 8 8 p p p p p p p p p p p p i i i i & & 8 & & & & & 8 8 & & & & & & & & & & & & & & ",
"% % % % % % : : : > > > > > : > > > > > > > > > > > > > > > > > : : : : > & > > & & : > > > : % : : : : % & % % > > : : > > % % % % % % % % % % % % % % % % % % % % % % % % % % : : : : : : % % : : : : % % : : : : : % : : : : : % : : : : : % % % : : : : : : % % % % % % % % % % % % % % % % $ $ % % % % $ $ % = ; @ @ @ @ O % o $ 3 3 % $ % : : % % : % % % : : X X X X : : : % % % : : 4 4 X X X X % % % X $ $ % % % % $ $ % % % % % % $ $ % % $ $ $ $ % % X X . . % X % % % % % % X X X % 4 4 4 4 > : : h G G k k h k h h G G h h h h h G G G G G G D F D G G G F G G F I I I J J J J J J I I K K K P P P ......S.S.S.S.S.S.S.=X=X=X=X=X=X=X=X=X=Xb.b.S.S.S.S.S.S.S.S.S.S.c.c.z.z.z.z.z.z.z.z.h.z.l.l.l.l.l.n.n.n.n.n.n.n.m.m.m.m.M.M.M.M.M.M.M.M.M.M.M.M.M.M.M.M.M.M.M.M.M.M.M.M.N.Z.Z.pXfXuX#X#X#X/.+X+X#X#X#XuXxX%X$X$X%X2XxXzXVXZXmX3XxXxXkXxXxXxX&X&X%X2XhXxXxX2X2XmXkXkXkXmXzX2X4X2X2X2X2X$X&X&X&X&X&X/./.L.P./.!./.!.L.G.D.P.P.G./.L.D.v.=.v.I G F I I U U I I I I U / ;.v.v.D.D.7.;./ =.D.F.J.J.F.J.J.L.L.D.D.D.*.=.3.3.D.L.W.J.F.F.D.3.3.3.3.D.*.*.=.3.W.@X4X@XW.F.*.W Q E R T T E Q E Q ~ 2.7.! ! 4.F.6.F.F.3.~ E n v f f f f f f - = = 1 1 = = % X X X X X X X X X X o X X $ $ % % & & & & & & # * * * & & & i i & & & i s s s s s s s & & # # % % % % = = = = ; = 1 2 k b b b f f f - 2 f 2 - 1 1 1 - = ; % % % % @ @ @ @ @ @ @ @ $ $ $ % % = 1 g b b b b l f - - = ; - = & & & & % % % % % & % & & & & & 1 1 i s s f f s s g l j s > & & & & 1 k k g f f - # % % % % # # # # w f f k g x x R R R x x M R Q R x x x R R M l d s 8 6 * 8 8 8 8 i i i i 8 8 8 8 8 8 8 8 i i 8 i i i i i i 8 8 8 & & & & & & & & 8 8 & & & & & & & & & & # # & & ",
"% % % % % % > > : : > > > > > > > > > > > > > > > > > > > > > > : : : : > > > > & & & > > > : % : % > > > & % % > > : : > % % % % % % % % % % % % % % % % % % % % % % % % % % % : : : : : : : % % : : : : % : : : : : : % : : : : : : : : : : : : % : : : : : : % % % % % % % % % % % % % % % % $ $ % % % $ $ $ = - ; O @ @ @ O @ @ $ % = = % % % % % % % % % % : : X X X X : : : : % % : : : 4 X X X X % % X X $ $ % % % % $ $ $ % % % % % $ $ % $ $ $ $ $ % % X X X X X X X X X X X X X % X % 4 4 4 4 , : > G R T l k k k h h G G h h h h h G G G G G G D F G G G G G G G I I I I J J J J J J I I K K P P P ......S.b.=Xb.=X=X=X=X=X=X=X=X=X=X=X=X=X=X=Xb.=Xb.b.b.S.S.S.S.S.S.S.c.c.z.z.z.z.z.z.z.h.z.l.l.h.h.l.l.n.n.n.n.n.n.m.m.m.m.m.m.M.M.m.m.M.M.M.M.M.M.M.M.M.M.M.M.M.M.M.M.M.M.N.Z.Z.pXiX%X#X$X$X#X&X+X+X+X#XhX%X#X&X$XhXxXxXzXVXbXxXkXkXxXkXkXxXhX&X&X%X&X&X2XxXhX2XkXkXbXbXmXbXxXhX2XhXxXxX2X&X&X&X$X/.L.L.L.P.!.!.!.L.D.-.-.P.P.P.(./.G.D.v.v.U I I I I I I G G G G H / ;.=.=.-.D.D.-.=.D.G.P.L.P.D.7.3.=.=.=.=.*.3.D.3.3.F./.(.W.F.3.3.3.3.#.=.=.*.=.#.2.J.E.E.L.2.#.=.Q R l k l b R R M Q =.D.D.#.O.J.R.R.L.W.L.F.3.~ E M n f n n b g 1 = 1 1 = % % % X X X X X X X X o o o X $ % & & & & & & & & & & & & & & i i & 8 i s f s s s s 1 & & & # # % $ % = 1 = = = = ; = - 1 f n b b g f f f f f f - 1 1 1 - ; % % % @ % % @ % @ @ % @ $ $ $ $ $ $ % = f g b R b g 1 - = = = = = & & & % % % % % % % % % % % % & 1 1 s s s f f s s g l g s & & & & & & k k f f 1 = # % % % % % # # # w f f l g l x R R R x x x R R M l x x x M x d 8 s w & * 8 8 8 8 8 8 8 8 8 8 8 8 8 8 8 8 8 8 8 8 8 8 8 8 8 8 8 8 & & & & & & & & 8 8 & & * * & & # & & & % # & & ",
"% % % % : % % % % % : : : : > > > > > > > > > > > > > > > > > > % % > > > > : > > > : : % % % % % % % % > > > : % % : : > % % % % % % % % % % % % % % % % % % % % % % % % % % % : : % : : : : % % : : : % : : : : : % % % : : : : : : : : : : : : : : : % % % : % % % % % % % % % % % % % % % % $ $ % % $ $ @ $ @ - ; @ O     O O % % @ $ % % $ $ % % $ % % % % : : X X X X X % : : : : : : : % % % % % X X X X $ % % % % % $ $ $ $ % : : % $ $ % % $ $ $ $ % % X X X X X X X X X X X X : : : : 4 4 4 4 > $ % k Q R T G G k k h G h h h h h 3 3 G G G G G G G G G G G G F G G F J J J J I J J J K K J P P P ....X.S.b.=X=X=X=X=X=X=X=X=X`.=X=X=X=X=X=X=X=X=Xb.b.=X=Xb.b.b.S.S.S.S.S.c.c.z.z.z.z.z.z.h.h.h.z.h.h.l.l.l.m.l.n.m.m.m.m.m.m.m.m.m.m.M.M.M.m.M.m.m.m.m.M.M.M.M.M.M.M.M.M.N.M.N.x.A.iXlXuX%X%X$X/.+X#X+X#X#X%X$X&X$X%XxXxXzXmXbXmXxXkXmXkXmXmXkX2X2X&X&XR.&X&X%X%X2XxXmXZXnXmXzXkX2X2XxXxXhX$X/./.R.R.J.L./.W.P.!.L.L.L.=.o.-.P.L./.&X/.L.D.v.v./ U I I I I I G G G H H Q ;.=.=.-.D.v.D.D.D.D.D.P.P.D.*.@.=.=.=.v.D.D.F.F.L.W./.W.L.L.F.3.3.3.=.=.=.=.#.=.#.2.W.W.6.#.#.Q R b l l l k l M E W ~ #.*.#.2.R.$XE.W.F.J.W.L.D.=.W n v v b b b f - = = = % % % X X X X X X X X $ % $ $ % % & & & & & & & & & & & & & & & & i s s s f s s & # & & # & % % % % = 1 1 - 1 = % ; = - f f f g g f f f f f 2 2 - 1 1 - = # # % % % % % % $ $ X X $ $ $ $ $ $ % % & - f b b b f - - = = = & # % % % % % % % % % % % % # # & & 1 & s s s f s s s g k f s s > & & & & k k f f 1 = = % % % % % & # # f s f g g l x x x x l l g x x g g s s s g l g w s w & * * * 8 & & & 8 8 & & & & & & & & & & & 8 i 8 i i i 8 8 8 & & & & * * * * & & & & & & & & % % % % $ $ % % ",
"% % % % : : % % % % : : : : > > > > > > > > > > > > > > > & > > : % > > % : : : > > : : % % & & % % % % > > : : % : : > : % % % % % % % % % % % % % % % % % % % % % % % % % % % : : % % : : : : % % : : % % : : : : : % % % : : : : : : : : : : : : : : % % % % % % % % % % % % % % % % % % % % $ $ % % % $ $ % f - @     O O   O @ % # % % % % $ 1 1 $ % % % % : : X X X X X % : : : : : : X X % % % % X X X X % % % % % % $ $ $ $ % % % % $ $ : : $ $ $ $ % : X X X X X X X X X X X X : : : : 4 4 4 4 : 4 > l R R T T G k h h G G h h h h 3 3 3 G G G G G G G G G G G G F F F F J J J I I J J K K K P P ....X.X.X.=X=X`.`.=X`.`.`.`.=X].].=X=X=X=X=X=X=X=X=X=X=X=X=Xb.b.b.S.S.S.S.S.c.c.z.z.z.z.z.h.h.h.z.h.h.l.z.l.l.l.n.m.m.m.m.m.m.m.m.m.m.m.m.m.m.m.m.m.m.m.m.M.M.M.M.M.M.m.M.M.N.M.x.^.iXzXxXhX%X#X!.!.+X#X#X#X&X&X&X2XhXxXxXmXbXbXmXkXkXxXkXmXbXxX2X2X&X.XXX&X$X&X%XxXkXmXVXbXmXzXhX2X4X2X2X$X/./.&X/.L.R.&X%X&XR.L.G.G.G.;.;.D.L./././.L.L.D.v.v./ U I U I I I F G H R ;.=.=.-.v.D.-.=.D.D.P.P.P.W.W.D.#.~ / / =.D.D.P.F.F.L.W.F.F././.D.3.3.3.3.3.=.=.=.*.#.#.D.D.3.3.=.E T T R l k v g N ~ @.N M ! #.6.L.W.W.W.J.F.F.F.F.3.=.E n n b b b f - = % % % % % X X X X X X X $ $ $ % % % & & & & & & & & # & > i i s s s s d s s s 1 & & # % % % % % % % % % 1 1 1 1 1 1 = = - 1 f f f f g f - - 2 2 2 - - 1 - = = # % % $ % % % % % $ X X $ $ $ $ $ % % % # - f b R b g - - = = = # # % % $ $ % % % % % % % # & & & & & & & & > s s s s g k f s i > & & & & f f f f 1 = = % % % % % & # # f f s f g g l x x l l g f l l k f f f f g l g f w w & & * & 8 8 & * & & & & & & & & & & & & & & 8 8 8 8 8 8 8 & & & & & * * * * & & & & & & & & % % % % $ $ % % ",
"% % % % & & & % % % : : : : > > > > > > > > > > > > > > & > > > > > > > % : : : > : : % % & & & & & % % & & % % % % > > % % % % % % % % % % % % % % % % % % % % % % % % % % % % : : : % : : : : : : : : : % : : : : : % : : : : % : : : : : % : : : : : % % % % % % % % % % % % % % % % % % % % $ $ % % % $ & k T - @     O O O   O @ = = % % % % 3 3 % % % % % X X X X X X X X : : 4 4 X X X X % % % % % % X X % % % % % % $ $ $ $ $ % % % % $ % % % $ $ % % : X X X X X X X X X X X X % : : : 4 4 4 4 4 4 3 T R R T T k k k k G h h h h h 3 3 3 3 A D G G G G F F F F G F F F F J J J J J J J J J P Y ....X.X.X.`.=X`.`.`.].].].].].].*X*X].].].*X*X=X=X=XP.b.=X=Xb.b.b.b.b.b.S.S.S.S.c.c.z.z.z.z.h.h.z.z.h.h.l.l.l.l.l.l.m.m.m.m.m.m.n.n.m.m.m.m.m.m.m.m.m.m.m.m.M.M.M.M.M.M.M.m.M.M.x.v.+XlXzXxXxXhX$X!.!.!.#X$X$X&X&X2XxXzXkXkXmXmXmXkXkXkX2XxXmXmXxX2X2X%XR.XX%X&X&X2XxXkXkXmXbXmXxX2X2X@X%X%X&X&X@X$X&XJ./.$X/.L.L.P.v.v.=.=.-.P.L././.D.D.L.D.v.v.k./ U I I I G G H R / -.D.D.v.v.-.=./ / -.P.P.W.(./.L.7.-.=.=./ =.7.D.2.#.~ ! ~ 3.L.F.3.3.D.D.3.3.=.=.=.=.~ ~ #.#.#.=.~ E R Q E b v N W #.*.=.W b E #.@.#.#.3.L.W.F.D.D.F.D.2.^ E M E b g 1 = = = = = % $ $ $ X X X X $ $ % % % % % & & % & & & & & & s s s s f f f s s i i > & # # % % % % % % % % % = 1 - - - 1 - - = = = 1 1 f f f 2 - - 2 - - - - 1 = = = & % % % $ $ $ $ % $ X X $ $ $ $ $ $ % $ % = f b R b g - = # & & % % % % % $ $ $ % % % % & & & > & & & & & & & s w s s g k f s s & & & & & f f f f 1 = = ; # & % & & - - - f f s f f g g l l g g f g k g f f f f f l g f w f w 8 & * & & & & * * & & & & & & & & & & & & & & & & 8 & & & & & & & & & & & & & & * & & & & & & % % % % % % ",
"% % % % & & & % % % > > > : > > > > > > > > > > > > > > & > > > > > > > % % : : > > % % % % % % & & % % & % % % % % & % % % % % % % % % % % % % % % % % % % % % % % % % % % % % : : : % : : : : : : : : : : : : : : : : : : : : % % % : : : % % % : : : % % % % % % % % % % % % % % % % % % % % $ $ % % $ $ 3 b - = ; ; O     @   O @ ; - ; % $ $ k k % $ % % X X X X X X X X X : : X X X X X X : % % % % % X X $ % % % % % $ $ $ $ $ $ % % $ $ % % % % $ % % % X X X X X X X X % % X X % : : : 4 4 4 4 . : h R l b b b k h h k h h h h h h h 3 3 3 A A G G G G F F F F G F F F F F F J J J J J J Y Y ....X.X.:.`.=X=X`.`.].].].].].*X*X*X*X*X*X*X*X*X*X*X*XP.P.=X=Xb.b.=Xb.b.b.b.S.S.S.S.c.z.z.z.z.z.z.z.z.h.h.l.l.l.l.z.l.m.m.m.m.m.m.n.n.m.m.m.m.m.m.m.m.x.x.m.m.M.M.M.M.m.M.M.m.M.N.x.v.yXlXhXxXxXxX%X!.!./.&X%X%X&X$XhXxXbXxXxXkXmXkXxXkXhX2XxXkXmXkX2X&X2XT.&X%XXXXX2XkXkXxXmXbXkXkX3X2X&XE.&X$X$X$X%X&XJ.W.$XW.=.=.v.=.;./ v.v.D.L.R.W.D.3.W.G.v.v.v./ U I I I I I R / ;.=.D.G.D.=./ Q R H =.7.F.L.W.W.L.3.-.v.v./ ~ ! W N W #.2.7.L.W.#.=.D.L.F.=.=.=.~ ~ ~ ~ =.~ ~ ~ ~ Q Q E T b b M v @.*.#.~ M g k N k b N @.D.F.D.F.2.3.F.3.^ E W ^ n f 1 # & = = = % $ $ $ o o X X % $ % % $ $ % % & & % % # & & 1 s s s s s s s s & & & & % & & = % % % % % % % % 1 1 1 - = - 1 1 # # % = - - - 1 2 - - - - - - 1 1 - = = & % % % $ $ $ $ $ % X X $ $ $ $ $ $ % $ @ # f b R b g 1 # # & & % % % % % $ $ $ % % # # > > & & & & & & & & & s w s s g g f 1 > & # % & % 3 f f f 1 = ; ; = # % & > - - - - f f f f f f l k g f f f f k g k g f f g g f f w f w & & & * & & & & & & & & & & & & & & & & & & & & & & & & & & & & & & & & & & & * & & & & & & & % $ $ $ $ ",
"% % % % % : : : & & % > > > : : > > > > > > > > > > > > > > > > & & & & > > % % % % : > % % % % > : : : % % : % % : % % % % % % % % % % % % % % % % % % % % % % % % % % % % % % % % % % % % % % : : : : : : : : : : : : : : : : : : : : : : % % % % % % % % : : % % % % % % % % % % % % % % % % % % % % o % % = # f f # @ # - # O @ @ % f l f @ $ $ $ o   % % % % X X % % % % % % % X X 4 4 4 4 : : : : : : % % % % : : : : : : X X X X X X X X $ $ $ $ $ $ $ $ X X X X X X X X $ $ $ $ % % % % % % : : $ $ 3 R l l k h h h k h h h 3 3 G 3 3 3 h G G G G G G G G G G G G G F F F F J J J J F J J P ....X.X.`.`.`.=X=X].].].].].*X[.[.*X*X*X*X*X*X*X*X*X*X*X*XK.=XP.b.b.b.b.b.b.b.b.b.S.S.S.S.c.c.z.z.z.z.z.l.h.h.h.h.h.l.l.m.m.l.l.l.l.m.m.m.m.m.m.l.l.m.m.m.m.m.m.m.m.m.m.m.m.m.N.M.N.v.Z.uXuX%XhXzXxX%X.XR./.&XxXxX%X%XxXmXmXmXxXxXmXxX3XxXhX4X3XmXVXzX2X%X$XR.&X&XT.XX&X2XkXmXmXbXmXkXkXkX2XR.XX$X$X$X2X%XR.J./.P.-.;.Q ;.H Q ;.-.v.P.P.P.L.D.L.G.v.v.v./ I I I G G U / ;.;.-.D.D.=.Q R H H H =.D.D.J.J.F.*.=.=.=.=./ / W W #.6.L.R.W.R.W.F.F.W.(.W.D.=.D.=.~ Q Q ^ ~ / Q E R E T b E b b k E W W v f g b v f k N =.W.W.D.F.3.3.3.2.~ #.~ n f 1 - 1 1 = = = % % % % X $ $ % % % % % % % % % # # # & 1 1 1 1 & & > > & & # # & % % % $ % % % % % % % % % % % % % % % = = = = % % % % = - - - = = - - 1 1 1 - 1 1 1 & % % % % $ $ $ $ % % $ $ $ $ $ $ $ $ @ @ @ = f l b k 1 - & & # & % % % % % % % % & & & 1 & # & & & & & & > > s s f - w f f f f 1 # # % % & & f f f f - ; # # & & - 1 1 1 - f f f 1 f f g l g g f f f f f f f f f f g g f b f l k & # & # & & & & & & & & & & & & & & & & 8 8 8 8 8 8 8 8 8 8 8 8 8 8 & & * # & & & & & & & & * & & * * $ ",
"% % % % % % : : & & % > > > : > > > > > > > > > > > > > > > > > > > > > > > % % % % : > % % % % > > % : % % % % > > % % % % % % % % % % % % % % % % % % % % % % % % % % % % % % % % % % % % % % % : : : : : % : % % : : : : : % : : : : : : % % % % % % % % : : % % % % % % % % % : % % % % % % % % % % % 1 % % = # - l b f & # @ @ @ @ & f 1 % o o     % 3 3 3 h 3 : X X . X % % % X X 4 4 : : % % : : : : % % % % : : : % : : % X X X X X X X X $ $ $ $ $ $ . X X X X X X X $ % % % % % % % % % % % % $ $ 1 b b T l k h h k h h 3 3 3 G 3 3 3 h h G G G G G G G G G G G G F F F J I J J F F J P ....X.X.`.`.`.].].].].].].[.[.OXOX[.[.[.|.|.*X|.*X|.*X*X*X*X*X*X=XP.P.b.b.b.b.b.b.b.b.S.S.S.S.c.z.z.z.z.z.z.h.h.h.h.h.l.l.l.m.l.l.l.l.m.m.m.m.m.m.m.l.m.m.m.m.m.m.m.m.m.m.m.m.m.M.M.x.v.~.uX%X$XhXzXzX2X&XXX.X&XxXxXhX2XxXzXVXbXxXxXzXkXxXkXhX4XkXbXbXmXxX2X2X%X&X&X&X&X%X2X2XkXkXkX3X2X2X4X@XXX@X4X2X%X%X2X&XW.L.L.D.=.=./ / / ;.-.D.P.P.D.D.D.=./ / / / U I I G G G U / ;.;.=.-.-.-.=.Q H H H ;.v.D.L.J.7.@.~ / / / / =.3.7.J.W.R.R.W.W.W.W.F.L.W.L.D.D.=.Q =./ E E E E Q Q =.~ E b R b l b W M M b v f f f 2 2 b #.F.F.3.D.7.3.=.^ E E E f f - = 1 1 = = = % % % % $ $ $ % % % % % % % % % & # & & & & & & & & & & # # % % % $ $ $ $ $ % % % % X $ X % % % $ $ $ $ % % % % % % % % = = - - = = - - - = = = 1 = % % % $ % % $ $ $ $ % % $ $ $ $ $ $ $ $ $ $ % - f f f f - & & & # # % % % % % % % % % % % # & & & & & & & & > > s s - - w f f f f - # # # # & & f f f f - = - - - - 1 f f f - f g f f f f g g g f f f f g g f f f f f f g g b g l b f # # & & & & & & & & & & & & & & & & & 8 8 8 8 8 8 8 8 8 & 8 8 8 8 & & * # & & & & & & & & & & & & & & ",
"% % % % % % % % % % % > > : : : > > > & > > > > > > > > > > > > > > > > > > % % % % > > % & % % % % % % % % % > > > : % % % % % % % % % % % % % % % % % % % % % % % % % % % % % % % % % % % % % % : : : : : % % % % : : : : : % % % % % % % % % % % % % % % % % % % % % % % % % : : % % % % % % % % % % 1 h % @ @ @ - f w ; # # @ @ @ @ @ ; - 1 @ o     % 3 3 3 = T T 3 . X % % % % X X : : : : X % % : : % % % % X 4 4 X X 4 4 X X X X X X X X X X X X X X . X X X X X X X X $ % % % % % % % % % % % % $ & k T T T T k k k h 3 h h 3 3 h 3 G h G G G G D D F F G G G G G F F F F I I I J F Y Y Y ..X.X.`.`.`.].].].*X].*X[.{.OXOX{.{.{.{.{.[.|.|.*X*X*X*X*X*X*X*X*XK.P.=Xb.b.b.b.b.b.b.b.S.S.S.c.c.z.z.z.z.z.h.h.h.h.h.l.l.l.l.l.x.x.x.m.m.m.m.m.x.x.x.m.m.m.x.m.m.m.m.m.m.m.m.x.x.M.x.A.iX#X#X&X%XzXxXxX%X&X&X&XxXxXxX2XhXzXZXNXxXhXhXxXkXkXhX2XkXnXVXbXbXxXxXhX&XXX%X%X&X&XT..X&X4X2X%X$X$X%X4X%X2X$X&X4XxX2XR.L.P.-.-.v.=.v.D.=.D.D.P.L.P.P.D.~ Q / / U I G I G G G U / ;.;.=.=.-.-.=.Q H H R ;.-.D.L.J.7.*.=./ / / / *.D.J.W.J.6.7.F.W.W.3.7.D.D.D.D.D.D.~ / Q E E W =.D.F.=.=.Q R T b b b v b M M N W E N M ; r E F.W.F.3.7.~ E b g n b f 2 = ; - = = = = % % % % $ $ % % % % % % % % % % & & & % % % % % % % % % % % % $ $ $ $ $ X $ $ $ $ $ X X o X $ % $ $ $ $ % % % % % % % % % = = = = = - - = = = % = % % % $ $ % % $ $ $ $ % % $ $ $ $ $ $ $ $ % % % - 1 1 1 - - = & & # # # # & & % % % % % % % % & & & & & & & & & & & - - & w s - 1 1 1 = # # # % & f f f f - - - - - - f f f f f l b l f g l l g g f f f g g g f f f f - g b b b b l b b f $ # & & & & & & & & & & & & & & & & & 8 8 8 & & & & & & & & 8 & & & * # # & * * * * & * & & & & & & ",
"% % % % % % % % % % % : > > : : > > > > > > > > > > > > > > > > > > > > > > % % % % > > % : : % % % % % % % % > > > % % % % % % % % % % % % % % % % % % % % % % % % % % % % % % % % % % % % % % % % : : : : : % % : : : : : : % % % % % % % % % % % % % % % % % % % % % % % % % : : % % % % % % % % % % 1 f = @ @ ; f - @ ; f f # @ @ @ @ % 1 g @ O     % 3 3 3 3 : : h G : . % % % X X : : : : X X X 4 4 X X X X X 4 4 X X X 4 X X X X X X X X X X X X X X X X X X X X X X X $ % % % % % % % % : : % %   % k E R R T l k h h 3 h 3 3 3 h h G h G G G G D G F G G F G G F F F F F F F F F Y Y Y ....X.`.`.].].].].].].*XOX{.OXOXOXOX{.{.{.{.{.{. XOXOX*X*X*X*X*X*X*X*X*X=XP.b.b.P.b.b.b.b.S.S.S.c.c.z.z.z.z.z.h.h.h.h.h.h.l.l.l.l.l.m.m.m.m.m.m.x.x.x.m.m.m.x.x.x.x.x.m.x.m.m.x.M.x.v.v.yXuX+X!.&X%XxXxXxX%X%X2X2XxXzXxXhX2XxXVXZXkXhX2XhXkXkXmXkXmXnXZXZXVXxXxX2X&X&X2X&XXXK.R..X&X2XkXkX&X%XxXkXxXkXhX%X4XhX%XR.W.P.=.-.v.G.!.G.;.P.L.P.L.L.R.D.=.=.=.Q Q U I G G G I H / ;.;.;.-.D.-.Q R R H Q -.P.P.L.J.3.=.=./ Q Q Q 3.L.W.D.*.*.F.J.F.6.3.*.D.D.=.=.3.=.=.=.=.~ Q b R E Q Q Q E T b b b M W ! #.7.W.(.W.3.~ 2.3.3.D.W.W.3.3.M f 2 - 2 g - 2 - = ; = = = = % % % % $ $ % % % % % % % % % % % % % % % % % % $ $ $ $ $ $ $ $ $ $ $ $ X $ $ $ $ $ X X X X % % % % % % % % % % % % % % % = = = % % % = = = = % % % $ $ $ $ % % % $ $ $ % % $ $ $ $ $ $ $ % % = = - 1 = # = = = & & # # # # # & @ % % % % % % # & & & & & & & & $ % # # # & w s w f f f = # # % % & f k f 1 - - 1 1 f f f f g g g R E b g l l l g g f f f g l l f f f f f l E E M b l T E f # & & & & & & & & & & & & & & & & & & 8 8 8 & & & & & & & & 8 & & & * # # & * * * * & & & & & & & & ",
"% % % % % % % % % % : : : : : : > > > > > > > > > > > > > > > > > > > > > : : % % % % % > > > > % % : : % % & & % % % % % % % % % % % % % % % % % % % % % % % % % % % % % % % % % % % % % % % % : : : : : : : : : : : : : : : : % % % % % % % % % % % % % % % % % % % % % % % % % % % % % % % % $ $ % % % % @ @ @ # = % # k l w f # @ @ @ @ ; 1 $ $ @ o . . X % % X o   = 3 1 o % % : : : : : : : % % % X % X X X X % % % % X X % % % % X X X X X X X X X X X X X X % % % % % % % % % % % % % % % : : % % 1 R R R T l k k h 3 h 3 s 3 3 3 3 h h s h h G 3 G G G G F G F F G F F F F F J F Y Y ..' X.X.`.].].].].].{.OXOXOX>X,X,X,X,X>XOX{.{.{.OX{.OX X|.*X*X|.|.*X*X*X*XK.P.P.b.b.b.b.b.b.S.S.S.c.c.c.z.z.z.z.h.h.h.h.h.h.h.h.h.z.l.l.x.l.l.l.x.m.m.m.m.x.x.l.l.x.m.m.m.m.m.M.M.M.c.c.A.#X#X!.!.&XhXxX2XxX2X2XhX2XxXxXxX2X2XxXbXZXbXkX3XxXmXbXmXkXbXVXZXZXnXkXxX2X&X%X2X2XXXR.%X2X&X@X4XxXkXkXzXbX2X2X2X$X&X$X$X&X%X/.D.D.D.G.L.P.;.D.D.Q 7.L./.W.P.D.~ Q / I Q H G G G Q / ;.=.=.-.D.-.R H R H H =.P.P.L.L.P.F.D.=./ / =.D.L.L.D.*.*.3.2.#.=.3.=.D.D.=.=./ Q ~ ~ ~ ~ ~ W R b R b g g b f v E #.2.F.(.4X<X(.E.(.(.(.(.W.W.(.W.3.M - @ ; = 1 f k 1 1 = - - - = = = = = = $ % % % % % % % $ $ $ $ $ $ $ $ $ $ $ $ $ $ $ $ $ $ $ $ % X X X X X X X X X X X X X X X $ X X X % % % % % % % % % % % % % % % % = = = % % $ $ $ X X X X X X X X % % $ $ @ @ @ @ % % = = & & = - - - & # & & & & # # & & # % % $ & & & & & # # # # # # # & % % % = - 1 f f f f f - # % % O % - f 1 1 - - w f k k f g b b R E E T l b l l k g g f f g k l k f f f f b E W E E M R Q l # & & & & & & & & & & & & & & & & & & & & & & & & & 8 & & & & & & & & & & & & 8 8 8 8 8 8 8 8 8 & & ",
"% % % % % % % % % % : : : : : : > > > > > > > > > > > > > > > > > > > > > : : % % % > & % % : % & % : > % % & % % % % % % % % % % % % % % % % % % % % % % % % % % % % % % % % % % % % % % % % % : : : : : : : : : : : : : : : : % % % % % % % % % % % % % % % % % % % % % % % % % % % % % % % % % % % % $ % @ % @ O O @ w w & # - # O @ @ @ @ = 1 = % % X X X X X o o $ $ $ % = % % : : : : : : : % % % % X X X X X % % X X X % % % % % X X X X % % % % % % X X X % % % % % % % % % % % % % % % 3 : : % & l Q R R l k k k h h h h s 3 3 3 3 h h s s h h G G G G G G G G G F F F D F F F Y Y ....X.:.`.`.].].].].{.{.OXOX,X,X8X8X8X,X,X>X-X-X-X>X{.OXOXOXOXOX*X|.*X*X*XK.K.P.P.P.b.b.b.b.b.b.S.S.S.c.c.c.z.z.z.h.h.h.h.h.h.h.h.h.z.l.l.l.l.l.l.x.l.l.l.x.x.l.l.l.x.x.m.m.x.m.M.x.x.v.v.Q.!./.!./.&XxXxX%XhXxXhX2X2XxX2X%X%X%X2XmXbXnXmXkXbXbXnXbXmXVXZXZXZXZXbXkX2X&X&X&X2X&XE.@X&X&XR.&X3XbXbXnXbX3X2X2X2X@X@X$X/.@X/.*.=.-.=.G.G.;.D.v.Q -.L./.&XL.D.=./ / I U I H G G H / ;.;.=.=.=.=./ R H H Q =.*.@.@.=.-.#.*.=.Q Q =.D.*.@.W ~ #.=.D.L.J.=.~ ~ ~ / / E T T Q Q Q Q b b l l g f f f v ^ 3.J./.@X<X<X(.R.W.W.(.E.(.E.W.W.3.b - ; @ = 1 1 f k 1 - - = = = = = = = = = % % % % $ $ @ @ @ @ @ @ $ $ % % $ $ $ $ $ $ $ $ $ $ $ $ X X X X X X X X X X X X X X X X X o X X $ $ $ $ % % % % % % % o % % % % % % % % $ $ $ $ X X X X X X X X % % $ $ @ @ @ % % % % % # # # # - & & # & & & & # # # # & & & & & & & & & # # # # # & & & % % & # = 1 f f f f f - = % % % % - f 1 1 - - w g b M b b M R E E R b b b l g k g g f f f k l k k k k g b E W W Q E R E l & # * & & & & & & & & & & & & & & & & & & & & & 8 8 8 8 & & & & & & & & & & 8 8 i i i i i i i i & & ",
"% % % % % % : : % & > > > > % : > > > > > > > > > > > > > > > > > > > > > > > > > > > > % % % % % % % % % % % % % % % % % % % % % % % % % % % % % % % % % % % % % % % % % % % % % % % % % % % % : : : : % % : : : : % % : : : : % % % % $ $ $ $ $ $ % % % $ $ $ $ % $ $ $ $ $ % % % % % % % % % : % : % $ % % # % O O % - # # w & # O O @ @ @ % f f 1 & X X X . o % $   % 1 1 o % % : : : : : : : % % % % % X X X % % % % % % % % % % % $ $ % % % % % % % % % % X X % % % % % % : : > > % % % % > $ % $ % b Q b b k k f k k h h h h 3 3 3 s h h s s h h G G D D D G G G G G G D D D F F Y Y ..X.:.`.`.].].].].{.{.{.OX,X8X8X9X9XCX9X8X,X>X>X,X,X>XOXOXOXOXOX|.|.*X*X*XK.K.P.P.P.P.b.b.b.b.b.S.S.S.c.c.c.z.z.z.z.h.h.h.h.h.h.h.h.h.z.l.l.l.l.l.x.l.l.l.l.x.l.x.l.x.x.x.x.m.m.m.x.c.v.Q.#X#X&X&X&X&XxXxX%XxXzXxX2X%X%X&X&X&X&X2XkXVXZXVXVXZXVXbXbXbXVXVXZXZXZXVXkX&XXX&X&XXX&XXX@X2X4X4XkXkXnXbXmXkXkXkXkX3X@XR.R.@X/./.L.D.D.D.P.P.-.-.-.=.D./.$X(.7.=.~ / / I I H H G G H / / ;.o.~ / / / / H Q H ;.=.=.*.D.D.@.=.=./ / D.D.=.O.E R W =.3.3.3.3.*.=.~ ~ Q T l k b b b b b b b b b g f b ! F.E.&X@X4X@XR.F.F.I.W.R.W.R.E.W.W.=.n = - = @ = 1 f n 1 = = % = = = = = = = = % % % % $ $ X X o o @ @ % % % % % % X X X X X X X X % % X X X X X X X X X X X X X X X X o o o o X X $ $ X X % % % $ o o % % % % % % % $ $ $ $ $ X X X X X X X X $ $ $ $ @ @ % % % % % % # # # # # - & - > > > & & & & & & & > > & & & & # & & & & & & & & % % & # - - f 1 f k f = = % % $ % = 1 1 1 - - f v N E E E E E W M b b b l l g k g k k f g l l l l l b b b E E E ~ W M E b w # * & & & & & & & & & & & & & & & & & 8 & 8 8 8 8 8 8 8 8 & & & & & & & & i i i i i i i i i 8 & & ",
"% % % % % % % % % & & > > > % & > > > > > > > > > > > > > > > > > > > > > > > > > > > > % % % % % % % % % % % % % % % % % % % % % % % % % % % % % % % % % % % % % % % % % % % % % % % % % % % % % : : : : % % : : % % : : : : : % % % % $ $ $ $ $ $ % % % % % $ $ % $ $ $ $ $ $ % % % % % % % % 1 % : % % % % % @ O O @ f & & f s & % @ @ O @ @ k f 1 & o o     $ o   o o o % 1 % % : : : : : : : % % % % % % X % % % % % % % % % % % % % % % % % % % % % % % $ $ % % % % % % % > > > > % % % % : : > % % k E R k f f f f h h h h h h 3 3 3 h h h h h h G G D D D D G G G G D D D D F G c ' X.X.`.`.].].].].{.{.{.{.;X,X9X9XSXSXSXCX7X,X>X,X,X,X,X>XOXOXOXOXOX|.|.*X*XK.K.P.P.P.P.P.b.b.b.b.b.S.S.S.c.c.z.z.z.z.z.h.h.h.h.h.h.h.h.z.z.l.l.l.l.x.l.l.l.l.l.l.l.l.x.x.x.x.x.x.x.x.v.v.~.#X&X&X&X&X&X2X%X%XbXbXxXxX2X&XR.XX&X&X2XkXZXVXZXZXZXVXbXbXnXVXnXZXZXVXbX2XXXXX&X%X@X2X3XkXkX2XkXbXbXmXkXkXkXkXkX2XkX@X@X4X@XR.R.$XR.L.L.D.D.D.=.*.D.W.E.%X$XD.3.*./ / / I Q H G G G Q / / l ~ Q H Q / Q Q Q / =.3.D.L.L.=.=.=./ T Q E N ^ b b Q =.*.3.D.L.D.=.=.=.~ Q E T k k k k b b T b b k b W 3.E.4X<X(.R.W.J.F.F.F.F.F.F.W.F.J.F.~ n = 1 - @ % 1 2 2 - = = % % = = = = = = = % % % $ % % % % % % % % % % % % % % X X X X X X X X X X X X X X X X X X X X X X X X X X o o o o o X $ $ X X X X o o o o % % % % % % % $ $ $ $ $ X X X X X X X X $ $ $ $ @ $ % % % % = & = = & = & & & & 1 1 1 1 & & & & > & & & & & & & & & & & > > > > % % % % & # - 1 1 f f f 1 = & % % % # - 1 1 - - f v M N E E E E W b k g b l l l g g k k g g l b l l b R b M E E E ~ W R R R s # * & & & & & & & & & & & & & & & & & 8 8 8 8 8 8 8 8 8 8 8 8 & & 8 8 8 8 i s s s i i i 8 & * * * ",
": % % % % % & % & & & & > > > & & & & > > > > > > > > > & & & & > > > > > > > > > > > > > > & % % % % % % % % % % % % % % % % % % % % % % % % % % % % % % % % % % % % % % % % % % % % % % % % % % : : : : : : : : : : : : : : : % % % % $ $ $ $ % $ % & k k 3 % $ $ % % % $ $ $ % % % % % % % % % % % % % & % # @ $ O @ - - & O 1 % = = O % % % k k %   O     o @ @ @ @ @ @ @ $ $ % % % : : : : : % % % % % % % % % % % % % % % % % % % % % % % $ $ % % % % $ $ $ $ $ $ % % % % > > > > > > > > : > % % f R R l f f f f h h h h 3 3 3 3 h h 3 h G h 3 3 G G G G D D G G G G D D F F F a ' ' X.`.`.].].].].{.{.{.;X;X,X8XCXSXFXFXDXSXvX6X,X,X,X,X,X>XOXOXOXOX X X|.*X*X*XK.K.P.P.P.P.b.b.b.b.b.S.S.S.c.c.c.c.z.h.h.h.h.h.h.h.h.h.g.g.x.x.z.z.z.z.l.l.l.x.x.x.x.x.x.x.x.x.x.x.x.x.v.^.#X%X&X&X&X%X%X%X&X5XbXmXbXkXxX%XXX&X2X%X2XkXnXVXZXZXnXmXvXVXVXVXVXZXZXZX5X2X&X&X2X3X2XkXbXbXbXkXkXbXmXkX2XkX2X2X4X4X4X@X@X@XR.XX&XL.$XL.R.L.P.D.=.o.P./.&X4X2XW.3.=./ / Q / Q H H H Q Q / Q R R R G / Q R H Q Q =.D.L.R.P.3.=./ / Q W W E E E b @.D.L.W.W.W.L.D.=.=.=./ E T k f l E ~ E R E b b E ~ 3./.@XW.D.3.3.F.F.F.F.J.F.F.F.D.D.3.T 2 2 1 = = = 1 2 1 = = % % % % % % $ % = 1 = & % % & & % % % % % % % % % X X X X X % % % X X X X X X X X % X X X X X X X X X X X X o o o o $ $ $ $ X X X X $ $ $ $ X % % % % % $ $ $ $ X X o o o o X X $ $ $ % % % % = = $ % % % % # # # # - - & - & & & & & & & & & & & & & & > > 1 1 1 & & & & % & % % % % % = 1 f f f f 1 = = = # % % = 2 2 - - - k E W W E E T b b g f g g b b b l g g b g k b b b b b b E E E E W ~ E R E s # * * * * & & & & & & & & & & & & 8 8 8 8 8 8 & 8 8 8 8 8 8 8 8 i 8 8 8 i i i i i i i 8 & * & & & ",
": % % % % % & % & & & & > > > > & & > > > > > > > > > > & & & & > > > > > > > > > > > > > > & & % % % % % % % % % % % % % % % % % % % % % % % % % % % % % % % % % % % % % % % % % % % % % % % % % % : : : : : : : : : : : : : % % % % % $ $ $ $ % % % % & % & > % $ $ $ % % $ $ % % % % % % % % % % % % % % % % O O O f f # # O 1 f # % @ % % % f k #   @     o @ @ @ @ @ @ @ $ $ % % % : : : : : % % % % % % % % % % % % % % % % % % % % % % % % % % % % % $ $ $ % % % % % % > > > > > > > > > > > > % f R T l f f f f f f 3 3 3 3 3 3 h h 3 3 h h h 3 G G D D D G G G G G D D F F F Y ..X.:.`.`.].].*X{.{.{.{.;X;X8X9XSXFXFXFXFXSXvX6X>X,X,X,X,X>X>XOXOXOX X X|.*X*X*XK.K.P.P.P.P.b.b.b.b.b.S.S.S.c.c.c.c.z.z.h.h.h.h.h.h.h.h.g.g.x.x.z.z.z.z.l.l.l.x.x.x.x.x.x.x.x.j.x.x.x.v.A.+X%X%X%X&X&X%X2X5X%X5XbXbXVXbXzXxX%X&X2X2X2XkXmXnXZXnXmXmXbXVXVXVXVXnXZXnX2X2X@X&X4XkXmXnXVXZXbXnXbXbXmXmXkX2X2X2X4X4X2X2X@XE./.&X@XL.W.L.&XR.P.-.o.*.L.&X$X2X$XR.D.3./ / R R H H R Q Q Q / Q R R H R R H H Q / =.D.L.L.L.D.=.~ / Q Q Q #.~ ^ =.W =.F.(.$XW.D.D.D.=.=.Q Q T l k k T Q ~ Q R R E E Q #.3.L.W.D.2.~ =.3.F.F.D.3.D.3.=.^ T n 2 = 1 1 1 1 1 1 = = = = % % % % % % % % = 1 = = = & & & % % % % % % % % X X X X X X % X % X X X X X X X X X X X X X X X X X X X X X o o o o o o o o o o o o o o o o X % % % % $ X $ o o o o $ $ $ $ % % $ % % % % % % $ $ $ % % % % # # # # - - & & & & & & & & & & & & & & & & & > > > & & & # % % $ $ $ $ $ % = 1 1 f f f - = = = # @ % ; 2 2 - - w k M E W W E E b b k f 1 f l b b l k g b g f l b b b b E E E W N N ~ E E Q g & & & & & & & & & & & & & & & & & 8 8 8 8 8 8 & 8 8 8 8 8 8 8 i i i i i i i i i 8 i i 8 & * * & & ",
"% % % % % % > : > > & & > > > > & > > > > > > > > > > > & & & & > > > > > > > > > > > > > > > > & & % % % % % % % % % % % % % % % % % % % % % % % % % % % % % % % % % % % % % % % % % % % % % % % % % % : % % % % % % % % % % % % % % % % % % % % % % $ $ O % > & % % $ % % % % % % % % % % % % % % % % % % % % O   O k l O @ @ - l # # @ % & % 1 k = O @ @   o @ @ @ @ @ @ @ % $ % % % % % : : : % % % % % % % % % % : : : > > % % % % % % % % % % % % % % % % % % % % % % % % : : > > > > > > > > > % f R R l f f f f f f 3 3 3 3 3 3 h h 3 3 3 3 3 D D D G G G G G G G G D G F F Y Y ' X.`.`.].].*X{.{.{.{.-X;X,X8X9XSXFXFXFXFXSX7X,X,X,X,X,X,X,X>XOXOXOX X X|.*X[.].t.t.P.P.P.P.P.b.b.b.b.b.S.S.c.c.c.z.z.z.h.h.h.h.h.h.g.h.g.g.l.l.z.z.z.z.z.z.z.l.l.x.x.x.x.x.x.x.x.c.c.Z.!.uXhX%X2X2X%X2XxXkX2XxXVXZXZXbXbXmXxX%X2X5XkXkXkXmXbXmXkXmXbXVXnXVXnXmXVXmX2XkX<X<X4XkXnXZXDXDXDXDXnXmXbXmXkXkX3X2X4X4X4X2X$XR.E.@X@XR.R.&X&XL.*.o.@.D.L./.&X&X$X/.L.D.=./ R R Q Q / =./ =.=.=.=.Q G R R Q =.v.-.=.=.*.D.D.2.~ / / / Q Q =.#.~ ~ ^ 3.D.L.W.F.2.*.3.3.=.~ ~ Q R T b b R E R b b l l E @.*.D.D.2.~ ^ ^ ~ 3.2.^ E ^ E n 2 2 = = = 1 1 1 2 1 = = = = % % % % = % % % % = 1 = = = = % % % % % % % % X X X X X X X X % X X X X X X X % % % % X X X % X X X X X X X X $ X o o o o . o o o o o o o o o o o X X X o o o $ $ X X % % % % % % % % % % % & = % % = - - = = & & & & - - & & - - 8 8 & & & & & & & > & & > & > > & & % % % % $ $ $ $ $ % = 1 1 f f 1 - - = ; # % % ; 2 2 - - - g n b E W W T b b l f - f g b T b l l l g f g b b b b W W ^ W N M W E Q ~ l s & & & & & & & & & & & & & & & & 8 8 8 8 8 8 8 8 & 8 8 8 8 i i i s s s i i i 8 8 i i 8 8 * * * * ",
"% % % % % % > : > > > & > > > > > > > > > > > > > > > > & & & & & & & & > > > > > > > > > > > > & & : : % % % % % % % % % % % % % % % % % % % % % % % % % % % % % % % % % % % % % % % % % % % % % % % % : % % % % % % % % % % % % % % % % % % % % % % $ $ % % $ & & & % $ % % % % % % % % % % % % % % % % % % % @ @ O f f O # @ & R 1 - @ # = % = k 1 @ @ @ O O O @ @ @ @ @ @ % $ % % % % % % % % % % % % % % % % % % : > > > > : : : : > > > > : : : : % % % % % % % % % % % % % % % % > > > > > : % % f R R l f f f f f f 3 3 h 3 3 h h h 3 3 3 3 3 D D D D G D D G G G G D G F F Y ..' :.`.].].].{.{.{.{.{.;X;X8X9X9XSXGXGXFXFXCX7X,X,X,X,X,X,X,X>X>XOXOX X X|.|.[.].t.t.K.P.P.P.P.b.b.b.b.b.S.S.c.c.c.z.z.z.z.z.h.h.h.h.g.g.s.g.g.g.x.x.z.z.z.z.z.z.z.x.x.x.x.g.x.x.x.c.v.Q.#XuXhXxXkXmXxXxXmXbXkXmXZXZXVXnXVXbXkX%X%X5XkXkXkXkXmXkXkXmXmXmXbXVXbXcXbXkX2XmX2X3XkXmXZXZXDXDXDXnXbXnXmXmXkXkX2X4X@X@X4X2X2X(.$X@X$XR.R.@XR.7.3.=.*.-.D.J.L.R.$XR.F.D.v.=.Q R / / v.D.@.=.D.D.D.=.Q R Q =.D.D.=.o.R o.*.3.*.@.~ ~ / R W ~ ~ ~ ^ =.3.2.~ 2.2.=.#.#.=.=.#.=.#.Q Q R b b k l l l l k b E W W E E T T T b T n 2 2 2 2 2 1 = = = = 1 1 2 2 2 = = = = % % % % % % % $ % = = = = = = % % % % $ $ $ $ X % % % X X X X % X X X X X X X : : % % X % % : $ $ $ $ $ $ $ $ % $ $ o $ $ $ $ X X X X $ $ X X o o % % X o o o % % % % = % % % = = = & % = 1 f k f 1 f f f f f & & & & - - 1 1 & - w w 8 8 & & s s f f s 1 & & > > & % % % % % $ $ $ O $ % = 1 1 2 f 1 f f - - # % % ; 2 2 - - ; f g g b E E b f g g f - f f f T b l l l g g g b b b b W ^ W N N b E M E Q g w & & & & 8 8 8 8 & & & & & & & & 8 8 8 8 8 8 8 8 8 8 8 8 i i i s s i i i i 8 8 8 i i 8 & * * * * ",
"& % % % % & : : > & > > > > > > > > i i i i > & > > > > & & & & > > > > > > > > > > > > > > & & & % % % & & % % % % % % % % % % % % % % % % % % % % % % % % % % % % % % % % % % % % % % % % % % % % % % % % % % % % % % % % % % % % % % % % % % % % % % > % % $ % & > > & % % & % % % % % % % $ % % % % % & # % # & & T l % # O # f l f   # ; @ % 1 = @         O O O O @ @ % % % % % % : : : % % % % % % % % : % > > > > > > > > > > > > > > > > > > > > & % % % % % % % % % % > > > > > > & & > > & & k Q Q R k g k k k h 3 1 k k k h 3 3 3 3 3 3 3 3 , , A D A F D D G F F F F F c ..X.`.].].].].{.{.{.{.-X;X;X8X9X9XSXGXFXFXSX7X7X,X,X8X8X,X,X,X,X>XOXOX X X X|.|.[.*XK.K.P.P.P.P.b.b.b.b.b.S.S.c.c.c.c.z.z.h.h.s.h.g.g.s.s.s.g.g.g.x.x.x.x.x.x.x.x.g.g.x.x.z.g.x.x.f.v.^.$XhX%X2XzXbXbXbXkXmXkXkXbXZXZXnXnXVXVXmX2X2X2X5X5XkX5XkXcXmXmXvXbXnXnXbXkX5X2XkXvXkXmXbXnXDXDXDXDXZXmXmXmXkXkXkXkX2X&X@X@X@X4X4X@X@X2X4XJ.L.R.W.D.L.P.7.*.3.7.J./.&XP.3.D.=./ Q Q =.v.D.D.@.=.D.D.=.=./ / Q / D.D.=.Q Q *.-.=.@.=.=.~ ~ Q E / ~ #.3.3.D.3.#.2.#.~ #.^ ~ =.#.#.~ ~ ~ ~ T k f g k k k k f f 1 1 1 1 1 1 1 1 = = = = - - = % = % % = = = = 1 = = = = = % % % % % % X % % = 1 = = 1 1 = = = % % % % = = % % % X X X X $ $ $ X $ $ $ X % % % % = = = = % % % % % % % % = % % % % % % % $ $ $ $ % % % % % % % % = = = = = = = = = = = = = = = = = = f k R R b l g b l s s s s s s s w w s f f f f f f f f k h s s 1 & # % % % $ $ $ $ $ $ $ X X $ $ % = = 1 f f f 2 1 1 1 & % = 2 2 2 - = 1 f f k R E b k k g f - - f f b l k g g g l l b b n n E W W E E M b M R R g & & & & & & & & & 8 8 8 8 8 8 8 8 8 8 8 8 8 8 8 8 8 8 8 8 i i s s s i i i 8 8 8 8 > & & & & & & * ",
"% % % % % & : : & & > > > > > > > > i i > i > & > > > > & & & & > > > > > > > > > > > > > > & > & : % % > > % % % % % % % % % % % % % % % % % % % % % % % % % % % % % % % % % % % % % % % % % % % % % % % % % % % % % % % % % % % % % % % % % % % % % % % % % % % & & > & & & & $ $ $ $ % % % % % % % % % & # % & # & k s O $ # # # k f @ @ @ @ @ % %       @   O O O O @ @ @ % $ $ $ % % : % % % % % % & & > > > > > > > > > > > > > > > > > > > > > > > > & % % % % % % % > > > > > > > > & & & > & & l Q Q R l l l l k k k 3 k k k k h h 3 3 3 3 3 3 3 3 D D , , D D G G F F F Y c ..:.`.].].].{.{.{.{.-X;X;X8X8X9X9XSXSXSXCX7X7X,X,X8X8X8X,X,X,X,X>XOXOX XOX X|.|.[.*XK.K.P.J.P.P.b.b.b.b.b.S.S.c.c.c.c.z.z.z.h.s.s.g.g.s.s.s.g.g.g.x.x.x.x.x.x.x.j.g.g.g.g.g.z.x.c.c.Q.$XhXhXhXkXbXNXZXVXbXmXkXkXnXVXVXbXbXnXVXbXkX2X2X2X3XkX5XkXkXkXkXkXbXbXbXvXkX5XkXnXVXbXVXZXZXDXDXDXnXnXcXcXkX3X3X3X4XE.@X@X2X@X@X&X/.R.2X$XF.L.&X$XW.D.L.L.7.7.7.D.W.$XG.=.=.=./ R R =.=.=.=./ =.D.D.D.=.=.=.Q R ~ *.@.E Q *.D.D.D.L.3.=.=.=.Q ~ ~ #.D.D.D.2.#.2.#.~ ~ ~ ~ =.=.=.=.~ ~ Q T n f f f f - f f - = # # = 1 1 = = = = = = - - = % = % % % = = = = = % % = = = % % % % % X $ % = = - 1 1 1 - - - - = = = = = % % % X X X X $ $ $ $ $ $ % % % % % % % % % % = = = = % % = = = % % % = = = = % % % % % % % % % % % & = = = = = = = = 1 1 1 = = = = = # = 1 f b R R b b M b g g b R E E l g f f f f f f f f f k k f s 1 & # % % $ $ $ $ $ $ $ % $ X X o o X = = 1 f f f f 2 2 f = ; = 2 2 2 - = 1 f f g T E b b b g f f - 1 f g g g f g g l l b b b b M E W W E b b b b b g s & & & & i & & & 8 8 8 8 8 8 & & 8 8 8 8 8 8 8 8 8 8 8 8 8 8 8 i s s i i 8 8 8 8 & & & & & * & & ",
"% % % > % % % % & & > > > > > > > > > i > > > & > > > > > > > > > > > > > > > > > > > > > > & > : : % % % % % % % % % % % % % % % % % % % % % % % % % % % % % % % % % % % % % % % % % % % % % % % % % % % % % % % % $ $ $ $ $ % % % % % % : : % % % % % % % % % % $ # & & & > & & % % % % % % % % % % % % % # # & % 3 1 O O O % $ @ f f f   @ @ @ @ @     O $ @ @ @ @ @ @ @ % # % % % % % % % % % % % % & > > > > > > > > > > > > > > > > > > > > > > > > > > & > > > > : : > > > > > > > > & & & & % & f E E b b l l l G k k h 3 h h h h h h h 3 3 3 3 G G D D G 3 D D D G G G a Y ..{ :.`.].].}.{.{.{.-X;X;X;X8X8X9X9X9X9X9X7X6X,X8X8X8X8X8X,X,X,X,X>X>X{.{. X X|.|.|.*XK.t.w.w.J.P.b.b.b.b.v.S.S.c.c.c.c.z.z.z.h.s.s.g.g.g.g.s.g.g.g.x.x.x.x.x.j.x.x.x.x.g.g.j.x.x.x.Q.$XhXxXxXxXmXVXVXZXVXnXkXkXkXbXnXnXbXmXbXbXVXbX3X%X2X3XkX3XkXkXkXkXkXbXbXvXmXmXvXVXDXZXVXZXDXDXDXDXZXnXkXkXkX3XkX3X4XE.U.E.@X2X4X4X2X&X&X2X&X6.L.$XhX(.7.W.(.L.7.3.3.P.(.D.~ =.=./ R H R R / / Q / =.-.G.D.=./ ~ R E =.D.*.-.D.L.D.7.7.3.*.=.=.~ #.=.=.D.3.*.#.^ ~ ~ #.=.~ ~ =.=.=.~ Q E T b k 3 1 1 1 & 1 3 & = % % = 1 1 = = = = = = = = = % = X X % % % % % % % = = = = = = = % % X $ % = 1 - 1 1 1 f 2 1 - 1 = = = % % % % X X X X $ $ $ $ % % % = 1 = % % % % % @ = = = = % % % % % % % % % % % % % $ $ $ % % % % % % % % & % % % & & & & 1 1 1 1 - - - - - - 1 f l M W E E E M l l M W ~ ~ E M l l g g f f f f f f f s - = # @ $ $ % % % % % % % $ $ $ X o o $ = = 1 f f f f f f f - = = 2 2 2 - - 1 f f l b b b E M b f f - - f f f g f f f g l b b n g b E W W W M k g b g f s & & 8 8 i i & & & & 8 8 8 8 & & 8 8 8 8 8 8 8 8 8 8 8 8 8 8 8 8 s i 8 8 & & & & & & * * & & & & ",
"% % : : % % % % & & > > > > > > > > i i > > > & > > > > > > > > > > > > > > > > > > > > > > & & % : : : % % % % % % % % % % % % % % % % % % % % % % % % % % % % % % % % % % % % % % % % % % % % % % % % % % % % % % $ $ $ $ $ % % % % % : : % % % % % % % % % % & $ O $ & & & & h s 1 > % % % % % % % $ % % % & O & k %   % @ $ $ & - f R   @ @ @ O @ @   @ $ @ o @ @ @ @ % = 1 = = = = % % % % % % % % > > > > > > > > > > > > > > > > > > > > > > > > > > > > > > > > : : > > > > > > > > & & & & % % f R M g l l l l k k k 3 3 h h h h h h h 3 3 3 3 h G G G G G D D D G G G a c ' { `.`.].].}.{.{.{.;X;X;X8X8X8X8X8X7X7X7X7X8X8X8X8X8X8X8X,X,X,X,X>X>X{.{.OX X X|.|.[.K.K.r.w.P.P.b.b.b.b.v.S.S.c.c.c.c.z.z.z.h.s.s.g.g.g.g.g.g.g.g.j.j.j.j.x.x.x.x.x.x.z.j.j.c.c.v.#XuXxXxXmXbXnXZXZXDXZXnXkXkXkXmXbXbXmXcXmXbXVXbXkX%X2X3XkX5X5X5X5XkXkXcXnXbXmXnXZXDXDXDXnXVXDXDXDXZXnXnXcXcX3X@X4X<X@XXX@X&X&X4X3XkXxX@X@X@XW.J.R.&X2X/.W./.&XL.7.D.F.L.R.D.=.=.~ / Q R H R Q R H H Q Q D.G.v.=.Q Q R Q @.@.=.-.*.=.=.=.3.=.=.#.=.*.=.3.=.=.=.=.~ ~ ~ ~ =.=.~ / / ~ / T k k k 1 1 1 1 1 % % % % 1 % % 1 1 1 = = = = = = = = = @ = X X % % % X X X % = = = = = = = % % X $ % = 1 = - 1 1 f f 2 1 1 = = = % % % % % X X X $ $ $ $ % % = = 1 = = % @ @ @ @ % % % % @ @ @ @ o o o o % % % % @ $ $ $ % % % % % % % % % % % % & & & & = = = = = - - - - - f f f M ^ ~ ~ E M b l M E W E E E M b l g g f f f f & - - # # % @ $ $ % % % % % % % $ $ $ X o o o % = 1 1 f 1 f f f f 1 = = 2 2 2 - - 1 f f l b b b E E M b f f - 1 1 f g f 1 f f g b b g g v M E W ~ E b g l f f s & & 8 & i i & & & 8 8 8 8 8 8 & 8 8 8 8 i i i i 8 i i 8 8 & 8 8 8 & & & & & & & * * * * # & & & ",
"% % % % > > & & % % & & & & > > i i i i > > i i > > > > i i i i > > > > > > > > > > i & & & & & > > % % % % % % % % % % % % % % % % % % % % % % % % % % % % % % % % % % % % % % % % % % % % % % % % % > : : % % % % % % % % % % % % % % % % % % % % % % $ % % % & $ $ * * & * + 8 i s l s O # & % % % % % % $ O % l h O $ O $ % # s # l Q   & # O @ % %       o O @ % @ @ - g l - - = 1 1 3 1 & % % > & > > > s > > > > > > > > > > > > > > > > & & & & & & & & > > & & > > > > > > > > > > > > & & % 1 l b b k g g f k k k 3 3 3 3 f h 3 3 3 3 h h 3 3 3 3 h h G G G G G G G a a c ' :.`.].].].}.{.{.{.;X;X;X;X8X8X8X8X8X8X8X8X8X8X8X8X8X8X8X8X8X,X,X>X>X{.{.OX X X|.|.[.t.r.w.P.P.P.b.b.b.b.b.v.S.S.c.c.c.z.z.s.s.d.s.s.d.d.d.s.s.g.j.j.j.j.j.x.x.j.j.g.j.j.j.f.c.v.!.jX%X2XnXnXbXnXZXDXDXnXnXmXkXkXmXbXnXmXmXmXnXbXbXkX2X2XxXmXkX2X5XkXkX3XkXnXbXbXVXVXDXDXZXnXDXDXDXDXVXnXVXnX5X3X2X2X&X4X2X2X4X&X&X2X2X4XR.R.E.R.K.J.&X2XW.J.L.W.R.L.*.7.D.J.L.=.Q / =.Q / R G l h T R R T / / / / ~ ~ ~ Q Q Q Q ~ Q E b M W @.#.#.=.*.3.3.3.=.~ ~ Q E E T / Q Q T T k h h 3 3 1 = = = & & % % % % % % % % 1 1 1 1 1 = = = 1 = = % % % % % % X % % % % % = = = = = % % % X % % = % = f f f f f 1 = = = = % % % % % $ % % % % % % % % = 1 1 1 = % % % @ @ @ @ @ % % $ $ o o o o @ @ @ @ o o X $ X X $ $ % % % % % % % % % % % % = = = = = = # - 1 f k l b b M R E E Q E N b l l b R b l g l R b l f f f w & - - # # # # % % % % % % % % % % X X $ $ o o o $ = 1 - 1 f f f f f - = = 1 f f - ; - f f g b b E ~ ^ W b b f w w - f g f w - f f b b g f g b E W ~ ~ E k l l s s 8 * i & 8 8 8 8 & & & & 8 8 8 & 8 i i i i i i i 8 i i i i i i i i 8 8 & & & & & * * * * * * * * ",
"% % % % > > & % % % & & & & > > i i i i > > > i > > > > i i i i i i > > > > > > > > i & & & & & > % % % % % % % % % % % % % % % % % % % % % % % % % % % % % % % % % % % % % % % % % % % % % % % % % % > > : % % % % % % % % % % % % % % % % % % % % % % % $ $ %   > * s s i i d 8 8 * s l R s $ > & $ $ & $     % k 3 O O O $ O $ + & R =.O & & @ @ % % @ @ @ @ O @ @ O b b g f # @ = f f 3 3 h 1 % > > > 1 & > > > i > > > > > > > > > > > > > & & & & & & & & > > & & > > > > > > > > > > > > & & % f R R b l g k k k k h 3 3 3 3 3 h 3 3 3 3 h h 3 3 3 3 h h G G G G G G F a c ' '  .`.].].].}.{.{.{.;X;X;X;X8X8X8X8X8X8X8X8X8X8X8X8X,X,X,X,X,X,X,X>X>X>XOXOX X X|.|.t.r.w.w.P.P.w.-.b.b.b.b.v.S.c.c.c.c.z.z.s.s.d.d.d.d.d.d.s.s.g.j.j.j.j.j.x.j.j.j.j.j.x.f.c...!.lX$X&XkXVXnXbXbXDXDXZXnXnXnXmXkXbXbXnXmXkXkXbXbXbXkX2X2XkXmXkX2XkXvXmX5XkXbXVXbXVXVXDXDXVXVXDXDXDXZXbXkXmXbXbXbX2X@X@X2XmX2X&X&X2XkX2X@X&X&X&XJ.J.J.W.&X/.R.R.R.&XW.7.7.7.L.P.=.Q Q Q R / R Q R G l l T T Q Q Q T Q Q Q Q H H R Q Q R R ~ *.7.D.3.=.=.=.3.=.=.~ Q E T b k k h h h 3 3 3 1 3 3 > : : : % % % % % % % % & % 1 1 1 2 2 = = = = = % % % % % % X X % X % % % % % % % % % X X X % $ 1 3 1 f l g f = = = = = = % % % % % % $ $ $ % % % % % = 1 1 1 % % % % @ @ @ @ @ % % o o o o $ $ $ @ $ $ $ X $ $ X X X X % % % % % % % % % % % % % % % % % % # # = 1 f f f f b M M E Q E M l l k g l l f f f l l b b l g f w - - - ; # # $ $ % % % % % % % % X X $ X o o o $ % = = 1 1 1 f f f 2 - - f g g - = 2 f f g b E W ^ ^ E b b b f w - f k k f f f f b b k f g b N W @.~ E b l l g g s * i & 8 8 8 8 & & & & 8 8 & & 8 8 8 8 i i i i i i i i a a a i 8 8 & & & & & & * * * * * * * * ",
"% % % % : : % % % % & & & & > i i i i i > > i i > > > > i i i i i i > > i i > > > > > & & & & & % % % % % % % % % % % % % % % % % % % % % % % % % % % % % % % % % % % % % % % % % % % % % % % % % % % > > & % % % % % % % % % % % % % % % % % % % % % % $ O % & h R h l l j j R R H l i * & & f # $ $ % - @   O l l & O O O $ O * + i H o.8 # # # @ % % % $ @   @ @ @ # f f w f - @ @ = 1 1 3 k k 1 1 1 > 1 & > i i s > > > > > > > > > > > > > & & & & & & & & > > > & > > & > > > > > > > > > & & # k R E M l f f k f f 3 3 3 3 3 3 h 3 h 3 3 h h 3 3 3 3 3 3 3 h G G G G a a c ' ' :.`.].].}.}.{.{.{.;X;X;X;X8X8X8X8X8X8X8X8X8X,X,X>X>X>X>X>X>X,X,X,X>X>X{.OX X|.|.|.t.w.w.H.P.P.b.b.-.b.b.b.v.v.c...c.c.c.z.s.d.d.d.d.d.d.d.a.s.g.j.g.j.j.j.j.j.x.x.j.f.f.f.c.Q.iXuX&X&XbXZXnXkXbXDXZXZXnXnXVXnXbXVXkXzXbXmXmXbXVXnXkX2XkXmXkX3X3XkXkX5X5XkXbXVXnXVXZXDXDXVXnXDXDXZXnXbXcXbXnXkX2X@XR.R.@X3X5X4XE.@X4X@XXX@X&X&XH.K.@X@X4X$XR.R.R.&X&XL.D.=.3.3.=.Q G G R / Q / Q H G k k T R R T k T R T T G R ~ -.=./ @.3.*.3.3.*.=.=.=.~ ~ ~ Q Q T G k k 1 1 : : : : % % 3 : : % % % % % : : : : % % % % 1 = 1 2 1 = = = = % % % % % % % % % % % = % % % % % % % X X % X % $ 1 k k b b b k - = % = = % % X X % X X X X X $ X % % = = 1 1 1 % % % % % % % % % % % % % $ % % $ $ $ $ $ % % $ $ X X @ $ $ $ % % % % $ $ $ $ $ $ $ % % % % % # # & & - = - - w s f k M R M M M b l l l f f f w f f g l k g f f w = ; # # % $ % % % % % % % % X X X X $ X o o % = = = - 1 - - f - 1 f n b g 1 - f f 1 f b N W ^ W E M b b l f f g b b l f f f l M l f k b N ! @.~ W M M M M M j & 8 & 8 8 8 8 & & & & 8 & & & 8 8 8 8 8 8 8 8 i i i i i i i i 8 8 & & & & & & * * & & & & & & ",
"% % % % : : % % % % & & & & > i i i i i > > i i i > > > i i i i i i > > i i > > > > > & & & & & % % % % % % % % % % % % % % % % % % % % % % % % % % % % % % % % % % % % % % % % % % % % % % % % % % % > & % % % % % % % % % % % % % % % % % % % % % % % % & s l R k > $ * & * i 8 s R R R l & j i s & # $   O % / h $ $ % O $ * * 8 p H x x 6 # # % % % % @     @ @ # g ; - f b 1 @ @ = % % 1 k G f s s 1 s > s i i i > > > > > > > > > > > > > & & & & & & & & > > > > > > & & > > > > > > > > & & & l E R b g f f f f 3 3 3 3 3 3 3 f h 3 3 3 h h 3 3 , , , , , , , A G F a a c ' {  .`.].].}.}.{.{.{.;X;X;X;X8X8X8X8X8X8X8X8X,X,XoXY.Y.Y.u.|. XOX>X>X>X>X>XOX X|.|.|.t.r.r.K.P.P.:.b.-.b.b.b.v.v.c.....c.c.z.d.d.d.d.d.d.d.d.a.s.g.j.j.j.j.j.j.j.x.j.d.f.f.c.b.uXuX#X&X2XZXZXmXhXNXDXZXZXZXnXbXnXVXNXxXhXmXmXmXbXnXbXkXkXmXkX3X2X3X3X@X@X2XkXvXVXbXVXDXDXDXVXnXVXVXnXvXcXkXmXnXkX2X@XXXU..X@X2X2X@XXXXX@X@X@X2X4XR.K.@X<X@X@XI.J.J.L.L.L.J.D.=.=.~ / R G Q =./ =.~ R G k G Q R R G k k G G k G H Q =.=.Q Q =.~ Q Q Q ~ ~ ~ Q T T G G G k k 3 = : : : : : : : : : % % % % % % : : : : % % % % = = 1 1 = = % = % % % % % % % % % % X X % % % % % % % % X X % X 1 $ - b b T E E W g = % = = % % % % % % % X X X % % % = = = 1 = % % % % % % % % @ % % % % % = = = % % % % % % % % $ X X @ $ $ $ X X X X $ $ $ @ @ @ $ $ $ $ $ $ % % % % % % % % # # ; - s b R E Q E R M b g f f - & & - f f l l b g f - # % % $ % % % % % % % % X X X X $ X o o % % = = = = - - - - - f b b g f - 2 f 1 - g b E W E E E M b b b f g b E R g f f l M l f b b E ~ @.@.~ E M N E R l & & & 8 8 8 8 & & & & & & & & 8 8 & & & & & & 8 8 8 8 i i i i 8 8 & & & & & & & * * * & & & & ",
"% % % % % % % % % % & & & & > > > > > > > > > > & & & & & & & & i i i > > > > > > > > & & & & & % % % % % % % % % % % % % % % % % % % % % % % % % % % % % % % % % % % % % % % % % % % % % % % % % % % % % % % % % % % % % % % % % % % % % % % % % % % % s l R R f > % # & # s * + * + * j f j j f s f f s & & s R & O $ $ O $ O + 8 x o.x x 8 # O @ # # % O O O @ O @ b O @ @ @ @ O @ @ % % % % l k s s s s i s i i i i i i > > > > > > > > > > & & & & & & & & > > > > > > > > > > > > > > > > & & s R Q b b g f f f f 1 1 1 = 3 f k k 3 3 3 3 3 3 3 3 , , 3 3 3 , G G a a a a ' '  .`.].].}.}.{.{.{.{.;X;X;X;X8X8X8X8X8X8X8X,X XY.w.$.*.$.$.4.r.Y. X>X>X>X>X>X X X|.[.t.r.r.K.J.D.:.b.b.b.b.b.v.v.c.c.c.c.c.d.d.d.d.s.d.d.d.d.s.a.d.j.j.j.j.j.j.j.j.j.f.f.f.v.#X%X#X%X&XbXZXnX2X2XZXZXNXZXDXZXnXbXZXbXxXhXxXhXzXzXbXmXkXkXmX5X2X%X&X&X.X@X2X5XcXbXmXbXVXDXVXVXVXbXkX3X5XkX5XkXkXmX5X2X4X1X2X@X2X2X@XE.T.R.XX2X@XXXU.J.E.<X4XT.J.W.E.@X(.W.F.D.3.=./ Q H H Q =./ Q R k G G G G k h h k h h h 3 h h k G G k T Q E b b R ~ =.~ Q k h h 3 3 3 3 > 1 : > : : : : : > > : : : : % % : : : : % % % 1 = = = = = = % % % $ % % = % = % = % % % % % % % % % % % @ @ % = = % 1 b T T b b E f % % % % X % % % % % % % % % % % % % = = 1 3 1 = % % % % % % @ % % = = = - = = % % % % % % % % % % % % % % % X X X X X X $ o $ $ $ $ $ $ $ $ % % % % % % # # = = = = ; - f b E E R R R b f f f - ; @ - f g b E b 2 ; % % % X X % % % % % X X % % X X X X X X o % % = = = = - - 1 2 2 b b g f 1 f f 1 f f g b E W W W W W W E M k k b M k f f l R M g M M E @.@.@.~ E M M M Q R w & & & & * 8 & & & & & & & & 8 8 8 8 8 8 8 8 8 8 8 8 8 8 8 8 8 8 & & & * # & & & & & & & & & ",
"% % % % % % % % % % & & & & > > > > > > > > > > & & & & & & & & > > > > > > > > > > > & & & & & % % % % % % % % % % % % % % % % % % % % % % % % % % % % % % % % % % % % % % % % % % % % % % % % % % % % % % % % % % % % % % % % % % % % % % % % % % % % f H H s % & $ & # # b # + f & # + * j * i 8 & > s # $ % # O $ # $ $ $ O + 8 Q o.x 6 # 8 # # @ @ @ O O @ g ; f g @ @ w # # @ @ @ @ @ @   l T f s f s s s s i i i i i > > > > > > > > > > & & & & & & & & > > > > > > > > > > > > > > > > > & f Q ~ E b f f f f f 1 1 = = 3 3 f k 3 3 3 3 3 3 3 3 3 3 3 3 3 3 G G a a a c ' { :.`.].].}.{.{.{.{.{.;X;X;X;X8X8X8X8X8X8X,X X5.$.~ H H H H Q $.5.Y. X>X>X>XOXOX X|.|.K.t.r.H.w.w.:.b.b.b.b.b.v.v.....c.c.c.c.d.d.d.d.d.d.d.d.s.d.d.j.x.f.j.j.j.j.j.j.f.U v.#XuX&X%X2X2XZXZXkX&X$XzXxXzXZXDXDXbXbXNXxX2X&X$X2XhXxXmXkXkXkX2X&XXX&X.X.XU.XX&X5XmXnXbXbXVXDXVXnXbXkX3X4XkXkX5X5XkXmXkX5X3X2X5X1X&X2X<X@XR.U.E.2X@X@X@XE.@X4X@XU.R.E.<X4X/.L.D.=.=.=./ Q R G H R / Q Q G R G G k h h h h 3 3 3 3 > 3 h k k k T R b l b R Q Q Q G h 3 3 3 3 3 1 > : > : : : : : : > > : : : : % % % : : > % % = 1 1 1 1 1 = = % = % % % % = = = % = % % % % = % % % % % % @ @ % = @ 1 n E E b f - f ; % % % % X % % % % % % % % % % % % % = - 1 2 1 1 = % % % @ @ % = = - - - = = = = % % % % % % % % % % % % % % $ $ X X X X $ $ $ $ % % % % % % % % % % % % % & % % % % @ % ; - b b R E R b l g f 1 = ; ; 1 k b E b f = = % % % % % = = = % % X % % % % X X X X o % % % = = = - 1 2 2 2 f n f 2 1 1 1 1 - - g E W ! ~ ~ ~ ^ ^ W M b l b M b k k l R M l l M E ~ @.@.~ E E M E W Q f & * * * * & & & & & & & & # & & & & 8 8 8 & & 8 8 8 8 8 8 8 8 & & & & & & & & & & & & & & & ",
"> > % & % % % % % % & & & > > > > > > > > > > > & & & & & & & & > > > > & & & & & & & & & & % % % % % % % % % % % % % % % % % % % % % % % % % % % % % % % % % % % % % % % % % % % % % % % % % % % % % % % % % % % % % % % % % % % % % % % % % % % : % % & f 1 $ & & % & # k l # g s s s 8 x R j R x w + + $ $ @     % # O % $ * 8 d Q Q d O 6 s - # % & # @ @ @ @ @ f ; # ; v f ; @ @ @ ; ; % @ f b s & f s s s s s s i i i i i > > > > > > > > & & & & & & & & > > & & > > > > > > > > > > > > & & l =.#.E b f f f f 3 1 = = = 1 1 3 f 3 3 3 3 3 3 3 3 h h h h 3 3 h G a a a c ' { :.`.].].}.}.{.{.{.;X;X;X;X;X8X8X8X8X8X8X>Xr.o.x G F F G F G H o.4.Y.OX>X>XOXOX X[.|.K.t.r.w.w.w.-.-.b.b.v.v.v.;.c...c.c.c.c.d.d.d.d.d.d.d.d.d.a.a.f.x.x.j.j.j.j.j.f.f.v.!.uX$X%XkX2XmXZXbX$XL./.%X&X2XnXDXDXbXmXzX%XR.P.R.&X4XxXkXkXkX3X&X.XU.T.K.K.R.XX@X2XvXbXmXbXnXDXZXnXbXcX5X5XcXkX3X5XcXVXcXkX2X@X4X2X&X2X2X1X@X@X1X2X<X@X<X@X4X@X@XE.@X@X@X<XE.W.F.3.=.=.=.=./ R k k Q Q R G R G G h h h h h 3 3 3 3 > , 3 h k k l T k k l T G G k 3 3 3 3 > > > > > : : : : > > : : > > : : : : % % : 1 1 1 % % 1 1 1 1 1 1 = = = = % % = = = % = % = = = = = = = = = = % % @ @ = = = n E E T f ; @ % @ % % % % X X X X % % % % % = 1 1 1 - = - 2 f - = = % X X @ @ = = - - 2 1 1 - = = ; # & % % % % % % % % % % % % % X X % % % % % % % % % % % % & & % % % % % % $ $ @ @ @ @ % % 1 f k b b b k g f 1 = = ; f b T b n 2 ; = = % % % = = = = % % % % X % % X X X X X X % = = = = - 2 2 f f f f f f 2 f 2 2 ; f b ^ ! ~ ~ @.@.~ ~ ! E N M m M M l g g M M l l l E W @.=.@.W W N E @.@.l & * * * * & & & & * & * * * * * * * * * * * & & & & 8 8 8 & & & & * & & # # * * # # # # # # ",
"> > > & % % % % % % & & & > > > > > > > > > > > & & & & & & & & & & & & & & & & & & & & % % % % % % % % % % % % % % % % % % % % % % % % % % % % % % % % % % % % % % % % % % % % % % % % % % % % % % % % % % % % % % % % % % % % % % % % % % % % % % : : % % % % & O & % % =.# - E f M g # w d 8 * 8 * + + $ $ O %     O O # # # d x Q R 8 + * # # @ % 1 - # @ @   f f = ; w ; ; @ @ @ ; g b f = @ k # $ s s i s s s s i i i i i > > > > > > > > & & & & & & & & > > > & > > > > > > > > > > > & # # k =.*.W b f f f 1 3 1 = = = 1 1 3 3 3 3 3 3 3 3 3 3 3 3 h h 3 3 3 G a a a c '  .'.'.].].}.}.{.{.{.;X;X;X;X;X8X8X8X8X8X,Xu.,.M h F F F F F F F j o.w.|.>X>XOXOX[.u.u.K.t.w.w.w.-.-.-.-.;.v.v.v.;.c...c.c.c.c.d.d.d.d.d.d.d.d.d.d.a.f.c.c.j.j.j.j.f.f.v.!.uX$X$X3XbXbXZXZXhXW.D.W.W.L.&XbXDXDXbXbX2XL.G.-.P./.&XxXkXkX3X2X2X&X.X.XH.H.XX&X&X@XkXcXcXbXbXDXZXnXnXcX5X5XmXcX5X5XcXbX5X3X3XkXkX5X2X3X5X3X2X4X4X@XR.R.E.R.@XE.XX@X<X<X4X2X@XR.F.D.=.=.=./ R H H H G G G G G G h h 3 3 3 3 3 3 3 3 3 3 h G h h h h k k k k k k 3 3 3 3 3 > > > > : : : : : > > > > : : : : : : % % : > 1 1 & 1 1 3 = = = = = = = = % % = = = % = % = = = = = = = = = = = % @ @ @ = g W ^ b g - @ % ; = = = % % X X X X % % % % % = 1 1 1 - - - 2 f ; ; @ o X X @ @ - - - f f f 1 - = = = = = & = % % % % % % % % % % % % % % % % % % % % % % % % % & & % % % % % % % $ $ % % % $ $ @ % 1 f k g f f f - = % # - b E n f - ; = = % % % = = = = = = % = @ % % X X X X X $ % % = = = 1 2 2 f f 2 f f f f f 2 1 ; f E #.W ! ! ~ ~ ~ ~ W W E m M b M M b g M M l g l N E ~ @.~ W W E Q @.@.l i & 8 8 * i & & & * & * * * * * * * * * * * & & & & & & & & & & * * & & # # * * * # # # # # ",
"> : % % % % > > % % & & > > > > > > > > & & & & > > > > > > > > > > > > & & & & & & & & & & & & % % % % % % % % % % % % % % % % % % % % % % % % % % % % % % X % % % % % % % % % % % % % % % % % % % > > % % % % % % % % % % % % % % % % % % : : % % % % % % % % $ % = = @ g   b b # f s # 8 & & O O + * # # O O O O O O   $ # # j d =.i + O O O O @ @ @ - - = % # - s f ; f f r - ; @ @ 2 b f @   @ - O & s 1 i s s s i s i i i i i i i > > > > & & & & & & & & > > & > > > > > > > > & > > > & & & M 3.#.W v k f f 2 1 3 3 1 1 3 3 3 3 f f 3 3 3 3 3 3 3 3 3 3 3 3 3 h a a a c ' X.`.`.].}.}.}.{.{.{.-X;X;X;X;X8X8X8X8X7X>Xq.B s F F S F S S S F F R 4.u.>X>X>X{.[.u.t.t.t.w.w.-.-.-.-.-.v.;.;.v.c.....c.c.c.d.d.d.d.d.d.a.a.a.a.a.a.a.f.f.f.j.f.f.L v.Q.#X%X&X&XmXZXZXZXxX/.7.D.D.P.P.(.mXDXDXZXxXR.-.=.=.D.R.&X2XkXmX3XcX3X2X&XT.H.K.%X%X@X@XkXvXbXnXmXVXVXnXnXkX5XmXVXcX5X5XbXkXoX@X@X4X2X<X1X3X5X1X@X4X@X@XU.e.U.T.4XE.XX4XkXkX2X<X(.W.D.3.=.=.~ Q T G G h h h h h h h 3 3 3 3 3 3 3 3 3 < h h G G h h h h G k k h 3 3 3 3 3 3 3 < 3 3 3 3 > : : : > > > : < < : % : : % % : : > > 1 1 1 1 1 = = = = = = = 1 = = % = = = % = = % % % = = = = % = o o = @ g #.#.E f = ; % @ 1 1 = = % % $ % % $ X % % % & = 2 f f 1 - f f - - ; @ X X X $ @ = f b N W b g ; # = = ; = = # & = % % 1 = = % % % % % % % % % % % % % % % % % % % % % $ % % $ $ $ $ X X X X % % % % = = - - - - = ; = - = - f b b g - @ = = = % $ % 1 = = = = % @ = = X X X X X % $ % % % = = - 2 f f f f k f f 1 1 2 1 - f M ~ @.~ W M Q Q Q Q W Q E M M V M x M M M M g g l E @.@.@.~ W E Q W ~ E s i & & & & & & & & & & # # & & & & & & & & 8 8 8 8 & & & & & & & & & & & & # # # & * $ $ % ",
": : % % % % : > % % & & > > > > > > > > & & & & > > > > > > > > > > > > & & & & & & & & & & & & % % % % % % % % % % % % % % % % % % % % % % % % % % % % % % X % % % % % % % % % % % % % % % % % > & > > % % % % % % % % % % % % % % % % % % : : % % % % % % % % % % % % - b @ f ; @ g w # s w # # # # # # & @ O @ $ O     O O O * R =.8 $ O O O O O @ @ @ # = = - # & f w g f ; - - ; @ - f = @ O   ; # & & 1 > s s i i i i i i > > > > > > & & & & & & & & & & > > & & > > > > > > > & > > & & i & R D.3.! g g v g f 2 3 3 1 1 3 3 3 3 f f 3 3 3 3 3 3 3 3 3 3 3 3 3 h a i c c ' X.`.`.].}.}.{.{.{.{.-X;X;X;X;X8X8X8X8X,X X<.z i F S F F F S S F F G #.r.OX>X>X{.[.u.t.t.r.w.w.-.-.-.-.;.;.;.;.v.;.......c.d.d.a.a.a.d.d.a.a.a.d.a.a.a.f.f.f.f.f.U c.).#X%X$X&X2XbXZXZXbX%XJ.-.-.D.P.L.(.bXDXDXNX%XD.=.@.=.D.L./.%XkXbXkXmXkXkX2X.XK.T.%X2X@X@XcXvXVXVXbXbXbXbXVXkX5XcXbXcX5XkXbX5XXX@X@X<X@X@X@X@X<X@X@X4X2X@XU.J.U.U.4X2X5XkXkXkX4X4X(.L.D.3.=./ Q Q T T G G h h h h h h 3 3 3 h 3 h 3 3 3 3 3 h h h h h h h h 3 3 3 3 3 3 3 3 < < : : : : : : : : : > > > : < < : : : : % % : : : > 1 1 1 % = = = = = = = = 1 = = = % % = = = = % % % = = = = % @ % @ @ v #.#.E f ; = ; = % 2 1 = = % % % % % % % = 1 1 1 1 1 2 1 = - f f ; ; @ o X X X % % 1 b W ! W b b 1 1 = # ; 1 1 1 1 = = = = = = % % % % % % % = = % % % % % % % % % % $ $ $ % % $ $ $ X X X X X X % % = = = = - - - - f g g f - f f b v f = = = % % % = = % = - 1 1 - = = = % X X $ % $ % % % = = - 1 1 2 2 f f f 1 1 1 f f - w g E W W E b N N E E E E E E V W W N Q Q Q Q x g l E @.=.@.~ ~ Q ~ W Q E s & & & & & & & & & & & # # & & & & & & & & & & 8 8 & & & & & & & & & & & & # # & & $ $ $ $ ",
"% % % % % % : : % % & & > > > > > > > > & & & & > > > > > > > > > > > > & & & & & & & & & & & & % % % % % % % % % % % % % % % % % % % % : % % % % % % % % % X % % % % % % % % % % % % % % % % % > % > > > > : : % % % % % % % % % % % % % % : : % % % % % % % % % # # ; g b w f @ # f ; # g s w s w - # f w # % # # # O # @ $ $ # @.R O O       O   O @ @ @ # # - & # w - g f ; - f - ; ; ; @ @ @   % f s # > > s s > > i i i i > > > > & & & & & & & & & & & & > > > & > > > > > > > > > > > & & & l 3.=.W k k v k g f f 1 1 1 f f 3 3 f f 3 3 3 3 3 3 3 3 3 3 3 3 3 h i i a ' ' X.`.`.].}.}.{.{.{.{.-X:X;X;X;X8X8X8X8X,Xu.} s F S F F F F F F F F G R w. X>X>XOX[.u.t.y.r.w.w.-.-.-.;.;.;.;.;.c.c.........d.d.a.a.d.a.a.a.a.a.a.a.a.a.f.f.f.f.U k.v.~.uX%X&X&XkXZXZXZXxXR.=.-.v.D.L.W.&XNXDXDXNX/.=.=.;.=.D.P.L.&XkXbXmXkXcXkX2XXX.XXX@X@X@X3XcXvXvXbXVXbXbXnXVXkX5XcXmXvXkXcXmX2X@X1X3X5X3X4X1X@X@XXX&X2X2X2XR.R.T.R.<XkXbXcXkXkX4X@XW.F.3.=.~ / Q T G T T G k k h h h h 3 3 G G G G G G G G h h h 3 h h h h 3 3 3 > 3 3 3 3 > : : % % : : : < < < < < < < < < < : : : : % % : : : = = = % % = = = 1 = = 1 1 1 1 = = % % % % = % % % = = = = $ $   @ @ - @.D.~ f ; ; ; ; = = 1 1 = % % $ % % = # = 1 f 1 - = - - - ; = - - @ ; @ o X X X % = 1 b ! @.! v b f 1 = ; - g g f - - - - - = = % % % % % % % = = = % % % % % $ $ $ % % $ $ % % $ $ X X X X X X % % = = = % = = - - 1 k T b f f 1 f b b f - = = % = % % % % = f g g 2 - - = % % $ X $ $ $ $ % % % = 1 1 1 1 f f f - f f f f - w s g M E M k g g l l M E E E E Q Q W ~ ~ ~ ~ E l l E @.#.~ ~ W Q ~ W E R s & & & & * * * * * & & # # & & & & & & & & & & & & & & & & & & & & & & & & & & & & $ % % % ",
"% % % % % % % % % % & & > > > > > > > > & & & & > > > > > > > > > > > > & & & & & & & & & & & & > > > > > > : : > % % % % % % % % % % % : : : % % % % % % % % % % % % % % % % % % % % % % % % % > : > > > : : : % % % % % % % % % % % % % % : : % % % % % % % % % % = - f - ; ; ; # ; # # # & f w w # O f - @ @ # 1 1 # - % O $ w Q & O O               @ @ O   # & - f - w f g - 2 - @ @ @   @ @ @ % f k & s s s > > > i i i i > > > > > > & & & & & & & & & & > > > > & > > > > > > > > > > > & & f ~ E N v v v v g f f f 3 3 f f f f f f 3 3 3 3 3 3 3 3 3 3 3 3 3 h i i a c ' X.`.`.].}.}.{.{.{.{.:X:X;X;X;X8X8X8X8X>Xt.B s F S S F S S S F F F F H 5. X>XOXOX[.u.t.y.w.w.w.-.-.;.;.;.;.;.v.c.........P d.d.a.a.a.a.a.a.a.a.d.a.a.a.j.f.f.f.U v.!.%X%X&X&X2XbXZXZXbX$XD.=.v.G.D./.R.$XZXUXDXNX/.=.=.=.v.v.v.D.&XkXbXcX2XkX5X2X&X@X@X.X@X@XkXcXkXkXcXVXnXbXmXnXkXkXvXvXmXkXkX3X@X1X5XkXnXnXvXkX5X2X4X@X@X@X@X@X@X4X@X4XmXmXcX3X3X<XW.F.D.3.~ / / Q T G T T H G G k h h h 3 3 h G G T G G G G k h h h h h h h 3 3 3 > > > > 3 > > : : : : : : < < < < < < < < < < : : : : % % : : : = = = % % = = = 1 = = 1 1 1 1 = = = % % % = % % % % % = = X % o @ - W 2.#.M ; ; 2 ; ; - 1 = % % % % % % % = = 1 f f f 1 = = - = % ; - ; @ @ @ X X X X = - g E #.#.#.N b f = % = f b k f - 2 f 2 - 1 = = % % % = % % = 1 1 = % % % % $ $ $ % % % % % % $ $ X X X X X X % % = = % % % = - = - b T b g f f f g g f - ; = % % % @ % 1 f g b g g 2 - - = % % $ $ $ $ $ $ % % = % 1 1 1 f f f - f s s s s w r f b E M g s s f f k l M E E Q W W @.@.@.@.~ M b E @.@.~ Q W Q ~ E M R s & & & & * * * * * & & # # & & & & & & & & & & & & & & & & & & & & & & & & & & & & % % % % ",
"% % % % % % % % & & & & > > > > > > > & > > > > > > > > > > > > > > > & & & & & & & & & & & & & > > > > > > > > > > > > > > > > & & & & % % % % % % % % % % % % % % % % % % % % % % % % % % % % > > % % & & & & % % & & % % % % % % % % % % : : % % % % % % % % % O % - g @ # # ; # # # # O O ; @ ; ; # b f O   @ ; - = = %     - w @ @       @         @ @ O O O & f f = - f f f f %   % @   @ @ ; @ # b s & # > > > > i i i > & & & & & > & & & & & & & & & & > > & & & > > > & & & > > > > > $ # f M W W m m v v k k k k f 1 f f 1 1 3 3 3 3 s s 3 3 3 3 3 3 3 3 3 h a a c c '  .'.'.].}.}.}.{.{.{.:X:X;X;X;X;X8X8X8X>Xt.B i F S S S S S F F F J G Q 5. X>X>X X[.u.t.t.w.w.w.-.-.;.;.;.;.;.c.c.......P P L d.L L a.a.a.a.a.a.a.d.a.a.j.c.U U ;.L.$X%X&X&X%XxXVXZXbXhXL.-.v.v.D.L././.2XZXDXDXbX/.-.v.v.v.v.=.v./.3XmXkX2X3X2X2X%X@X@XXX@X1XkXmXmXcX5XmXnXmXcXmX5X5XkXvXbXvXkX@XoXkXbX3XkX5X2X2X3X3X5X1XoXE.@X@X4X2X3X2XkXkX5X3X4XE.F.3.3.=.~ ~ Q Q G h G G G k k k k G h 3 3 3 h G G k h h h h h 3 3 3 3 3 3 3 3 > < < < : > > 3 : : : : : : < < < < < < < : : : : : : : : : : : : : % % % % = = 1 = = = = 1 1 = = % % % % % = % % % % % % % % % % - n 3.*.b r - f f = - - = $ % % $ @ % = 1 f f f g f 1 - = = ; @ ; = - ; @ % % % % $ % % 1 b ! 2.7.7.! N g - ; f b E b f - f f - = = = = % % = = = - 1 2 2 = = = % % % % % $ $ X X X X % % X X X X X X % % = % % = = ; = ; ; f g f - - - f k g f f - = = ; ; # - b E b k b g f f 2 - = % # % $ $ @ $ $ % % & 1 f f k k f - f f s s d j g g M M E x g s s s s f l R M E W ~ ~ ~ W @.@.E b E ~ ~ E R M E Q E l k h * & & & & * * * * % % * * & & & & & & & & & & & & & & & & & & & & & & & & % % % % % % % % ",
"% % % % % % & > & & & & > > > > > > & & > > > > > > > > > > > > > > & & & & & & & & & & & & & & > > > > > > > > > > > > > > > > & & & & % % % % % % % % % % % % % % % % % % % % % % % % % % % % > > : % & & > & % % & & % % % % % % % % % % : : % % % % $ % & = =   @ ; f # # # ; ; # # # @ @ # ; - f f b b - - # # @ @ 1 - % @ # O O @   @         @ @ @ @ O O O & f f 1 = # # b b =   % %   ; @ ; @ @ f f - # 1 > > > > > > > & & & & > & & & & & & & & & & & > > > & & & > > & > & > > > > > & & 1 E @.! N m M M b l l k f f 1 f 1 1 3 3 3 3 s s 3 3 3 3 3 3 3 3 h h i 8 p c {  .'.'.].}.}.}.{.{.{.:X:X;X;X;X;X;X;X,X>Xt.[ s F S S S S S S S F F F Q w. XOXOX{.[.u.t.t.r.w.-.-.-.;.;.;.;.;.;.........P P a.d.L L L a.a.a.a.a.a.d.a.a.f.f.L ;.Q.#X%X&XXX&X2XzXNXbXhX&X7.-.G.G.D.L.R.$XbXDXDXZXkXL.-.v.v.v.v.;.-.R.4XkXmX3X3X2X5X%XXXXXoX@X1X5XcXvXcX5X5XcXmXvXvXkX5X5XvXbXmXcX4X5XmXkXXX@XXXT.T.XX@X@XXXT.T.oXE.XX<X4X2X5X3X3X4XE.J.3.=.=.~ ~ / Q T k h k G k h h h k h 3 3 3 3 h G G h h h 3 3 > > > > > > > > > > > < < : : > > : : : : : : < < < < < < : : : : : : : : % % % % % % $ $ $ $ % = = = = = = = = = % % % % % % = % % % % % o @ ; @ ; f W =.N f f f - - - - - = $ $ % % % = f f n g g g f f - ; ; ; - - f - ; % % % % % % % % 1 f ! 7.J.6.! M g - - f b E b k f g f - = = = ; = % - 2 2 2 2 2 - % % % % % % % % $ $ X X X X % % X X X X X X % % % % % = - - - - = f f f - - - - k k k k g f - 1 f f b Q ^ E b v f f f f f f 1 1 = % $ $ $ $ % % & 1 f f f k f f g g g g g g l l x x R x j 8 i & w s f b R E W ~ W E M W ~ W b E W W M l k b R b k g j $ & & & & * * * * % % * # & & & & & & & & & & & & & & & & & & & & & & & & % $ % % $ % % % ",
"> % % % % % & > & & & & > > > > > & & & > > > > > > > > > > > > > & & & & & & & & & & & & & & & > > > > > > > > > > > > > > > > > > > > % % % % % % % % % % % % % % % % % % % % % % % % % % % % % > > : > > > > > > > > : : % % & & % % % % : : % % % % % & 1 f #     @ ; # # # w w & # ; ; ; - - - ; ; f g ; ; # # @ @ w - f 1 # O O @   O @   O @ @ @ # @ @ O O & f f f # @ @ b b -   ; ; @ = ; @ @   # f f - 1 1 > > > > > > & & & & & > & & & & & & & & & & > > > & > > > > > > > > > > > > & % & b @.O.B N N N b b b l g f 1 1 1 1 3 3 3 3 3 3 3 3 3 3 3 3 3 3 3 h i 8 c ' {  .'.'.'.}.}.}.{.{.{.{.:X:X;X;X;X;X;X;X>Xi.%.l a S S S S S S S S F j o.r. XOX{.{.[.u.t.r.w.w.-.-.-.;.;.;.;.;.;.......P P L d.P L L K K K a.a.a.a.a.a.f.f.U f.).#X%X$XXXXX2XhXhXxXhX/.P.-.D.P.P.P.R.&XxXZXDXZXmX@XJ.D.D.v.;.v.;.-.L.&X3XkX3X2X2XkX2X.X.XoX.X@X2X2X5XvXcX5X5XkXvXvXkX5X5XmXbXvXkX3XmXkX@X.X.XT.XX.XR.K.H.e.e.e.H.U.R.@X@X4X2X4X4X<XW.F.3.=.#.~ ~ Q Q T k h k G G k k k k h 3 3 3 3 3 h G h h 3 3 > > > > > > > > > > : > = = = = : : = : : : : : : : : : : : : : 4 4 % % X X X X X % % % X X X X X X % = = = = % = % % % % % % % = % % % % % @ @ @ @ - b ~ ^ v b b g - - - 2 - % $ $ $ % 1 g b b b b g f f f f r ; f n b b 2 % % % % % % $ $ % = - W 6.L.J.@.N k ; ; r b W W W E W b f f - ; = 2 - f n n f 2 - = @ % % % X X % % % X X X X X X X X X X X X X % % % % % - - - - - - - 2 2 - - 1 2 b v b M M b n b g b N W E b k f - - 2 2 b b b f - # % @ % % % % & & f f f k f f g g l l l l g g l g x x d 8 i & & - f l R E W ^ W N k b ^ ^ N N W E b f s g l f f f k $ & & & & * * * * % # # # & & & & & & & & & & & & & & & & & & & # & & % % $ $ $ $ % % % % ",
"% % % % % % > > & & & & > > > > & & & & > > > > > > > > > > > > & & & & & & & & & & & & & & & & > > > > > > > > > > > > > > > > > > > > > % % % % % % % % % % % % % % % % % % % % % % % % % % % % % > > > > & > > > > > > > % % # # % % % % : : % % % % & 1 f l = ; ; # ; g k g # # # w ; w - - - ; ; r w f # @ # # # # O @ - f - s - f @   @ ;     @ ; 1 = @   O & f f 1 % @ - f b -   ; ;     - O @ @   - k f 1 1 > > > > > > & & & & & & & & & & & & & & & & > > > > > > > > > > > > > > > > & % % w W @.! N N N M b b l g f 1 1 1 1 3 3 3 3 s s 3 3 3 3 3 3 3 3 s h a i p ' {  .'.'.'.].}.}.}.}.{.{.:X:X;X;X;X;X;X;X,X[.1.B s , S S S S S S , i l $.u.OXOX{.[.[.u.t.r.w.w.-.-.;.;.;.;.;.;.........P L L L L L K K K K K a.a.K a.K f.f.U v.~.%X$X&XXX&X2X2X%X$X&XD.-.-.D.P.L.W.&X2XbXbXbXbXmXR.J.D.-.;.=.v.;.-.P.&X2XxX2X%X2XkX5X@XXX@XY.oX@X2X5XbXVX5X3X3XkXbXcX5X5XvXbXkX5XkXbX4XT.XX@XU.T..XU.J.w.7.<.<.<.w.K.E.T.oX@XXX@XE.I.D.3.2.=.~ E Q T G k h G R R G G T T h 3 3 3 3 3 h h h 3 3 3 > > > > > > > > > > < > = = = = : : : : = = = : : : : : : : : X 4 X X % X X X X X X X X o o o o X o X % = = = % % % % % % % % % = % % % % @ @ @ @ f b #.#.N N ^ E b 2 - 2 1 - % % X $ = g b E E E b f f f f f f f b ^ ~ E f % % % % % % X X $ # w ! F.R.W.4.@.v r r f M ! #.2.2.3.^ b g f = = f n b b b n 2 - @ o o % % % % % % % % X X X X X X X X X X X X % % % % = 1 1 2 1 1 - - - - ; - f g g v M N ^ E E E g b N b b k f r ; ; - 2 b E T g - ; % @ % % & & # & f f f f g s l l l b g g j d g d l M j i i i & - f l R E W ~ W M f v W ~ E N W W b f f s k s f f k $ & $ # # * * * * # # # # & & & & & & & & & & & & & & & & & & & & & % % % $ $ $ $ % % % % ",
"% & & & & & & & & & & & & & & & > > > > > > > > > > > > > > > > > > > > > > > > > > > > > > > > > > > > > > > > > > > & & & & & & & & & & & & & > : % % % % % % : : : : % % % % : : : : % % % % : : > > > > > & > & > & & & & & % % % % % % : : % % $ $ k 1 ; # - f ; @ # f k f f g f w ; # ; f - b b f - - ; ; ; # # # @ ; - - f f - - - - @   @     @ = @   O O & - @ @ @ = f b k =   % - @   ; O ;   @ @ - f & 1 1 s > > > i > > > > > > > > > > > > & & & & & & & & & & & & & & & & & & & > > > & % M @.O.O.O.W m v M b g f f f 1 1 3 f f f 3 3 3 3 3 3 3 3 3 3 s i a 8 p c ' ]  .'.].].}.}.}.}.}.{.{.:X:X:X;X;X;X;X>X>Xi.} g s a F S S S F G j B w.|.OXOX{.[.u.t.y.r.w.-.&.;.;.;.;.;.;.;.....U L L P P L P K K K K K K K K K K L f.U ;.(.uX%X&X&X$X2X2X&XL.L.L.=.=.D.P.L./.$X2X2X2XxXzXmXmX&XJ.7.-.-.v.=.=.v.P./.2X&X&X&X2XvXkX3X1X1XoXXX@X3X5XbXVXcX<X3XkXkX5XkXvXbXcX5XkXbXkX@X@XoXT.T.H.K.K.6.J.K.H.J.w.w.w.J.w.K.E.XXR.W.J.3.#.3.3.~ Q T T G k k T Q / ~ =.~ Q k 3 3 h G T G G 3 3 3 3 : < < < : : : : > > : : : : : : < < < < < < : : : : : : 4 4 4 4 X % % $ $ $ $ $ . . . . . . . X X X X % % % % $ % % % % = = % % % % % = @ ; = @ ; N #.*.~ ^ ^ W b f 2 f 1 - = O @ @ % 1 E ^ W ! ! M v w f f ; f v ^ #.^ k = % = % % % % o o % ; k O.7.R./.6.@.v ; ; v N %.2.2.,.2.~ M k f f g b b b b n 2 = % % X X % % % % = % % % X X X X % % % % X X X X % % % % = 2 k k f 1 1 1 = = - - f g g b b W ~ ~ ^ W E n b b b g f ; ; ; ; ; g E Q R f - # # & & & & & & & w s l b s k x M l g f s s s s f k k s & & & % = k E R W @.~ M g b E ~ W E W W b f f g g s f f f s # $ # # * * * * * * * * # # # # * * & & & 8 8 & & & & & & & & & & & % # $ $ $ $ $ $ % % ",
"> > & > & & & & & & & & & & & & > > > > > > > > > > > > > > > > > > > > > > > > > > > > > > > > > > > > > > > > > > > & & & & & & & & & & & & & > > : : % % % % : : : : % % % % : : : : % % % % : : > > & & & & & > > > & & & & % % % % % % : : % $ $ % = @ @ ; - - # @ O # ; # # @ # ; w ; ; # - - - @ ; = # # @ # ; ; - - ; - - @ - g - - 2 = @     @ # % @   O O O O O @ = f k g =   @ %   @ 2 - @ ; @ O = f # & & 1 > > > > > > > > > > > > > > > > & & & & & & & & & & & & & & & & & & & > > > & # M #.$.#.O.W W W m b k f f 1 1 1 3 f f f 3 3 3 3 3 3 3 3 3 3 s i i 8 p c ' ]  .'.].].}.}.}.}.}.{.{.{.:X:X;X;X;X;X;X>Xi.0.[ x i a F A A G l B <.u. XOX{.[.[.t.t.q.r.w.-.&.;.;.;.;.;.;.;.....U P P P P P P P K K K K K K K K K f.U U !.uXhX%XXX&X2XhX$XW.D.G.v.=.=.v.P./.&XhX&XR.R.$XkXbXmX@XL.7.-.-.-.=.=.D.D.P.W.R.&X4XkXmXbXcX5X3X<XoX1X5X3X5XVXbX5XkX5X5XcXkXvXmXcXkX5XVX5XoXXX@XT.T.J.w.K.K.U.@X@XXXJ.5.w.H.5.e.K.I.H.W.L.F.D.D.*.~ Q T T G k h G T Q Q Q T G h k k h k k h h 3 3 3 3 < < < < : : : : < < : : < < : : < < < < < : : : : : : : 4 4 4 4 X % $ $ $ $ $ $ $ $ $ . . . . . X X X $ X X $ $ % % % % = = = = % % % @ ; @ @ - N @.=.#.~ E T b v f - - - = = o @ ; 2 b E E N ! @.E M f r r r M ! ~ ~ T k 1 = % % % % % o o % ; f @.7.L.J.#.W b ; ; v C ,.8.I.J.7.#.W M l g g b b b n 2 = % % % % % % % % % = = % % % X X X % % % % % X X X % % % % = 1 n b n f f f - - = - 1 f g b E ~ =.#.W ^ E b b b f 2 - @ ; ; ; ; g R Q Q l s - & > & & & i i s s f b M f k x x l g f f f f f f f k s & & & % = f R R W ~ ~ M g g E W W W W W M f s f s w f f f s # * * * & & & & * * # # # # & & & & & & 8 8 8 8 & & & & & & & & & % % % $ $ $ $ $ $ % % ",
"> > > > > > > > & > > > > > > > > > > > > > > > > > > > > > > > > > > > > > > > > > > > > > > > > > > > > > > > > > > & > > > > > > > > > & & & > > > % % % % % : : : : % % % % : : : : % % % % : : % % & > > & & s 3 > > > > > > > % % : : : % % $ @ = f r ; ; ; ; ; ; O @ @ @ ; ; ; f g f ; @ @ @ @ @ % % @ % % 1 f f - ; ; ; f f b b k 1 f b - @ @ ; - f f # @   O # @ = f f 1 1 ; @ @ @   @ T b o f     @ f & & # & > > > > > > > > > > > > > > > > > > > > > & & & & & & & & & & & & & & > > > & # s O.#.$.#.#.O.O.B M b g f f 1 1 3 3 3 3 3 3 3 3 3 > 3 3 3 3 s i i 8 p c ' ]  .'.'.].].}.}.}.}.}.}.{.:X:X;X;X;X;X;X,X-Xi.1.%.x d j j G l O.<.t.OX>X{.{.[.u.t.y.0.w.w.-.&.-.-.;.;.;.;.;...U U P P P P P K K K K K K K K K K L f.U v.uXxX2X&X&X%XxX4XL.D.v.v.;.;.=.-.P.&X2X2XL.7.7.R.kXnXnX$XW.D.7.D.-.=.=.v.D.D.7.J.&X2XkXcXbXVXbXcX2X@X2XcXkXkXmXmXkXcXkXkXvXkXkXbXmXkXvXbX@XU.T.XXT..XK.e.H.T.@X2X2X1X@XT.K.U.e.J.J.J.H.E.R.F.D.3.=.Q R G G h h 3 h G G k T G h h h 3 3 3 3 3 3 3 > 3 3 < < < < : : : : > > : : : : : : : : : : : : : : : : : : 4 4 4 4 X X X X X X X X X X X X . . X X o o X X X X X X @ % % % % % = = % = = o - @ # M #.#.~ W E b n g 2 - - - = % % @ % 2 b M N N E ! #.N b b f r r M N ~ W b k 1 % % % % % % $ $ % ; w ^ =.3.@.N E b - ; t C $.8.I.J.2.#.^ W E b b b b n 2 - % % % % % % % % % % % = % % X X X X % % % % % % X X % % % % = - k b b g g f 1 - - - - - f g b ~ 3.=.^ ~ ^ E b b f ; ; ; ; ; ; ; f b E Q R l f f s s s i i s s s k R R g k l M l f f s s - - 1 f k f > & & & = f b R W W ~ E b f b E E ^ ~ ! E k s s w s w w f s & * & & & & & & * * * * & & & & i i i i 8 8 8 8 & & & & & & & % % % % $ % % $ $ $ $ $ $ ",
"> > > > > > > > > > > > > > > > > > > > > > > > > > > > > > > > > > > > > > > > > > > > > > > > > > > > > > > > > > > & > > > > > > > > > > > & > > > > % % % % : : : : : : % % : : : : % % % % : : % % & & & & & h 3 > > 3 > > > > : : : : : % % @ @ f v n v ; w ; ; w ; ; ; ; ; f f f - @ @ @ @ @ % @ @ $ @ @ @ 1 f f l f f b g b 1 = f k f b 2 @ @ @ ; f f -     @ - # 1 f % @ ; ; @ ; ;   @ f T O n 2 @ @ = 1 s - & & > > > > > > > > > > > > > > > > > > > > > > & & & & & & & & & & & & & > > & # & O.2.4.4.$.O.O.W N b g f f 1 1 3 3 3 3 3 3 3 3 3 > > 3 3 3 3 s , < 8 c ' ]  .'.'.'.].}.}.}.}.}.{.{.:X:X;X;X;X;X-X,X-X{.u.0.%.[ V V O.+.w.u. X>X{.{.{.[.t.q.q.0.0.w.-.&.-.;.;.;.;.;.....U P P P P P J P K K K K K K K K K U U v.uXhXxX&X@X&X%X2XR.D.=.=.=.;.=.-.=.D.&XhX&XD.=.7.R.bXVXVX2X/.P.D.D.-.=.-.=.-.-.-.J.R.&X2X3XbXZXVXbX1X@X1XcXbXmXcXcXbXnXvXvXkX5X2XkXkX<XcX2XT.H.H.T.U..XT.K.K.T.&X2X3X5X5X@XU.U.J.U.U.e.I.R.J.2.~ =.~ Q G h h 3 > > 3 3 h 3 h h k 3 3 3 > 3 3 3 > > > > : : : < < : : : : , > : : : : : : : : : : : : : : : : : : : 4 4 4 X X X X X X X X X X X X . . . . o o o o o o o o o @ $ % % % = = o = = @ @ - l =.@.^ M g k k f - = = = = = % % @ 1 b M N N N W @.~ b k f f f f g g E W b f = % % % % % % $ $ % = ; b E E g k E b g 2 v %.,.7.8.2.~ ^ ^ ^ ^ E b E n 2 - % % % % % % % % % % % % = % % % X X X % % % % % % X X % % $ % = = f b b f g f f f - - - = ; - g ^ 2.=.^ ~ ~ ^ E g f ; ; ; - - - - w f l b E b l l l k h s s s d j k M M s k l b l f f s s - - 1 f k 3 1 & & & - 1 g R W E @.^ M f b M N ~ @.~ E l f s s w w w f w 8 * 8 8 8 8 & & & & 8 & > > & & i i i i 8 8 8 8 & & & & & & & % % % % % % % % % $ $ $ $ ",
"i i i i i i i > > > > > > > > > > > > 3 > > > > > > > > > > > > > > > > > > > > > > > > > > > > > > > > > > > > > > > > > > > > s s s s > > > & > > > > % % % % : : : : : : : % : : : : > & & % % : % > > & & & s k > > > : > > < : : : : % % % % ; - f f v n M N N E b g b N b E R b g - - = 1 $ % 1 @ O % @ @ ; ; # = b E Q b - % - b - g b n r @   @ @ @ O O   O f f 1 f f % @ @ ; ; ; = @   1 f   = f k b T b k f s > > i i > > > > > > > > > > > > > > > > > > > > & & & & & & & & & & & & > > & # # #.J.J.6.5.4.%.@.W b g f 1 1 1 3 1 1 3 3 3 3 3 3 3 3 3 3 3 3 s s i 8 c ' {  . .'.'.].}.}.}.}.}.}.{.{.:X;X:X-X;X-X;X-X-X{.u.t.q.0.1.r.u.|.OX>X{.{.{.[.i.q.q.0.0.0.-.&.;.;.;.;.;.;.......U U P P P P Y J K K K K K a.K K J I v.uXzXhX&X&X@X&X&XR.v.-.;.;.;.=.=.-.;.P.2X2XL.-.-.7./.bXVXnXmX2XK.6.7.*.=.=.-.=.-.7.J.K.XX&XkXbXVXVXkX<XoX3XkXvXvXcXbXnXnXnXbX2X5X3X3X2X<X<XT.H.U.U.XXU..XU.H.K.T..X2XmXbX5XXXJ.J.H.T.K.6.6.7.=.~ W ~ / R k h 3 3 , > , 3 h 3 3 h h 3 3 > : > > < < < < : : : : > 3 < < : : < < < < : < : : : : : : : : : : 4 4 4 4 : : : : : % % X X X X X X X X X X X X X X X X X X X X X o o % % % % % % % @ = @ @ b ~ #.M v f f 1 - 1 = = = = % % @ @ ; f b W W N W #.#.! b k k g k f f b E E g 1 % % = % % % % o $ $ % = 1 1 2 = - g - 2 ; N ,.8.J.8.,.! ^ ^ ^ ~ ^ M n f - = % % % = = 1 1 1 = = = = = % % % X $ $ $ $ % % % % % % % % $ % = = g T T g g f f f 2 - - - ; - g E 3.=.~ ~ ~ ^ E b f ; ; - g g v b b l l b M M M M R x l k d j j j j j g s k l l l f f 1 1 - - f 1 f f 1 > > > = = f T W E ~ ~ E f k k M W #.@.E f f s f f w w s j i 8 8 8 i i i i 8 8 8 8 i i i 8 8 8 & & & & & & * * * * % $ $ $ # # % % % % $ $ # & & & ",
"i i i i i i i i > > > > > > > > > > 3 3 > > > > > > > > > > > > > > > > > > > > > > > > > > > > > > > > > > > > > > > > > > > > s s s s i > > & > > > > > % % % : : : : : : : % : : : : > & % % : : > > 1 1 - s G h > 3 > : : : < : : : % $ % = f 2 r f f N E N ! W E b g b E E Q R f ; % % % % . $ $   @ @ @ @ @ @ @ @ ; 1 f = @ @ - E b g b E f @ @ = = @       O - # @ # % O   @ - ; @ ; @ O   - 1 b E b T b b l k k > > i i > > > > > > > > > > > > > > > > > > > > & & & & & & & & & & & & > & # # # W J.U.H.J.w.7.$.B m k f f 1 1 1 1 1 1 3 3 3 1 3 3 3 3 3 3 3 3 h i 8 c ' '  . .'.'.'.].}.}.}.}.}.{.{.{.-X:X:X-X-X-X-X-X{.{.[.[.u.[.[. X{.-X-X{.{.[.[.i.q.q.0.0.&.&.&.;.;.;.;.;.......U U U P P P P J J K K K K K K J J F / #XzX2X%X@X2X1X%XR.D.=.=.v.;.;.v.-.-.-.L.hX$XD.=.=.-.XXbXVXbXVXhXU.w.7.-.-.-.-.-.-.-.F.J.XX&X2XbXVXbXkX1X@X1XkXbXmXkX5XcXbXbXkXcX5XkXkX5X1XT.e.K.T.T.oXT..XK.r.K.T..X2XbXcX<XR.J.K.R.R.6.&.$.! W ~ =.Q T k s 3 3 , , > > 3 3 h h 3 3 3 3 3 > < < > < < < : : : : : > < : : : < < < < < < : 4 : : : : : : : : 4 4 4 4 : : : : % % X X X X X X X X X X X X X X X X X X X X X X o o o % $ $ % % = @ ; - v #.#.W v g f - 1 1 1 1 = = = % % @ @ - M E @.! W @.2.7.W M b k g k f v v N b f 1 % % % % % % % % % % % ; - 1 = % = - ; ; v @.7.J.H.8.#.^ ^ ^ ~ ~ E n f - = % % % % = = = = = = = = = = % % % X X X $ $ % % % % % % % % % $ % - n T R l g f f 2 2 f - - ; - f b ~ =.#.=.~ ~ W b f - - k b N E E E E N E l N W R R R l k d s s s w s d s f k l k f s 1 f - - f f f f 3 > 1 > & & f b E E W ~ W l f f k N @.@.W l s s s s s w s j s 8 i 8 i i i i d i i i i i 8 8 8 8 & & & & & & * * * * % % $ $ # # % % % % $ $ & & & & ",
"s i i i i s i i > > > > i i i i > > > > > > > > > > > > > > > > > > > > > > > > > > > > > > > > > > > > i i i i > > > > i i i i i i i i i i > > > > > > & & % : : : : : : : : : : : : : > & % % : > > 1 1 & 1 k Q 3 > 3 : > : : : : : : % % - f b n b b M E E M r r ; ; @ = f f b k = @ $ @ $ $ % % % $ O @ ; v W E ~ ^ - @ = @ @ @   ; E E b b v - ; - = @     @ - - # @ % % % @ ; - @ @ ; @ O = 2 n T k f n f f f f f > > i i > > > > > > > > > > > > > > > > > > > > & & & & & & & & & & & & & & & * + w 4.J.U.K.J.w.*.W v g f 1 1 1 1 1 1 1 3 f 3 1 3 3 3 3 3 3 3 3 s i i 9 c ' ]  .'.'.'.'.}.}.}.}.}.}.{.{.:X{.{.:X:X-X-X-X{.{.{.{.{.{.{.{.{.{.{.{.{.[.i.q.q.q.0.0.&.&.&.;.;.;.;.........U U P P P P P J P K K K K J J J I ;.!.xX2X@X%X5X5X2X&XL.D.=.v.v.=.=.v.v.-.v./.2XW.-.=.=.7.&XbXZXVXVXkXT.J.6.7.D.7.D.D.-.-.D.F.R.XX<XmXnXmXkX2X1X1XkXbXbX5X3XcXmXbX3XnXkXvXbX3X@XU.e..XXXXX@XXXT.K.Y..X@XoXoX3X2X@XR.W.T.T.J.$.4.*.#.~ Q ~ R k h 3 3 , 3 3 3 3 3 3 G h h 3 h 3 3 > > > < < < : : : < : : : < : : : : : < < < : : 4 : : : : : : : : 4 4 4 4 4 4 4 4 % X X X X X X X X X X X X X X X X X X X X X X X o o o @ % % % ; = ; - b 2.3.~ b f f - = 1 1 1 = % = % % % @ ; v ! ! #.$.#.7.8.7.N M b v v b f f v b b 2 = % % = = = = - = = % % % & = 1 = = % = ; N #.7.J.6.+.C ! W ^ E T n 2 2 = % % $ % % = = = = = = = = = = 1 % % X X X X X % % % % % % % $ % o @ - n b n n g f f - - f 2 2 2 2 2 2 T W ^ ~ #.#.^ M g r f E ~ #.#.#.! W W W M Q o.Q Q R x l j i 8 s & s s s k l l l f 1 1 1 w w f f s f f 1 1 1 # # - g b b N W W M f f g k ! @.~ b s s s s s w s j s i i i p p p p d p p 8 i 8 8 8 8 8 & & & & & & & & * * % % $ % % % $ $ % % $ $ & & & & ",
"s i i i i s i i > > > > i i i i > > > > > > > > > > > > > > > > > > > > > > > > > > > > > > > > > > > > s s s s > > > i i i i i i i i i i i i > > > > > & & & : : : : : : : : : : : : : > % % : > > > 1 & & f l / > : > : : : : : : : % % = f b N N W ~ E b 2 ; @ @ @ @ @ @ @ % $ $ % % % % % & % $ % % @ - #.W.xXhXhX$XD.M v ; ; ; ; @ @ b #.^ E b b f =     O = 1 - @     @ ; @ ; - @   ; % O n f 1 k - - = @ O $ % # > i i i > > > > > > > > > > > > > > > > > > > > & & & & & & & & & & & & & & & & + + #.J.H.J.w.7.-.O.m g f 1 1 1 1 1 1 1 3 f 3 1 3 3 3 3 3 3 3 3 3 i i 9 c ' {  . .'.'.'.}.}.}.}.}.}.}.{.{.{.{.{.:X:X-X-X{.{.{.{.{.{.{.{.{.{.{.{.[.i.q.q.0.0.0.0.&.&.;.;.;.;.;.....U U P P P P P P P J J K K K J J F I / /.zX2X&X@X5XkX5X2XL.-.=.v.v.v.;.;.=.=.-.D.&X&XD.;.=.*.J.%XbXZXZXmX3X.XK.J.F.J.D.D.D.-.-.D.F.U.R.XXkXbXkXkXkX5X3XkXvXmXmXnXVXbXmXmXnXmXbXmX1XT.H.U.@X@XoX@XXX.X.X.XoX2XoXr.U.E.@XH.W.W.J.$.O.J.J.7.~ R Q R k h s , 3 3 h h h h 3 3 3 h 3 3 3 > > > > < < : : : : < : : : < : : : : : < < < : 4 4 : : : : : : : : 4 4 4 4 4 4 4 4 X X X X X X X X X X X X X X X X X X X X X o X X o o o o % = - 1 - 2 b =.F.7.v f r w = = = 1 = = % % % $ @ @ - b W B @.2.6.J.8.#.M M v k M N v r v M b f # % = 1 = 1 2 2 f = = % % % $ % = % O = f E #.4.6.%.C ! N E T n n 2 2 = % $ o % % % = = = = = = = = = = 1 = % X X X X X % % % % % % % $ % o @ - g n v g f f - - - - 2 2 2 2 - - 2 n v M #.2.=.W v f b ~ 2.7.7.*.#.! W W W o.o.o.o.R x l j & # & # s f f l b R l f 1 1 1 w w f f s f f s 3 1 = # - f b b M ~ ~ E f g g g M ~ ~ b s s s s s w s j s i s i p p p p p p 8 6 8 8 8 8 8 8 & & * * & & & & * * $ $ $ % % % $ $ % % $ $ & & & & ",
"i i i i i i i i i i i i i i i i i i i s > > > > > > > > > > > > > > > > > > > > > > > > > > > > > > > > > > > i i i i i i i i i i i i i i i i i i i i > > > > > > : : : : : : : : : : : : : : : > > > > 1 % f =.T > % 3 % : : % % % % % 1 f b E M W ^ E k = @ @ % % % % % % % % % % % % % % % % & % & @ - F.W.&XE.@XR.7.! ! ! N f - # ; # g M E g f 1 @ % @     - f #     O # @ @ = = @   @ ; f k f - % o O @ % # & & & > > i > > > > > & & & & > > > > > > > > > i > > > > > > & & & & & & & & & & & & & & V F.J.w.4.$.%.O.m g f f w - f 1 1 1 3 3 3 1 1 1 > 1 1 3 3 3 3 i i 8 c ' ]  . .'.'.'.}.}.}.}.}.}.}.}.}.}.{.{.{.{.{.{.{.{.{.{.{.{.{.{.{.{.{.[.u.q.0.0.0.&.&.&.&.&.;.;.;.;.;...H H P P P J J J K K J K K K J F F H G.#XhX2X@X&X1XkXkX2XL.7.=.=.v.v.;.;.=.v.=.=.P.%XR.#.=.=.D.R.kXbXnXmX2X2XXXU.K.R.R.P.J.F.7.7.6.J.U.K.R.%XkX@X4XkX5X4X5XkXbXVXnXVXVXVXnXDXnXnXkXoXU.H.XX1X5X1X3X4XH.T.XX1X@XT.U.U.R.@XW.7.2.#.N *.J.J.*.E R R T k h 3 G 3 3 3 h h 3 3 3 3 3 h 3 3 3 : < < < < : : : : : : : : > < : : < < : : < : : : : : : : : : : 4 4 4 4 4 4 4 4 4 4 X X X X X X X % % % % % X X X o o o o X X . . X X $ % = 1 f f - g #.D.7.~ v f - w - - = = % = % % % o @ @ - b N B %.2.7.2.#.W N v v g f M v v W W b f 1 % = = 1 f k f f 1 = @ $ $ X $ % $ @ - b N @.2.#.! N M N b f 2 2 2 = = = % o % % % = = = = = = - - 1 1 3 = % X X X X X X % % % : % % $ % $ @ = n T b g - f f f 2 v v f 2 f 2 - - 2 f v ^ ~ #.~ M b b ^ D.D.3.#.@.Q W W W V R R W R M g j s & & w 8 s w l l b b f f - - - - & # s s f f s 1 - - w s l M M W ~ E l g g f g N ~ R k j f f j s s s j s i d p p p p p p 8 8 8 8 8 8 8 8 & & & & & # & & & $ $ % % % % % $ $ % % % & & & & % ",
"i i i i i i i i i i s s i i i i i i i i > > > > > > > > > > > > 3 > 3 > > > > > > > > > > > > > > > > > > > > i i i i i i i i i i i i i s s s s i i i i > > > > > > > : : : : : : : : : : : : : > > > % = 1 b =.f % $ : : : % % % % % = 1 k b b b b b f ; $ $ % % % % % % % % % % % % % % % % % %   @ - w D.2.! t r q # ; ; v N ~ k w w @ f b f O   @   = # % @ @ f - @ O O @ # @ % = @   @ = f 2 1 = % $ # & & 1 1 > > i > i > > > > > & & & & & & > > > > > > > i > > > > > > & & & & & & & & & & > > & & g $.6.5.4.&.} B g r f f f f f f f 1 3 3 3 1 1 1 1 1 1 1 3 3 3 > 8 8 c ' '  . .'.'.'.'.}.}.}.}.}.}.}.}.}.{.{.{.{.{.{.{.{.{.{.{.{.{.{.{.}.i.i.q.0.0.0.&.&.&.&.&.;.;.;.;.;...H H Y P P Y P L P K K J J J K J F H P.$XxX2X&X.X.X@X5X2X&XD.-.=.=.v.=.=.=.v.=.=.=.W.&XL.-.3.D.R.$XkXbXbX5X@X@XXXXX.XXXXXW.J.J.7.-.F.J.J.J.w.U.&X@X@X5X3X2X3X5XvXVXZXDXDXDXDXDXZXnX5XT.U.T..X3XVXbXkX2XH.e.XXXXU.H.T.@X@X@XJ.#.! ! #.7.F.3.W M R Q G h 3 3 G 3 3 3 3 3 3 3 3 3 h h 3 3 > : < < < : : : : : : : : : > < : : < < : : : : : : : : : : : : 4 4 4 4 4 4 4 4 4 4 4 4 X X X X X X X X X X X X X X o o o o X X X . X X $ % f g g w g ^ 3.D.#.b r r f f 1 1 = = % % % = % @ @ ; f n M ! #.#.O.W N v v g v M k ! N M #.@.b g f = = = 2 f n b b f - = $ $ X % $ $ = - b E #.*.#.^ N N b v 2 - = = % X % X X % % % = = = = = = - 1 2 2 1 = % X X X X X X X % % % % % X % $ % = f n n f f g b n v n n v f f f - - - 2 f b E ^ ~ W N N ~ 7.*.#.@.R V M M M M M W W V M g f s & & & & s s b b M b f f - 1 s - - & 1 s f f 1 1 - - w s k b b W ~ W M g g g g M Q R k j f f j s s f j s i s p p p p p i 8 8 8 8 8 8 8 8 & & & & & & & & & $ $ $ % % % % $ $ & % & & & & % & ",
"s s s s i i s s i i i s s i i i i i i > > > > > > > i i i i > > > > 3 > > > > > > > > > > > > > > > > > > > i i i i i i i i i i s s s s d s s s s s s i > > > > > > > > : : : : : : > : > : : : : : % % % g E ~ # % $ % % % % % $ @ # f g g f f f 2 - % $ $ $ % % % : : : : : : : : : : : : : : > $ & @ ; ! B C ,.5.4.N ; @ @ ; b M W g   f E f @ @ @   - = % @   % f f # @ # - @ @ @     % - f 1 1 % % 1 1 1 1 s s > > i i > > > > > > & & & & & & & & & & & & i > > > > > > > & & & & & & % % & & > > & & # B 4.4.4.&.B m g g g f f f f f f 1 3 3 3 3 1 1 1 3 3 1 3 3 3 > > 8 c ' ' ]  . .'.'.'.].].}.}.}.>.}.}.}.}.}.{.}.}.}.}.{.{.{.{.{.{.}.}.i.i.q.0.1.&.1.&.&.&.;.;.;.;.o.;.....H Y Y Y Y P Y J J J J J F J F F ;.!.%XhX2X&XR.K.R.@X2X@XR.D.=.;.v.=.;.=.-.v.=.@.-.R..XF.-.P.&XkXhX3XmXkX<X.X@XXXXX&X&XXXR.K.K.w.7.J.K.J.J.6.6.K.E.@X4X2X2X3X5XcXnXZXDXDXDXDXDXDXmX1XT.H.T.@X5XVXZXkX@X5.5.U.H.e.e.XX4X2X4XJ.! N N 2.*.#.N l b Q Q k h 3 3 h 3 3 3 3 3 3 3 3 3 3 3 3 3 > : < < < : : : : : : : : : > < < < > < : : : : 4 4 : : : : : 4 4 4 4 4 4 4 4 4 4 4 4 4 X X X X X X X X X X o o X X $ $ $ $ X X X X o X % = b R b f b ~ 3.#.b - 2 - f f - = = = % % = % % % ; - f b M ^ ~ E v v f r t g M W N #.@.W #.! b k k = = = g g b W Q k - = % X o @ O O = - T E ~ #.@.W E E v f - = = = X X X o % X % % = = = = = = - - 1 1 = : % X % % % % X X X X % X X X $ % % % 1 1 2 2 f b E W b b b b k l f - - ; - f g b M E N W @.-.*.@.Q R x x x x z z M R W R M g f 1 & - # & f f M M M b f f f f f s - & & > f f - - - s w s g l b E W W M g g l g M R R l g f s f s f f f s > & i 8 i i 8 8 8 8 8 8 8 8 8 8 & & & & & & & & & * $ $ $ $ % % % $ & & & & & % & & ",
"s i s s s s s s i i i s s i i i i i i > > > > > > > i i i i > > 3 > > > > > > > > > > > > > > > > > > > > > > i i i i i i i i i s s s s d d d d s s i s i s > > > > > > : : : : : : > : > : : : : % % % = b Q Q % % % % % % % % @ # f k k f - = % % % & & % % % % % : : : : : : : : : : : : : : : % % @ ; C <.I.U.<XE.C ; @ @ @ @ # M W b f b b @ @ @ @ % @       @ # f 1 # - - 2 = %   @ - f g 1 1 = # s 1 & & s s s > i i > > > > > > & & & & & & & & & & & & > > > > > > > > & & & & & & % % & & > & & & & m $.&.&.+.B m g g k g f f f f f 1 1 3 3 3 1 1 s s 1 1 3 3 3 > > 8 c c ' ] ]  . . .'.'.].].}.}.>.>.}.}.}.}.}.}.}.}.}.}.{.{.{.}.i.i.>.>.q.q.0.1.&.&.&.&.&.;.;.;.o.o.....H Y Y Y Y Y Y Y J J J J F J F H =./.hXhX2X&XR.J.J.U.@X2X&XJ.-.=.=.=.=.;.=.v.v.=.;.-.K.J.F.J.@XzXbXkX3XcX5X@X@X@XXXT..X.X.XR.K.U.J.e.K.K.H.H.J.6.J.E.@X@X@X2X5X5XkXbXnXZXDXDXDXVXVXkX1XT.e.U.2X5XkXmXkX@X4.5.J.J.H.E.4X2X4X@XF.! ! M W W Q M M M R l k h 3 3 3 3 3 3 3 3 h h 3 3 3 3 3 3 > : < < < : : : : : : : : : < > > > > < : : : : 4 4 : : : : 4 4 4 4 4 4 4 4 4 4 4 4 4 4 X X X X X X X X X X . o X X $ $ $ $ X X X X o X % - b E E b b E W b f ; f f - - ; % % = = = % % % @ - 2 f b E N N v r r q ; M N W #.*.2.! W @.^ N E b - = 1 g b E ^ ~ k = = % X o @ O @ @ = g b M E E M M E v f - = = % X % X X % X % % = = = = = = = = = = = : % X % % % % X X X X % % X X X $ % % = = = - f b W ^ M M E E M M l f ; ; - w k g g g g M o.*.@.Q M x x x x x x z x N W W M l f 1 & - # w k b R M M b g f f f f f s & & > f f & & - f w f f k b M Q W E g g l g l E R l k f s f s s s f s > * & 8 8 8 8 8 8 8 8 8 8 8 8 8 & & & & & & & & & $ $ $ $ $ % % $ $ & & & & % % & & ",
"s s s s s s s s s s s s s i i i > > 3 > s s 3 > i s s s i s > > 3 3 3 3 3 > 3 > 3 > > > > > > > & & > > > > > i i i i i s s s s s s s d d d s s i i i i s s s > 3 > 1 > : : : : : : : : : : : : : : % % f Q ~ E @ % % % % % % % = 1 f k f - % $ % % % % % % % % : : : : : : : : : : : : : : : : . % % ; # e.E.T.<X<XI.C q @   @ @ O @ f E E E b ; @ @ @ 1 = % % O     - f f f # - f k - @ % % f 1 1 - - 1 s s i i i i i i > > > > > > > > > > > > > > > > > > > > > > > & & & & & & & & & & & & % % > & * & # w $.4.$.$.O.B m g k g f f f f f 1 f 1 1 1 1 1 3 3 3 h f 1 3 3 > > a c ' ' ]  . . . .'.'.'.'.'.}.>.>.>.}.}.}.}.}.}.}.}.}.}.i.i.i.i.>.y.y.q.0.&.&.&.&.&.;.o.;.o.....H H H Y Y Y Y Y Y F Y J F J F , H P.$XhXhX2X&XL.D.7.F.R.&X@XR.D.-.-.=.=.;.=.=.-.=.;.;.-.K.J.U.@XkXZXZXmXkXmX3X3X1X@X.XK.K.R..X.XT.K.J.K.K.R..X.XU.w.e.R.R.K.oX1X2X2XkXvXnXnXnXZXVXnXbX2X@XXXK..X@X1X1X5XkXkXU.J.U.T.XXXX@XXXR.W.7.W ! v g W #.E E E R k k h 3 3 3 1 3 3 k k k k k k h 3 3 3 : : : : : : < : : : : : : : < > < < < < : : : : : : : : : 4 : : : 4 . . 4 4 $ $ $ . 4 4 X X % % % % % X X X $ X X $ X X $ o o o . . o @ = f b #.#.W E b b g f 2 f f - = % % = = = = % = - f f g b E b v r ; ; ; ; r W *.#.7.6.#.m B *.#.^ ~ W g - - f M ^ Q R f = % o % @ @ @ @ @ @ ; = - - f g b b n f 2 = X X % % % % X % % = = = = = = = % % @ @ $ % % % % % % % % % % $ % % % % % % $ $ @ $ % - b E ^ ^ E M N E W E M l s w w s g x x x x x R o.o.R x x x g g x g d g M #.@.W M b f = % - f b R b b b b b l s f f f f - > 1 s f s f f f f f w f k b N W E b k k l l E E l g s f f s s s s s & * * * * & 8 8 8 8 8 i i i i i i i 8 8 & & * * & & % % % % % % % % & & & & & & & & ",
"s s s s s i s s s s s s s i i i > > 3 3 s 3 3 > i s i i i i > > > 3 3 > 3 > > > 3 > > > > > > > & & > > > > > i i i i i s s s s s s d d d s s s i i i i s s s > > > > > : : : : : : : : : : : : : : % % n ^ ~ ^ @ @ % % % % = 1 1 1 1 f = % % % % % % % % % % % : : : : : : : : : : : : : : : : : 3 o ; O.,.1.oXoXE.8.N ; @ @ % O # @   f ^ ~ E b - ; 1 b =     @ O   # f f 1 % % = f f f 1 ; - - - 1 1 1 i i i i i i i i i > > > > > > > > > > > > > > > > > > > > > > & & & & & & & & & & & & % % > % > & # # *.5.4.4.$.O.W v g k f f f f f f f 1 1 1 1 1 3 3 1 3 3 1 3 3 > & 8 c ' ' ] ]  . . .'.'.'. .'.>.>.>.>.>.>.y.i.}.}.}.}.i.i.i.i.i.i.y.q.0.0.:.&.&.&.&.{ ;.o.;.o.....H Y Y G Y Y Y Y Y F F Y F F Y ;.L.&X2X2X2X&XW.-.=.*.F.T.&X@XW.D.D.-.v.=.=.=.=.=.;.;.=.D.K.U.@X2XmXDXZXbXmXkX3X5X2X1X.XH.H.K.R.T..XK.K.R.K..X@XXXU.J.J.U.H.J.U.@X1X2X5XkXmXbXmXmXcXkX5X@XXXT.U.oX@XoX2XcXkXkX@XR.E.R.R.U.W.J.F.7.*.N M v g #.3.M ~ @.Q l f f 3 3 3 3 3 3 k T R T k k k 3 3 3 : : : : : : < < : : : : : : < > < < < < : : : : : : : : 4 4 : : : : . 4 4 4 $ $ . . 4 4 X X X X % % % % % % $ $ X X o X X o o o X . o @ ; f W 2.#.E b k f f - - 2 - 1 ; % $ % = = ; = 2 f g n b M E f - - ; ; ; ; v #.7.*.4.2.W m #.6.2.! ~ W g - # k W ~ E l - % @ = = - = % % @ @ @ @ @ @ - f g b v 2 2 = X X % % % % X % = = = = = = = = % @ @ $ $ % % % % % % % % % % % % % % % X X X X $ $ % = g b W ~ M b M N N M M x x l x x x x x x x x V R R x x x x x g l g g M W 7.=.! E E l f # - k b R b b b b b b f s f f s - > 1 s f f f f k f f f f g k b N E M b M M M E Q l f s s s s s s s s & * * * & & 8 8 8 8 8 8 i i i i i i 8 8 & & & & & & & & % % & % % % & & & & & & & & ",
"i i s s i i i i s s s s i i i i i i i i i i > > i i i i i i > > > > 3 3 > > > > 3 > 3 > > > > > & & > > > > > i i i i i i s s s s d d d d d d s i i s s s s i > > > 1 > > > : : : : : : : : : : : : % % b E ^ ^ @ O % 3 1 1 1 1 1 1 1 1 % $ $ % % % % % % % & > : : > > > > > > : : > > > > > & %   # k 7.@XVXDXDXnX<X7.b r @   @ @ # @ # - N #.~ E b E Q 1     @ @ @ - f - - # @ @ = = f f f 1 1 s 1 1 s i i i i i i i i i > > > > > > > > > > > > > > > > > > i i > > & > & & & & & & & & & & % % > : > > # # o.J.e.7.&.O.W M b l g f f f f f f 1 1 1 1 1 1 1 1 3 3 1 3 3 > & * i c ' ] ]  . . . .'.'. . .>.>.>.>.>.y.>.>.>.y.i.i.>.>.>.>.i.i.y.>. .&.&.&.{ { { ;.o.[ [ [ H Y Y j G Y Y Y Y Y F F F I F a v.&X&X2X2X4XE.L.-.;.o.=.D.R.XXR.L.D.D.v.-.;./ ;.;.;.;.o.-.L.XX&X3XkXVXDXVXbXbXkX5X5X2X2XXXH.r.e.K.U..XK.K.T.XX@X@X.XK.J.U.K.e.w.J.E.4X2X2X2XkXkXkX3X3X3X2XXXU.U.K.T.@X@X3X5X@X@X@XE.E.K.J.5.6.6.7.#.@.N v v W 3.F.E =.*.E k f 3 3 3 3 3 3 h l T R T k k 3 1 1 1 : % : : : : < < < < : : : : < < < < : : : : : : 4 4 : 4 4 4 : : 4 4 . . 4 4 4 4 . . 4 4 X X X % % % X % % % % $ $ X o X X X X X X o % @ - b @.#.! b f f 1 2 - - - - = % $ $ @ @ = - f b b b E E M b f f - - @ # w M #.2.O.O.B m B 7.7.2.~ ^ E f - - g W ^ E f ; ; @ 2 2 2 2 = = = @ @ @ @ @ % = f k f 2 = = % % % % % % % = = = = = = = = = % % @ $ $ % % % % % % % % % % % % % % % % % X X $ $ $ % f k E ~ M b M E V x V x H H H x x x x x x R o.o.x x x z g g g g g g W @.D.2.@.~ E T f = - f b b l k M b M M g g f f s - > 1 s s f g g k k f f f g g k b M E Q W Q M E Q M g s w f f f s s s i # # # & & & & 8 8 i i i i i i i i 8 8 8 8 & & & & & # & & & & % % & & & & & & & & ",
"i i i s i i i i i s s s i i i i i i i i i i > > > i i i i i > > > > > > > > > > 3 3 3 > > > > > & & > > > > > > i i i i i s s s d d d d s s d d i i s s s s i > > > 1 > > > > > : : : : > : : : : % % % T T E ^ @ @ - k k k f 1 % % % : % % % % % % % % % % > > > > > > > > > > & % & & & & & & & 1 - R.&X/.v q ; # @ # f W E f @ @ ; f @ ; ; ; - = f b b     O O % = f 1 # - 1 # @ @ @ # 1 1 s 1 s s s s s i i i i i i i i i > > > > > > > > > > > > > > > > > i i > > > > > > & & & & & & & & % % > : > > # # V J.H.w.4.O.W B b l f f f f - 1 f f 1 1 1 1 1 1 & 1 s 1 s s > % * 8 c ' ' ] ] ] ]  . . . . . .>.>.>.>.>.>.>.>.y.y.>.>.>.>.q.>.i.y.:. .&.&.&.{ { { { [ [ [ ..x Y Y G G Y Y Y F F F F F a G v./.%X@X1X4X@XJ.-./ / =.-.D.L.R.J.J.D.3.-.;.;./ ;.o./ Q @.D.&X%X2XmXVXDXZXDXVXbXkXkX5XkXkX@XK.e.r.e.K.R.K.K..X@X@X.XH.J.J.T.K.e.e.w.R.%X4X&X@X4X2X4X<X<X2X1XE.T.T.H.H.e.U.T.U.R.T.R.W.W.8.$.%.$.4.4.O.M N v v *.7.L.@.-.=.l f f 1 3 1 3 3 h k k T T b k k 1 % 3 1 : % : : : : < < < < < < < < < < < < : : : : : : : : 4 4 4 4 4 4 4 4 . . 4 4 4 4 4 4 4 4 X X % % X X X % % % % % $ $ X X X X X X X o @ = v E #.! v r ; - - - - - - = % % @ @ @ ; ; r v N W E ^ ^ M k f f - ; @ ; f b ! O.B O.B C $.6.$.2.#.~ b - - - - b b b f - - = f n n f - - = % % @ @ @ @ % - 1 2 2 = % % % % % % % = = = = = = = = = = % % $ $ $ % % % % % % % % % % % % % % % % % X X $ $ $ % & w l W W N W o.o.o.o.o.o.H x j x x x x R W R x z z d d s d r r r g W #.D.2.@.~ Q R k - # f f g k k b b E R l g f f - - > 1 s s f f f k k f f f f g g k l E ~ ~ @.N E E E l s f s s f f s s > & # # & & & & 8 8 i i i i i i i i 8 8 8 8 & & & & # & & & & & % % & & & & $ $ $ $ ",
"i i i i i i i i i i i i i i i i i i i i s s s i i i i i s i i > > > > > > > > > > > > > > > 3 > > i > > i i i i i i s s s s s s s s d s s i i i s i i p i i s s s > > > > > > > : : : : : : : : % > % % % f b k ; @ = l T k & $ % % % : : : : : : : : : : : : % > & > > > > > & > > > > > > 1 > > > h =.w # ; @ @ O   O O @ f E ~ w @ f r w f r # @ @ % & O       & 1 s 1 > > > & & # $ # s s s s s i i i i i i i i i i i i s s i i i i i i i i > > > > i i i i > > > > & & & & & & & & & & & & & & : % > > & # w J.J.7.%.O.O.m b l g s f f 1 1 3 1 1 1 1 1 1 1 1 1 s s s s > 3 & * 9 0 ' ' ] ] ]  . . . . . . . .>.>.y.>.>.y.y.y.y.>.>.>.0.0.>.0.&.{ { &.&.{ { { ;.o.......c c j Y Y Y Y F F F a F a a /.%X2X4X2X3X&XP.-.=.=.o.o.-.D.P.P.D.D.D.=.;./ / ;.o.o.Q #.7.&XkXkXbXVXDXDXDXVXVXmX3X3XkXvX2X@X.XH.e.K.T.R.K.H.&X2X5X.Xw.e.e.K.T.U.e.w.H.R.R.W.W.E.E.E.@X@XXXoX1X1X@X.XH.J.6.6.5.w.K.E.J.J.6.O.O.$.o.m B #.D.*.@.4.L.3.@.=.R k s f f 3 h h k k k k k k h 3 3 3 3 3 : : : : < : : > > > > > > : : 3 3 3 > : : : : : : : : % X % % : : : : : : 4 4 4 4 4 4 4 4 % % % : % o $ $ % % % % % $ % % $ $ $ $ $ % - f ^ 3.2.! m r k - 2 f - 1 = = % % % @ ; r r v N ! ! 7.F.! E f b f f = % ; f M B B O.O.$.7.2.F.2.2.#.E f - = = = f g g 2 - - g g f f f f 1 = % % % X o = = = = 1 1 1 = = = % % % % % % % % % % % % % % % % $ $ % % % % % % % % X X X X X X X X X % % % $ $ % * + 8 x R o.o.;.;.o.o.o.[ o.o.H H x x x x o.o.V x d s d d d d r w w M W *.D.7.*.W W b k 1 1 s w f s w b M b b l k f f - & 1 1 1 1 1 1 f b b f f f f f f l l b W @.~ ~ E E R l l f f f f f s > & & & & & & > & i i i i i i i i i i i i i i i i > > & & & * & & & & & & & & & & & & ",
"i i i i i i i i i i i i i i i i i i i i s s s s i i i i s i i i > > > > > > > > > > > > > > 3 i i i i i i i i s s s s s s s s s s s i i s i s s s s i i i i s s i > > > > > > > : : : : : : : : %   % 1 = 1 % ; = % 1 k k & % % % : : : : : : : : : : : : : : : > & & > > > & & > > > > > > > > G s s # ; r M r M r @ @       @ ; ~ E @ ; v f - # # @ % & & O   O & 1 s s s s s i i i & > s s s s s s s i i i i i i i i i i s s i i i i i i i i i i i i i i i i > > > > > > > > & & & & & & & & & & > & > > & & # o.4.$.$.O.W N b l g f f f f f 3 3 1 1 1 1 1 1 1 1 s 1 s s > 3 & * 6 9 c ' ' ' ] ] ]  . . . . . .:.y.y.>.>.y.y.y.y.>.>.>.0.0.0.&.&.{ { &.{ { { ;.o.......H c Y j F F F F F a a a G v.#XhX3X1X3X2X2X/.D.*.=.=.=.-.7.F.P.D.D.-.-.;./ / / / / o.@.7.J.2XkXkXbXVXZXDXDXVXVXkX2X3XvXbX5X2X@X.XY.K.U.R.K.H.@X2X5XU.5.w.K.T..XK.w.7.6.6.F.6.J.K.R.R.XX<X@X@X@X@XT.J.w.J.U.K.6.6.w.J.6.4.7.O.m B B O.4.W.R.D.2.*.3.@.~ ~ l f f f f h k h k k k k h h 3 3 3 3 3 3 < < : < < : : > > > > > > : : 3 3 3 < : : : : : : : : % X : : : : : : : : 4 4 4 4 : : 4 4 % % : % % $ % % % % % % % $ % % $ $ % % = - f E 3.F.7.8.7.m f - f f - = = = = % @ ; f M M B %.#.2.6.J.#.b b f k 1 = % ; f M W B #.4.8.$.@.$.W ^ E b f - = = 1 1 f f - ; - g b b b b k k 1 = % % X X % = = = 1 = = = % = % % % % % % % % % $ $ $ $ $ $ % % % % % % % % % % % $ X X X X X X $ $ % % % $ & > i d x o.o.;.;.;.;.o.o.[ [ H x x x x x x V o.V g d j f s s d d w w v W 2.J.L.7.#.Q E b k 1 1 1 - w f w l M b b l l f f - & 1 1 1 1 1 - f b R l f g s f f f f l M W ~ ~ W E Q R b 1 f f f s s > > & & & & & & & & & i i i i i i i i i i i i & & & & & & & & & & & & & & & & & & & & ",
"i i i i i i i i i i i i i i i i i i i i s s s s i i i i s i i i > > > > > > > > > > > > > > > > i i i i s s s s i i s s s s s s s s s i s s s s s s s s i s s s i > > > > > : : : : : : % % % % 3 > % % $ ~ 1 = 1 1 1 3 & $ $ : : : : : : : : : : : : : : : : : % % : > 1 > > > > > > > > > > > & & s & k @.^ W N f @   @ @     @   b ^ r @ f # @ O   O 1 1 1 % & f f s f d d d s j j i s s s s s s i i i i i i i i i i i i s s i i i i i i i i i i i i i i i i > > > > i i i > > > & & & & & & & & > > > > & & # w 7.$.#.W m M b l g g f f f f f 1 1 1 3 1 1 1 1 1 1 1 s s 3 3 1 & * 9 c ' ' ' ' ] ]  . . . . . . .:.:.>.>.>.:.>.>.>.>. . . .&.&.&.{ { &.{ { o.[ [ ..H Y Y Y Y G F F F G F a F H D.%XzXkX2X1X2XxX&XJ.-.=.=.-.-.D.D.D.D.-.-.=.=./ / / / o.o.=.-.R.&XkX2X2XcXbXVXDXZXbXcX1X1X5XbXkX5X3X1X@X.XU.K.K.K.K.@X2X5XK.w.e.K.K.K.H.5.-.4.4.4.4.7.J.L.I.R.@XE.T.R.R.J.4.4.J.R.R.H.J.4.4.4.O.-.$.W $.4.J.R.&XR.*.W N M M @.~ l f f f 1 3 k k h 3 3 3 3 3 3 3 3 3 3 3 : < : : : : : : : : : > : < < 3 3 > : : : : : : : % % : X : : % % % % % % $ $ % % X X % % % % % % = % % % % % % % % % $ $ $ $ = = 2 g M #.3.7.7.F.8.M f f f f - - = = ; = ; f M ! ! O.#.,.7.J.F.#.v b f f f - ; w g M M O.*.7.7.#.#.E v b v f - ; % % 1 1 1 - @ @ - f b b T T b k 3 1 % = = % = = = = = = = % % % % % % % % % % $ $ $ $ $ $ $ $ % % % % % % % % % $ $ $ $ $ $ $ $ $ % # & 8 i i d x x H [ o.;.;.;.;.;.[ x x x x j j j j z x o.@.V d j j j d j r r w w m *.F.W.L.2.~ W E b l f s 1 - - f w v M M M b l f 1 - - - - 1 1 - - - g b l g g f f f f f f b M ~ ~ Q W ^ W R f f f f s s s > & & & & & & & & & i i i i i i i i > > & & & & & & & & & & & & & & & & & & & & & & ",
"i i i i i i i i i i i i i i i i s i i i s s s s i i i i s i i i > > > > > > > > > > > > > > > > i i i i s s s s i i i s s s s s s s s i s s s s s s s s i s s s i > > > > > : : : : : : % % % %   3 > % 1 3.k 3 3 & % % $ % : % : : : : : : : : : : : : : : : : % % : > > > > : > > > > > > > > & f - f b 2.#.#.g ; @ @ @ @ @         @ ~ b ; f # # @ # 1 1 f f k H j s j j j d i j j s j s s s s s i i i i i i i i i i i i s s i i i i i i i i i i i i i i i i > > i > i i i > > > & & & & & & & & & > > > & & # # 6.#.O.B m M g g g g g g f f f f 1 1 3 3 1 1 1 1 1 1 s s 3 3 1 & * 6 9 c ' ' ' ' ] ]  . . . . . . . . . . . . . . . . . . .&.&.{ { { { { o.[ [ H x c Y Y Y Y G F F a F a F ;.L.xXmXmX2X5X1X5XkXR.7.#.=.-.-.-.F.F.D.7.=.=.~ Q / / / / Q =.D.K.XX%X2XT.@X5XmXVXDXVXkX3X<X<XkXvX1X1X5X5X@XoXT.K.H.K.R.@X2X2XJ.J.w.5.5.J.J.7.-.7.F.6.$.$.6.J.J.J.R.R.U.J.J.e.6.4.J.U.J.6.7.O.} B O.O.$.6.R.R./.$X$XL.@.M g f M *.=.E k l 1 1 3 k k h h 3 3 3 3 3 3 3 3 = 3 : < : : : : : : : : : > : < < 3 3 < : : : : : : : % % : X % % % % % % % % $ $ % % X X % % % X % 1 1 1 ; # = & % % % % $ $ $ $ % ; f v W #.! ! *.2.^ v f f g f 1 - - = ; ; f b ! ,.#.#.7.7.6.W.6.! E n n b b f w f v M g o.4.#.#.^ #.N v v f ; ; % % % 3 1 - = @ @ - f b b b b b k 3 1 % % % = % % % % = % % % % % % % % % % % $ $ $ $ % % % % % % $ % % % % % $ $ $ $ % % $ $ % % % * * 8 d x H H o.o.o.o.o.;.o.o.o.H x x x x p p p 9 d z W #.*.V d d d j j d d d e e N 6.J.6.*.@.^ E E b l f 1 & # w g f M N M b b l f 1 - - - - 1 1 1 # - f g g g f f w - f w f k b ^ ~ ^ ^ ^ ^ E f 1 f f - s > & & & & & & & & & & i i i i i i i i & & & & & & & & & & & & & & & & & & & & & & & & ",
"> > > > > i i i i i i i i i i i s s i i i i i i s s i i s s s s > > > > > > > > s s i i > > > > > > > > s s s s s s s s s s s s i s s s d d d d s s d d s s s s i 3 > > > > : : : : : : : : : : 3 % % % L.D.T % & % $ % % % : : : : : : : : : : : : : : : : : : % % % % % % % % % & % % > > & & & # & b *.7.J.F.v ; ; @ @ @ o   @       - E =.T R b l k k & & k R H j s d d d d j j j j j j j j d i i i i i s s i i i i i i i i i i i i i i i i i i i i > > > > i i i i i i i i > > i i & & & & & & & & > > & & & # @.#.W O.B m m m m M g k k g g f f f 1 1 1 1 1 - = 1 s s 3 3 3 3 & 6 9 9 c ' ' ' ' ] {  . . . . . . . . . . . . . . .{  .&.:.&.{ { { [ ..[ ..x c c Y j Y F F F G F a a a v.#XxXmXbX2X5X1XkXkX2XJ.*.*.*.-.7.7.F.F.F.-.*.o./ ;.Q / ;.o.@.7.R.%X&X1X2X.X3XcXVXDXVXmX3X2X1X2X5X3X.X@X5X5X.XXXT.U.Y..X.X&X2X%XJ.F.4.-.4.F.w.-.$.5.J.6.$.O.4.6.F.7.J.J.J.D.F.6.7.#.#.O.B $.7.7.4.$.$.O.6.W.E.@X/.R.J.4.B t r w M =.@.l f f 1 1 3 k k k 3 3 3 1 1 1 3 = = = 3 3 : : < < : : 1 > 3 3 > > > > > : : : : : : : : : % % : 4 % % % % % $ % % % % % % X X X % % X % 1 2 2 - = = & = % % % X o X $ ; - f M ! O.W N @.W r f 2 1 f f f - - ; # f N O.$.4.<.7.H.8.8.W.#.! ~ E b b g f f v N W ! @.6.2.@.M n v 2 - = = % = = 1 1 1 % % @ ; - f 2 2 f 2 1 1 = % % % % X % % % % % % % $ $ $ % % @ @ @ @ $ $ $ % % % % % % % % % % = % % & % % % # # % $ * * * 8 j x x x o.o.[ [ H H H x x x x j d d p p p 8 8 e d V #.-.$.W x g g r d g g g N W *.J.D.#.~ #.#.E M b l f - # ; f v b N E M M b g f 1 - = - - - 1 1 1 - - - f g k f - - - f f g b E ~ ~ ^ ~ ~ ^ M f f 1 s > > > & & & & & > & & & 8 8 8 8 & & & & & & & & & & & & & & & & i i > > > > i i & & & & ",
"> > > > > > i i i i i i i i i i s s i i i i i i s s s i s s s s i i i i > > > > s s i i > > > > > > > > s s s s s s s s s s s s i s s s d d d d d d d d i s s s i 3 > > > > : : : : : : : : : : . % : : =.k % % % % = > % % : : : : : : : : : : : : : : : : : : % % % % % % % % % % % % % & % % % @ - ~ D.7.F.2.#.N r ; # @ $ %   O @ @ ; ; n M l l l b k % O 1 k k d s d d d d j j j j j j j j d i i i s s s s d i i i i i i i i i i i i i i i i i i i > > > > > > i i i i i i > > i i & & & & & & & & > > & & # & M *.o.o.W O.B B W W M v g l f f f f 1 1 1 1 1 1 = - s s s 3 3 3 s & 6 9 p c ' ' ' ' ' { {  . . . . . . .{ { { { { { { { { { { { [ [ [ [ H Y c c c Y F F F F a a < * H D.$XzXVXcX5X1X1X5XcX5XJ.-.-.-.-.7.6.F.F.F.7.-.@.o.o.o.o./ Q @.D.R.&X%X@X5X5X1XkXbXVXDXnXkX5X5X3X1X1XXX.X@X3X3XXX@XXX.XXXoXXXXX2X&XF.w.7.D.F.6.-.%.$.7.J.7.$.O.#.7.7.7.-.#.#.=.#.=.*.=.%.%.#.7.-.4.7.4.J.6.J.J.J.J.J.2.*.O.N g g g ~ -.E l f f 1 1 3 k h h 3 3 1 1 3 3 3 = = 3 h 3 : : < < : : > > 3 3 3 > > > : : : : : : : : : : % % : 4 % : % % % $ % % % % % % X X X % % % 1 3 k k - - 1 1 = = % % $ X X % ; q v N ! O.#.@.M k f - f f f f f - ; ; ; g W O.%.,.7.8.U.4.J.F.! ^ W N b b f f f v W @.#.*.D.! N v f - = % % @ % = - - 1 = # % @ - 2 2 f 2 1 1 1 : % % % % % X % % % % % % % % % % % % @ @ @ @ $ $ % % % % % % 1 1 1 1 = = % % % % % % $ % * * * i d j H H H H x H x x x x j z d d d i i i s i 8 9 8 e V @.-.-.#.B z g g g g g M N @.*.F.D.2.~ #.#.~ E b b l f - # ; f b N ^ ! N N b b l f 1 1 - - 1 1 1 1 - - = 1 f f f 1 = = f f g b E ^ ^ ^ ~ ~ ~ E k f f 1 1 > > & > & & & & & & & 8 8 8 8 & & & & & & & & & & & & & & & & i i > > > i i i & & & & ",
"> > 3 > s i i i i i i i i i i i i i i i s s i i s s i i i i s s s s s s i i i i i i i i i i i i > > > > s s s s s s i i s s s s i i s s s s d d s s d d i i s s s 3 > > > > > > : : : : : : : : : 3 % % 3 : % & % % > 3 : : : : : : : : : : : : : : : : : : : : : : : : : : : : : : : : : : % % O f T D.L.R.(./.W.4.! N f # % # @ O   O - ; @   % ; = = & O O 1 s j s s d d s d j j j j j j j j j d p p s s s s s s s i i i i i i i i i i i i i i i i i > > > > > > > > > > > > > i i i > > & & > > > > > > > & & # s #.@.W B o.o.o.W W W N M b l f f f w w f - 1 1 1 1 s s s 1 3 3 1 s 8 8 9 9 c ' ' ' ' ' ' { { { { { { { { { { { { { { { { { { [ [ [ x c c j c a a a a F F a a i i Q P.%XmXNXnX5X5X4X5XcXcXXX4.*.-.7.7.7.F.J.F.6.3.=.@.o.o.o.@.o.=.7.R.2X2X&X2XkX5X5XvXVXDXZXvX5X5XkX3X@X@XT..X@X3X2X1X2X1XoXXXoX.X.X&XR.w.7.6.F.F.4.%.O.$.5.5.4.%.O.#.3.3.=.~ E l b R o.=.=.#.*.=.7.-.$.4.6.J.J.6.$.O.O.O.O.4.#.W v v E #.#.E R T k 1 1 3 k k 3 3 3 1 1 1 1 3 1 1 3 k 3 : : : : : : > > 3 3 3 3 > > : : : : : : : : : : % % % X % : : : % $ % % % % X X X X X X % % 1 k k n 1 1 - - = = = % % $ % ; r r m C O.#.2.#.k f f ; f k f - f w w w t N O.O.%.<.4.e.R.J.I.7.@.! M b b g f f g M ! #.#.2.*.v v f 2 = X % % $ % - - - - = = % = 2 2 2 f 3 1 = : % % % % X % X % % % % % % % % # % # # % % % % $ % % % % % % % & 1 1 1 1 = % % % # # # # & i s j x H x H H x j j j j d d p i i i s s 8 > > i s 8 8 d z o.$.4.&.%.B z g g g m N W @.*.2.7.3.~ W ^ W W E b b l f - # - v E ! #.! N M b b b f f f - - - w - 1 - # = f k b g f - = - f v M E ^ ^ ~ ~ ~ ~ ^ T b f 1 s s s s & & & & > > > & 8 8 8 8 8 8 & & & & > > & & & & & & & & i i i > > > i i & & & & ",
"i i s s s i i i i i i i i i i i i i i i s s i i s s i i i s s s s s s s s s s s i i i i i i i i > > > > s s s s s s i i i s s s i i s s s s s d s d d d i i s s s 3 > > > > > > : : : : : : : : % $ > > % % 1 $ % % % : : : : : : : : : : : : : : : : : : : : : : : : : : : : : : : : : : : % : 1 E F.L.(././.E.K.6.2.*.! f # @ ; % O % ; 1 ; @ @ @ @ @ % O % 1 s f s s s s d d j j j j j j j j j d p d s s s s s s s d s s s s s s s s i i i i i i i i > > > > > > > > > > > > > > i i > > > > > > > > > > > > > & & W *.%.B B B B B B ! W N M b b g f w w f - 1 1 1 1 s s s s f 3 1 s i 8 8 9 c c ' ' ' ' ' ' { { { { { { { { { { { { { { { [ [ [ ' c c j c a a a a a a a a a i d @.L.2XmXVXVX5X3X4X5XvXkX&XJ.-.-.-.7.7.5.F.J.F.7.*.#.@.@.o.Q o.*.D.U.&X2X@X.X5XvX6XcXnXDXDXVXcXkXcXkX1XT.oXXXoXoX2X1X5X5X2X.X.XoXXXT.T.H.6.7.*.-.-.*.%.%.-.6.4.$.#.@.=.-.=.M l E l k M W W o.@.=.#.4.7.7.4.-.4.7.4.B m m B 4.F.$.W M @.#.-.Q E Q R k 1 1 3 h h 3 3 > > 1 1 1 1 1 3 3 3 3 : : : : : : > > 3 3 3 3 > > : % : : : : > > : : % % % % % : : : % $ $ $ % % X X X X o % % = 1 f k n 2 - - - - = = = % % = = f v B %.#.7.2.! b f - - = k f - w w w w m O.$.%.<.8.e.I.R.R.F.%.@.N b b b f - f b N ! @.W @.N v f - = O o % = $ % 1 2 - - = = % = 2 2 2 2 1 = % % % % % % % % % @ @ $ $ $ % % % # # # % % % % % % % % % % $ $ % $ % & & 3 1 - & & & > s s j l H R H x x j j d i s s s i 8 & # # & > - & & > s s s s z V W %.&.$.#.B g g g m B O.#.#.#.#.~ @.^ E b n b b b b b g - # - M ! #.2.@.N E M M b k f f f - - f - 1 - # 1 n T E l f - = - f b E W ^ ^ ~ ~ ~ ~ ~ W T k 1 f f s s & & & & > > & & 8 8 8 8 8 8 8 8 & & & > > > & & & & & & i i > > > > i i > & & & ",
"i s s s i i i > > > > > s s i i > > > i i > > > i i > > 3 i i i i i i i i i s s s i i i i i i i i > > > s s s s s i i i i i i i i i i s s s s s d p p p p d d d s s s > > > > > > > % % % % : : : : : : % % % % % % : > > : : : : : : : : : : : : : : : : : : : : : : : : : : : : : : : : : : % 3 D.D.Q R s # O.+.&.5.4.4.O.v f = % @ @ ; f @       O % % O $ & f f s s d d d p j j j j j j j d j j j j s s s s i i i i i i s s i i i i i i i i i i 1 > > > > & > > > > > > > > > > > > > > > > i i > > > > > > % f # s *.$.O.B V V B W N W W W R b l f f f f f 1 1 f f s s s f s s f s i > i 8 p c c c c _ ' ' ' ' ' ' { ' ' ' ' ' { [ { ' ' ' x x c c c a a a a F F a a < a < j *.R.$XkXVXbX5X4X5XcXcXbX2XR.6.-.7.6.7.F.F.J.J.J.D.*.=.*.=.o.o.$.6.U.XXT.@XT..X5XvX5XbXVXDXDXZXbXbXvX2X.XoXoX@X.X@X1X2X5X5X2X.XT.@XXXT.U.F.-.@.@.@.o.@.#.%.4.6.4.$.#.7.-.=.Q x k l l M E Q W N R o.*.7.7.7.7.6.7.#.B m t z W *.7.#.N N *.D.*.E Q Q R k 1 1 3 3 > > > > 3 3 3 3 1 3 h 3 3 > : : > > > > : 1 1 3 3 3 > : % % % % : : : : : : % % % % % X X X % % . % % % $ $ $ % % - 1 1 k n n 2 - - - = = - 1 ; % & = - v N #.2.2.#.W v f f 1 1 f f - f f f r v B O.O.%.6.6.J.H.R.R.7.#.! N N b f f f f r k N ^ N M v f = = % $ % % % % = 1 2 - - = % % 1 f f f 3 1 % % % % X X $ $ % % $ $ % % & & & & & & & & > > & & % % % % % % O O O O $ % # & s f f j k l R H H x x l j j s i i > > > > & & & & & # & & & & & w s g z V V o.O.#.-.$.B m m v N ! O.,.O.#.! ~ ^ E b g f g b b n g f 2 = - b @.F.7.^ ^ E M M b b k g f 1 1 1 f f - = 2 T ^ E E n 1 - - - g E R E W ^ ^ ^ ~ #.@.Q R k f f f s & & & & > > > > > > > > & & & & 8 8 8 8 & & & & & & & & i i i i i i 8 & & & & & ",
"i i s s i i i i > > 3 > s s i i > > > > i > > i i i > > 3 i s i i i i i i s s s s s i i i i i s > > > > s s s s s s s i i i i i i i s s s s s s d d p p p p d d s s s s s > > > > > > % % % : : : : : : % % % % % % : > > : : : : : : : : : : : : : : : : : : : : : : : : : : : > > > > : : : : : T h & w # m J.T.@X@Xe.} B W b E 1 @ @ ; - O @ @ @ @ @ O   O * f j j s d d p p p j j j j j d p d d d d s s s s i i i i i i s s i i i i s i i i i i > > > > > & > > > > > > > > > > > > > > > > & & & & > > > > 3 & s # #.W m } O.o.B B N N W E M b k f f f f f 1 1 f f s s s s s h h s h s , * p c c c c c ' ' ' ' ' ' ' ' ' ' ' ' ' ' ' ' x c c c c j a a a a a F a a a < i H D.W.4XkXbXvX5X1X5XvXvXcXkX@X6.-.*.7.D.7.6.J.J.J.L.D.3.3.-.#.@.*.7.J.XX&XT.oXU..X5XcXbXVXDXDXDXVXbXmX3XoX.X@X2X1X@XoX1X1X2X1X1X@XoX@XXXR.H.7.#.o.@.Q W #.#.$.4.7.$.#.4.D.7.#.M j k x R E N E E E M V W @.o.B W @.#.#.O.M z W #.#.=.W M N =.-.~ R R E T k 1 1 3 3 > > > > 3 3 3 3 1 3 h 3 1 % : > : > > > 1 1 3 1 3 3 : : % % % % : : : : : : % % % % % X X X X $ X % % % % % = 1 1 f g f n n f - - - ; - - f f ; = % = f N ! @.@.W N v f f f f 1 = 1 w g k g g m O.O.O.O.<.4.J.J.J.8.,.~ ^ M b f r q ; ; - k N ^ M b f f = = % % % % = = - 1 - - = % % % 1 k k f 1 = % % % % % $ % % % % & & & & & & & & - - & & & > & # % % % % & # $ O O O O $ & i f j l l x x l j j j s s i > > > & & & & % % & & & & & & & & w - r d z m V B $.%.#.#.W m m m m B #.2.#.B O.! ^ W b g 2 - 2 f g f f 2 f - - N 3.J.7.^ E W E E b b b g g f 2 f f f 2 - g W #.#.^ b f = - - f b R R E E W ^ ~ @.@.^ E b h h f f & & & & > > > > > > > > & & & & 8 8 8 8 & & & & 8 & 8 8 i i i i i i 8 8 8 8 & & ",
"> > s s s i i i i s 3 s i s > > > > > > > > > > i > > > i i i i i i s s > i s s i i i > > > > > 1 1 > > s s s s s s s s s i i i s s s s s s i p d p p p p p p d s s s s s i i i > > > > > % % % : : : : : : % % % : : > > > : : : : : : : : : : : : : : : : : : % & & & : : : : > > > > > > > > 3 s % % & * z F.e.Y.1XT.$.m m w E M f @ @ g - @ @ @ @ % # % $ * s j j s d d d d d d j j j j p i p p p p d s d d i i i i i i i s i i i i s s i i i i > > i > > & > > > > > > > > > > > > > > > > & & & & & & > > > & $ # V %.%.O.$.O.B B M m N M b b g f f f f f f f f f s s f s f f f f h h 3 i i p p 9 c c c c ' ' ' ' ' ' ' ' c c c c c c c c c j a a a a a a F a a a 8 i x D.R.2XkXbXvX5X3X5XvXmXmXkX@Xe.$.4.-.w.w.6.F.J.J.J.J.7.-.7.-.#.*.J.R.XX&X&XR.U.r.oX3XkXVXDXDXDXDXnXmX5X4X<X1X5XvX5X5X@X@XoX@X@X@X1X1X@XT.H.w.4.#.@.o.R o.#.#.#.$.4.$.6.J.J.3.W M x g R Q Q Q W E W N N N B N M N W @.@.W N V #.3.3.3.=.E R Q ~ E b T T b f 1 1 3 1 3 > > > 3 3 3 3 1 3 3 3 > % : > > > & & 1 3 1 1 3 > : : : % : : : : : : : : % % % % X X % % % % $ % % % % 1 1 1 f k k g g f 2 - ; ; ; f v M b - 2 - f b E ! N v g r r f f f f 1 - - - k M M M W O.#.$.O.%.<.J.e.7.#.! ~ W v v ; f f - ; - v E E b f f = = = % % % % = = - 1 - = % % % = f k k f 1 % % % % $ % % % # & = - - & & & & & & 1 1 1 > & - & # # # # & & # # $ $ $ * * s s d j j d d j s s i > & & & & & & & $ % % % % # # & & & & 8 w g d d g g M O.4.*.#.@.W m v m N m W 2.6.2.! #.! E b f 1 = = - f f f f f k 2 f ^ F.F.2.^ ^ ~ ~ E E N b g n f f f k k f f k W #.#.^ T g - - - f b E R b b b E W ~ #.~ E b k k k f & - & & > > > > > > > > & & & & 8 8 8 i i i i i > > > > i i i i i i > > i > & & ",
"> i i i s s s i i s s s i i i i > > i i > > > > i i > > i i i i s s s s > i i s > > > > > > > > 1 1 > > s s s s i i s s s s s i s s s s s s i p d p p p p p p p d s s s s s i i > > > > > > : % : : : : : : % % % : : > > > : : : : : : : : : : : : : : : : : : % & & & > > > > 3 3 3 3 > > > > > > > s i 6 e o.[ [ &.1.<.B m g M E E b ; ;   @ @ @ % s f f s s s s s i s d d d p d d j j p p p p p p p d d d d i i i i i i i s i i i i s s i i i i > > i > > & > > > > > > > > > > > > > > > > & & & & & & > > 3 > s & o.*.6.7.#.O.B B m M M M b k g f f f f f 1 1 1 1 s s f f f f f f h h s s i i i 8 p 9 c c c c c c c c c c c c c c c c c p a a a a a a a a a a a * 8 =.D.R.&XkXvX5X3X3XcXVXVXcXbXkXK.O.%.4.F.J.F.F.K.J.F.F.*.=.=.*.#.$.6.R.XX@X@XXXU.e.e.oX5XkXbXDXDXVXVXnXnX5X2XkXcX5XkX5X3XXXoX.X.XoX<X1X5XoXK.5.$.@.@.@.Q W #.#.o.#.O.$.6.L.L.J.#.M g x l E ~ ~ Q N b b g M M M M M W W W N V o.@.#.*.7.7.#.Q E b R b T k b k 1 1 1 3 3 3 3 3 3 3 3 3 3 3 3 3 1 : % > > : : & & 3 3 1 1 > : : : : : : : : : : : : : % % % % % X % % % % % % % $ $ 1 1 f f g g f f w ; ; q r n W ~ #.W v f k N E N b f w g q w f f f f f f - f b E E B @.#.2.4.O.} 4.J.F.,.O.^ ~ N f 2 - b g f - f b E M f f = = = % % % % % = = - 1 - = % $ % 1 1 k f 1 & % % % % % % % = - 1 1 - - - - > > > > 1 1 > > & & & # # # & & # # # & i & i s j s i i & * * * s > > & > & > > & & & # # % # # # # & * & 8 w w d g M V W o.#.$.#.O.B M g g v m M W 7.F.7.2.2.^ n g 1 = = - 2 f g g g g b f f #.F.F.,.^ ^ ~ ~ E E b b b b k k k b k g f f b W W Q E b f = 1 f g E b g f g b M W @.~ Q R k k k f - - & & i > > > i > > > & & & & 8 8 i i i i i i i i i i i i i i i i i i i i i 8 ",
"> > i i i i > > i i > > > i > > s s i i s s s s s s s s i 3 > > > > > > > > > > > > > > > > > > > > > > s s s s i i s s s s s s s s s s s s d j j j j j j j j j d d s i s s s s i > > > 3 > > > % % : > : : : : : : > > : : : : : : : : : : : : : : : : : : > 3 > > > > 3 s s s s s s > > > > > > > > > * 8 V &.[ 1.1.} B t q # w f b E E E w # ; f f f l j j l H j i s s i s d d d d s s d i i i i i i i i i i i i i i s i s s s i i i s i i i i i s s s > & & > > > > & & % % > > > > % % & > & & & & & % % % % % & # s $XR.K.4.O.N m v m M M b k g f f f f 1 f f f f f f s s f f f f f f f s i > 8 8 i p p c c c c c c c c c c p p p p p p a a a a a a a a a i + i Q @.J.XX1X5XkX5X1X3XcXnXnXnXnXbX4XJ.%.<.e.J.K.K.J.F.D.-.#.=.@.@.o.O.-.U.XXXX@X@XXXU.e.U.<X5X5XvXVXbXnXnXnXnXcXkXbXcX2X3X@XoXT.oX.X.X1X5X6X1XXXR.J.#.B N M V o.-.#.W W O.#.*.7.7.=.W g g E W ~ ~ ~ Q M b g g M N E W ~ Q E l f M #.=.~ W ~ @.W R R b l f f k f f f 3 3 3 3 3 3 3 3 3 3 3 3 3 1 1 % % & > > 1 1 1 1 1 3 3 1 > > : : % % : : % % % % % % % % $ $ % % % % % % % % % % % 1 3 k k k f - ; w f v r v @.3.6.2.! E v N N E b r w f f r r f f - w f f f k E W N O.2.,.2.$.B B 4.H.6.#.! ! W v f f - b b b f f b b g f 1 = # = = = % = = = = 1 - - = % % = 3 f 3 > % # # # # # # & & w w 8 w - & & & & & & & w w w w > & & & & & & & & & > s s s > > & & * * # * # $ $ & > > > > > > & & & & & & & & & & 8 w 8 w d g g M W %.#.#.#.@.@.W m g g g f g b W 7.7.2.2.2.M g - = - - ; = - f f n g g 2 f #.F.F.,.^ N ^ W W E E E E W T b n b k f f 1 g b f b b b k f 1 1 f b b b k f g b R ^ W E R g k k k - 1 > > i i i i i i > > > > > > 8 8 8 8 i i i i i i i i i i i s i i i i i i i i ",
"> > i > i i > > > > > > i i > > s s i i i i i i i i i s > > > > > > > > > > > > > > > > > > > > > > > > > > > > i i s s i s i i s s i i s s d j j j j j j j j j d d d i s s s s i > > > > > > > % % : : : : : : : : > > : : : : : : : : : : : : : : : : : > > > 3 3 3 3 s s s s s s > i > > i > > > > > 8 8 W -..X5X1X5.V # # # @ # ; w b @.W b R R R b k f h k R f i s d s s d s i s i d d i i i i i i i i i i i i i i i s s s s s i i s s i i i i s > s > > & > : > > & & % % > > > > % % & > & & & & % % % % : 3 % & # 2X$XR.6.O.N v g v M v b k g f f f f 1 f f f 1 1 1 1 f f f f f f f f f i > & * 8 8 p p p c p p p p p p p p p a i a a a a , a a a a < i i 6 o.P.R.&X1X5X5X6X1X4X5XvXnXnXnXVX5XU.5.5.5.U.T.XXR.6.*.*.=.@.=.@.@.o.$.H.@X@XoX1X1XoXU.r.T.1X3X1XcXcXmXbXnXmXcXcXbXVXkX3X1XU.U.T.1X@XoX1X5X3XT.T.E.J.%.N g g N #.7.#.O.W B o.@.@.W W W W ~ @.~ ~ W E M M M M N E W W @.@.W l f f k E ~ Q Q E R b b l k f f f f 3 f f 3 3 3 3 3 3 3 3 3 3 3 3 3 1 1 % % & > > 1 1 1 1 1 1 1 1 > : : : % % % % % % % % % % $ $ $ $ % % % % % % $ $ $ $ % 1 3 f f f f ; ; r v N M ! #.2.@.N v v M M v f r ; r f 2 ; q r w f l b g f b N W @.*.2.%.! B N $.J.W.4.! ! W T f = = - b b l f g l g f 1 = # % = = = = % = = = = = = = % % % 1 f 1 & # # # # # # # & w s s s s w w w w s s s s s s s s s s 1 & & & & & & & > s & & # # # % % $ % % % $ O % & 1 s s > > 1 1 1 1 w w s s w w w r w d z M o.O.$.&.4.-.#.@.B N m v k k v v g E 2.#.^ ^ ^ b v 2 = = - - f n g g b b g 2 f ! F.F.#.~ ^ #.^ W W E W W W T b g k f f f - f f - f g b b f - 1 f l b b b g f f b M M E b g g g g - - > > i i i i i i > > > > i i 8 8 8 8 i i i i i i i i i i i s i i i i i i i i ",
"> > > > > > > > > > > > i i > > > > i i i i > > > > i i > > > > > > > > > > > > > > > > > > > > > > > > > > > > i i s s i i i i i i i i s s d j j j j j j j j j d d d s s s s s i i > > > > > > % % % % : : < < : > > : : : : : : : : : : : : : : : : : > > 3 > s s s s s s s s s s s s > 3 > > > > > s 8 6 z o.%.w.e.<.$.B v w # @ @ # @ # # M R R R b f s s s l s i s s s s s i i i i d d d i i i i i i i i i i i i i s s s s i i i i i i i i i i > > > > > > > > : : % % % % : : : : % % % % % % % % & % % % : : % # s r L.F.4.O.m v g v v b b k f f f f 3 1 - - - - 1 1 1 1 f f f f f f f f f > & * * 8 8 8 i p p 8 i i i i i i a a 8 i i i a < < , , < a i x 7.R.XX&X3X5X5X6X1X1X5X5XvXnXVXVXcXE.5.e.r.H.T.XXT.J.$.W ~ o.@.@.o.#.$.w..X<XoXoX<XoX.Xr.r.T.1X2X2XcXcXbXbXbXmXcXmXZXVXkX3X@Xe.U..X2X1XoX1X6XoXU.R.E.J.%.Q M M O.6.6.4.$.o.O.#.*.@.Q E E ~ ~ E N N M b b M E ~ @.W E W ~ ~ R k f 1 1 f l T R R T b k f f k k 3 3 3 3 3 3 3 3 3 3 3 3 3 3 3 3 3 3 1 % $ & 1 1 1 3 3 1 1 1 1 = = : : : % % % % % % % % % $ $ $ $ X % % % % % % % X $ $ % = 1 1 f f w ; w r v N ! #.%.! B m N M M N v f w w r r - 2 r r r g M W W M b b N @.2.2.@.B v Z B 6.K.W.2.! N N f - = # f T b f f g g f - = = % % % % = = = = = = = = = = = % = 1 1 & & # # # # # # & w w w w w w 8 8 w w w w w w w w w s s s s > > > > & & & & 1 & # % % % % O O % O O O $ $ % & 1 1 1 1 1 1 - s - w f g k g g x M V o.#.%.&.7.6.7.#.W m g g g f r f v v b E 2.@.E M b n g - = = - f b R b v E ^ b g v m 8.F.#.#.2.7.~ ^ W E ^ ^ W T n f f f g b g f - - 1 f g b g 1 - f f b M b k f f f f k M b k b b l & & > > > > > > i i > > > i i i 8 8 8 8 i i i i i i i i i i i s i i i i i i i 8 ",
"> > > > > > > > > > > > i i > > > > > > > > > > > > i > > > > > > > > > > > > > > > > > > > > > > > > > > > > > i i s s s i i i i i i i s s d j j j j j j j j j d d d s s s s s i i > > > > > > % % % % : : < < : > > : : : > : : : : : : : : : > > > > > > > 3 1 s 3 1 s s s s s s s i > 1 > > 1 1 s f 8 w g V m B B m m w f f f - # # O @   O # w f f f s s s i s s s s i i s i i i i d d d s i i i i i i i i i i i i s s s s i i i i i i i i i i i > > > > > > > > > % % % % : : : : % % % % % % % % & % % % > % % & @ w F.#.O.N m m v m M M b k f f f f f 1 1 1 1 1 1 1 1 1 f f f f f f f f k 3 > & & 8 i 8 i a a i i i 8 i i i i i 8 < < < a < < , < i i d J.&X&X<X5X5X5X7X1X1X5XvXkXbXVXVXbXE.5.e.U.T.XX@XT.w.O.O.o.R R R R Q -.F.J..XoX.X<X1XoXY.r.U.oX2X5XkXvXvXcXbXbXnXnXbXVXnX5X2X@XH.T..X1X2X@X1X5X@XT.T.W.4.B W W Q -.J.6.7.4.@.#.7.#.@.Q R l E E b b b R M E ~ =.3.3.@.W Q Q R l k f 1 & 1 1 k k G k k f 1 3 k k 3 1 1 1 1 3 3 3 3 3 3 3 3 3 3 3 3 1 1 % % % 1 1 1 3 3 3 1 1 = = = : : : % % % % % % % % % $ % $ $ $ $ % % % % % % % % % % = 1 1 f w # ; w v N ! ! ,.#.! N B #.*.! N v k k f f ; ; f f g f M ~ #.! W N N E ! *.*.! ! v t O.8.K.L.4.! E b - - ; = k E b f 1 f f 1 1 = % & & % % = = = = = % % % = 1 = = % 1 & & & & # # # & & & w w s d s d w s s s w 8 8 8 8 8 w w s s w & & > > > # & & & & # % % O O O O O $ $ $ % $ O % > 1 1 1 s s f f w w g v N E W W O.#.-.7.4.5.6.7.%.m g w k g f f r k b M E ~ 3.#.~ M f f f - - f f f g b g f T ^ W n v r 7.J.,.#.~ 2.~ #.^ ^ W ^ W b k 2 = f b E E n f - 2 1 f n k f 1 f f g b E b g f w ; f b M k b b l & & > > > > > > i i > > > > i i 8 8 & 8 i i i i i i i i i i i s i i i i i i 8 & ",
"i i i i i i i i i i i i i i i i > > > > > > > > i i > > > > > > > > > > > > > > > > > > > > > > > > > > > > > > i i > i s s s s i i s s s s d d j j j j j j j j j j j s p d s s s i i i > > > > > > > > : : : : > > > > : : : > % % % : : % % % > > > > > > > > > > > > i i i i s s s s i s i 8 w # s - O O # @.F.# O ; @ @ # @ @ @ # # O O O   $ # s f s s s i i i i i i i i i i i i i i i i i i i i i i i i i i i i i i i i i s s s s s i i i i i i i i i i > & & & & & & & & & & & & % % % % % % % % % % % % : : $ # # w W O.B B N m B B N N b k g f f f f f f f 3 3 3 3 3 3 f f f f 3 3 f f k k f 1 & & & > i i i i i i i i i i i i a < < * < i < i 8 6 o.J.1X1X5X5X5X5XcX4X5XvXVXVXvXVXbXbX<Xe.w.U.T.@X&XW.6.*.o.V E l M R Q O.-.6.e..XT.oX5X5X@XY.U..X2X6X2X5X5XvXcXbXcXVXZXbXbXkXkX5XoXoXT.oX<X1X1X1X4X<X<XE.J.O.O.@.o.*.6.4.*.*.#.#.=.-.=.R f s k b T b R R E E #.D.D.F.=.W l f k T T k k k 3 3 1 1 3 3 h 3 3 3 3 f k b 3 3 3 3 3 1 3 3 3 > > 3 3 3 3 3 % = : % 1 1 1 3 3 3 3 3 = % % = : % : : % % % % % % % % $ % % $ $ $ % % % % % % % : % % = = ; ; & # ; r N ! $.7.F.4.#.O.#.*.#.W b M E b f r f f b E N N *.6.#.W M ! W #.2.2.N M m v v O.6.R.J.$.! M f ; @ - f k f f 2 2 2 1 - = = % = % = = % % % % % % = = ; ; % % & & & & & & # & & & w w r s g d s w w w s s w & & w s w w & w w w w & & & & % % & & & & % O O O O $ $ % % % % % & & & > 3 f 1 f f f f g b N N @.*.$.$.4.6.7.5.5.+.V m t r g E N f r f v N ! @.2.3.7.~ E N v n ; 2 g - E b f f f b #.~ M f m 7.R.2.~ ~ ^ ^ ~ #.^ ^ ~ W b 1 - - b ^ ~ E b g f - - f v v f f f f k R E R g f - - - E N k b v k # & & > > > & & & & & & i i i i > > > > i i i i i i i i i i i i i i > > & & & & ",
"i i i i i i i i i i i i s s s s i i > > > > > > i i > > > > > > > > > > > > > > > > > > > > > > > > > > > > > 3 s > > i > s s s i i s s s s d d j j j j j j j j j j j s i s s s a i i i > > > > : : > > : : : : > > > > : : : > % % % : % % % % > > > > > > > > > > > > i i i i s s s s s s 8 w f w s s # @   ; f   @ @ $ # @ # @ O O O O O O O # # & s s s s s i i i i i i i i i i i i i i i i i i i i i i i i i i i i i i i i i i i s i i i i i i i i i i i i & & & & & & & & & & & & & & > > > % % % % % % % % % % & # & M O.O.} } O.%.O.N m b k g f f f f f f f 3 3 3 f f f f f f f 3 f f f k k k f > & * > > < > > > > > < a a < i i i , < < i * 8 g %.R.2X5XcX5X5X5X5X5X5XcXvXVXVXVXbX5X6XT.e.e.U.@X2XR.4.@.W N M R R R Q Q %.7.J.H.Y.U.oX5X6X@X.XoX@X5X5X1X2XkXvXkXcXmXVXDXbXvXkX5X1X<X1X@X@X2X2X3X5X4X1X@XT.w.$.%.*.#.=.4.#.O.W W W ~ ~ R h s 1 3 k k k k l T R Q ~ ~ / T k f 1 1 h h 3 3 3 3 3 1 1 3 3 3 3 1 1 1 3 f k k f 3 3 3 3 3 1 3 > > 3 3 3 3 1 % = = = 1 1 1 3 3 3 3 1 = = = = % % : : % % % % % % % % % % $ o % % % % % % % % : : % % = ; # @ ; ; r M ! #.7.F.J.4.%.O.W E E W E b b b v f v N ! W ~ 2.J.F.@.N M W @.! 2.~ M M m t t ! F.R.J.%.^ b - ; ; f b b f f 2 f f f 2 1 = % % % = = % % % % % % % % % % & & & - & & & & & & & w w r r r d d s w w w s s > & & & w w & & 8 w w w & & & & % % & & > & % $ O $ $ $ % % & & % % & & & > 3 f f f f k l b M N N B #.$.<.<.,.$.<.+.} C m t v W @.#.E M E N @.#.! #.*.@.W @.~ N f f b g v ~ E f w g b ^ E E N ! F.E.F.2.#.~ ~ ~ ~ ^ W ^ E n - - = g E W E b g f - - - f g g g f f g b E R g f - - - b b k b v k # & & > > > & & & & & & i i i i i > > > i i i i i > > > i i i i > > > > & & & & ",
"s s s s s s s s s s s s s s s s i i i i > > > > > > > > > > > > > > > > > > > > > > > > > > > > > > > > > > 3 3 i > i i > i s s i i s s s s d d j j j j j j j j j j j s d s s i a i i i > > > > : : : : : : : : : > > > : : : : % % : : % % % % > > > > > > > > > > > > i i i i s s s s s i w w s 8 w f g l f w O   @ O   %   @ O O         O @ @ # & s s s s s i i i i i i i i i i i i i i i i i i i i i i i i i i i i i i i i i i i i i i i i i i i i i i i i > > > > > > > > > > > > & & > > > > & & % % % % % $ % & # # g #.$.$.<.6.5.4.C v b g g f f f f f f 1 1 1 f f f f f f f f f f f f k k k k h > & * > > > > > < < < < < < < , , , < * 8 6 z 7.XXkXcXcXvXcX5X5X5X5XcX5X5XVXbXvX1XT.Y.U.H.U.@X2X$XF.O.N N M M R Q Q Q #.-.w.J.T.U.Y.1X5X5X6X4X2X5XvXvX5X3XcXmXkXcXnXVXVXmX5X5XkX5X5XvX3X3X5X6X5XkX1X1XoXU.7.$.#.*.=.#.*.@.N M M M b l f > > 3 h k h k 1 1 3 f 3 k k k k k h 3 f h h f 1 3 3 3 1 1 1 3 3 3 3 3 1 3 3 f 3 3 3 3 1 1 > > > : > 3 3 3 3 1 % : 3 1 1 1 3 3 3 1 = = % % % % % % % % % % % % % % % % % $ % % = = % % % % % % % % % % & & ; ; r g N ! *.2.7.7.#.! B B N b M E v f b M f g ! 2.$.M W 7.J.7.O.W v m ! M 2.@.N b v t v O.J.W.6.O.W b - @ ; f b b 2 2 2 f f 2 2 1 = = % % = = = % % % % % % % % # # & & 8 & & & & w 8 w w w e e e w w w w s s s 8 > & 8 & & & & & & w w w & & & & $ $ % & & 1 & % $ $ % % & & & & % % % % $ # 1 1 f h k k b M M M m N B $.&.%.O.O.+.<.4.6.$.m v W ! 2.#.@.! W ! O.B @.@.W ^ ^ ^ ~ N E W v f N M w ; b M N N E b v F.E.F.,.~ ^ ~ ^ ~ W W E T g = = = f b E E b b b g - - - f g g v g g l E E l f - - - T T g b b g # & & & > > & & & & & & & & > > & & & & & & & & & & & & > & & & > > > > & & & & ",
"s s s s s s s s s s s s s s s s s s i i > > > > > > > > > > > > > > > > > > > > > > > > > > > > > > > > > > 3 3 > > > i i i s s i i s s s s d d j j j j j j j j j j j s d s s i s i i i > > > > : : : : : : : : : > > > : : : : % % : : % % % % > > > > > > > > i > > > i i i i s s s s > i s s f l E ~ ~ ^ b ; @ @ @ O   O   O       O O O O @ O $ # f s s s s i i i i i i i i i i s s s i i i i i i i i i i i i i i i i i i i i i i i i i i i i i i i i i i i > > > > > > > > > > > > & & > > > > & & & % % % > $ % $ & # r *.6.8.H.T.E.I.<.N b g g f f f f f f 1 1 1 f f f f f f f f f f f k k f f k h s > & * : > > : : : : < < < < < > : * # e V J.4X5XmXvXbXcX5XcX5X5XvXvX5X5XcX3XoXI.r.H.U.@X@X%X@XJ.o.R N N E R R Q W o.-.7.F.H.@XoX@X2X5XcXvXvX5XvXVXVXvX5XkXvX5XkXbXbXvX5X1X4XcXvXVXVX3XcXvX5X5XcX1X@XU.6.4.$.o.*.*.#.=.W b f g f f 1 3 > 3 h h G G h 3 3 > > 1 3 h 3 3 3 h h 3 3 3 3 1 1 1 3 1 1 1 1 3 1 1 1 1 1 3 f 3 1 3 1 1 & > % : : > 3 3 3 3 1 % 1 3 3 1 3 3 3 1 = % % % % % % % % % % X X $ $ % % % % % % = 1 1 1 % % % % % % % % % % # ; f f M W ! #.2.2.#.O.! O.! W v b b l f g M b g M *.6.#.v E 2.7.*.O.#.M N ! M #.! b f r r v #.L.K.2.@.E b = @ @ 1 k f 2 2 2 2 2 1 - = = % % % = = = % % % % % = & & ; & & 8 8 s s s w 8 w d d e d e e w w w w d s s 8 & & 8 & # # & w & & - w & & & & $ $ % & % 1 = & & % % & & & & & % % % $ O $ & & 3 f f f g k l v N N B O.%.O.} O.<.e.U.J.4.B v W #.7.7.*.W N W ! O.O.@.! ! W W ~ N W ^ v v v N E b ~ ^ b M M r r 7.W.3.^ E W ^ ^ ^ ^ E b b f = = 1 f b E E E M b b g - - f g g b b g l R R b f w - - T T g b b g # & & & > > & & & & & & & & > & & & & & & & & & & & & & > > & & > > > > & & & & ",
"s s s s i i i i s s s s i i i i s s i i i i i > > > > > > > > > > > > > > > > > > > > > > > > > > > > > > > > > > > > > i i i i i s s s s s s s s s s s d d d d d d s s s d i i s s i > > > & % : : % : % % % : > > > > > > : : > & & > % % % : > > > > > > > > i i i i i i i i > > 1 1 s s s k l E ~ ~ ^ M r @ @ @ @ @                     O O     # s s s i i i i i i i i i i i s s s d d d d s s s s s s s i i i i i i i i i i i i i i i i i i i i i i i i i i i i i i i i i i > > > > > > > > > & & & % % % & % > % > & & *.R.E.@X5X5X@XJ.O.m l g g g g f s f f f f f f f f f f f f f f f f k f f f k h f 1 > & & > > > > > > > , , , : & > g $.I.1XcXmXbXbXvX5X5XcX5X5XvXcX5X5X3XoXI.r.r.R.@XkX3XR.D.=.M x x l E Q E N W #.&.5.w.r.2X@X1X1X4XvXVXVXVXVXVXVXvXcX5XkX3X5X5X5X5X<XoX1XbXvXbXvX4X5X5X5X5X2XXXT.J.4.*.$.O.=.=.@.W b f f 3 3 3 3 3 > < 3 3 3 3 3 3 3 > > > 3 3 3 3 3 3 3 3 1 3 3 > > > > : > > 3 3 3 1 1 3 3 1 1 1 1 1 1 1 & > : & & 1 3 3 1 & = = = 1 1 3 3 1 = % % % % = % % % % X X X $ $ $ $ % % % $ $ % = k 1 1 % % % % % % % @ # - w k M W @.4.7.7.$.#.O.O.! W W v r g v f v N N r w W 2.*.B M #.6.2.! N m m ! #.M N N v v f r b 2.J.7.@.~ N - @ % % = f k 2 2 2 1 - - - = % = = = = = = % % % # # & & # & 8 8 8 8 s s d e e e d d d z d d w w d s d s w & & s f s & # # - & & & & - - - & % % & % & & = = & % % % % % % % % % % $ $ $ $ $ & 1 3 f f g k v m N W O.$.%.%.%.4.U.T.8.C m N ! 7.F.2.! B B ! B B O.! N W #.~ ^ ^ ^ ~ ^ #.! #.#.3.7.#.N b v r t 2.F.2.^ ^ 2.#.^ ~ ~ W M g f 1 = = k T T b T R E T l f f g f n b E b l b R l f f 1 1 T T f b b v ; % & > > & & & & & > & & & & & & & & & > & & & > > > > & & & & & & i i & & & & ",
"i i i i i i i i s s s s s s i i s s s s i i i i > > > > > > > > > > > > > > > > > > > > > > > > > > > > > > > > > > > > > > i i i i s s s s s s s s s s d d d d d d s s d d s s s s > > > > % % > > % % % % : > 3 3 > > > > > > > > : : : : : : > > > > > > > > i i > i i i i i > > 1 > > s s k W W N N v ; 2 ; ; @ @ @   @ @               O O O O # s s s i i i i i i i i i i i s i s s s s s s s s s s s s s i i i i i i i i i i i i i i i i i i i i i i i i i i i i i i i i i i > > > > > > > > & & & & & % > % > > > & # W @X2XkXvX5X1XI.<.B M l l k g f f f f f f f f f f f f f f f f f f f f f f f f f f s > & & > : : : % > : > % % > g 6.R.4X5XvXbXbXvX5XvX5X5XvX5X5XcX5X5X1XT.5.e.U.oXcXkX&X6.@.W l l x R E W E B @.4.5.e.e.K.2X1X@X1X<X5XVXVXVXbXVXbXvXvX5X5X<X1X<X1XoXT..X3XbXcX5X5X5X5X3X3X3XXXU.U.J.7.*.#.W @.Q M k f s 3 3 3 3 3 3 > < 3 3 3 > : < : > > > > > > > 3 3 3 3 3 3 3 > > > > : > 3 3 3 3 1 1 1 1 1 1 1 1 1 1 1 1 : : & 1 3 3 3 1 & = = = 1 1 1 1 % % % % % % % % % % % % % % $ $ $ $ $ $ $ $ @ = f k 1 1 # % # # # @ ; ; ; w g M ! #.4.6.4.$.$.O.! ! m v v M b v b N N #.#.v ; N #.#.N W 2.7.O.m g t N O.! M M v v v r f b #.7.#.E W b = % % % # 1 3 2 1 - - = = = = % = 1 1 = % % % % # # # & & & & w w e e d d d d d d d d d z d d w w d d r w 8 & > s f f - & & & & & & & - - - # % % & & & & = = & % % % $ $ $ $ % % $ $ O O o o $ & 1 3 f f g v m B O.O.%.$.<.4.e.T.T.4.V m C #.4.F.4.%.B N N N B B N N N W ~ @.~ 2.3.*.#.@.2.7.3.2.@.^ W N t r 2.8.8.F.F.W.D.=.~ ^ E b g f 1 1 = b E b l b R T b l g f 2 f n E E b b b R b g f f 1 T b f b b b - & % & > > & & & & & > & & & & & & & & > > & & > > i i & & & & & & & & & & & & ",
"i i i i i i i i p p s s d d s i s s s s i i i i > > > > > > > > > > > > > > > > > > > > > > > > > > > > > > > > i i > > > > > i i i i s i s i i d d s s d d s s d s s s d d d s s s > > > > : % > & % % % % : > > 3 > > 1 > 3 > > > > : : > > > > > > > > > > > > > > > i i s s s s 1 1 > f l E =.! N M v ; ; ; f 2 @ @ @ @ @               O @ @ @ # s s s i p i i i i i i i i i i i i i i i i i i s s s s s s i i i i i i i i i i i i i i i i i i i i i i i i i i i i i i i i i i i i > > > > > > > & & & & > > : > > > & * z @X3XcXkX5X@XJ.$.W N M M b k g f f f f f f f f f f f f f f f f f f f f f f f f f f f f 3 3 > > : % % % % & f @.6.@X3X5XvXvXvX7X5X5XvXvXvXvX7X5XcX6X1X.Xr.5.I.oX2XkX@XJ.O.E l g R R R R E E O.#.4.e.r.K.Y.6X@XoXoXoX3XcXvXvX5X5XcXcXcX5X3XoX@X<X@XH.I.oX3XcX5X3X3X5X4X@XXXR.J.6.J.D.=.@.E M R b g f f 3 3 3 3 3 3 , , , , 3 < : : : : < < < < : : : > 3 3 3 > > > > > > > > 3 3 3 3 3 3 3 1 1 1 1 & 1 1 1 1 > 3 3 % 1 3 3 1 & & = = = 1 1 1 = % % = = % % % % % : % % % % % % % % % % $ % # f k b 1 1 = # ; ; ; # ; ; q v N O.$.4.6.7.%.C O.B N N W W @.#.^ N N E ! 2.O.t r m O.*.@.@.2.2.! m v m #.#.N W #.b g f f f v ^ #.W M b f ; % % $ % = 1 1 1 = = = % = = = 1 1 1 % % $ $ & # # & & & w w e e e e d d z d g d d d d g d e w w d d w w 8 8 i s f f s - - # & & & & - & & & % % % # % % # = = % $ @ $ $ $ $ $ $ $ . o o o o o $ = 1 f f g k m B ! O.%.$.<.<.e.R.T.e.$.O.%.%.4.J.J.7.O.N N ! B B ! ! N v N ! W 2.3.3.! ! 2.7.@.! ! #.#.#.! N 3.8.I.R.W.R.F.3.=.~ W b b g f 1 - g b k l b R b l b b g - f n b E M R R M b l f f f T b g b N M f & % & > > & & & & & & & & & & > > & & > > & & > i i i & & & & & & & & > > & & ",
"i i i i i i i i p p s s d d s s s s s s i i i i > > > > > > > > > > > > > > > > > > > > > > > > > > > > > > > > i i > > > > > > i i i i i i i i d d d d d s s s d d s s d d d s s s > > > > > % & % % % % : > > > > > > > > > 1 > > > > > > > > > > > > > > > > > > > > i i i s s s 1 1 s k / *.^ M ; ; ; @ @ @ @ - - f 1 @   @ O O O O     @ @ % @ # s s i p p p i i i i i i i i i i i i i i i i i s s s s s s i i i i i i i i i i i i i i i i i i i i i i i i i i i i i i i i i i i i > > > > > > > & & & & > > > > > > i w M T.1X5X6X1XT.5.} W N M b M b k g f f f f f f f f f f f f f f f f f f f f f f f f k k f k k h 3 1 & # # # r ~ L.4X5XcXcXcXcX5X5X5X5X5XvXnXcX7XcX5XoXY.H.r.T.oX<X2X@XJ.#.v g k H R R R R N W #.4.6.e.J.K..X1XoXY.Y.T.<X4X3X4XXXoXkXkX3X1X@X.XoX1XE.e.U.oX@X4X5X2X2X2X@XE.6.4.*.@.*.W M M g f f l k f f 1 3 > 3 3 3 , , , , : : : < < < < < < < < : : > 3 3 > > > > > > > > 3 3 3 1 3 3 3 3 1 1 & & % & 1 1 1 1 1 1 1 3 3 3 = % & = = = 1 1 1 1 % % = = % % % % : : = % % % % % % % % % % @ - k b b f 1 = ; = ; ; ; r r t N C $.4.8.J.8.<.$.O.! E W N @.3.#.N M N N @.O.v ; v W @.4.#.! ! ! N v M ! 7.4.! @.3.b f f f - f M W E b f - @ % % % % % = 1 = = = % % = % = 1 1 1 % $ $ % & # & & w w d d e e e z z d z z z z d d d d d e w 8 d d w w w & s f f f f 1 - - # & & & & & & % % % % # % % # = 1 % $ O O O o o $ $ . o O . o o o o $ = 1 f f f v N ! O.$.%.%.+.<.J.U.J.6.<.$.,.4.J.J.7.O.m m C O.$.2.#.! W ^ M N #.2.7.! N @.! W N W 2.6.J.F.8.J.I.W.W.W.W.F.3.2.2.~ E b g f 1 1 1 f f g R R l l b n g - f v b E E E E M b b g g f E b g b E E f 1 & & > > & & & & & & & & & > > > & & > & & & i i i i & & & & & & & > > > > > ",
"i i i i i i i i i i i p p d s s i i i i s i s i i > 3 > 3 3 > > > > > > > > > > > > > > > > > > > > > > > > > > > > > > i i s 3 s s s i s s s i i i i i d d s s s s s s d d s s s s i i > > > : > > : : : > > > s i > > > > > > & & & & & & & & > > > > > > i i i i s s > > > s & s s i R 3.=.R % @ @ @ @ @ # @   @ = 1 1 = @ @ # @ @ @ ; @ @   @ @ @ & s d p p i i i i i i i i i i i i i i i i d d d d s d d d i i i i i i i i i i i i i i i i i i i i s s s s i i i i i i i i i i i i i i i i i i > i & > > > > > > 3 s s # z K.oX<XoXoXU.<.O.B B N N E b k k f f k k f f f f f f f k k k k f k k k k f f f f g f f 1 b f k f f w w N 4.T.4X5XvX5XvXcX6X1X<X6X6X5XcXvX5X1X1X<X.XY.T..X<X2X4X@XL.*.E b k l T T Q Q R M W @.4.6.J.H.e..X1XY.t.r.T.oXoX.XU.H.T.@X5X@X1X@XoX@X1XU.5.r.U.XX1X3X4X2X2XR.6.*.N M E E l l k k f k l k f 3 3 3 3 3 3 3 : > : : < < < < < 3 3 , , < < : : > > 3 3 3 3 3 3 3 3 3 3 3 1 1 1 3 3 3 1 1 1 1 1 1 = = & = 1 1 1 k k f 1 = > 1 1 1 3 3 = = = = % % % % % % % % % = 1 1 = = % % % = = ; f E E b - 1 - - ; ; w g N B ! O.O.$.7.8.J.H.2.2.2.W M N *.F.D.@.! N M m ! N t N W W @.*.O.W @.#.N v N #.6.! ! 2.#.M n f 1 - 2 b R R l f = % @ O % % % = = = = = = 1 2 2 1 1 1 = % % % & & 1 & w w d d d e u u z z z u u z x x z d d e w w w w w w w - w g f s f f 1 - - f 1 & & % % % % % % $ $ % % % ; = = % o . X . . . . . . . X . . . . o o = 1 2 f f v N @.$.$.%.+.<.1.5.e.7.$.%.<.5.J.I.H.4.! N ! $.7.6.4.$.$.2.! N M ! 2.@.! N N N B #.#.2.R.W.J.W.W.J.F.F.F.3.2.#.3.~ T b f f f - - f f g f f f b b b g f f f f E E E W E E b b b b N M b M E W b 1 & & > > & & & & & & & & & & & & & & & > & & i i i i & & & & & & > > & & & & ",
"i i i i i i i i i i i i d d s d i i i i s i s i i > > > 3 3 > > > > > > > > > > > > > > > > > > > > > > > > > > > > > > i i s s i s s s s s s s i i i i d d s s s s i i s s s s s s > > > > > : > > : : : > > > > > > > > > > > > > & & > > > > > > > > > > i i i i s s s s 1 1 s & > l E l 1 # % @ ; - - = ; % % @     # = - ;   # 1 f = = @ @   O @ & s d d d i i i i i i i i i i i i i i i i p p d d s d d d i i i i i i i i s i i i i i i i i i i i i i i i i i i i i i i i i i i i i i i i i i > i > > & > > > > i > s 8 V .X.X.X.XT.w.+.O.O.W W E M M M b l l k k f f f f f f k k k k k k k k k k f f f f f f g g 1 f f w w g O.J.XX3X5XcXcXbX5X1XoX.XoX6X6X6X7X7X4X1XoX<XoXoX@X1X2X4XT.F.*.E b R T T R R R R R M W #.4.6.J.w.w.T..Xr.w.w.U.XXT.U.e.e.U..XoX.X1X1XoX.X.Xe.1.5.e.@X5X5X2X2X@X8.! W M l k k T H G l k k k f k k 3 3 3 3 3 3 > : : : < < < : < < < < < < : : : : : < 3 3 3 3 3 3 3 3 3 3 1 1 1 3 3 3 1 1 1 1 1 1 1 1 = 1 = = 1 f k 3 1 1 1 1 3 2 3 3 = = = = % % % % % % % % 1 1 2 2 1 - ; % ; = - b E W E v g f - ; ; r v M #.#.*.4.4.6.8.e.I.6.,.#.O.m N 2.3.3.2.~ N b g t t B $.%.N W $.4.O.B N N m N %.7.2.! @.3.~ b f 2 1 - - n E R l f - = % @ % % % = = = = = = 1 2 - - = = % $ % % & > 1 s w d d d z u u u z x z z u z x x z d e e w w s w w w w w s g f f s f 1 2 1 f s & & % % % % % % $ $ % % % = = = % $ . o X X X X X X X X .   o . o o % = 1 f f k M ! O.%.%.%.O.,.5.H.H.e.7.5.4.J.R.T.J.#.@.#.4.6.6.2.N ! 2.@.M v ! 7.2.! ! ! N ! %.3.I.@XR.8.F.F.8.6.3.3.3.2.#.3.^ M n 2 f f - - f g f 1 - 2 g k g f f f f f M M E W W W N b b b E M b E W ^ l & & & > > & & & & > > & & & & & & & & > > & & i i i & & & & & & & > > & & & & ",
"i i i i i i i i s i s s s s s s i i i i s s s i i > > > > > > > > > > > > > > > > > > > > > > > > > > > > > > > > > > > i i i i s s s s s s s s s i s s d d d d s s i i s s s s s s > > > > > : > > > > > > > > > > i i i i i i > > > > > > > > > > > > > > i i > i s s s 1 > & # $ % & & @     @   @ = ; = = = 1 = % @ @ % = ; - = - f - = @ @   O O & s j j j d i i i i i i i i i i i i i i i i i i i i i d s i i i i i i i i i i i i i i i i i i i i i i i i i i i i i i i i i i i i i i i i i i i i & & & > > > > i > s w V XXT.T.T.Y.w.4.4.#.o.W W M E E M b l l g f f f f f f f f g g g g k k k k f f f f f f f f g f w f m -.K.@X5XcX5X7X5XvX4XoX.XY.@X6X5X5XvX5X1X<XoX<X<X2X5X1XE.K.4.O.W b b R b T T T T T R M W #.2.7.7.4.4.H.K.e.0.w.Y..XT.K.r.H.T..XU.1XkX@XY.H.U.5.5.5.H.2XkXkX3X4XL.@.b M b k f f G G G k k k h h h k 3 3 > > > > > > < < < < : : : : : : < < < < : : : : > > > > > 1 > > > > > > 3 3 3 3 3 3 1 1 1 1 1 1 1 1 1 1 f f f 1 1 1 3 1 2 1 1 1 = % % % % % % % % = 1 1 f f f f f f - - - f M ~ #.@.E b b - - 2 v M ! ! #.*.6.F.6.J.J.J.4.%.%.B m N ^ #.=.^ E E v g t v t #.F.#.m O.#.4.! m v N O.$.7.J.2.@.#.2.~ M n v f = - g E E b f f 1 = % $ % % % % = = = 1 1 - - # % % @ @ % # & 1 s s w d d z z z z u z z z x z z z z z e w w w w w w w w w w g g g f f f f 2 1 f 1 1 & & % $ $ $ $ $ $ % % = = = 1 1 = X o o o X X X X X X .   o o o o o % 1 f f g v N ! O.O.O.} +.6.I.T.U.H.e.<.r.R.R.F.#.#.#.2.4.*.! v N @.! m v #.F.3.%.%.! N %.%.J.E.@XW.7.6.3.3.3.3.2.3.2.2.3.^ E g f f f f f f g f 1 - f f f f f f f f f b b M W ~ ~ E b b R E M b E W Q l > & & > > & & & > > > > & & & & & & & > & & & i i i & > > & & & > & > & & & & ",
"i i i i i i i i s s s s i i i i i i i i s s s i i > > > > > > > > > > > > > > > > > > > > > > > > > > > > > > > > > > > i i i i s s s s s s s s s s s s d d d d s s s s i i i i s i > > > > > : > > > > > > > > > i i s s s i i 1 > > > s s s s > > > > > > i i > > s s 1 > & $ O O         O   @     @     O o @ = = % @     = g f 1 = - = @ @ O   O # s d j j d i i i i i i i i i i i i i i i i i i i i i i s i i i i p i i i i i s i i i i i i i i i i i i i i i i i i i i i i i i i i i i i i i i i & & & > > > > s i s # z H.U.U.U.H.H.J.6.#.W N W l M E b b l g f f f f f f f f f k k k g f k k k k f f f f f r ; r r g W 6.XX2X5X5X5X6X6X6X5X1X.X.X.X1X4X5XvXvX5X1XoX<X3XkX5X4XR.7.#.W v b b b b b b b T l b b M W O.#.$.O.O.4.K.K.H.0.r.Y..XU.K.H.Y..XT.@X3X5XK.U.H.U.1.5.e.T.2X4X2X@XJ.@.b f b k f h f f h h h k k k k k 3 3 3 : : : : < < : : < < : : < < < < : < < < : : : : : % % % : : : : : : : : 3 3 3 3 3 3 1 1 3 3 3 3 3 f f f f f 1 1 1 1 3 1 1 1 = % = % % % % % % = = = 1 2 f f f f f f g g b ~ 3.D.3.#.W N v 2 f b ^ #.#.#.*.7.F.J.7.7.6.6.#.! C N ! 2.#.! ^ b v v r r g v N $.7.O.m W O.! m t N O.2.7.F.J.7.#.@.@.E v g v f = - n E E b g g f 1 = % % % % % = = = 1 1 - ; % % @ @ # # & & 1 w w e e e u z z z z z z z x x z z z d w w w e w w w w & w d g k g g f f f f f f f 1 1 & % $ $ $ $ $ $ % % = = = = 1 = $ o o o X X X X X X .   o o o o   o 1 k f f g b N W ! O.O.+.8.U.XXXXU.r.5.U.oX<XI.2.2.#.! ! N v v N O.! r m 2.J.,.C ! C %.7.7.I.R.R.F.8.7.3.2.3.2.3.3.2.#.#.W N g - f g b b k g g f f f - - - f g f f f k b M E @.#.^ M b R W M b E E E l & & & > > & & & & > > > & & & & & & & & & & & > > > > > > & & & & & & & & & & ",
"i i i i i i i i s s s s s s s s i i i i i s s 1 > > > > > > > > > > > > > > > > > > > > > > > > > > > > > > > > > > i i i i i i i i i s s s s s s s s s s s s s d d d d s s s s s i > > > > > % % % % & > > > > s s s s s s s s s s s s s s s > > > > > > > > > s > & $ % O     O O O O O                       @ $ % # % % @   ; b E k % @ % % @   O # s d j p d s i i i i i p i i i i i i i i i i i i i i i i i i i i i i i i s s s s s s s s d d d d i i i i i i i i i i i i s s s i i i i i i i i i i i 1 > > i i > i s 8 W R.T.H.U.T.T.J.4.o.N M x l M N g l k g f f f f f f f f f k k g g g g g g g g g g w v r r # v O.U.@X5XkX5X6X6X6X6X7X1X1X.XY.oX1X4X5XVXvX2X<X<X5XkX5X@XJ.2.! W b b g b b T R b k l T b b b N W ! O.O.O.w.T.U.H.0.r.Y.T.Y.Y.K.Y..XU.oXoX.Xr.K.U.U.H.H.H.T.@XR.@XJ.N g f 1 f k k f 3 k k 3 h G G k h 3 3 1 > : : : : : : : : : : : : < < : < < : : : : : : : % % % % % % % % % % % % & % % % = = = = 3 3 1 3 3 f f f k f 1 1 1 1 3 1 1 = % % = % = = = = = = & = 1 1 n g g b b b b N #.3.F.D.#.~ N M v v b ^ #.#.@.! $.*.7.7.#.@.#.! ! ! ! D.J.3.E N W W v 2 r ; r N #.$.O.B g g m v N m *.7.2.7.F.7.2.@.W W E b f 2 = = f b b b g g b b f - % $ % % % % = - 1 = ; = % # # # & & & 8 w w e e e e z z u z z z z z z x z e e w d d d d j s w w 8 r g M M b v g f f r f f f f f 1 = % $ $ $ $ $ % % % = = 1 1 1 % X     X X X X X X .   . . . . o o $ 1 f k l k v m W O.$.4.e.R.oXXXT.U.5.I.@X<XI.#.N M b b b b r g #.2.v v 2.J.7.N N C #.F.I.J.F.J.3.3.6.2.2.3.#.#.2.2.#.W W b g f g b N v g f f f f - f f g f b g f f f k M W #.#.^ b b R W b k b R E l & & & % & & & & & & & > & & & & & & & & & & & & & & & > > & & & > > > > > > & ",
"s i i i i i s s s s s s i i i i i i i i > > > > > > > > > > > > > > > > > > > > > > > > > > > > > > > > > > > > > > i i > i i i i i i s s s s s s s s s s s s s s s i i i i i i i i > > > > % % % % % & > > > i s s s s s s s s s s s s s s s s s > > > > > > > & # $ O               O % O             o       o o o @ 1 = 1 = @ - n T f     % % O O # s d d p d s s i i i i p i i i i i i i i i i i i i i i i i i i i i i i i i s i i i i i i i i i i i i i i i i i i i i i i s i i i i i i i i i i i i i 1 > > > i > > 8 x J.U.K.e.w.J.7.O.W N l l g g g v f l k g f f f f f f f f f g g g g g g g g g g g g f ; g t m $.@X1X5X5X5XcX6X6X6X5X6XoX1XoX.XoX1X4X5X5X@XT.E.<X3X1XR.7.C N M b b b b b b l b l g k l k l b N W @.#.$.$.J..XT.H.w.H..X.XY.Y.Y.Y.Y.Y..X.Xt.r.r..XT.T.U.H.T.XXJ.6.! f f k k k k T k f f 1 3 3 h h h 3 3 3 % : : : : : : : : : : : : : < < : < : : : : : > > > : : % % & & % % % & & & & & & % = = = = 1 > 1 1 1 1 1 1 3 1 1 1 = 1 1 1 = = % % = = 1 1 = = = = = 1 f f k v v M N N b M @.2.2.@.^ W N M f g b E ! ^ ! ! @.! W W N N W N N W ~ F.W.#.v n M E b 2 w ; r N 4.%.m m g m #.#.#.O.4.7.#.,.2.2.@.! ^ ~ ^ M f 2 = = 1 g f f f g b b g - % % % % % % - f 1 = ; # # & & & 8 8 s w w e e e e z z z z z z z z z z z e e w 8 d d d s s s w 8 8 e g M M M v k f f r r f f f f f 1 = % $ $ $ $ % % % % = = 1 1 % X o   X X X X X X .   . . . . o   o = f k k g g m N W $.<.5.H.U.T.T.T.r.I.oX@XJ.@.M v f f v b w q ! 2.N v 4.H.F.%.B C 2.8.J.W.I.J.3.8.8.3.,.#.~ #.2.3.#.! ~ ~ M b b b E M b k k g f f f g g l b b g 1 - b E ^ #.#.~ E b R W M g g b R l & & & % & & % & & & & & & & & & & & & & & & & & & & & & & & & & > > & > > & & ",
"s s i i i i s s i i i i i i i i > > i i i > i i > > > > > > > > > > > > > > > > > > > > > > > > > > > > > > > > > > > > > > i i i s s s s s s s i i i i s s s s s i i i i i i i i > > > > > % % % % % & > > > i s i s s s s s s s s s s s s s s s s > > 1 & & & O O           O O O @ @ @ O @   o $ % % % o             o = 1 f 2 O @ k n % o = = @ O # s j d p j j j s d d d d d d d d i i i i i i i i i i i i i i i i i i i i i i i i i i i i i i i i i i i i i i i i i i i i i i i i i i i i i i i i i i 1 > > > > i & & M R.H.e.e.5.$.} B N g g g g g g g g l k g f f f f f f f f f g g g g g g g g g g k g g v ; N 4X<X5X5X5X5X5X5X6X5X5X5XoXoX6X1X1X1X1X1X<XoXT.H.H.U.I.5.+.B m M b b R R b T b g l g f g k f k b E W @.#.O.#.J.XX@XU.r.T.@XoXY.Y..XY.K.Y.oX.Xr.r.H.oXoXT.H.J.J.L.$.N f f f h k k b k f f 1 1 1 k k h 3 > 1 : : : < < : : : : : : : : : : : : < < > : : : > > > > = = = = 1 1 1 1 1 1 = = 1 1 = = = = = = & & = 1 1 1 = = 1 1 = & % = 1 % = = % % = = 1 1 = = = = = 1 f g b n N ^ ! N N v N E N M M N M v g M N N N N N N ! B N N N N N M E E W @.~ E n n v v v - ; r v ! $.B m m O.4.J.F.@.! @.! N W ! ! ! E E E E b - - - = - f ; = f g E E n - @ $ $ % % % = 1 1 ; @ # - w w w 8 w d d e e e z z u z z V V x x z z z z e e e w d d d d r w w & ; g m m m M v v g r r r f f f f f 3 1 = $ $ % % % % = = = = 1 1 1 % X   X X X X X X .   . . . . .     $ 3 k f f f v M m ! %.<.5.e.U.T.oXU.r.E.E.6.! b b f f f f q r B ! v m 7.F.F.,.m B %.! ,.F.F.F.2.,.3.2.,.^ ~ #.2.2.#.@.#.#.W N b f N N N N M g f f f b R R b b g - - b ^ @.#.#.~ E l b W M f f f l k & % & % & & % & & & & & & & & & & & & & & & & & & & & & & & & & & & & & & & & ",
"i s i i i i i s i i i i i i i i i > > > i i i i i i > > > > > > > > > > > > > > > > > > > > > > > > > > > > > > > > > > 3 3 i i i i i s s s s s i i i i i i s s i i i i i i i i i > > > > > : % % % & > > > > > i i i s s s s s j s s s s s s s s s 1 > & & # $           O @ % 1 1 - # @ O     @ $ % & 1 1 1 2 k k 1 = $ $ @ = n ;     = f 2 1 1 @ O # j d j j j j j d d d d d d d d d i i i i i i i i i i i i i i i i i i i i i i i i i i i i i i i i i i i i i i i i i i i i i i i i i i i i i i i i i i s > > > > > 8 * g U.H.e.7.<.B m m g g g g g g g b l l k g f g f f f f f f f f f f f g g g f g g g g q t N 4X5X5XkX5X5X5X6X5X2XvXvX1X.XoX5X6X5X6X1XoXoXoX1XoXH.5.+.O.B M M W W W R b k T T g g f f g k k l M E Q ~ @.m B 6..X2XT.Y.oX6XoX|.|..XY.K..X.Xr.r.r.U.U.oXU.J.J.4.3.W f f k k k k b b k f k f 3 f k h 3 > : : : : : < < : : : : : : : : : : : < < < > > 3 > > > 3 3 1 1 1 1 1 1 1 1 1 1 1 1 1 1 1 1 1 1 1 1 1 1 1 1 = 1 1 = = & & & % % % % % % % % = = 1 1 = = = = # - f k b T ^ #.@.^ E M N M N N M b v v M ^ ^ N v m N N m B B C B ! ~ #.E N E b v M f f v 2 f f ; r N %.$.B } B 4.J.*.B O.O.W v v N M ^ @.! W N M f 2 f f = = = @ ; f b E E n - @ $ % X % % $ @ % % # - w w w w w d d d e e z z z z x V [ [ [ [ x x z z e e d e d d j f w ; ; & ; g M m N M v v g r r r f f f f f f 1 1 $ $ % % % % % = % = 1 1 1 % X o X X X X X . .   . . . . .     . 3 f f f f k v g m B %.<.e.R.@X4XY.e.T.R.7.! v v b b f w w v ! M r ! H.F.F.7.C B %.,.,.7.8.J.F.#.~ #.#.^ #.2.#.@.! N ^ W b M M b g M W W E l f w - E =.^ b g f f - M ~ ~ ~ @.~ N k b W M f - - k k % % % & & & & & & & & & & & & & & & & & & & & * & & & & & & & & & & & & & & & ",
"i i i i i i i i i i i i i i i i i i i i > > > > > > > > > & & & 3 1 > > > > > > > > : : : > > > > > > > > > > > > i i i i i i i i i i i s s s s s s i s i i i i i i i i i i i > > > > > > > > > > > > > > > > > & s s s s d j j d d d s j j s s s > 3 > & $     O O % & & % O   % & f f f 1 - = % % % $ $ $ % = 3 3 k n n 1 O   f b   % o o - f g = O O s d j j j j j j j j j j i i i i s s s s p p p p i i i i i i i i s i i i i i i i i i i i i i i i i i i i i i i i 8 8 8 8 i > > > > i > > i i i i & & & > s & & s # # o.U.J.5.&.} m z t r g k g l x x l l l l g g f f f f g g g f f f k l k k l f g g q t Z T.5XkXkX6X1X4X6X5X6X4X5XvX5XoX.XoX5X5X5X1XoXoX@X2X2XE.7.O.B B M W ~ @.W E b k b R T k l b b l k k l k M M N M g W 4.XX1XH.oX1X6XoXY..X.XY.U.T.U.r.r.r.U..XU.J.J.7.#.N g f k k T b b k k k f 3 3 k k k 3 3 > : : : : : : : : : 4 4 4 4 : : : : : : < > > > > > > > > > 1 1 1 1 1 1 1 1 1 1 1 1 1 1 1 1 1 3 1 1 1 1 1 1 3 3 1 1 = = = = & > & % % % % % = = = = = = = = - - g b b E W ^ W E N E M b b b M v g g b E N v M v v m t #.F.J.6.2.~ W W M b g g g g g 2 - - - r M @.2.8.J.8.$.4.7.! #.*.~ N M v v W 2.F.3.~ N b f - - ; - # @ = - f k T E T - @ % $ $ $ % & = - w w r w e e e d d d z e u u x x [ [ [ [ [ [ [ [ x z z e e e e g d d r w ; # & r g m M m m M v g r f f f f f f f f f - @ @ $ % % % % % = = = 1 1 % o X X X X X . . . . . . . . . . . . % 1 k f f g v v g m } <.H.oX6XcX.X9.T.2XU.O.b n g f f 2 r v m m g N L.R.J.H.,.O.#.! O.2.8.F.7.,.2.J.2.! N ! #.@.! ! N M M N b b M N W @.M g f f g M E E b g f f f b ~ =.@.~ N M b b R R ; @ & f k 1 % % % % % & & & & & & & & & & & & & & & & & & & & & & & & & & & & & & & & & ",
"i i i i i i i i i i i i i i i i i i i i > > > > > > > & & & & & 3 1 > > > > > > > > > > > > > > > > & & > > > > > > > i i i i i i i i i s s s s s s i i i i i i i i i i i i > > > > > > > > > > > > > > > > > > & s s s s j j j d d d s s s s s s s 3 % % % o % 1 & & & O O             @ @ # = % 1 1 1 1 = % X = 3 k T T 2 % o - 2 =   o   % = - - - & s d j p j j j j j j j j i i i i s s s s p p p p i i i i i i i i s s i i i i i i i i i i i i i i i i i i i i i i i i i i > > > > i i > > i i i i & > > & > > > & # r 7.R.J.<.O.V g g g g g l l l x l g g l l g g f f f f g g g g s f g g k k k f w t Z } U.5XvXvXvX1X.XoX1X1X1X1X5XvX1X.XY.<X7X7X5XoXT.XX@X@XT.6.O.B m M E Q ~ ~ E b v b b b T b l l k f k k k k l M l l g W 4.U.U.U.1X6X6X.Xt.U.T.T.Y.XXT..X.XU.T.U.J.w.4.#.R l f f f k b b k k k 3 3 3 3 3 3 3 > : % : : : : : : : : : : : : : : : : : : : : : < < : : > > > > 3 1 1 1 1 1 1 1 1 1 1 1 1 1 = = = = 1 1 1 1 1 1 1 1 1 1 = = = = > > > = = = = % = = = = = = - 1 1 f g b b T E E E M M N b v b b m v g g v v v v v t m B 2.F.J.F.2.#.^ E b b g f f f f 2 2 - - ; v M #.8.U.U.4.O.6.7.W W W N b v b E @.2.D.#.N g - ; @ ; # = # # = 1 f g T T b f % $ $ o $ % & - w r d d d e e e d d z z u u x x x [ [ [ [ [ [ [ [ x z u e e e e g g s r w & # ; r v m m m m M v v f f f k g f f f f f f % % $ $ % % % % = = = 1 1 % o X X X X . $ . . . . . . . . . . . $ 1 k f f k M N B B } %.e.oX5XvX<XY.<X4XH.@.N M f f 2 - r g M N m N F.W.R.U.7.#.2.$.#.,.2.#.#.,.F.J.*.N N @.7.#.#.! N N M M v N W @.=.@.M l k f k b v v b f f f w l ~ =.@.W M M k b b R ; # & f f 1 # % & & & & & & * & * & & & & & & & & & & & & & & & & & & & & & & & & & & & ",
"i i i i i i i i i i i i i i i i i i i i > > > > i > & & & & & & > > > > 3 3 3 3 > > > > > > > > > > > > > > > > > > > > i i i i i i i i s s s s s i i i i i i i i i i i i > > > 3 > > > > > > > > > > > > > > > > s s s j j j j j j j s s s s i > s > > f k f k & $ O O                         @ % = 1 k f 2 1 = 1 2 k n 1 @ @ @ - k @ @ O @ @ @ 1 f f d j j p j j j j j j j j d d p p d d p p i i i i i i i i i i i i i i i i i i i i i i i i i i i i i i i i > > > > i i i i > > > > > > > i i i i i & > > > > i s & & s F.R.J.$.B m g g v b M M b b x l g g l k g g f f f k f l g g g g g g k k f g m t %.<X3X5X5XvX5X<X.XoX@X1X1X1X5XcXoXY.U.@X5X4XoX.XT.T.U.J.<.B v m m N W W W E b b M b b b b b l k f f k k k g l b l k b ! 4.e.e.oX5XcX6XY.w.w.H.T.E.@X2X5X3X.XoXU.4.$.B N M g k f k k k f k f h 3 3 3 3 3 > : % % % : : : : : : : : : : : : : : : : : : : : : : : : : < < > : > > 1 1 = = = = 1 1 1 1 = = = = : : = = = = 1 1 1 1 = & = % % % > > = = = = = = = = = = = = 1 1 g n b T E E E E b n b M v v b b M M v v g g v m N W @.2.F.J.F.#.E N b k g g g - 2 f f - 2 - ; t v m O.7.I.R.4.4.F.*.W N M M b k b E ^ ^ ^ M f ; % @ % = % = % & 1 1 f f b b n f = $ O $ # & w w d d g d z e e z z x x z u z x x [ [ [ [ [ [ [ [ [ x z e e d g g g g e r ; # # w g m N N m m m v v g v v b k k g g g f f 1 % @ @ % % % % % = & = 1 % o o X X . . $ $ . . . . . . . . . . O & 3 f g k N W O.O.O.%.H.oX5XvX6X1X4X<XH.,.N v f f 2 - w f b N W W 4.L.F.8.$.%.$.#.#.%.B N ! 2.F.7.@.! #.2.F.2.@.W W N g v N W W ~ =.@.M b l l b f f g b f w w & g Q ~ ~ W M b g k b b - & & w f > # # & & & & * * * * * & 8 8 & & & & & & 8 8 8 8 & & 8 8 i i i i i i i i i i ",
"s i i i i i i i i i i i s s s s s s i i > > > > > & & & & & & & > > > > s s s s 3 > > > > > > > > > > > > > > > i i i i s s s s i i s s i i i i i i i i i i i i i i i i > > > & 3 > > > > > > > > > > > > > > > > s h s j j j j j j j s s i > > > s h R T k & &                                       @ = 2 n n 1 f f k 1 % @ % @ - k 3 $ % % @   # f k x x j j j j j j j j j j d d d p d d p p i i i i i i i i i i i i i i i i i i i i i i i i i i i i i i i i > > > > i i i i > > > > > > > i i i i i & > > > > > > & i w 6.J.J.O.m m z z M M M N M M l g g g l g g f k f g f g l g g b l l g l f f g B 6.@X5X3X1X5X7X1XoXoXY.oX1X1X6XcXvXY.Y.Y.1X5XoXT..XoXT.5.<.B m t m B @.W M b b b E R b b b l k k f f k k k k g l l l g W ! 4.6.e.1XbXVX1XY.w.5.T.<X2XkXVXVXbX2X1XU.$.W M M l g l k k l f 2 3 3 3 3 3 3 3 3 > : % % % : : : : : : : : : : : : : X X X % 4 4 : : : : : : : : : : : : : : : : : % % = = = = = = = : : : % = = & = = = & & % % % % > > = = = = = = = = = = = = 1 f b T E E W W E E n n n T k k b b v M v v M N ! ! *.7.F.F.J.D.*.N b b b f g f f 2 2 g g 2 r ; r m O.O.$.7.J.J.,.7.D.@.! E l b k f f b k f f ; # # % % % = % % % = 1 1 f k k k k 2 = @ O % s s j g g d e e u u u u z z z z u z z [ [ [ [ [ [ [ [ [ [ z u e z d g g g g e r & # # w g M N m m m m m v v k v b b b k g g g f f = @   % % % % % % & = 1 % o o X X . . O O . . . . . . . . . . o $ 1 f g k N W O.O.%.<.H.oX6X5XcX5X5X<XU.6.! v f 2 - ; - f b W m B #.J.4.$.%.,.! ! O.O.N v B 2.7.@.! *.2.D.J.*.! W W v g M @.W Q l M Q E b b E E g f b b g w ; # f E ~ W E b k f g l b & & 8 8 f s & & & & & 8 & & & & 8 8 8 8 & & & & 8 8 8 8 8 8 8 8 i i i i i i i i i i i i ",
"s s i i i i i i i i i i s s s s s s s s 1 1 > > > > > > > > > > > > > s s s s s i i > > s s s s s s s s s s s s s s s i i i s s s s i i i i i i s s s s s s s s i i i i > > > > > > > > > > > > > > > > > > > > > s s s j j j j s s s s s > & & > H Q R b % O                 o O           o O O         @ & 1 f k k f % O o = = - f k 3 1 1 %   O s k H j j j j j d d d d d d d d d d d d p p s s s s d d d d i i s s d d d d d p p p i i i i i i i i i i i i > > > > > > > > > > > > > > i i i i i i 8 i > > > > & i w r J.w.5.O.m m m N N N E N N M l g g g k g g g g g g g l k l b l g g g e m e B U.4X1X1X1X1X5X5X6XoXY.u.Y.1X7XcXvXvXY.U.Y.1X5XoXT.oXXXe.$.O.N m m N W @.N b b b b R E b b k k k k h k k k k f k k f f f W W $.4.J.vXVXVXoXe.5.U.3XnXnXDXDXnXbX2XXX7.#.N N b l k f f f f f f 1 1 3 3 3 3 3 > : : : : : : : : : : : : : : : : : : X X X % % % % % % % % % : : % % : : : : : : = = : % % % % : : = : : : % % % % % % % % % & % % & = = = = = = = = % % # = - f f g T E W W W W T b n b n b b g f v v v v ! 2.*.*.*.7.J.W.W.F.3.^ M k g f f g - - g b v f f ; q N ,.8.J.H.I.H.4.#.#.#.^ ^ M g f f f - = = = = % @ @ % % % = = = = 1 1 1 3 3 1 1 1 1 # # = w d g g g z z z z z z z z z z z z z z V V V V [ [ [ x x x x z e e g g g g g d r w & ; r r m m V B N m m m v v v k v v v v v v f g g 2 % @ @ % % % % % & = 1 % o X X X X . . . . . o . . . . . . o o o % f l l M W O.$.<.<.e.T.1X6X5X7XkX3X@XJ.! b f 1 1 f f s g W g m O.J.6.J.8.6.$.O.O.O.B m N @.#.W O.3.6.J.J.4.@.W W z g M Q N Q M M W W E E W E M E E E d 8 - & w b Q W E v g g d g x w w i i j s i i i i i i i i i i i i i i i i i i i i i i i i i i s s s s j j p p p p d d ",
"i s i i i i i i i i i i s s s s s s s s 1 1 > > > > > > > > > > 1 1 s s s s s s i i > > s s s s s s s s s s s s s s s s i i s s s s s s i i i i s s s 1 s s s s i i i i > > > > > > > > > > > > > > > > > > > > > s s s s j j j s s s > > & & 1 f Q ~ T 1 O o                 o % O             O               % k l k # @ O @ = - 1 = k 1 f % @ O & f j j p d d d d d d d d d d d d d d d p d s s s s d d d d s i s s d d d d d d p p i i i i i i i i i i i i i i i i i i i i > > > > > > > i i i i i 8 8 > > > i i 8 * g J.5.4.O.B B B W B B N N M M x x g g g g g g g g k g k k l l l g g g g m $.R.@X2X2X3X4X<X5X7X1XT.Y.r.Y.6XvXvXvX5XY.U.Y.1X5XoXoXoXU.4.O.B m v N W W W N N N W b b b b k k f f h h k k f k f f k f f f N O.,.<.T.VXDXbXXX5.5.<XVXDXDXDXVXcX5X@X6.N N b l l g k k f f f f f 1 1 3 > > > : : : : : : : % : : : : : : : : : : : : X X X % % % % % % % % % : : % % % % % % : : : : : : : % % : : : : : : % % % % % % % % % & & & & = = = = = = & & % % # = f f f g b b b b T T b k f g v v g f r f N @.2.6.J.6.7.F.F.F.J.J.7.! b g f f 1 1 f - - g b v r ; ; v %.7.J.J.K.W.J.$.! ! E E E b f f - - ; # % % % % % % % % = = = = 1 1 2 2 2 k = % = - # - s d g z z z z z u u z z z z z m m V V V V V V V V V x x z z z z e e g g g g g e r w & w g g m m B B N N N N m v v g v v v v v v v g g f - % @ % # % % % & = 1 % o X X X X . $ $ . . o o . . . .   o o o % f b b M W O.$.4.5.e.U.oX1X1X5XcX5X@XJ.! N l f f f f g M W z m $.J.J.I.H.J.4.#.! o.W V V o.B B #.6.J.L.J.3.=.W W V M M M M M M M N E Q W N M N W Q M s & 8 8 w l Q ~ E v g g g g x s s s s j s i i i i i i i i i i i i i i i i i i i i i i i i i i i i i i p p p p p p p p ",
"i i i i i i i i i i i i i i s s s s s s i i i > > > > > > > > > s s s s s 3 > > i i i i s s s s i i i i s s s s s s s s i i i s s s s s i i i i > > > > > > > > > > > > > > > > > > > > > > > > > > > > > > > > > > 3 > s s s s i i > > & & 1 f Q @.l & O   O       O O O     O             O O O               o 1 3 3 1 % @ @ - - % o h k 1 % $ % # s d p p p i s s s s s d d d d d d d d d s i s i i s s d p p p p p d d d d j j d p p p i i i i i i i i i i i i i i i i i i > > > > i i i i i i i i 8 8 > > > i i 6 * e U.5.1.&.+.+.O.O.W B N N M M M x l l l g g g g g k k k g g g g g g g m w.U.oX1X1X2X5X6XoX6X5XY.t.t.q..X5XbXbXcX1Xt.r.U.<X6XoX@XXX8.%.B m m m ! ! ! M N N E W b b g g f f 3 3 f f k f f f f k f f f g N #.2.4.<XDXDXvX<XI.I.5XFXFXDXDXmX4XE.8.N w l k k l l l l g f f f f 3 1 % % : : : : : : : : % % : : : : : : : : : : : : : 4 4 : % % : : : : % % : : : : % % : : : : : : : : : : % % % : : = : = = = % % = = = = % = % % & & % & = & # # % = = - f f g l f g g g g g g f 1 f f f - - f b 2.F.I.J.6.2.2.3.3.#.#.@.^ b g 2 f f - 2 1 1 f f r r ; ; t N @.7.7.4.2.2.O.! W N v b g f 1 - = ; % = % % % % % % = = = = = = 1 1 3 3 1 1 % % ; - w d g x z z z z z z z z z z z z z z m m m m z z z z z z g d e e t e e t g g g g g e r w w e g m m m B B B B N N N m v v v b n b v v v n n n f ; @ % % % % = & = 1 % o X X X X . $ $ $ $ o o . . X X X X O o $ 1 b M M B W $.4.5.r.U..XoX<X3XkXkX4XL.@.E l g f j j g x M z m #.6.6.J.L.J.6.*.o.W o.V V V V o.-.D.L.L.D.-.*.#.W o.W V x M x M M M M W R M x M M M g d w 8 w w l R o.W x g x g g x s s s s j s i i i i i i i i i i i i i i i i i i i i i i i i i i i i i i i i i i i i i i ",
"i i i i i i i i i i i i i i i i s s s s i i i > > > > > s s s s 1 i s s i i i > i i i i i s s s i i i s s s s j s s s s i i s s s s s s s i i i > > > > > > > > & & & & > > > > > > > > > > > > > > > > > > > > % & & & > i i i > > > > & > k b ~ l         O O   o O % % O O O O O O       O O                   $ = 1 f = @ @ 2 1 @   $ T o   O % & s s i i p i s s s s s s s s s s s s s s s i i i i i i i i p p p p d d d d j j d d d p s i i i i i i i i i i i i i i i i i i i i i i i i i i i i i 8 8 & > > > 8 8 w q U.w.5.5.5.5.&.O.O.W N N M M M M x l g g g g g k k k g k g v g z m m 7.H.U.@X@X@X1X1X.XoX6X1XY.q.r.Y.<X5XbXbX5XoXr.U.U.<X4X1X2XE.$.m m M N m N ! ! M N b b b b b g f 3 3 1 3 f f f f f f f k f s f g N #.2.5.3XDXVXvX3XE.E.nXFXDXDXDXkXE.J.#.r k b l l b b b n k g f k h 3 3 : : : : % % % % % % % % : : : : : : : : : : : : : : : : % : : : : : % % : : : : % % % : : : % % % % % % % % % % % = % % = = = = = = = = = = = = % % % % & & & & = = - - f f g b f f f f f f 2 - = - - w ; f b ^ D.W.J.7.! ! ^ ^ N E ^ E k g f - f f 2 - 2 f f ; - f b N N ! @.2.2.#.B m m W M r b f = 1 - = % % 1 = % % % % % = = = = = % = = 1 1 1 1 = % # w w g x z z z z z V z x [ z z z z z u z z z z z z z z z e e e d d d g g g g g g g g g e e w w t m m m B B B B B B B N m m v v b n b b b v v b b g - @ % % % % = = = 1 % o X X X X . $ $ $ $ o o . . X X X . $ O $ - g l b N B O.&.5.e.U.T.oXoX1X3X5X@XH.O.b l j s s d g x x z g o.*.4.J.J.J.F.-.O.o.V W o.o.o.-.7.7.P.J.7.*.#.#.o.o.Q o.V W V M R Q W M M M l x x g d d s d s w g Q o.Q M l x g l R s s s s j d i i i i i i & & 8 8 & & & & & & 8 8 & & & & 8 8 8 & i i 8 8 i i i i i i i i ",
"i i i i i i i i i i i i i i i i s s i i i i i i i i s s s s 1 1 i i i i i i i i i i i i i i i i i s s s s s i i d d i i i i i i i i i i i i i i > > > > > > > > > > > > > > > > > > > > > > > > > > > : > > > > > > > > > > > > > > > > s % l E 1       O         % & & - - 1 1 f - # $ O % @ O $     O   $         O @ # = = - = f @   ; b %   O % > s s i i i i i i s i i i i i i i i s s s s i i i i i i i i p p p p s d d d j j j j j j j j d d d d s s s s i i i i i i i i i i i i i i i i i i i i i i s i i i s 8 6 J.H.w.5.e.J.e.4.O.} B B E E N N M M M x l k g l l M M l l M g M t O.4.e.U.T.oXoXoX<X<X|.oX5X.Xq.r.u..X4X5XnXbX5X<XY.r.Y.<X1X5X1XJ.%.V W N N W #.~ N N N b b b l l k f f f k k f f f 3 f f f 1 g f - ! ! O.8.e.3XnXnXnXcX4XcXDXUXDXDXDXkXE.2.n v n b b b b b g b k g f f 3 3 > 3 < : : : : : : % % % % : X % % : : 4 4 : : : : % % % % % % % % > > : : : : : : % % % % % % : % % % % $ % % = 1 $ % = = = = = % = = = = = & % % % = = % 1 1 f f 1 f g f l g g g g f f f - f ; - g f f ; f f b W 2.2.@.N t v b v v b b g 1 - 1 f 1 - - 1 = f k n g b E W W ! ~ @.! M g r k b k f = - - - 1 1 1 1 = = = % = = = = = = = = 1 = = = & & # # # w e z x z z z z x x x z z z z x z z z e e e e e e e e e e e e e d d d d d d d d d e z t e t 6 g z m V B B B B B B B B B N m v g v v b b b b b b n v g - % % % = = = = = % o o X X X X $ $ $ $ $ $ $ $ $ $ $ $ % % % = s l M N W O.$.e.H.H.Y.Y.T.oX1X5X@XK.#.v g j j g x x x x g z B %.7.w.F.w.4.*.@.o.o.o.o.x o.;.-.-.-.-.-.=.@.o.o.o.o.V W o.R V Q *.@.W R W M M x g d j j d j s l Q @.Q M x x x l R j s s s j j i & > > & & & & & & & & & & & & & & & & & & & & & & & & & & > i i i i i i i ",
"i i i i i i i i i i i i i i i i s s i i i i i i i i > i s s 1 1 i i i i i i i i i i i i i i i i i i s s s s i i d d i i i i i i s d s s s i i i i > > > > > > > > > > > > > > > > > > > > > > > > > > : > > > > > > > > > > > > s > & > & k 1 &       O     O # - 1 f w - & = = f - & f - - - O % O   O O O O   O       @ = f 1 2 f @   ; k @   @ % 1 s s s i i s i i i i i i i i i i i s s s s s i i i i i i i i p p p i i s s s s s d d d d d d d p p s s s s d d d d d d d d d d s s i i i i s s s s s s s i i i s i d R.H.w.w.H.K.J.4.%.%.} W W W N N N M M M x l l k g M M g M v m m $.J.J.e.U.Y.T.oXoXoXoX|.<X7XoXt.u.T.1X5X5XVXVX7X<XT.Y.Y.oX<X1XoX8.O.B N N E @.#.! b N b b k k f f f f f f k k 3 3 1 1 3 f f 1 f f f ^ %.%.8.r.<XcXcXnXnXmXZXUXUXDXnXcXE.3.n n M b b b b b k g b b g f 3 3 > : : : : : : : : : : : % % : X % % : : 4 4 : : : : % % % % % % % % > 1 1 1 3 > : : % % % % % % % % % % % % % = = = = = ; ; = = - - = = = = - - 1 - ; ; = f 1 k b b b f 2 f g f f f f f f f - - - g b k b f k k k M N N v t q q f v k g g f 2 2 f f 1 1 1 1 - f b b b b E E b b M N b f w w f g f f = = - - = = = = 1 1 = = = = = = = = = = = = = 1 % # # w r g z z z z x z z z [ [ V x z z x z z e e w w e w w w w d d d e d s s f f f f d d d e z t e e q z m V V B B B B B B B C B N N m v v v v b b b b n n b v 2 % % % = = = = = % o o X X X X $ $ $ $ $ @ $ $ $ $ $ $ % % % 1 f g b M V O.$.e.U.Y.Y.Y.U.T.oX<XXXJ.$.B M x x M x x x x x V o.*.7.5.w.5.#.@.o.W o.o.o.x o.o.o.;.;.$.@.@.@.o.o.W V V o.;.R V o.-.-.@.Q R R R M j d d j j d s k Q @.Q M l b x k x f i s s j j & * & & & & & & & & & & & & & & & & & & & & & & & & & & & & > > > > > i i i ",
"i i i i i i i i i i i i i i i i s s i i i i i i > > > > s s 1 1 i i i i i i s i i i i i i i i i i i i i s s s i d d i i i i i i s s s s i i i i i s s s i i i i > > > > > > > > > > > > > > > > > > > : : : : : > > > > > > > > > > s s % > h k % $ $       % 1 f 1 & & # % @ O O O   % 1 % % 3 % & > O %   1   O O O     @ = 1 n 2 @ @ w f ; @ % & 1 1 s s s s i i i i i i i i s s s s s 1 3 3 1 1 s i i i i i i p i i i i i i i i i i d i i i i i i i s i s s d d d d d d d d d d d d d d d d j j d s s s d s i j s d e R.J.e.H.U.T.T.5.+.+.O.$.$.#.o.V N m N M N N N M m M N M t m m 6.2XXXw.K.Y.U.Y..XoXoXoXY.6X7X1XY..X<X4X1X5XnXnX3XoXY.T.Y.T.oX@XT.4.C B N N W #.^ b f b g f f f f f f f f f f 3 3 3 1 1 1 3 f 1 f f g ! #.,.H.I.<XcXcXcXnXZXFXUXUXDXmXW.,.v ; n N v M E T b b n b b g 1 1 = : : : : : : 4 4 : 4 : : : : : : X % 4 4 : : : : : : % % % % % : : : > 3 1 3 3 3 > > > % % % % % $ $ % % & 1 k g k k l g f f f f 2 - r - ; ; ; - = - f 2 1 1 - n b b g f f k f f - f f f f f f r f E E E E b g f r f r q q r v v M N b f f f f f f 2 1 1 1 1 = = f n b b b b f f f f f - ; - 1 f 1 - = - - - = = = = 1 1 1 1 = = = = 1 1 1 1 = = = # # & w s g z z V x V [ [ [ x [ [ [ V z z z d e w w w w r s w w w s s s s r s r r s s s s d d e d d w e e m m V B B B B B B B C C B B N m v v v v v v v v b n b b g = % % % = = = 1 % o o X X X X $ $ $ $ $ @ $ $ $ $ $ $ $ % % 1 f f l b m B O.5.H.H.r.r.u.T..X.XXXU.4.#.M x M M x x x x x V W #.-.7.5.7.%.o.V V o.R x x x x x x W o.o.o.o.o.W W V V o.o.V x R *.-.*.Q V V V M g w s d d s w j R ~ Q b l M b k l s & i & f f & # & & & & & & & & & & & & & & & & & & & & & & & & & & & & & & & & & & & & ",
"i i i i i i i i i i s s i i i i s s i i i i i i > > > > i s 1 i i i i i i i s s i i i i i i i i i i i i s s s i d d i i i i i i i i i i i i i i s s s s s s i i > > > > > > > > > > > > > > > > > > > > : : : : > > > > > > > > > > & > k > v.v.T 3 > $ % 1 f 1 & % O O   @ O       O     T Q 3 3 3 > 3 $ % % O % @ O     O @ # n - @ ; g f f = % & > 1 s s s i i i i s s i i s j k k k f 3 1 3 1 1 1 s s i i i i p i i i i i i i i i i i i i i i i i i i i s s i i i i s s d d j j j j j j j j j j j j d d d j j j s i z K.e.e.U.XX@XXXH.<.<.%.$.$.O.W B V m M M M N N N m m m N N V &.5X5X.XH.Y.T.U.U.|.oXoXoXY.7XnX6X<X3X5X1X<X5XVXcX<X.XT.T.U.Y.oX@XU.<.B N N N W @.R g f f f f f f - 1 f f k k 3 1 1 1 1 3 1 1 f 1 f w v ! @.7.U.I.U.4X5X5XmXZXDXUXZXbX<X,.r 2 v M b M E ^ E E T b b k 2 1 % = : : : : : 4 X X X X : 4 X 4 : : X X X 4 : : : : : : : % % % : : : > : > 1 3 : : > 3 1 1 1 1 % % % $ % & 1 1 g b T E E M v g r f f f ; - f f - - f f g g f 1 g f f 2 f k k g f f f f r f f f f f v W ^ W E g b f r w r w r m N N ^ ^ E f f g f f f 2 - 1 1 - = 1 f b b b k g f f f f f - = - = = = % - - = - = = = = 1 1 1 1 = = = = 1 1 1 1 f - # # w r d d z z z z z [ [ [ [ [ [ [ x z z e e w 8 8 w s d s s s s s s s s s w w w w s s s s d e w e e w w t m m B B B B B B C C C C C B N N M v v v v v v v n n b b n 2 ; @ % = = = 1 % o o X X X X $ $ $ $ $ @ $ $ $ $ $ $ $ % & 1 f f k b M B O.7.e.e.r.0.r.Y.U.U..XR.4.W z g g x g g d d g x V @.-.5.6.5.-.O.W V V x x x x x z z x x V V V W W W W V V R x d z o.=.o.Q V x x x x d s w w s w j R ~ E b g R b k l 1 # & & s s # $ $ $ $ $ $ $ * * * & & & & & & & & & & & & & & & & & & & & & & & & & & & ",
"i i i i i i i i i i i i i i i i i i i i i i i i i i i i i i i i i i i i s s s s s s s s i i i i i i i i s s s i i i i i i i i i i i i i s s s s s s s s s s i i i i & & > > > > > > > > > > : > : > > : : : : : 1 1 > > : > > > & & > > 3 3 / / G 3 : : 3 k 3 O O             @ % @   % T Q T G T > 3 k T 1 1 k 1 % O O       O - 1 @ b k f f 1 % & 1 > > > i i i i s s & > & > Q R k k 3 3 % $ % 1 G 1 > h > i i i i i i i i i s s s s i i i i i i i i i i i i i i i i i i i i d d d d d d s s i i i i s s s s s s i d -.R.e.e.oX<X1X1XT.e.5.+.%.O.O.B B } o.o.B B m m V B V N N B <XcXbXkX.XH..X.XY.Y..XoXoX@XoXvXvX5X5XcX5X@XoX5XbX4X.XoXoXY.Y.Y.@X@XJ.O.N B N W ! ! b b g 1 f f f f f f f 3 h 3 1 = = 1 3 3 1 1 = 1 - ; N @.#.,.I.E.E.<X@XT.E.E.3XnXkXE.7.M v f v n M W ~ ^ E M b l k f 3 1 1 = % : : % % X X X X X : X X X X X X X % : : : : : : : : : : : : > 1 1 & & & & % 1 1 1 3 3 1 1 1 1 = = = = 1 w g b N W W W W W W M v v v f f f b ^ ^ b f g k k g g g g g g g f f f f w f f g f v O.! ! *.#.@.W W E b b b f f N ! ! #.@.E b b b f k f 1 - 1 1 = 2 2 2 g g f f f f 1 - - - = = = = = = = 1 1 1 % = = = = = = 1 1 # # = = = = = = # # & # d d z z z z z z [ [ [ [ [ [ [ V z z e 8 w w s s s s s s f f s s s s - - s w w w f f f w r e w w e e 6 g m V B B B B B B B C C C B B B N N M m v v m m m b b n b b f % % = = = = 1 % o o X X X X $ $ $ $ $ $ $ $ % % % % % % % & f k k g m m B $.5.5.w.w.r.Y.Y.T.@XoX7.B g g g g d g d w d e z W #.4.D.F.4.o.M z x d x V x x e e e e z m R W W V M V V M x d g R o.R M V M M x g j s w w s s f R E M l l R b k k & % & % f 1 % O % % % % & & & & & & & & & & & & & & & & & & & & & & & & & & & & & & & & ",
"i i i i i i i i i i i i i i i i i i i i i i i i i i s i i i i i i i i i s s s s s s s s i i i i i i i i s s s s i i i i i i i i i i i i s s s s s s s s i i s s i i > & > > > > > > > > > > > > > : : : : : : > 1 1 > > : > > > & 1 s s > / T 3 3 < , > : > %   O               %   % Q T k 3 h : G / X : k b f f # O         @ @ - @ ~ ~ f ; @ 1 3 3 1 > > & & i > > > & > h T Q G k 3 3 3 1 % % h R h > h > s i i i i i i i i i i i i i i i i i i i i i i i i i i i i i i i i i i i i i i i i i i i i i i i i i i & s -.J.e.H.@X1X4X4XoXI.5.+.} } } } O.O.%.%.B B B B B B B B } @XkXvXcX5X.Xr.oXoX.X.X.XoXoXoX@X6X6X5X5X5X1XoX1XcX5XT.Y.oX@X.XY.U.oX@Xe.O.m N B ! ! N f g f 1 1 1 3 f f f f 3 1 1 1 = 1 1 = % & 1 1 1 f f E @.@.#.8.R.E.XXH.O.B N 7.E.W.#.N v b v n b E N N N b b l g f 1 1 & 1 % % % % X X X X X X X : X X X X X X X % % : : % % : : : : : : 1 1 1 1 1 1 1 1 1 1 3 3 f f 3 3 3 1 1 1 - - f w k b M N O.$.2.7.7.2.#.@.N v v N 2.2.~ M f g g f f g g g g g g f g l r - w r r v m #.O.N #.#.@.~ ^ E M b f ; r M B ! ~ N v f f 1 1 1 1 = = - 1 1 = - 2 f g g v v 1 - - - - = = = = = = 1 1 1 1 % = = = = = = 1 1 = = = = = = = - # & d g z z z z z z [ [ [ [ _ [ [ [ V z z d w 8 w s s f s - w & w - - - - - - - # # # # # # - & 8 8 8 6 e w 6 z m V V B B B B B B B B B B B B N N N m v v m m m b M v v n f % % = = = = 1 % o o X X X . $ $ $ $ $ $ $ $ % % % % % % % 1 f g k k g m B %.<.1.w.w.w.Y.Y..X1XT.<.B m z g g d g g d z t g M o.#.4.7.-.O.V x g d g R M g e e e g z g R o.W V V V V M g d V o.o.W M R R R x g f s w w s s f R E b l l R b k l 1 & & & f f % % % % & & & & & & & & & & & & & & & & & & & & & & & & & & & & & & & & & & ",
"i i i i s s s s i i i i i i i i i i i i i i i i s s i i i i i i i i i s s s i i i i s s i i i i i i i i s s s s i i i i i i i i s s i i i i i i d s d d i i i i i i i i > > > > > : > > > > > > : : : : : : : > 1 1 > > : : : : & & > 3 G G./ G G D 3 3 3 1 % @ o                 k T T G G G 3 3 3 3 T $ %   l f # O         %   @ @ 7.F.b ; @ 1 f k 3 1 1 1 s > > > > 1 s T ~ G k 3 1 1 2 1 = % 3 T k > h > s i i s s i i i i i i i i i i i 8 & & > > i i i i & & > > > > > > > i i i i i i i i i i i i i > > > s * 8 *.J.e.T.1X2X6X5X1XT.H.1.} +.<.<.4.7.7.7.%.O.O.O.O.} $.4.XX5XnXVXcX7X.XY.oX<XoXoXoXoXoXoX<XoXoX1X@XoX.XoX5X5XoXr.Y.oX<XoXoXU.oX@X6.O.N N ! #.@.v r f 1 = 1 3 3 3 2 2 3 1 1 = % % = = = % % = - 1 - f E ! W ! ,.2.,.7.,.O.C ! ! #.@.N b f b b b b b b v v v k g f 1 - & & 1 % % % X X X X X X X X % X X X X % % % % % % % % % : : = : : : 1 1 1 3 1 3 1 3 3 3 f f k f f f f f g g f f f r g g m B $.4.J.J.6.J.F.2.! B O.7.2.~ E f v g f 2 f f f f f k b b f v ; - k f v ! 2.8.,.O.#.*.#.#.W b v f f 2 r M ! @.#.! b f f f 1 = = = ; - f g g g b b b M M b - - - = = = = = % = = - 1 1 1 % = = = = = = = = = = = = = = = ; w s g x x z z V x [ [ [ [ [ [ _ [ V z z d w w w w s s s - & & & # # @ @ # # @ @ # # # # @ # # & & # # # w w q M V V B B B B B B B B B B B B B N N N m v v v m m M M v v b f @ @ = = = = 1 % o o X X X . $ $ . $ $ $ $ $ % % % % % % % & f f g k g M B %.<.5.w.w.r.Y.T.oX1X@Xe.$.B M g g g g l g z z z M B B #.-.*.O.W N l g g M E g e g N V V M M W @.W Q W R R g x Q =.@.R M W W Q E x j s s s s s f R R b b b b b f l 1 & & & f f & % & & & & & & & & & & & & & & & & & & & & & & & & & & & & & & & & & & > & ",
"i i i i s s s s s s i i i i i i i i i i > > > > i i i i i i i i s i s s i i i i i i i i s i i i i i i i i s s s s i i i i i i i s s i i i i p i i i d d i i i i i i i i > > > > : : : > > > > > : : : : : : > > > 1 > > > : : : > > 1 > 3 G 3 T 3 3 3 D 3 3 % $ o o   o O @ % % $ & h k 3 h G G G 3 3 G 3   O O 1 % O O O     % @   @ J.(.^ - % = 1 k k h f f f s s s s s f T / 3 3 3 3 2 2 1 X % = k 3 > f > s i i i i i i i i i i i i i i 8 8 & > > > i i i > & > > > > > > > > > > > & & & & i i 8 8 8 & & > * s * 8 -.H.e..X1X4X5X5X5X@XY.H.r.H.U.U.U.U.U.U.e.5.4.<.<.<.J.oX5XvXnXVX7X5X<XY.<X1X<XoXoXoXoXoX1XoXoX@X.XY.T.<X<XXXr.w.Y..X.XoX<XY.oXoX6.#.B B #.2.@.v r - = = 1 1 3 f 2 3 1 1 1 1 % % % % = % % = 1 1 ; - b E N M C %.C O.O.,.! %.! ! ! N M v n b k b f b b f g f f - - 1 & % = % % X X X X X X X X X % X X X X X % % % % % % % : : % = : : % 1 1 1 3 3 f k k f k k k f f f f f v b b v k f r g m B %.6.J.K.K.E.W.F.$.%.#.#.! ^ N v f f f 2 f f f f 2 k b b b f k - f E M W 4.I.I.7.2.$.#.*.~ M b r ; 2 f g m ! ! @.@.E b k f f = = = - - g b T b T E M M v v - - = = = = % = % = = - 1 1 1 = = = = = = = = 1 = = - - - - - w x x z z z x z x x z [ [ [ [ [ [ V z z x w w s s w w w w ; ; ; ; ; ; ; ; ; ; # @ # # # # O @ # & & & & & w # q m V B B B B V B B B B B B B B B N B N m m v v m m M M n v n f @ % = = = = 1 % o o . . . . . . . . O O o o $ $ $ $ O O % & s f k k l m m B &.<.w.w.w.Y.Y.T.1X1XT.6.W m v g z M N M m M m W o.B W #.#.@.W N M g f l E g g M #.=.#.o.m N W ~ @.W R W g M Q =.o.M g M W W Q E j s s s s s f R R b b b l l f l s 1 1 & f f & # & & & & & & & & & & & & & & & & & & & & & & & & & & & & & & & & > > > & ",
"i i i i i i i i i i i i i i i i i i i i i i i i i i i i i i i i i i i i i i i i i i i i i i i > > > s s s s s s s i i s s s i i i s i s s i i s s s s s i i i i s i i s i > > > > : : : : : > > : : % % % > > > & & & & & & > > 3 1 & 1 1 @ k T 3 3 D 3 3 : = $ $ o @ o $ @ o o O     $ % $ > h 3 3 3 3 % $ o o   o O $     $ # O   O r 3.M f @ # $ = % 1 l - b b E E ~ R E Q k 3 1 = 3 2 2 2 X = = k 3 = 1 1 1 i i i i i i i i i i i i i i i i > > > > > > > > > > i i > > > > > > > > > > > i i i > > > > > & s & * 8 -.H.H..X4X1X4X5X5X3X1XoX<X1X<X1X1X4X@XoX.XH.w.r.H..X1X6X5XnXDXVX5X5X1X.X1X6X1XoX@XoX@XoXT.oXoXoXoXY.T.3X1XT.9.5.Y.oXY.Y.oXT.oXT.e.%.O.4.J.F.! w ; - 2 f f f f f 1 1 1 1 = = % % % % % % % % = = = % = f b N W #.,.! %.7.4.%.! #.#.O.N b b k k g g f f 2 1 1 = = 1 1 1 1 = % % X X X X X X X X X % % % X X $ % % % % % % % & 1 1 1 1 1 = & 1 1 1 k k k f f f f k k g g f b M N N ! C N m V } +.5.H.U.H.U.H.7.O.N W ^ ^ E E N v w g g g k f f f f l l g g f ; r r M ! #.J.R.R.J.D.*.W M N g f w ; v N W N ! ! ! ! W b l l f - - f - - f M W N N N b g f f 2 2 - - = = = @ % = = - 1 1 1 = = = = = = = - - 1 - ; % ; w g g z x z z z z z z [ [ [ [ [ [ [ z z z u d e d r r w r r r g g g g g t r w w w - - = = # @ # # # # # & & # & & r m B B B B B B B V B B V V V B B C B N N m v v m m N b n n b f % # ; ; - - 1 % o o . . . . . . . . o . . . $ $ $ $ O $ O O & f f k k M m V %.&.<.1.q.t.U.T.<X5X1XH.$.B m m B m m B W O.o.B B N N O.O.B N N l s g M g g d M #.7.7.%.W N W ! W E E ~ x g M W R M M R N @.E R g w 8 s f s f l R M l g g s l l > s & s f f s & > > > & > i i i i i i i & & & & & & & 8 & & * * 8 8 8 8 & & & & > > > > ",
"i i i i i i i i p i i i i i i i i i i i i i i i i i i i i i i i i i i i i i i i & > > i i i i i s s s s s s 3 s s 1 s i s s s s s s i i i i s s i i i i i i i i i i i > > > > % % % % % : : > > : : % % % > > > & & & & > & > > > 3 3 1 o b b = . 3 G < 3 3 1 X $ O @ O o o o       $ $ . . % , 3 3 , < % % o o   o o O o   O @     ;     @ ; @ O % @ % 1 - ^ E ~ M v r k ~ T g 1 1 3 k 3 k 2 = = % 3 3 = % & > > i i i i i i i i i i i i i i i > > > > > > > > > > i i > > > > > > > > > > > > > i > > > & & & & i 8 6 7.U.U.oX5X6X4X5X5X5X5X3X6X5X6X6X4X6X1XoXT.T..XoX1X1X6X6X5XnXVXVX5X5X1XoX6X5X6X1X1X@X@X.XY..XoXoXY.Y.oX5XcXoX9.r.oXoXu.r.<XE.XXR.6.,.7.J.J.*.g # ; ; 2 f 2 2 2 2 1 - = = = = % % % % % % % % % % = = % - f b W #.#.@.#.,.4.$.$.$.2.#.B v g k k k f 2 1 1 f 3 1 1 1 1 1 1 % % % X X X X X X X X X X % % % X $ % > % % = = 1 1 1 3 1 1 1 1 1 1 f f l l l l f f f f g f g f v m N B C %.$.<.4.e.K.T.XXXXU.H.e.,.C v v n b n b f r r f f f f f f f f f f f f f w w k W 2.6.L.W.W.J.7.! M g g f f f f b E ! ! %.C N N N v g l f 1 - = ; - g E ^ E N b b f f f f 2 2 - = = @ o % % = = = 1 = = = = = = ; = = = = = - w r d z z z x x x z x [ [ [ [ [ [ [ x x z z e e e e d r w w w e g g M M m v v g g g f f f f 1 - - w ; - - @ # # # - w g B B B B B B B B V B B V V B B B B N N N m v v m m N b n b b g % # ; ; - - 1 % o o . . . . . . . . o o . . O O $ $ $ $ O O & f k l k M B B +.<.5.r.r.t.U..X1X5X6XT.4.%.O.%.O.W B B $.%.O.O.W v m W W N N M l g g M r r g W #.6.F.7.#.W W N N W W ~ N x x R R M N W W @.E E g w 8 s f s f l R M b g g s l g > s > s f f s & > > & & i i i i i i i i 8 8 8 8 8 8 8 8 8 8 8 8 8 8 8 8 > > > > > > i i ",
"s s s s s s s s i i i i i i i p i i i i i i i i i i i i i i i i i i i i i i i i s s > > > > > > > > > > > > 3 3 3 3 s i i i i i s s s i s s s s i i i i i i i i > s s > > 1 > & % % % % % % % % % & & % % > > > > > > > & > > > 3 & 3 h O k %   o : , < 3 < $ % $ O @ O O o       O % % $   $ > > > : : % % $ O     o O O O @ % O @ W #.v @ # # O @ O @ - - (./.2.v q @ b =.f = % 3 3 3 3 T T 3 = % 3 3 & $ % & > i i i i i i i s s s i i i i i > > > > > > > > > > i i > > > > & & & & & & & & > > > > & & & & * i + # J..X.X1X5X5X6X5XvXvXvX7X5X5X3X6X1X1X<X<X@X<X1X5XvX5X6X3X5XnXVXnX7X5X1X1X7XvX6X6X1X1X1XoXY..XoX.XY.T.1XkXbX@X1.r.oXoXu.U.1XXXoXU.8.4.F.J.*.v # @ ; - 1 1 2 2 2 2 - = = % = = = % % % % % % % % % % % = = = f E ~ ~ ! ! O.$.#.#.#.#.! N g g g f f f 2 1 1 f f 3 3 1 1 1 = = % % X X X X X X X X X X X $ % $ % % 1 1 1 1 1 1 1 1 1 1 1 1 1 1 1 f f l g g f - - 1 f f f v v v m N B O.$.7.J.K..X@X@X@XT.e.5.4.#.N M n b b b k w w r v v g g f f f f s f w w f w r N @.7.J.J.7.4.#.W M f f f f g v v b N ! C N v v M N k f g f - = % @ - g E W E b g f f f 1 f f 1 - = % @ @ % = = = = = = = = = = = = ; = = - w f g x z z z x x [ [ [ [ [ [ V V V [ z z z z e e e e e e w w w e g M V B B m m m m v v k g g f f f w w w w w # # # & & w k m B B B B B B B V B B V V B B V V N N N m v m M M N b b b b g % = = = - - 1 % o o   . . . X X X X o o o o o o . . . . o O % 1 k b b m B O.<.w.U.|.Y.Y.Y.oX5XvX5X@XH.6.$.$.O.#.$.*.$.%.#.7.2.m g N W B N M b l g b r w g @.4.F.F.7.=.O.W N M W W ~ Q x l x M M E W W W M E l s s f f s f l R M b g g g l f & s s > s f s & & & & & & & & & i i i i i i i i i i i i i i i i i i i i i i i i i i i i ",
"s s s s s s s s i i i i i i i p i i i i i i i i i i i i i i i i i i i i i i i i > > > > > > > i s 3 > > > > > 3 3 3 i i i i s s s s s s s s s s i i i i i i > > > > > > > & % & : : : : : : : : & & & % % > > > > > > > & & & & & f 1 f 1 =     % k 3 3 < : o $ $ $ @ @ $ @ O     O % % $   $ > : : % % % % $ O       o O O % - O O #.2XL.; # @ @ # @ @ # r 2X4X,.r ; q N 3.b f % 3 3 3 h T T = % % 1 3 & $ O % & > 1 i i i i i s s i i i i i i > > > > > > > > > > i i > > > > & & & & & & & & > > > > & & & & & i O g H.@X@X5XvX5X5X5XvXnXbXcX5X5X6X5X6X6X1X4X5X5X5XvXvX1X1X3X5XvXVXvXcXvX3X3XvXvX5X5X6X1X1XoXY.oXoX.XY.T.<XkXcXoX+.5.Y.T.U.Y.oXE.E.J.4.2.F.2.M ; @ - - - - - - - - - - = = % = = = % % % % % % % % % % % = = = 1 b M E W W N N B N M N N v r f f f f f f 2 1 f 3 1 1 1 1 1 1 = = % % X X X X X X X X X X $ $ $ % & 1 3 1 = 1 1 1 1 1 1 1 1 1 1 1 f f f f f f - - - f r f v v v v N B O.$.7.H.T.@X1X.XU.4.$.%.O.m M E T b k f f r g v B N m m g g g k r w w w g f M *.7.F.J.D.#.~ N g f r r - g v b b v v v v t q r M E v - - ; = ; @ ; f v b b b g w - f 2 1 f 2 - = = % @ @ % = = = = = = = = = = = % # & ; s d x z x x z x x [ [ [ [ [ [ [ V x x V z z e d z e e e e w w w w g m B W W B m m m m m m v k k g g f f f r w f w & & s # w g M B B B B B B B V B B V B B V V V N N m m v m M M N M b b b g % = = = - 1 1 % o o   . . . X X X X o o o o o o . . . . o o % 1 k b b M B %.e.Y.oX<X1X XT.oX5XvX5X4X@XU.4.O.O.$.4.6.O.o.$.J.J.@.v v W B N N M l g f g e M #.3.D.7.2.#.O.O.W M E W ~ Q R g g x M M E E Q M N l s s f f s f l R M b g g g l s & f s & s f s & & & & & * * * * & & i i i i i i i i i i i i i i i i i i i i i i i i i i ",
"s i i i i i i i i i i i i i i i i i i i s s s s i i i i i i i i i i i i > > > > > , > , , , > > : 3 3 > > h G h 3 h > > s > s > > s s s > > > > s s s > > > > > > > & % & % % > $ % % $ % % : : % % : : % : > > > > > > > - - w f E f - - @   @ R 3.3 3 % & %   O     O % % % @ @ % # & % % % % % $ . $ $ $ $ @ @         % 1 l @ O ! /.7.# f # # @ @ @ ; w W.4.O.C ,.7.! *.W n 1 1 3 3 2 2 3 3 % X % 3 3 O O # % > s > i s i i i i i i i i i i i i > > & & & & & & & & & & & & > > > > & & & & > > > > > > > & > & # 4.U.1X1X6XcXcX5X5XbXVXnXvXvXcXcXvXcX5X5X5X7X5XcXCXvX1X1X5XcXvXnXnXvXvX6X5XbXbX7X5X1X1X5X<XY..XY..XT.T.<XcXmXXX+.1.T.T.r.5.I.U.J.$.! ! #.N r w ; ; % = 1 1 1 - - - - - = = = = = = % % % % % % % % % % % = = - f g b E N v v v v v v b v f 2 2 2 2 f f f 2 1 1 1 1 1 1 1 1 1 = % % X X X X X X X X X X $ % $ % 1 1 1 1 f f 1 1 f g f f f f f f l b b v f f f 2 2 r f f v M N N B C O.%.4.e.U..X.XH.7.O.O.#.W M b b R R g - w M B B $.$.} m m m m v v r f M N M @.J.F.7.D.2.^ N g f ; ; r f b v M M E N M M M m N ! ~ b f f - % @ = - - f l g w - - f - = 1 1 1 % % % X o @ % = = = = = = = = @ @ @ # ; r g z z z z x z z _ [ [ [ [ [ x x z z z z u g e e e d e e w w w w w g m V B o.o.o.B V m m m v v v v v v g g g g g k g - & w - f k g m m B B B B V m V V B B B B V V m m m m m m m M N M b b T 1 - % = 1 1 1 % % o o X X X X X X X X . . o o o o . . . . . o $ & f b N M B <.U.oX1X1X6X1XoX<X3X5XcX5X4XE.J.4.7.7.*.=.M v W F.L.7.m g g m N E E l g g d z O.#.#.*.6.J.7.@.@.~ E M b Q R b k f g g b R E M M M l l f f f s f l E M k g g l g s s s f s s j s & & & & & 8 8 8 i i i i i 8 8 8 8 i i i i 8 8 8 8 8 8 8 8 i i i i i i i i ",
"s i i i i i i i i i i i i i i i i i i i s s s s i i i i i i i i i i i i > > > > , > > > > , 3 3 h G Q G G Q / / R Q G G G s s > , > > i i s i s s s s > > > > > 1 k Q Q T R l % % 1 1 % % % % : & % : : % : > > > > > & # - f g N M f & @       D.L.; f 1 & %   O O $ % f f f 1 - - 1 f = - - = % o o o $ $ @ @ O         O - f &   M #.v r w w f # w # ; ; #.B B I.<X<X#.@.! b n 3 = 3 k T 2 = % % $ 1 f % O % O 3 h 3 1 s s s i i i i i i i i i i > > & & & & & & & & & & & & & & & & & & & & > > > > > > > & > # w J.U.3X1X5XcXvX5X5XbXnXnXnXvXnXbXnXvX5X7X5X5X5XvXvX5X1X1X5X5XcXvXvXvXvX5X5XbXVXvX5X6X4X5X6X.XY.r.Y..XT.<XkXcXT.} <.U.T.e.<.H.U.4.m t v N g w ; ; % % = 1 = 1 1 - - - = = = = = % = % % % % % % % % % o % % = = 1 1 n b N M b v v v v b v f f f f f f f 2 1 1 1 & = 1 1 1 1 = % % X X X X X X X X X X $ $ % % = 1 f f f g g g f f g f f f g k b b b M b v v v f f f f f v v N N B B B } <.5.e.w.4.$.%.o.O.%.@.V M b b b g f z O.$.%.4.7.4.$.%.$.$.#.! ! ! #.^ W *.J.7.! W b r q - 2 r f v v W ^ ! @.#.#.#.@.#.#.#.#.^ b f - ; @ @ # f f l R g f - 1 - - = - 1 = % $ % $ $ % % = = = = = = % @ @ # w w g M V V V [ [ [ [ [ [ [ [ [ [ [ x z z z z t e e e w w e e e w w w e t m V B o.O.O.o.B V m m m m m m m m m v v v v g g k f ; - - w f l m m m B B B B B B B B B B V m m m m m m m m m M N M b b b = = % = 1 1 1 % % o o X X X X X X X X . . o o o o . . . . . o @ % f T b v B 4.T.1X4X6X5X5X5X1X1X3X3X3X3XXXI.8.7.*.B M g g m 2.J.7.! t t g N W N l g g M W #.@.W %.F.R.J.*.~ ~ E R l R l g s s s g l l E M M M b R l k f f f l E M k f l l s s s s f s s j i & & & & & & & 8 8 & & & & & & & & & & & & 8 8 8 8 8 8 8 8 8 8 8 8 & & & & ",
"s s i i i i i i i i i i i i i i i s i i s s s s s s 1 1 s s s s > > > > > > > > > 3 G G G G T T G G G G G G G 3 G T G T T G R G s s s 3 > > > > 1 1 & & & & & & & b =.~ Q ~ Q 1 1 f k 3 1 = % & & & % % : > > > > & & = ; f N ! 4.O.r w O   O r E.W.; v E - @ % @ O @ ; f f f 1 ; - - - f f f f % @     @ @ @ @ O     o     $ = @   f f ; f # - f @ - # # q B ,.Z 8.@XE.#.! #.E T T k h 2 T 2 = = % o 1 k % @ @ o k T l > i s s i i i i i i i i i i i i & & & & & & & & & & & & & & & & & & & & & & > > : > > & & # w U.T.6X1X6X5XvXcX5XnXnXnXnXnXVXVXVXvX5X7X5X6X5XvXvX6X1X1X6X5X5X5XvXnXvX5X5XnXVXvXcX5X5X5X5X<X.X9.U.@XoX@X5X5XU.+.<.r.U.e.1.H.U.! t w r r f w - - ; 1 1 1 1 1 1 - - - - = = % % % % % % % % % % % % $ X $ % = = 1 = 2 g n b b v b v b b b b v g f f f f 1 1 = = % % = = = = = % % X X X X X X X X X $ $ % % = = f k k g n b b n b b b v v b N N E N E N M M v v v f f f g v m m B V [ } &.1.&.+.O.%.B B O.#.O.m g g f f f g O.4.7.<.7.e.J.e.J.K.I.H.6.7.7.7.! W #.2.^ v f r r f k b b b N W #.#.*.2.2.*.#.#.^ @.#.~ b f - = % @ @ # f g b b f 2 1 - - 1 = = = % % $ o o $ % % % = - = ; # # ; w e g z V [ [ [ [ [ [ [ [ [ [ [ [ [ [ x z x z e e e e e r w w r w w w w t z m [ o.O.O.O.O.O.} B V V m m m m m m m m m m m m m b f ; # # # - g g v m m m V B B B B B B B V m V m m m v m m m M M M b b b @ = = = 1 3 3 % % X . . . . . . . . . X X o o o o X X X X X o o % f T v m O.8.oX3X5X7XvXvXvXcX5X3X<X<X<XT.J.7.#.B g k w v v N 2.7.$.m t g M N N l g g W #.#.B W #.7.L.F.*.@.@.Q E l k f f s - - f f k M b M M b Q R l f s f l R b g f l M s s s > s s j s & * > & & & * * * & * * * * & & & & & & & & i i i i i i i i 8 8 8 8 & & & & ",
"s s i i i i i i i i i i i i i i s s s s i s s s s s s 1 1 s s s > > > i > > > > > G / / / T G G 3 3 < 3 < < < < 4 3 < h 3 , h 3 T G h 3 > > & & & % % % % % % % @ = T T k R Q 1 & k T k f f 3 3 & & & & % > > > & 1 f f v C 7.J.E.R.O.; O O   ! 4XR.v v *.v ; @ @ O O @ % % @ @ @ @ @ @ f k g r ; @ @   @ O O @ O   o @ @     o % @ - - f 1 ; % %   @ # ; q t O.Z C 7.,.N v ^ ~ b Q E T = 3 2 2 % % o = k 1 $ O O T / R s 1 s s i i i i i i i i i i i i & & & & & & > > & & & & & & & & & & & & & & > > : > > & # w z R.oX6X<X<X3XvXvXvXVXnXnXvXnXVXVXnXvX3X5X6X6XvXbXvX3X1X4X4X5X5X5XvXnXnXcXvXnXVXbXcXcX5X5X5X<X.X1.U.1XoXoX1X3XI.+.1.e.U.5.5.J.K.v g g w # f w f f - = = 1 k 1 2 2 - 1 1 1 1 % % % % % % % % % % % % % $ % % = = 1 1 % - g n b b v v b b b b b b g g f f 2 1 = = % % = = = = = % X X X X X X X X X X % % % = = 1 f k g g g b v n M W W N N N ! W ! ! ^ ! B N M b v k v g g t m B O.} } +.<.1.1.+.+.4.B B O.#.O.m v v r r g m %.4.e.J.H.H.J.H.K.T.E.U.J.F.7.3.! b M v ; 2 ; f f g b E b b ! #.2.2.2.2.@.! E N b E E b - - ; ; % ; - - f g g f - - - = = 1 = = % % % X o o % = % = = ; # # # # g g z V [ [ [ [ [ [ [ [ [ [ [ [ [ [ [ [ x z z g w w r r r r w w r w w q t z V [ O.%.%.%.O.O.O.} B V m m m m m m m m m m N m m M M k w @ @ O % f k k v m m m B } } B B B B V m m m m v v v v m M M M b n v @ % = = 1 3 3 % % X .             . . . . X o o X X X X X X o o % f E v N %.H.@X5XcXvXSXDXVXVXVXcX3X<XT.H.6.4.! b - f ; k k g ! 4.2.B g t g M E l g g R =.@.V N W *.F.3.#.#.#.~ E l f f f s - # - f f b b M E l Q R l s s f l R b k f l l s s f & s f j s * * & & & & * * * & 8 8 8 8 & & & & 8 8 8 8 i i i i i i i i i i i i i i i i ",
"s d s s s s s s i i i i i i i i s s s i i i i i i i i i > > > > > > > > > > 3 G / v.v./ T G , < < 3 < : < < : % % % % $ : $ : : 3 h G G 3 % $ @ O O O O @ @ @ @ @ % f b b b k % @ % 1 k f k k 3 3 3 1 1 s f l T f *.~ m O.H.oX<X3X<X7.#   O @ 2.2X@X+.t m t # ; @ @ @ O         O     # v N M q ; # @ O O O O   O O O @ & O   O   $ O T T n T 3 3 % O # # ; q C C t N m t ; r ~ Q T ~ E T 2 = = = % = 2 2 = o   @ k Q / k > s s i i i i i i i i > > > > > i i i & & & & & & & & & & & & & & & & % % % % : : : & # # 6.E.oX6X<X.X<XvXvXvXnXnXvXvXnXnXnXbX5X3X1X6X5XvXVX5X@XoXoX3X5X5X3XnXnXnXnXnXVXVXnXvX3X5X5X4XoXw.1.H.1X<XoX@X4XE.<.5.H.K.H.7.J.6.v r # f f g l f w - = 1 f f 2 2 2 2 1 1 1 = = = = = = % % % % % % % % = % % = = 1 1 1 f f f g g b n b n n n g g g f f 2 1 = & % % % = # % % = = % X X X X X o o @ % % % ; = - 1 1 2 l l v b b b N ! %.%.@.O.! @.@.W W ! N M v v v g g m N m m B O.$.5.e.e.e.w.5.H.e.%.B $.6.%.O.m N v v B %.$.<.J.H.J.H.K.H.E.@XE.J.8.7.#.N n f f ; f f - f l b b b W W W ! ~ ! B N b v k k k b b g - ; = - & = - 1 f f f 1 1 = = = = = % % = = = X . % % o = % # # @ w d z [ [ [ [ [ [ [ [ [ [ [ [ [ [ [ [ [ [ x x z z u e r r w r r w w w w w r e z V } %.%.+.+.&.+.%.} B B V m m m V V N B N N N m m m m M N k # @   o @ 1 g b b m m B B B [ B B B B m m Z Z v v v v M M M M v v n O o 1 1 1 1 1 = X . . . . . . . . . . . . X X X X . . . X X o o o v M N N #.H.<X5XnXSXDXDXDXDXnXnXvX3XE.8.,.C v - 1 1 f f f f b 7.F.#.v k f E N g v t N *.O.m ! ! *.J.D.=.#.=.=.E k s s 1 > & & & 1 f b b b E E E R l f 1 f l b l g k R b f & s & i s j i & & & & 8 8 8 & & & > > > > 8 8 & & & & & & 8 8 8 8 8 & & 8 i i i i i i i i ",
"i i i i i i i i i i i i i i i i s s i i i i i i i i i i > > > > s > > > s > % T G.G.v.T 3 , , 3 3 3 3 3 3 < : % : > 1 3 : : : : : : : 3 % @ O @ O o O @ @ @ @ @ @   % n k f k = @ O % = f f k 3 1 1 & % & - f k b 3.B ,.E.mX5X5X3X@X4.# O @ ; F.4XJ.e.t q q m w ; # @ @ @ @ @         ; M N m t ; # @ O     O O O   O % 1 %     O o !.k T k 3 G 3 3 $ % & ; # N %.t r q r ; ; g W ^ #.^ T E k 2 = = 1 2 2 = % X 1 T T T k h f > i i i i i i i i > > > > > > i i & > > > & & & & & & & & & & & & % % % % : : : % # # 6.@X@X6XoXY..X5XcX5XnXnXvXvXcXnXnXbX5X5X6X6X5X5X5X1XoXoX<X4X7X5X5XVXVXVXnXnXVXVXnXcX4X5X6XoXU.5.w.r.oXoXU.U.@XXX5.5.J.K.H.e.J.F.b w - f b b M b f - = = 1 2 2 2 2 2 2 1 1 1 = = = = % % X % % % % % = = % % = = 1 1 1 f f g g g n b b b b n g g g g f f 2 - 1 1 1 1 = = = = % = = o X X % X @ @ % % % % = = 1 1 1 f g l b b b M N ! %.O.O.O.O.! W E E N m m g t g m m N B V B $.7.5.e.U.U.H.e.H.U.7.} O.O.O.<.,.#.%.B m C $.&.<.e.H.K.U.W.K.R.W.6.$.@.! b f 2 ; 2 ; f v g b f f f g b b b v M v v g f f f f f f - ; ; ; = = = 1 1 1 1 1 1 1 = = = = = = % % X X X o o @ = @ O # # q e z o.o.[ [ [ [ [ [ [ [ [ [ [ [ [ [ [ [ [ z z z z z t e r w f w w w ; ; w w e t V [ %.&.&.&.&.&.&.+.} } B V m m N V V B B B N N N m m m m m v w @ o o o @ - l b b v m B V B B B B B m m t Z v v v v b M M M v v n O o % = = 1 1 = X . . . . . . . . . . . . X X X X . . . X X o o @ n M m N #.J.XX5XnXDXDXDXDXDXVXbXcX4XT.8.%.v f - 1 1 f f f f g @.7.#.N v g M g g g g ! 2.#.m m #.6.J.7.=.@.@.@.R k s s s s > 1 & - 1 f l R W Q E M g f 1 f l b l g g R b f & s & i f j i & 8 8 8 i i 8 & & & > > > > i 8 & & & & & & 8 8 8 8 8 8 8 8 i i i i i i i i ",
"i i i i i i i i i i i i i i i i p i i i i i i i i i i i > > > s i i > > s > h =.G./ T G 3 3 3 3 3 G 3 3 3 : : & % % % % . . . X % % % % o           O @ @ @ @ @ @ @ @ b b k b n ; O   @ = = 1 = % % % @ @ # # ; # N 4.<X5X3XI.T.E.H.N O @ @ # J.U.3XXXZ q t v ; ; ; # @ @ @ @       O w N B N v ; # @ @   O @ @ O O @ # # @ O       k h 3 T h h G 3 % % # # # m C t q r q # # ; f =.F.D.E T T T n k 2 1 2 k 1 o n Q T 1 f f s & i i i i i i i i i > > > > > > > > > > > & & & & & & & & & & & % % % % % : : : % & # J.4X<X6X.Xr.Y.4X5X5XvXvXcXcXcXvXbXvX3X5X6X3X5X1X<X<XoXoXoX6XvXvXvXDXVXnXnXVXVXnXnX5X5X5X1XoXr.9.r.r.Y.T.H.e.T.T.w.<.e.H.e.J.J.D.v ; f g b E E M f - = = - f 2 2 2 2 f f f 2 = = = = % o X % % % = = = = = = = = - 1 1 2 f g g g b b b n v f g f f f f f 2 1 1 1 - - = = = - - - = = @ o @ o @ % % % % = ; ; - - 1 f f g b b N E ! ! O.O.C B B m g z g t t t m t m m } O.O.%.4.e.K.H.H.U.H.e.<.<.$.V V %.<.4.e.J.J.J.7.O.B O.4.e.U.T.R.I.J.7.2.#.m v b v f 2 ; ; f r f v b b f f f f g f f r r r w ; ; ; - - - ; @ @ - - - - 1 1 1 1 = = = = & & = = = % % % X X % @ @ O @ @ # 6 z V o.o.o.[ [ [ [ [ [ [ [ [ [ [ [ [ [ [ [ [ z z z z z z t e r w f w w w ; # # w t V %.%.&.&.1.1.<.<.&.+.O.} B V m m B B B B B B B B B B V V m m M g @   o o   @ 1 l b g m m V V B B B B m m t t v v v v v b M M b v n o   o % = = 1 = X . . . . . . . . . . . . X X X X . . . . X o o ; b M M N %.8.E.5XnXDXDXDXFXFXVXcX3X<XR.8.#.M f 1 3 k 1 1 1 - f M *.*.N b E W N k g g W #.O.m g $.J.F.*.#.@.@.~ R k f s s 1 > 1 & & s f l E W W E M g f w s l b l g g E b f w s 8 s j s i 8 8 i i i i i i i i i i i i i i & & & & & & 8 8 8 8 8 8 8 8 i i i i i i i i ",
"i i i i i i i i i i i i i i i i i i i i i i i i i i i i i i > s i i > & > > / G./ T 3 h h G 3 3 3 3 3 3 3 & % = & % % $ $ $ % 3 > % $ % O           @ @ @ @ @ @   @ @ f E E b Q f @   @ @ O @ % % % % @ # @ @ @ # C E.@X<Xe.} 1.} B q O # # q R.3XmX@Xt t v N r ; ; @ @ @ @         O w N C B m w # @ @   O @ @ O @ % - O O O O     O 3 & % 3 T G G > & @ # # m m m t t w # # ; b D.L.D.3.~ ^ T E E T 1 o X = 2 n T k % # & # & > > > > > > > > > > > > > > > > > > > > & & & & & % % % & & % % % % % % : : : % @ # W.4X@X3X.Xr.H.1X5X5X7XcXcX5X5XcXvXcX<X4X6X1X6X<XoXoX<XoX<X5XvXcXvXnXnXnXnXnXnXvXvX5X5X5XoX<X.Xr.Y.r.U.oX.XU.R.U.5.+.w.H.5.J.J.7.f ; - f b W E b f - - 1 f f f 2 f f f f f f 2 = = = o o X % % % = = = = = = = = - 1 1 2 f g g g b b n g f f f f 2 2 2 2 2 - = = ; ; = = - - 2 2 2 - = % o o $ % % % % % ; ; - - 1 f f f g v N W ! O.O.C B B B B B B m m m m N B } %.,.<.5.5.e.H.U.U.U.H.H.e.5.C t Z O.<.J.XX4X@XR.J.2.B N O.4.K.R.K.e.7.O.m v g f f f r r r f f k f f v g g g f f f g f f 2 f - - - ; ; ; ; @ @ @ ; f g f 2 1 - = = % % % % % % % = = = % % % @ % = @ O # w m V [ o.o.[ [ [ [ [ [ [ [ [ [ [ [ [ [ [ [ [ [ z z z z z z z t e r w w w w & # # q w m [ %.&.1.1.1.1.&.&.<.&.%.O.B B m m B B B B B B B B B B N N m m M b @   o X o o $ 1 g b m v m V B B B B N m t t v v v v b b M M b v v O . o . X = = = X . . . . . . . . . . . . X X X X . . . . X o o = b M N M ! 7.T.3XbXVXDXFXDXDXnX5X4X@XU.8.#.N f f 2 k 1 1 1 - - f W #.N b ! ! #.E g t N #.#.m g #.F.*.#.*.*.@.~ R f s s s s > & & & - f l E W E E M l f w s l b k f f E l f s s 8 s l s i 8 i i i i i i i i i i i i i i i > & & & & & 8 8 8 8 8 8 8 8 i i i i i i i i ",
"i i i i i i i i i i i i i i s i i i i i i i i i i i i i > > > > & > > h > h L.!./ T h h 3 3 h 3 > : % % % % @ O @ @ @ O $ = k T % % O     o       @ @ @   @ @ @ O @ # # ^ =.b 3.R - @ @ @ @ @ @ ; ; # # # # @ @ # H.4XC 8.C Z B Z t q O ; ; N @XmXE.# t t t v t r q ; @ @ @ @ @   @ O w B $.%.m ; # @ @ O O @ @ O O % # @ $ O O #   @   h h 3 : 3 3 > > # # @ m ! m r q ; ; ; ; ~ D.L.G.L.D.3.^ T T T T 3 % o o k n 1   O O @ & & & & & > > > > > > > > > > > > > > > > & & & & & & & % % % % & % # % : > : > % s # R.4X@X1X.Xr.r.oX5X5X5XcX5X3XcXcXvX5XoX4X6X6X3X1X.XY..XoX5XvXcX5XvXmXbXbXnXnXbXcXkX3X3X1XoX1X@X.XU.r.Y.5X5X@XT.T.5.+.5.e.<.e.K.#.w w - f M M v k f f 1 f f f f f g g g g b b f = = % % % % % % % % % = = % % = = - 1 - f f f f f n b n g g f 2 2 - - 1 1 = = = = = = 2 - r f - f f = = ; = % % % % = # ; = = - 2 f f - f f f v N B C B B B B } O.%.%.} O.%.%.+.4.e.e.H.U.e.e.T.XXXXXXR.U.K.K.7.C Z O.5.8.I.@X@XH.,.! t w t O.4.6.4.O.B m v g f f f f g M N M v k M M v N M M f f f f f f 2 - = = = = = % @ @ @ = f 2 2 f 2 - = = = = % % % = % = = = = % % % = = @ @ # w z B [ [ [ o.o.[ [ [ [ [ [ [ [ [ z z z x x z z x x x z z V V V z t e w w w w & & ; ; w t V %.&.&.1.5.5.1.1.<.<.&.%.O.B B N N B B B B B B B B B V V N N m N b - @ o . X X o @ f l M v m m m m m B m t t v v v v v b M M n n v n o X . X X X % = X X X . . . . . . .   . . . . X X . . . . X o O 2 b m N N %.J.@X1X5XvXVXVXcX5XmXcX4X<XW.8.! b g f f f f % - g f g b ~ ^ g E N @.! g v m 2.*.O.B #.2.*.7.D.7.#.~ E f s j j j s & > 1 - s l E Q Q E M g g s j g l g g l Q k f s s s j l s i i 8 i i i i i i i i i i i i i i > > > > > i i i i i i i i i i i i i i i i i ",
"i i i i i i i i i i i i i i i i i i i i i i i i i i i i > > > > > s & > $ > / T h 3 3 > > 3 > : % % % O O # # O @ @ @ @ @ % 1 1 % $ o         @   @ @ @ @ @ @ ; ; f - - #.2.E 3.~ g @ = 1 - - - = ; # @ # # ; ; r J.<XC C Z q t q q ; O @ f @./.R.@   ; v N N v r q ; ; # @ @ @ O @ O ; N $.%.m ; # @ @   O @ @ % @ @ @ @ O     O # O @ % % 3 > > 3 % % # # @ v ! N v t q w w f Q D.L.L.G.D.D.3.~ ^ T k k = X o = 1 %     O @ # & & & & & & & & & & & & & & & & & & & & & & & & & & & % % % % % # & % % > > > & & # J.2X@X1X.Xr.r..X5X5X5X5X3X3XcXcXvX5XoX4X5X5X6X1X.XY.T.<X5XvXcX5XvXvXbXmXbXnXcXcX5X<XoXoXoX1X@XoXU.r.T.kXkX<XE.U.5.4.<.<.+.J.J.W w r ; f M b k f f f f f f f f f g g g g k k 2 = = = = = = = % % % = = % % % = = 1 1 - f f f f k b b b b g g f f 2 2 f 1 1 1 - - - - - - r r w f f - - - = ; % % % % ; ; = = - 2 f f - f f r m N B B B C } } +.+.+.&.&.<.<.1.e.U.T.T..X.XY.U.oX<X<XoXU.J.7.$.B C O.4.e.U.T.XX6.O.v g g g m #.4.O.t t r r g M f f f k E @.@.N g g M N W ! W W M M b b g f 2 1 ; = = = = % % % - f n g 2 2 2 - = = = = = = = = = = = % % % % # @ @ # w z V o.%.[ [ [ %.%.[ [ [ [ [ [ [ z z z z z z z z V [ x x z V V V V z t w w w w w # # ; q t m [ %.&.1.1.1.0.0.1.1.<.&.%.O.C B B B B B B B B B B B B B V V m m N N l - O o     o o @ f k m m m m m m N m t v v v v v v b M v n n n n o o   o X o X % X X X . . . . . . . . . . . . X X . . . . X o O f v m N O.7.T.@X<X4X5XbXvX3X1XmXvX5X2X@XJ.@.b g b g 1 g = - 2 f g b ~ @.m N N 2.*.v g g #.$.$.7.F.J.W.W.J.7.#.#.Q g s j j j s i i s - f b E Q ~ Q R g g s g g l g g l E l f f s f k k s s i i i i i i i i i i i i i i i i > > > > > i i i i i i i i i i i i i i i i i ",
"i > > > > > > > i > > > > > > i i i i i i i i i i i i i > > > > & s > 3 3 h T k 3 : : > > > % % % % @ O @ f g ; @ @ @ @ @ @ o @ ; = # %       @ o % = ; - - 1 2 f g f b =.#.^ *.E - @ = f g b k g f f r g v v m N B 6.#.v r q # # # ; @ @ 1 W #.@     # k N t t q w ; ; ; @   @ @ # @ # g C C t ; # @ @     @ @ # 1 - @ O   O # f ; w @ @   $ & % % O o @ @ O t N N N m ; w w g ~ F.L.F.G.D.~ ~ ^ ^ ^ T n = X o O % % @   O @ # & & & & & & & & > > > > & & & & & & & & & & & & & & % % % % % % # % % % > > > & # # O.2X.XXX.Xr.w.Y.1X5X3X3X3X4XcX5XcX3XoX3X5X5X6X<X.X.XoX<X5X5X5X3XcXcXmXvXvXmXcXkX3XoXoXoX<X1X1X<XU.Y.T.3X2XE.T.H.,.7.4.O.%.J.J.W g w w f b k f f r f f f g g g f f f f f f f 1 = = = = = = = % % % % % = = = = - 1 2 f f f f v v v n b b b b v f f 2 f f f f f f f f 2 f f r f f f g b b b g - - ; # ; ; = = - 2 2 f f f g g M N C C } <.w.e.5.1.5.e.H.H.e.r.Y..X.X.XoXoXoXoXoX@XT.H.5.4.$.B O.4.e.I.T.XXXXI.%.m f f b N W O.$.m v m m m M N M M E ! W O.B t r t B O.$.O.! O.N N b g f f 3 1 = = 1 1 1 = = = f b b f 2 2 2 = - = = = = = = = = = = % $ % % # & w g V o.o.%.%.[ [ [ [ [ [ [ [ [ V z z z u u u e u x z z x [ V [ [ V V V z t w w w w & # ; w t m B %.&.1.1.1.0.0.0.0.5.<.&.%.O.O.C C N N N B B B B B B B B V V N N m B E f $       X X o @ w v m m m m M m v r v v v v v v b M v v n n - O       o o   X     . . . . . . .   . . . . . X X . . . . X o   n b M m #.J.@X<X@X<X1X5X5X1X4XcXmXcX3X2XE.2.M f n g - f 1 f - - f b ^ ! M v @.D.D.W v m O.#.2.F.J.W.R.W.J.2.@.#.~ g s f h j s i s f f g b E ~ =.~ E b g d g l l k k l E l f f s k x j s s s i i i i i i i i i i i i i i i > > > > > i i i i i i i i i i i i i i i i i ",
"> > > > i > > > > > > > i i > i i i i i i i i i > > > > > > > > > s > > > h % 3 > > : : > % % & % @ @ @ ; M W b @ @ @ @   O O @ = 1 f 1 = O   @ @ - 2 f g g g k f - ; W #.N @.#.= @ @ ; - g b E E E E W @.%.%.%.v ! 7.@.w w w @ @ # ; # & f b O       O w g g t q ; ; ; # @ @ @ - w # # q v Z q ; # @ O     @ @ # g g ; O   # M g r @ # O @ O % % % O O @ # O q B m N t O ; ; f 3.L./.L.G.D.~ T T E T 2 2 1 =   O % = =   O O # # # & & > & & & > > > > & & & & & & & & & & & & & & % % % % % % # % % % > > > & * # 6 2XU.T..Xw.5.H.<X5X3X4X1X1X5X3XcX3X<X5X5X5X5X1XoX.XT.oX5X3X1X1X5XcXvXcXcXcXcX5X4X<X@X.X<X1X5X1X.XoXoXoXE.U.U.8.} 7.7.} +.e.J.O.m w w f b g f r w r f f g g g g f f f f 1 1 1 = = = = = = = % % % % % % = = = 1 2 f f f f f b b b b v b n b v v f f f f f r r f f f f f f g g v M M W ~ ~ E b f - ; # ; = = - 2 f f f f g v v N C } 4.H.T.oXH.H.H.U.T.U.H.e.U.Y.Y..X@X<X<X1XoXT.5.+.+.7.J.U.R.R.R.@X<XXXI.%.N v v b ! @.W B B B B B m B W M E E ! #.W W N v t g ! $.2.O.B O.N M f - 1 1 = % 1 1 2 k 1 - - 1 f n n 2 - 2 - = = = = = = = = = = = % % % % # & z [ %.%.o.[ [ [ [ [ [ [ [ [ V V z z u e e e e e e e z z z V V [ [ [ V V z z t w w ; & & # w t m [ } &.1.1.1.0.0.0.0.1.1.<.&.+.O.O.} C B B N B N B B B B B B B B B N m N W f % o X X X X o   @ f g v v v m M v r v v v v v v b M M M v n @   . .               . . . . . . . . . . . . . X X . . . . X o   b b M m #.J.XX<X<X1X6X5X3X<X1X3XcXcX5X4XR.2.v - 2 f f - f g 2 ; w f E ! m v @.F.J.@.M g N ! 2.7.6.J.J.J.F.*.~ @.Q g f s f s > > i s f k M W ~ @.~ W M g g g l l k k l E b k f f l H j d s s i i i i i i i i i i i i i i i i > > > > i i i i i i i i i i i i i i i i i ",
"> > > > > > > > > > > > > > > > i i i i i i i i i i i i > > i > > G 3 : 3 > > > > > > > > & & & f - - # ; k v ; @ @ O O @ @ @ % ; @ ; - f 1 ; @ = = - 1 f b b g - @ # N E E ^ b @ @ % = 2 n b E N N N N ! C B B Z m O.O.r ; w # @ # & & & l f   O   O g f w v r r q ; ; ; @   @ @ # ; ; r g r ; @ @ @ O     @ @ ; b E r O # #.O.v r ; # O O O O % % # # # @ @ # N m q q @ @ @ b 3.W./.W.L.D./ T T T k 2 1 - %     @ % 3 @ O @ # * + # > & & & & > > > > & & & & & & & & & & & & & & & & & & & & # # & & > > > & i 8 w 4XU..XK.w.5.e.oX5X4X4X4X3X5X5XcX3X3X3X5XcX5X3X6X<X.X1X5X<XU.Y.@X5XkXcXvXcX5X5X1X<X<X@X<X1X5X5X6X<X1XT.H.H.e.5.O.4.<.} O.4.J.F.W w r f f f f f r f f g b b b g - - f - = = = = = = 1 3 = = % % % % % = = = 1 3 f f f f f k b M N M v m ! W W N m v N N N m m t r t v t t m v v N B O.*.4.2.@.W v r r ; ; - w g g - f f g v m B C +.e.R.U.H.H.J.H.U.U.r.r.e.r.U.Y.T.oX@X@XoXT.5.+.+.4.I.XXE.E.@X<X2X@XJ.O.m g m W @.#.@.O.O.} %.<.$.O.O.! O.! $.2.#.! N v r r N #.*.*.! M g t r r w f f - 1 3 3 1 3 2 1 1 2 f g f 2 - - = - - = % % % = = = & @ # # # w x o.o.o.o.[ [ [ [ [ z z V V V z z z g d w w e w w w w w e g z z z V V V V z z z e w w ; # # # m V [ } &.&.1.0.0.0.0.0.0.1.1.1.<.+.+.%.O.O.B B B B B B B C C C C C B V B N N W b &   . X X o o   @ # w r g g b m g t t v v v v v v v M n v n O   .   .   . . .     . . . . . . . . . . . . . o X X X . . . %   M M m B ,.H.XX1XoX<X3X5X5X3X3X5XvXcX3X<XJ.#.v r 2 - g k f f f f f r b N N v ! 7.J.#.N v v @.#.%.2.7.7.7.3.3.#.@.W k f s f f s - & - f f M ~ ~ ~ @.W N x j x l l x x M E l s s g x x j j d d d p p p p i i i i i i 8 8 8 8 8 8 & & & & i i i i i i i i i i i i i i i i ",
"> > > > > > > > > > > > > > > > i i i i i i i i i i i i > i i > T / Q 3 > > > > > > > & & 1 f f M f ; ; ; v v # @ @ @ O @ @ @ @ @ @ @ @ = = = ; f = @ % = f f - # O ; E N E W f       @ = - - - ; r r r v m m m y r B O.g ; ; # # # # & # l ; O   @ # l E M r ; w ; # # @ O   @ @ @ @ @ ; w f f @ @ @ O     @ @ @ b E w # B 6.4.v w # # O O O O   % - f g r w q v N v ; @ @ @ b D././.L.G.v./ T T 2 3 1 - - ; O   $ $ & % = # O & * * # & # & > > > > > & & & & & & & & & & & & & & & & & & & & & & & & > > > & & * # 2XH.H.K.5.1.w.T.3X4X3X3X3X5X5XcX3X1X3X5X5X5X5X5X1XoX5X5XoXr.w.T.1X5XkXcX5X5X4X<X<X<XoX<X1X5X5X5X6X1XT.H.e.4.4.%.4.%.B O.6.K.J.#.g f s s f f f f f f k b b b f - - - - = # # # = 1 3 3 1 1 = = % % = = 1 1 1 2 f f f f f f M W ! ! ! C ! %.#.,.2.2.7.6.6.6.$.O.B B O.C O.$.%.O.$.$.4.6.6.6.6.7.2.O.B B N b b b b k r g t m N B } ,.e.U.H.e.H.H.U.U.H.r.e.e.r.U.T.XXoXU.e.J.4.$.<.e.J.U.U.H.K.U.R.W.D.#.m M M B #.4.,.$.O.O.$.4.w.5.<.O.O.$.,.7.6.2.M v t g g W =.#.~ N g r r f f f f 1 2 1 f 1 1 1 1 1 1 2 f g g f - = = - @ = - = - = ; @ # # # w M o.o.[ o.[ [ [ [ [ V V V x z z z z g g d s w w r w w w w w w g z z z V V V V V x e e r w & # ; # V } } &.&.1.1.0.0.0.0.0.0.1.1.1.<.,.+.%.%.O.! B B B B C C C O.C C C C B B B B B N g # $ . o o o O   @ @ # s g N M g f g v v v v v v v N M n b O o . .         . . . . . . . . . . . . X . . . o o X X .   o % @ N N N O.5.T.<X1X1X4X5XvXnXVXnXnXvX5X3X<XI.2.v ; r f g k f f - ; ; ; v ! @.N ! 3.D.#.E n v ! #.,.2.,.7.3.2.3.=.#.E f 1 > s s > - # & s f M W ~ ~ ~ W M l j l l l l l M E b g g x x l j j j d d p p p p p p p p p p i i 8 i 8 8 & & & 8 i i i i i i i i i i i i i i i > ",
"> > > > > > > > > > > > > > > > i i i i i i i i i i > > i > > > G / T 3 > > & & > > > & # - k b W r ; ; ; f b w @ @ @ @ @ @ @ @ @     @ @ @ @ @ 2 ; @ @ @ # @ @ @ @ b ! b W N @ @ @ @ @ % # @ @ @ w q ; q t t t q y m O.M r # # # @ # & # b $ O   @ g ~ #.b @ ; ; # # @ @ O O @ @ @ @     @ ; f # @ @ O     @ @   f b ; m 7.6.O.t q # @ O O @ O O O # - s r r w g M v @ @ @ @ T L./.L.D./ / T T T 3 3 1 1 - - % @ @ o $ % 1 # @ 8 8 * * # # & & : : & & & & & & & & & & & & & & & & & & & & & & & & & & > > > & & & # 2XU.w.H.5.5.w.U.1X3X5X5X5X5X5X5X3X1X4X4X5XcXcXvX5X1X5X5X.X1.+.w..X3XkXcX3X3X<X1X4X<X<X1X1X3X3X5X5X<XU.H.e.<.$.O.$.$.O.} &.J.J.#.v g r w f f f f f g v b b b f - - = = = = # = = 1 3 3 1 1 1 1 & & % = 1 1 2 2 f f f f f k N ! ! ! #.,.,.2.2.4.6.8.K.W.R.R.J.e.6.8.e.e.e.J.J.J.K.U.T.T.U.J.5.8.e.7.#.4.7.4.$.O.B N m m B B B } +.<.r.H.H.K..XU.U.U.H.r.e.r.H.U.U.U.H.8.4.4.,.,.6.H.J.6.4.#.#.$.#.! M b k M M W $.2.$.%.%.%.4.5.6.7.%.O.$.7.F.F.4.! v r w w b W W b f r r f ; r k b g f - f 1 1 1 - - 1 1 - f f f f - = = = 1 = o @ - ; ; # w d M o.O.O.o.V [ [ V V V V V m V z z z t e r w w w w w w w w ; ; & w e g z z z z V V m z e d d w w ; ; q B +.&.&.1.1.1.0.0.0.q.0.0.1.1.1.<.<.,.$.%.O.C ! ! C C C C } } } C C C B B B B B W N w O O o o o o o     @ # w b b f f v v v v v v v v N N b b O o . . . . . . X X X X . . . . . . . . X X o o o o X X . . o o ; b N ! ,.H.@X3X5X5X5XvXnXVXDXDXnXvXcX5X4XE.F.N ; b n g g f f - 2 2 ; t ! 2.! N ~ #.#.E v v m O.7.2.! 2.2.2.3.=.~ b 1 1 & 1 1 1 = # # & f M E E Q Q E b l d l k k k g x E M M x x x j d j j j d p p p p p p d d d d p d i s i i i i i i i i i i i i i i i i i i i i i i ",
"> > > > > > > > > > > > > > > > i i i i i i i i i i > > > > > > h G 3 > > : % > > & & & # - f b b f w w # r M N @ @ @ @ @ O     @ @ @ @ @       @ ; ; = @ @ @ @ @ ; ! W b W v O @ @   @ @ @ @ @ # ; q # q q y q t e t B N r # # # # # # O b       @ Q 3.E @   @ @ # # @ @ @ @ @ @ @ @ O     @ @ # @ @ O     @ @   @ ; ; W 7.O.t r # @ @ @ O @   % % O O @ # 6 q w r k ; f 1 b G./.W.G./ / T T T T 3 3 1 1 f f - @ @ o $ o 1 - w 8 s s s # # # & % : & & & & & & & & & & & & & & & & & & & & & & & & & & > > > & * & # &XR.w.H.w.w.e.U.<X3X5X3X3X5X5X5X3X<X<X@X3XkXcXcX3X1X3X4X.X5.&.1.H.<XkXkX3X1X<X1X3X<X<X1X1X1X1X5XkX3XT.U.H.5.O.} O.$.%.B O.6.J.$.v g w ; w f g f f g v b b b f - = 1 - 1 1 = 1 f 3 3 3 1 1 1 1 & & & = 1 1 2 2 f f f g k b N N N ! 2.7.,.#.%.$.$.$.<.4.6.6.e.w.e.H.H.J.J.e.e.J.U.XX@X@XT.H.5.7.5.6.<.6.J.J.4.$.O.O.} O.O.O.O.$.4.5.w.e.U.XXT.w.<.1.5.5.w.r.U.H.w.5.8.H.W.J.6.7.7.7.*.W M M g g t r f f k k M W O.$.O.O.%.&.4.4.<.O.} $.6.F.F.2.C g t r w ; f k f ; w r f f ; r b M b f = - 1 1 - - - f f - ; f f f - = = = % = = ; # # q t W @.$.%.o.[ [ V V V V V m z z z z x g g r r w 8 - - - - w - ; - # # & r g g g z t z m z g d e w w w ; # q } &.1.1.0.0.0.0.0.q.q.0.0.1.1.1.1.,.,.+.%.O.! ! ! C C C O.} O.} } C C C C C C B ! W k O O o o o o o o o o O $ & f f g v v v v v v b b M M n n O O . . . . . . X X X X . . . . . . . . . X o o o o X X X X     g N ! #.<.I.1XcXbXbXnXVXDXDXDXDXnXmXcX5X3X3XR.%.M @.~ N M g f ; r ; ; r ! 2.! v b M #.^ f v t ! 7.2.B @.2.2.2.=.Q k = - & 1 1 & - # # # g M E E E Q E b g s k g g g g l M M M M x x j d j j j j p p p p p p p p p p p p s s s i i i i i i i i i i i i i i i i i i i > > ",
"> > > > > > > > > > > > > > > > > > > > i i i > > > > > > i > > G k h 3 3 % $ % % & 1 = # - f k g g g w q ; g ! g ; @ # ; @ O @ @ @ @ @ @ @       @ ; = ; @ O @ O k ! N N W ;   @ @ % % # # # # # @ @ # q # 6 q t t g m B t # @ @ @ O O O l       E D.Q @         @ @ @ @ @ @ @ @ @ @ @         O @       O O O $     @ ! 4.N q ; # # @ @ @ @ o % % @ @ # O O O w g M b ~ 3.D.W.L.G./ ^ / ( ( T T 3 3 k l k f f @ @ o $ o = - E 8 d d d & # # & : : > > > > & & & & & & & & & & & & & & > > > > & & & & & & & & & * 6 -.R.J.J.4.e.e.H.oX3XkX4X1X5XvXkX4XXXXXT.1X5XkX5X2X1X4X4XoXe.<.<.5.XX5X5X3X<XoX<X<XoXoX4X4XoXoX1X5X5XoXr.U.5.} O.B O.O.V B $.F.4.B M f w f 2 f f f g g v g g - = = = = 1 1 1 1 1 3 h 3 1 1 = = = 1 & = = 1 1 2 f f l b b b N ! E ! 2.2.N m C B B O.} %.$.&.<.<.5.w.e.5.4.<.5.5.w.w.e.w.7.4.+.+.O.%.<.J.U.J.4.$.$.<.7.J.e.7.<.4.7.4.4.w.r..XU.<.} } 5.e.U..XoXT.H.H.U.<X4XR.7.#.! W M k k v g r f k b f f g E N W B O.O.%.O.$.} V Z O.7.J.F.@.! v ; w r w ; ; - f f b b k f f f b E T g 2 - = - - ; ; f f - f f 1 f - = = = % % # # q z } $.&.&.%.[ V V V u z z z z z z u t t d d r w w & & - 1 > = & # # # # # # # s g g g z g g g e e s s w w w 6 y } &.&.1.0.0.0.q.0.q.q.0.0.0.1.1.1.<.<.+.%.O.! ! C C ! C C } } O.O.O.} } } } O.B O.O.W #   O o o o X . X $ O   O @ # 1 g v v b b b v b b N b g @     o o o . . . . . . X X X X o O O O $ . . . o o . . X X o @ E W #.4.5.T.5XbXVXnXnXDXDXDXDXDXnXcX3X3X3X<XR.4.%.F.F.~ E v f r f r ; v M 2.2.M b f ^ ^ b r q ! 2.2.@.N #.2.#.^ b f - - > s 1 1 - % % = b M R E M E R l f s k g f k g l M M M M x l j d d d d p d d d d p p p p p p d d d s s s s s s s i i i i i i i i i i i i i i > > ",
"> > > > > > > > > > > > > > > > > > > > i i > > > > > > > > > > h k k 3 > > : % % 1 1 1 & - w w t g r ; w w r m N g ; ; # @   O @ @ O O @ @ @ @ @ @ @ @ # # @ O @ M W M ! M # O @ # - = & # # # # @ @ # ; # # 6 e t t m W v # O @ @ O O O k O O % =.#.;   O   O   @ @ @ @ @ @ @ @ @ @ @         O @ O     O O O       O m *.N w # @ @ @ @ % @ o % % $ @ O O O O w 2.F.D.=.D.3.~ ^ T T T ( ( ( / T T T T b f f w @ @ o $ o $ = =.M x g e w * & & % > > > > > & & & & & & & & & & & & & & & & & & & & & & & & & & i & 8 w T.J.5.5.w.e.H.oX5XkX2X3X5XvX5X@XU.I.H.oX3X5X3X4X1X4X2X1Xe.+.+.1..X5X5X4XoXoX<X<X.XoX1X<X<XoXoX1X5XoXU.T.5.} } } } } V V B $.$.O.O.W W b f b b k f f f f - = = = = - 1 1 1 1 1 3 h 3 1 = = = = 1 1 1 1 1 2 2 f f k l l b b N N N ! M v v m m N } %.<.4.5.5.5.4.<.4.<.<.$.$.$.$.&.} } } B } O.+.+.e.XXXXJ.<.4.5.e.J.H.J.4.$.<.&.$.<.5.w.r.1.+.} <.w.U.oX1X1XXXR.R.W.R.W.F.W M f g b g f f f f b M b f l R E v v N O.O.%.O.} Z t B 4.6.4.#.v v q - ; - ; # = 1 f g g g g g b v n n b g f f - f 2 ; ; f f - f f f - - = = = @ @ 6 e %.&.w.w.&.&.[ [ [ V z u e u z g t t t e e e w w w w & & = # % % % % $ % % % @ @ & w d d g g g d w w s s w w w 6 m %.&.&.0.0.0.0.q.q.q.q.q.q.0.9.1.1.<.<.,.+.%.O.%.! ! ! O.O.} O.O.O.} } } } } } B } O.O.w O   o X X 4 . . . $ $ $ o   @ - f f v b b v b b b b g @       o o . . . . . . X X X X o O O O $ $ $ . o o . . X X o @ E W $.4.Y.3XnXnXnXVXVXDXDXDXDXDXnXvXkX3X<X<XR.7.7.W.R.8.#.N v r f f r v N 3.7.~ N l E E b f r ! *.*.! M ! *.#.E b - - - 1 s 1 1 - % % 1 E E R R M E E l s f k f f f f k b b M M l j d d d d d p p p p p p p p p p p d d d d d s s s s s i i i i i i i i i i i i i i i > ",
"> > > > > > > > > > > > > > > > > > > > > > > > > > > > > > > > > > 3 1 > 3 3 1 1 1 1 - # # ; ; r r w q e t e w N v w ; # @ @ O O O O O   @ @ @ @ @ @ @ @ ; @ @ w W N B O.g @ O   @ % @ @ @ @ @ # ; ; ; # # # w r g v m ! M q O @ @ @ ; - s       f &         @ O @ @ @ @ @ O O @ @ @ @           @ @     O O O   O @ @ g B e # @ O @ @ O % $ O $ @ $ O O O O O # 7.L.@X~ T n n ( ( ( ( T / / / / E T E N v f w # @ $ X X o % =.W x d e s & # & & & > > > > > > & & & & & & > > & & & & & & & & & & & > & & & & i & 8 + R.w.4.5.w.e.r..X2X5X3X5X5XcX1XU.7.7.4.H.4XkX5X3X3X3X5X3XU.1.+.<.oX5X3X<XoX<X1X<XoXoXoX<X<XXXXXoX<XXXT.T.5.+.$.$.%.B B V m ! O.$.7.6.3.E n M N v f f - - ; = = 1 1 1 1 1 - 1 2 k 2 1 = & = = = = = 1 1 f 2 2 f f f g k k f f v f v t v N m m N C %.$.$.<.6.6.7.&.%.O.O.O.B } O.$.%.%.O.O.O.O.%.$.4.J.7.} } ,.5.e.8.4.} V %.$.%.O.4.w.5.1.[ } +.1.e.I.T.oXE.e.8.J.%.! ! v g g r r g f r f f f k b b l b E b f r m ! O.O.O.} V O.4.6.2.! v v r - ; - - = 1 f f f f f 2 f g n n g g g f f f f f f 1 1 f g f f 2 1 - = @ ; ; # V $.1.w.0.&.&.{ [ [ [ m z u z t t z g z g g t g g t r r s w w w - # # # # @ @ % % % @ # w r d g e r w w w w w w 8 e 6 [ %.&.1.0.0.0.0.q.q.q.q.q.q.0.9.1.1.1.<.,.,.+.+.%.O.O.O.O.O.O.%.%.+.+.+.} %.} } } } %.#.M @   o   . 4 . . . X X % o o o @ ; 2 g b b b b b n b g 1 = $ o o o o o X X X X X X X X $ $ O O $ $ o o o o . . X $ @ # M ! 4.J.oX5XnXbXvXmXbXmXVXVXDXDXnXmXkX3X<XE.R.8.,.W.E.I.6.#.M v f r r M ! 2.6.*.N g l b b r r ^ *.#.! M N ~ E b k = = 1 f f f f - # & f E E R b M E R k s f k f f g f f b b l x l j d d d d d p p p p p p p p p p p p p p p d d d d d d p p p p i i i i i i i i i i i i ",
"& & & & & & & & & & & & & & & & > > > > > > > > i > > > > > > > s > > h > 1 h k k g f w # # # # q q q r w w q # w r r ; ; # @ @ O O O O     @ @ @ @ ; @ @ @ @ @ g ! N N ! t @ @   @ @ @ O @ @ ; ; r w ; w # # ; f g M B B N r @ @ @ @ g b w       O     O   @ O @ @ O @ @ @ O @ @ @ @ @           # @ @   O O O O = - # r g ; # O O @ @ O O $ $ $ @ @ O O O O O + t B @X2.^ M ^ ^ ^ T ( T k.k.k./ ^ E ^ ! N v r ; % $ X o $ O W x e e e w # # # & & & & > > > > & & & & & > > > > & & & & & & & & & & & & & & & & & w w T.5.<.5.5.e.e.U.1X5X2X5X5X5XoXw.$.%.%.6.XX5X5X3X3X5XkX3XXXw.1.5.<X5X<XoX@X1X1X@XoXT.T.oXoXXXoXoXoX.XT.H.5.<.e.6.$.m o.%.N B O.4.J.L.F.N v N N v f f - = ; = 1 1 1 1 1 1 1 1 f n 2 1 & % = = = = = = 1 f 2 2 f f f f f g g r v v v v M m N N N ! O.$.$.4.,.4.<.$.} } O.O.O.O.#.$.O.O.O.} } O.$.$.4.O.V V C +.,.$.O.V N } O.$.$.O.<.w.1.+.} } 1.H.I.H.e.J.4.} O.%.m v N v g f r r r r f f b b b f f g k g k f g M ! O.O.O.O.$.6.J.J.3.W v f - ; ; ; ; 1 k k f f 2 2 - - f g g f f 2 2 f f n k f f f k b n f 2 - ; ; # # q $.w.r.w.0.:.&.{ [ V z z u t t z g z m m m m m m m m m m g g g g g s w ; & # # % % % % @ # - s d r w 8 # w w w w w 6 e 6 } &.1.1.0.0.0.q.q.q.q.q.q.q.q.0.9.1.1.1.,.,.,.,.+.O.O.O.%.%.%.+.+.+.+.+.%.+.} } } } %.%.B ;   o   . X . 4 4 . . . o o o     = 2 b b M b b b n k b k 1 = o o o o X X X % X X X X $ O O O $ $ O O o o o o X $ @ ; N $.K.@X2X5XcX5XcX5X5X3X5XkXmXnXnXmX3X<X@XE.U.5.#.H.E.R.J.2.! v r r r M ! #.7.#.b w f f f - ; W 2.@.W N E W b b k = = 1 f k k f = % = f R M b l b M b f s s g f f j s s g k g g j d j d d d d p p p p p p p p p p p p p p p d d d d d d p p p p i i i i i i i i i i i i ",
"& & & & & & & & & & & & & & & & & & & & & & & & > > > > > > > > > > > > > 1 f b b k f w w w ; ; # q ; # # q q 6 # # # ; w ; @ @ @ @ O O @ O O @ @ O @   @ @ @ w N B N ! m # @ O O O @ @ O @ # # ; f f # @ ; w ; # w v v v m v ; @ r v f @ @ O               @ % @ @ @   = - = @ @ @ @ @ O       # w w # O O O O 1 k ; O # k ; O @   O %   %     O O O $ @ # # 6 y y u V O.#.@.~ ^ ~ T T ( / _./ E n ^ W M N m r g = @   % $ $ Q w 6 e e + + O * & & & & & & > > & & & & > > > > > > & & & & & & & & & & & & & & > s w # /.5.&.1.5.5.5.H.<X4X5X3X5X2X@X<.%.B } &.U.<X3X3X3X5XcXcX<XT.5.e.1X5X1XoX<XoX@XoX.XY..XoXoXY.oX1X<XT.T.H.1.e.J.4.#.m B O.B O.2.2.7.7.#.M N M v f f r ; = = = - 1 1 1 1 1 f f g f = = = & = 1 1 1 = 1 1 1 1 2 2 f f f f f f f f f g v M N W ! ! ! O.%.$.$.$.O.B N B B N N N W W B ! ! W B C } O.%.$.%.C N B C B m V B } O.O.O.} %.<.5.5.w.5.e.e.e.5.<.,.%.C C B N M v g g f f k b M b b N b v f v v f f f k k v M ! W B N ! 2.D.7.@.E b g f - @ @ ; 1 f b k f 1 1 - - - - f g g f f f f f f k 2 1 - k b k 1 - # @ # V &.0.w.w.0.:.&.&.{ [ z t e e q e t z m m B W o.} } o.o.B B V V V V m z g g s w w ; - - - & & # # # w & # # & & & - w w w 6 6 } &.1.1.0.0.0.q.q.y.t.t.t.r.q.q.9.9.1.1.<.,.,.+.+.+.+.#.+.+.+.+.+.+.+.+.+.+.+.+.} } +.+.O.v     o X . . . . . $ . .   o o o @ % b E b b b b b b n b b b 2 = $ $ $ O $ % % % % % $ $ % % % $ O O O o o o   % O f O.6.XX2X5X5X5X5X5X4XoXE.oX1XcXnXnXvXkX4X<XR.J.<.$.8.I.E.W.2.! M v r k W #.2.2.@.N f - - - # r W *.@.N N E l b b f - - 1 l b l f - # & l E M k s g l l f s d g j d d s r g d d f s d d d j j d d d d d d d d d d p p p p p p p p p p p d d d d d p p p p i i i i i i 8 8 ",
"& & & & & & & & & & & & & & & & & & & & & & & & > > > > > > > > > > > > & # f k b k r w w w w w # # # # + # + # # + # # @ @ @ @ O @ @ O @       O   @ @ @ @ @ r W N N C m # @ # # # # # # ; ; ; w ; @ O @ # & # # w w ; r m m v q r f ; @ @ O               @ = % @ @   - f 1 ; @ @ @ @ O O O O ; v f # O O       = # # ; f # @ @   @ @   O           @ # ; e t [ Z Z [ [ } O.@.~ ~ ^ / ( / _._.E ^ N ! C m m v r f % o % O % Q 8 6 6 e + + + # & & & & & & > > & & & & & & & & > & & & & & & & & & & & & & & & & s 8 w R.5.&.1.5.5.1.e.@X1X4X2X2X4XXX5.$.} o.$.e.E.2X3X5X5XvXbX5X.Xw.r.4XkX5X1XoX@XoXT.U.U..XY.T.T.1X3X<XY.U.U.r.T.U.4.m g m W #.2.2.$.! ! ! N M b v k f f - - - - - 1 1 1 1 1 f f f 1 = = = & = 1 1 1 = 1 1 1 1 1 2 f f f f f f f f f f v b M v b M M B ! O.O.O.W M v b v v v v M M v v v v v t N C %.O.O.O.! B B B O.#.$.O.B B O.O.%.+.<.<.<.e.T.XXU.4.$.C N m v v g g f f w M N W @.#.~ E b M v v v v v r r f v b M E E M b M E E M l f 2 f = @ @ @ = - 1 1 f f 1 1 - - 2 2 f f f f 1 f k k f - - f k 1 ; ; ; # # t %.0.t.w.0.0.&.&.[ [ x z e e w w w t z m B W O.%.%.%.%.%.%.O.} } } } [ B V m z g r r w w f 1 - & - # # # # # # & & & - w w w # q } <.1.1.0.0.0.0.q.y.t.t.t.t.q.q.0.9.1.1.<.,.,.,.,.+.+.#.+.+.+.+.+.+.+.+.+.+.+.+.+.+.+.+.#.b @   o   X X % X           . o o o @ f E E b b b b b n n b l g 2 - = $ $ $ % % % % % % % % % > & % % $ $ X X % O   f #.J.@XkXvXbXbXvX5X1XXXT.oX1XkXvXcXkX3X4XXXH.7.%.B $.6.H.L.2.C M v f b @.#.4.2.@.M w - - - # - M #.@.N E R f b b f - - f l R R f - # s b E M l s g l b f d g d d d d s r j d j j s s d d j j d d d d d d d d d d p p p p d p p p p p p p d d d d p p p p i i i i i i i i ",
"& & & & & & & & & & & & & & & & & & & & & & & & & & & & & & & & > > > > & # w f g g r w ; w w r r w q w w # O O + + @ O O O @     @ @ @ @ @     O   @ @ @ @ @ q N m C N r @ @ ; # # # # ; ; ; ; @ O     @ # # # O # # @ q v N N f w ; @ O O O             @ % 1 - @ @ @ - f f = @ @ @ @ @ O $ @ r N b # @ @ O   @ = @ O ; w @ @   @ % #     O       O @ # w g z [ [ [ [ [ [ O.#.#.=./ / / ( _.G.^ W M N m v m N k l = O $ @ T M 8 5 6 e 6 + + 8 & & & & i i i i > > > > & & & & & & & & & & & & & & & & > & & & > i 8 w J.5.1.5.4.1.<.5.oX<X@X4X3X4X@XJ.&.o.[ O.4.R.2XkX5XcXvXnX5XoXr.U.4X5X4X<XoX<XoXI.r.U..XU.Y.E.1X1X<XR.U.U.U.XXT.4.g r b W ! O.! B B C N m M b b v f f 2 - 1 1 1 1 1 1 1 1 2 f f 1 = = = & = 1 1 1 1 1 1 1 1 1 2 f f f r r f f f f g g b b k f k k v M N M M M b f v v b v v b b v f f v v v N O.$.%.O.O.O.W B B ! #.#.O.B B O.+.,.<.5.,.} +.e.H.J.7.$.O.B m v v t g f r w k B @.! N v M N N v g f v f f f f k b b k g f r f w ; ; - = = = = % = 2 f 1 - = - - = - - 2 f f f g g f g g f 2 2 g g - - w - @ + m &.w.r.r.0.0.&.&.&.[ V z d d w w w e t z V B O.%.$.$.$.&.&.&.%.%.%.%.%.%.} o.[ B V m g t e s w f f w w - ; # # # # & & & - - w w q q } <.1.0.0.0.0.0.q.q.r.t.t.t.r.q.q.0.9.1.<.<.<.,.,.,.+.+.+.,.+.+.+.+.+.+.+.+.+.,.+.+.+.+.$.N f @ %     o   o @ @ o X X . . o o o = b W b b b b b n n b b b n f 1 % $ O $ % % % % % % & & > > & % % % % $ & % @ b #.K.1XcXnXVXVXVXcX3X<X<X<X3XcXcX5X3X<X@XI.7.#.B m m O.6.L.7.~ E N b E #.#.2.2.! b w f - - # - b ! ! N M b f b k f f f f l E R f - # f l R R l s g l b s g g g g d d s r j d j j s d d d j j d d d d d d d d d d d d d d j d d d p p p p p p p p p p p p i i i i i i i i ",
"& & & & & & & & & & & & & & & & & & & & & & & & & & & & & & & & > > > & 8 & s d g r w # # # ; w g w w g g w # # O O # O O @       @ @ @ @ @ @ @ @   @   O @ @ ; m v C M ; @ @ @ # # # # # # # @ @ @ O     O @ @ O # @ O # q v M ; ; O                   O @ = f g @ @ @ ; - - ; # @ @ @ @ @ # # v ! N # @ @ @ O 1 f O   ; f @ O   @ % - @   @ O @ O O @ # ; w t u u V [ [ B B O.#.3.D.D._.( k.G.L.n b v Z Z t m N g - @ @ # =.w e 5 5 e 8 + + 6 8 8 8 & i i i i > > > > & & & & & & & & & & & & & & & > > & > & i i 6 8 7.5.5.5.4.<.&.1.XX<X.X1X3X4X@XU.&.[ V } <.U.1X5X5X5XvXnXvX4XT.oX1X4XoXoX<XoX.XH.U.H.T.U.U.T.1X1X<XE.XXE.XX@XW.@.r ; w f v v v m B O.! N b b b v v f f - f 1 1 1 1 1 1 1 1 - 1 = = = = & = 1 1 1 1 1 1 1 1 1 2 f 2 2 r r f f f f g g v v v f f r r r f r b b b f v v b b v b b v f f k v M B O.#.#.%.! B B B B B ! ! O.O.%.<.5.e.T.T.r.1.} +.%.4.4.,.O.N v Z v t t g g r M N N M M M N N E M v f k v v b g g f f - = # @ ; # # - 1 - = ; = - f b b k f 1 ; = ; = - 2 f g f g g f f f f f g f ; w # # 6 t &.w.H.t.w.0.&.&.&.[ [ z z d s s w w e t z V [ %.%.&.&.&.&.&.&.&.&.+.+.+.%.%.%.%.} [ B V z z g g r f f f f w w ; & # # & & & - w & ; ; q %.<.5.0.0.0.0.0.q.q.y.r.t.r.r.q.q.0.9.1.1.<.<.<.,.,.,.+.,.,.,.+.+.+.+.+.,.,.,.,.+.+.,.,.$.W k   $     $   @         . . . . . o O f E b R M b b b n v v v n g f % $ o o $ $ $ $ $ $ % % % % % % & & & & % - w ~ $.U.2XmXbXnXnXVXnXvXkXkXcXbXnXmXcX3X<XE.L.F.#.M v g m *.F.2.@.! W b M ~ O.$.#.W k w f - f - - b E W N M b g b b f f f f l E R f # # s l M R l s s M b s g g g j s d s r d j g j j j d d j j d d j j d d j j j j j j j j j j j d p p p p p p p p p p p p p i i i i i i 8 ",
"& & & & & & & & & & & & & & & & & & & & & & & & & & & & & & & & > > i i 8 8 w w e w 6 + @ # ; w w ; ; w f s w # # # # O     O   O O @ @ @ O @ w f -     @   ; q t M ! f @ @ # @ @ @ # # @ O O O O @ O   O @ # # w g M M N v w ; w # O O           O @ % @ @ - 2 r @ @ @ @ 2 - ; w ; @ @ O O @ # v ! v # # @ @ O - - # r v b @   @ ; ; 1 - @ O @ O O O O # w t t u u u z Z V V m E =.3.D.D._./ D.(.^ v t m Z q Z ! E f O $ f ~ 6 e 7 7 z z 6 6 6 8 8 & 8 i > > > & & & & & & & & & & & & & & & & & & & & > > > i i i 8 6 o.5.w.w.5.&.+.<.T.<XE.<X<X<X@X@X6.} [ } <.H.<X5X5X5X5XvXnXkX1X1X1X1X<XoXoXT.Y.I.U.r.U.H.e.T.1X1X<XoXE.T.I.F.#.k ; w f f f r v v m M C ! M M v b k g f f - - f 1 1 1 1 1 1 1 1 1 = = = = # = = 1 = 1 1 1 1 1 1 f - 1 - - f - 2 f f f f f r r w ; ; q q r f g g g f v v n b b v f r f f f M m W O.#.O.B B m B O.$.%.%.%.$.<.5.w.H.T.U.e.<.<.&.$.<.7.$.O.O.B N m m N B B N m m m m B O.! N N m v v v v M E b k w ; ; ; % @ # # ; - f - 2 f f v n n k 2 1 1 2 2 2 2 - f f n f 1 - - f f g k f g g t y V -.H.K.*XK.w.0.&.&.[ [ z u e r w - w r t z V [ [ } } &.&.1.1.1.&.&.&.&.&.+.&.&.+.} %.} } [ V m z g g g g g f g s s r - # # # & & & - & ; # q %.<.1.0.0.0.0.0.0.q.q.r.t.t.t.t.q.q.0.9.1.1.<.<.<.,.,.,.,.,.,.,.+.+.+.+.,.,.,.,.+.+.+.+.$.O.l O @ % @     @     @ o X . . . . o O & b T R R b b b M b v n v f f 1 & $   . . . . O O O O % % % % % % & & - & O 7.F.@XcXbXmXmXmXnXnXvXcXbXnXVXnXmXmXcX3X<XE.W.7.N g w v W #.W @.@.W g g B $.%.W E f f 1 & & # = f M E M b f k R b f f f f l R T 1 & # & f b R b s s l b g k g f s s s s w s s j j j d j d j j j j j j j j j j x x j j j j j j j j j j j j d d d d d p p p p p p p d i i i ",
"& & & & & & & & & & & & & & & & & & & & & & & & & & & & & & & & > > i 6 6 8 8 e e w 6 + O # # ; ; ; # @ # ; & @ @ # # # O             O O O ; g M f @   @ @ ; q t B N ;     O O   O O O O O O O   O @ @ w g t q e g e w w w # # @ O           O   @ # # @ ; 2 f - ; ; @ @ g k f w # @ @ O O @ ; v N g # # O O @ # ; r W N f O @ @ @ @ - f @ O @ O O O O # w e t g e e y e u z g k b ^ =.G.D._._././.#.g v Z t t m #.f @ @ M g g e e z [ V e 6 + 6 8 & i i > > > & & & & & & & & & & & & & & & & & & & & > i i i i i p 8 o.5.w.w.1.&.} &.K.@XE.@X@X<X<X4XH.+.} } <.H.oX4X5X3X5X5XbXvX5X3X2X3X1X<XXXT.U.H.U.r.r.e.w.XX3X1X<XoXXXR.J.#.b w - - - ; r r g v v v M M M M v b g f f f - - 1 1 3 3 1 1 f 2 1 1 1 = 1 1 # = 1 1 = 1 1 1 1 1 1 1 1 2 - 2 - - - f f g g g f v M m v v t r r f f f r f f v b b b v v f r r g m B O.O.B B C } } O.O.+.<.5.e.U.K.e.w.e.e.w.5.<.4.5.e.e.6.6.4.4.%.O.O.O.! B ! B W B B B ! ! W M v v v v M E ^ M v w ; - - - ; w f f f f 1 2 f 2 2 f f f 2 f k 2 2 2 2 - 2 f f f 2 2 f - - w r t t y z &.K..XK.t.t.r.w.&.&.[ V z t w w w w w r g m V } } +.&.&.1.0.0.0.1.&.&.&.&.&.&.&.+.} } } } } [ B m m m g g g g g g g g f f - # # & & & - ; ; # q } &.&.1.0.0.0.0.0.0.q.q.t.q.t.t.q.q.0.0.1.1.<.<.<.,.,.,.,.,.,.,.+.+.+.+.+.,.,.,.+.+.+.+.$.@.g O $ f M f @ @   O O   X . . . . o   O = k b b M N M M m m M n v f f = % o . . . . O O O O $ $ $ $ % & & & & # w J.R.2XnXnXnXnXnXnXmXcXcXbXnXbXmXcXcXcX3X<X<XE.F.! b k N W E M ~ #.W M b W 4.%.N b g f 1 1 & & - f M E M k f l E b f f f f l R l - # # - k M M l s f b b f g g s s s s s w w s f f j d d d j j d d j j j z j j x x x x j j j j j j j j j j d d d d d p p p d d d p d d d i ",
"& & & & & & & & & & & & & & & & & & & & & & & & & & & & & & & & & > 8 s w 9 9 e e w 6 # O @ # # ; # # @ O @ & # # # # & # O   O @ O O O @ O ; k W b # O @ @ ; ; v C v @ O O O $ O O @ @ # @ O @ # # # w r w q # + # # # # # + @ O O O       O O   % - ; @ ; f v 2 q ; @ @ v f f w # @ @ @ @ # w t v w # # @ @ @ f f b ! r @   @ @     @ - # O $ O O O O # 8 w w e w w q e t g z b f k T / / / _.G.(.D.b v t t r Z O.M # # W w z z z z o.V e q + # * & & i i > > & & & & & & & & & & & & & & & & & & > > i i i i s i d w o.7.w.w.1.&.} +.H.@XoX<X1X<X<X4XU.$.} } <.H.XX<X1X1X3X5XvXvXvXcX5X5X3X<XoXXXY.r.r.r.r.9.w.oX3X1X4X<X@XW.2.N f 1 - 2 f f - r f f v v b b b v v k g f f w - - f f 3 3 f f f 1 1 1 1 - 1 1 # = 1 1 1 1 1 1 1 f 1 1 2 2 2 f f f f g b b b M W O.#.%.O.C B N M b k f r q r f v v b v v M N B B B B O.B B B } O.} } [ } 1.H.T..XY.w.5.5.5.e.e.w.w.e.e.w.4.<.$.4.4.4.4.$.O.%.7.J.2.O.B O.O.B N m v v m N ! ! ! E M f r 2 2 r f f g g f f 2 = = - - - 2 2 1 f g f f f f f f f g 2 2 2 f f f f g e } w..XoX.X|.*Xt.y.0.&.%.B m z g w w 8 e e e z V [ } &.&.1.0.0.0.0.0.0.0.1.1.1.&.&.+.&.} } } } %.%.} } V m m m m z z z g g k g f s - # & & - - ; ; # # B } &.1.1.0.0.0.0.0.0.q.r.r.t.q.q.q.q.w.0.1.1.<.<.,.,.,.,.,.,.,.,.+.+.+.+.+.,.,.+.+.+.+.$.! #     R F.F.#.O.t r ; O o o . . . o O   @ 1 f l b b M M m v v n v f f 1 = $ . . . . . . o o . . $ O % # # & # & =.R.@X3XbXnXDXDXDXDXnXnXmXnXmXcXcXcXkX3X4XE.@XE.F.@.M v E W V N @.=.@.m N #.J.4.N b k f 1 1 1 1 1 f E E b k f b ^ M f f f f k l f # # & w b R b g f f b l f k f f f f f f f w s f f d d p p p p p p j j d d j j j j j j j j d d d d d d d d d d d d d d d p d p d d p p i i ",
"& & & & & & & & & & & & & & & & & & & & & & & & & & & & & & & & % # s j g d e e e e w # O O @ @ O @ @ @ O @ # - & # # & # O @ - ; # @ @ @   @ r W R - O O @ # # r M r ; ; # # - ; ; ; w r w w w & # # w # + + 6 6 6 6 q # 6 6 # O O O O O O       = f - # r m N n r ; @ ; r ; f ; # @ @ O @ # w r q # # # @ @ @ b W ! N ; # @ O @ @ @   # ; $ O O O O O + # 8 # # # 6 w w w e g f f f 1 3 3 3 T / / f w v t q r m m O.w # Q z t o.[ V [ V e y + # # & * & i > > & & & & & & & & & & & & & & & & & > > i i i i i j 8 8 e o.-.1.w.5.&.} +.e.<X<X1X1X<X@X<XU.+.} %.<.H..XoXoX<X1X5X5XcXvXcX5X1X1X<X<XoXT.w.1.9.r.1.r.oX4X<X<XXXJ.! M f f f ; - - - f 1 f f g g k v v f f f f f f w - - 1 f f f f f 1 1 - - = = = = # = 1 f 1 f f f f f 1 1 2 f f f g g g b E E W ^ #.2.7.7.,.,.$.$.*.@.N v r q r r m N N B C %.4.6.6.4.$.$.+.%.} %.&.1.1.+.<.5.r.Y.T.H.e.e.K.H.e.e.e.e.e.e.<.B B %.$.4.e.J.4.,.J.@XR.J.4.#.! B m v m v M N ! #.@.^ ! E b v f f f v f f f - - - = = = - - 1 1 1 1 2 f f f f g g k b f - ; ; w g B O.5.K.oXoXOXOX*Xy.0.:.&.&.[ z r s f - w w q y z [ } } &.1.0.0.0.0.0.0.0.0.0.0.1.1.&.&.+.&.+.&.&.} %.} } } B B m m m m m z g g g g g f s - - & # - # @ @ # m } +.1.1.1.0.0.0.0.0.0.q.q.q.q.t.q.r.q.q.1.1.1.<.,.,.,.,.,.,.,.,.+.+.+.+.+.,.,.+.+.+.+.,.B   % O T F.F.J.8.7.8.7.M f - @       O     ; # - f l v v v v n v f r f f - % . . . . . o o o . . $ $ O $ O $ # O L.&X4X3XvXnXZXDXDXDXDXDXDXnXnXcXcXcX3X3X4X@XE.W.F.#.M g E R Q V W @.W m m O.W.6.! E l f 1 3 1 - - g Q ~ R l f M ~ E g g g g f k s # & & f b E b k f k b l f f f f 1 f f f f f f j j s i p p p p p p d d d d d d j j d d p p p p p p p p p d d d d d d d d p d d d d p p i i ",
"> > > > > > > > & & & & > > & & > > > > > > > > & & & & & & & # s # ; s g e e y e u z t 6 # O O @ @ @ @ @ @ @ # & # # - # O # f m m g # O O O @ T E k @ O O # # r v M M E E E E W M g w w w # 6 6 # # + # 6 q q 6 6 6 + + + + + # # # #   O @   O ; f ; q r N #.~ v - ; @ @ - w r ; @ @ @ @ @ ; ; ; ; @ @ @ @ w v E ^ N w @ O @ f 1 =   % @ O O $ # * # + 6 8 # # # + + # * & & w e w w & s s O & O O @ ; r r r t m B t W m m e [ V z V V e 7 6 + + + * s i > & > & & & & & & & & & & & > i i i i i i i s s p p j i i d o.-.5.w.5.4.} &.U.<X1X1X1X<X1X@XU.+.[ } <.H..XT.Y.oX1X5X5X5X5X5X<X2XoXoX<XoXT.e.w.r.r.r.I.oX1X<X@XW.2.N g f w - - f f f f f f f f f f f g w w f r w w f f s f f f f f f 1 - 1 1 = = # # # = 1 f f g l l g g f f f f g v v v v b W ! @.#.,.7.6.5.+.+.<.5.6.#.! N v v v N B %.,.,.<.<.H.H.U.J.J.e.w.1.&.<.&.1.5.1.5.w.r.t.Y.U.r.r.Y.H.e.J.H.H.H.e.+.} %.+.+.e.T.XXH.U.oXE.J.6.2.#.W v v v N W ! @.#.@.^ E N v r r b b f r w - - - = = = - - - - 2 = = 3 1 2 1 f 2 - g b ; q # 6 z $.w.K.oXOXOXOX.X|.|.t.y.0.&.[ [ m g f w w s w q y z [ [ &.0.0.q.y.y.q.q.q.0.0.0.0.0.1.1.&.+.&.&.&.1.1.+.&.+.} } } B V m m m m m m m m m g g r r w & & & @ @ @ @ w B %.&.1.0.0.0.0.0.0.0.q.q.q.r.t.t.q.q.0.9.1.1.,.,.,.,.,.,.,.,.,.,.+.+.+.+.,.,.,.,.+.+.+.! O @ O - *.J.8.8.e.e.H.J.6.4.B v ; @   O @ @ = f g g v b v n v r r r r - - 1 % $ o o . . . .   . $ %   % >   O O R.E.@X3XkXbXnXDXDXVXDXDXVXnXnXmXcXcXkX3X3X4X@XI.2.! g g W W V W @.o.M g v ! J.3.@.E R k f 1 s - w E ~ E M k b W ^ E b f l l k f - - - - f b R l f f k T k k f f f 3 f f f f h s f s s s i p p p p p p p i i d p p p p p p p p p p p p p p p p p p p p p p p d i i i i i i i ",
"> > > > > > > > & & & & & & & & > > > > > > > > > > & & & & $ $ @ O @ # w w 6 6 y u u t w w ; # @ O @ @ @ O O # & # # # # @ # ; B %.! r # @ @ # b b f @ O O # # r k b b M b b k f w # # q 6 6 8 8 8 6 6 6 6 6 6 6 6 6 6 6 6 6 6 q w # # @ # % O O - f r Z V ,.5.,.M 2 @ @ @ f r w ; # @ @ @ @ ; ; ; ; @ @ @ @ ; w f g r @ @ O @ f f =   % @ $ $ & s 8 8 8 8 8 8 8 & & & & & & & 6 6 # q e 6 + + * + O @ # ; q q r m O.m W m z y z z z u z e y e w 6 * 8 s i > & & & & & & & & & & & & & i i i i i i s s s s p p a i i d z -.w.H.w.5.+.<.U.<X<X<X1X1X3XoXI.+.} +.w.Y.oX.XT.oX1X3X3X4X3X2X<X1XE.E.oX<XoXT.T.Y.u.Y..X<X4X<X@XJ.~ b f f f g k k g f f f f 3 f f f f w ; ; w f f f f k l l l k k f f 1 - 1 1 = # # ; 1 f k k g g l v b b g g g f v b N M v v N ! #.$.<.w.e.w.<.1.5.5.6.$.@.W M W N C %.,.5.r.H.e.U.U.U.J.J.e.5.5.w.w.r.e.w.w.w.r.r.r.U.K.H.H.K.e.e.e.5.w.0.<.<.e.I.e.5.e.U.T.T.T.XXU.2.$.@.! N v v v M N ^ ^ ^ E M b v f - f g f - - ; ; = ; = = = = = = = - 1 1 3 = = 2 = # k w # q y m &.K..X&X@X%XOX|.|.*X[.t.y.0.&.&.[ V z t r w w r w q t V } &.0.w.t.t.r.y.r.r.r.w.q.0.0.0.0.5.<.&.&.1.1.1.1.&.<.&.+.} } [ B V m m m m m m m m m t t r w - & % o o @ O # r B &.&.1.0.0.0.0.0.0.0.q.q.r.r.t.q.q.0.0.1.1.1.,.,.,.,.,.,.,.,.,.+.+.+.+.,.,.,.,.+.+.+.C   @ O @ W 6.8.9.9.w.r.e.e.e.J.7.#.M r ;     O ; f v v n n v v f f f f - - = % $ . o . . . . . .     :     % # O L.@X<X5XbXVXDXDXDXDXDXVXbXbXcXcXkXcXkX3XkX3X<XW.#.N g g V N M M W M z g g W 3.#.! E M k f 1 # & f Q @.Q M k M Q ^ W b g l l f - - s w l R b T k h f l T k k f f s s f f f 3 h h f s s s i i p i i i i i i i d d d d i i i i i i i i i i i i p p p p p p p p i i i i i i i i ",
"> > > > > > > > & & & & > & & & & & & & & & & > > & % % % $ O O O O O O # 6 6 + q e e e w w w ; @ @ O O O O O O # # # # @ @ # # N $.$.m q # # # v r ; @ O O @ # ; r f f g r w w w w q q 6 6 w w w w 8 6 + 6 6 6 6 6 6 6 e e e y e w # # # & %     w w r B C 1.J.3.N 2 @ @ # f q f r w # @ @ @ ; ; ; # @ @ O @ ; ; ; ; ; @   @ ; f k =   @ @ # # h d d d d j s d s 8 i i i i 8 & q q q t m y 6 9 5 + + + + # ; q r N #.O.B z u 6 e e u e e y 6 7 e w 8 8 i i i > > > > > > > > > i i i i i i i i s d d d s s s i i s i 8 w 5.J.H.H.w.&.5..X1X<X<X1X3X5XoXU.<.&.1.K..X@XoXoXoX1X4X4X4X4X1X1X1XY.E.oX<X1X1X@XT.Y..X3X5X3X2X@X6.W g f g b M M b k f f f f f s s w w w w r s k k k k k b b l k f f 1 1 = 1 1 = & ; ; 1 k n k g f g v v v b b n v n M N m m M N C %.,.4.e.H.e.e.H.H.K.K.7.#.@.@.*.$.,.5.H.U.R.U.U.T.T.U.K.K.e.5.r.H.H.H.r.e.H.U.K.H.r.K.r.5.5.w.5.5.w.&.&.&.5.H.T.R.K.H.J.K.U.U.U.J.4.B M v v v r r r v b M E b b g f f - - f 1 - = = ; # @ @ % % & = - - - = $ % 1 = # ; # # # O 6 B w.K.oX1X1X1X%XOX|.*Xt.r.0.0.0.:.&.[ V z z e w w ; r e t m [ %.&.0.y.K.t.t.t.y.r.r.r.r.q.0.0.1.1.1.1.<.&.1.1.1.1.<.&.+.+.} } B V m m m m m m m m m m g f f s & $ O O o O O O g O.+.&.1.0.0.0.0.0.0.q.q.r.r.t.q.q.q.0.9.1.1.,.,.,.,.,.,.,.,.,.,.,.+.+.,.,.,.,.+.+.%.N O O   O W J.e.9.9.0.0.w.e.r.r.8.8.4.,.! v f # ; ; r f v v g g r f r - - = = = % $ . . . . . X X X . . $   O   m E.<X4XcXnXnXZXDXDXDXDXnXbXbXcX3X3X3X3X3XkX3X4XW.#.M g g M M z x V x g g g N #.W W E l f s - # & f E ~ Q M l M W ~ W E l l l f - - f l W Q M b l f f l R f f s s f f f f f f k f s s i i i i i i i i i i i i i i i i i i i i i i i i i i i i i i i i i i i i i i i i i i i i ",
"> > > > > > > > & & & & > & & & & & & & & & & & & % $ O $ $ O O O O $ O O # & # # # 6 # # # w ; # @ @ O   O O O O # # # @ @ @ # g #.$.m w # # ; r ; @ @ @ O @ ; ; w w w w w w w w w w w w w w r w 8 6 6 + + # 6 6 q y e t t t e w ; # # # & @   O f r Z +.,.r.E.8.W 2 @ @ # r w k v g r # @ @ # ; ; # @ @ O O # ; ; # @ @ @ @ ; f b =     % # # j s i p p d i d s i i s s s 8 8 6 t m %.%.e 7 u 5 5 + + + + # w r m @.O.m e e 6 u u y 7 7 5 6 6 e w 8 8 8 i i i s i i i i i i i i i i i s s s d d d d d i i i i i i s 8 6 J.H.U.H.r.1.e.oX1X1X1X1X4X3X@XT.5.5.r.U.oX1X@XoX<X1X1X@X3X1X<X<X@XT.oXoX1X4X1X@XY.Y.<X5X5X3X@XJ.@.b f g l b M E M g g f f f f f s s w s g k g v b b v k M b l 1 1 1 1 1 = 1 1 & & ; - 1 k n g - 2 f f f v n v n n v M M m N B B C %.$.5.H.K.e.K.T.oX@XXX6.$.*.2.2.2.6.r.T.@X@XoXoX1X@X.X.XT.e.5.H.U.U.e.H.K.Y.U.K.r.e.r.e.5.w.w.w.5.4.5.5.5.e.U.U.U.U.T.R.R.R.J.6.$.N v r q ; ; ; ; ; w f k b b g f - - - - f 1 1 = = # % @ @ % % % ; O % = = % % = # & # 6 e z O.w.K..X.XoXoX.X|.|.*Xt.y.0.0.:.:.&.&.&.[ z u t e w w w t z m [ } &.1.0.r.t.t.t.t.r.r.r.r.r.q.0.0.0.1.5.1.<.<.1.5.1.1.<.&.+.+.%.} C B m m m m m m m m m m g g s s & O   o o o O O # g %.+.+.1.0.0.0.0.q.q.y.r.r.t.q.q.0.0.9.1.1.+.,.+.,.,.,.,.,.,.,.,.+.+.,.,.,.,.+.+.O.N   O   O E J.r.q.0.0.0.9.9.e.w.5.e.e.8.7.,.! N v f r f g k f f f r 2 - = = = 1 % $ $ . . . o     . X o     O m R.3X5XcXnXnXnXVXVXDXZXnXvXvXnXmXcX4X<X<X4X3X4X4XW.#.M g g M N g x W N g g g N @.Q E N f s - & & s f R Q E b k M E W W E b l l f f s l E ~ ~ E l k f f k l f s - s f f f f f f k f s i i i i i i i i i i i i i i i i i i i i i i i i i i i i i i i i i i i i i i i i i i i i i ",
"> > > > > > > > > > > > > > > & % & 1 3 1 1 > % $ $ @ @ $ $ $ % O % $ O O # & & # # # # # # ; ; ; @ @ @ @ @ @ @ @ @ @ # # @ @ # v #.*.W g q # ; q q ; # @ O O @ # w t e t w w w w q q q q q q 6 6 6 6 # # 6 q q e e e w e e w # # # # ; - # @   O r r B 5.9.oX<XI.E - @ @   # r g m m g # # # # w w # @ # @ @ # @ @ @ @ @ @ = 2 f n @     @ & s j j d p p d d d d d d d i i w w e V &.w.[ 7 0 u 0 9 5 + + + + # ; g B B t e y 6 e e 5 6 6 6 6 6 w w w 8 8 i i s s s s s s s i s d p p p j j d d d d d i i i i i i i 8 s 6 U.R.U.H.r.w.H.@X4X1X1X4X4X3X4XoXH.H..XoX1X1X1XoXoXoXoX@X5X<X@XoX@XU.T.T.1X3X1XoXT.T.<X1X4X<XU.O.v f s M M M M N M z g g g l l l g g g g v M v m M b b b E R k 1 1 - - = = = # % @ ; - g b k f - ; r f v b N E M b b v M N N B } O.+.<.e.H.H.e.U.T.XXXXR.4.#.@.@.@.#.6.e.U.oX3X4X<X4X3X<X@X.Xr.5.w.w.w.w.e.H.K.H.H.e.e.e.H.U..XK.U.H.e.e.H.H.e.U.T.U.J.J.K.R.J.2.#.! M g f ; ; ; ; ; ; - f g b b b g 1 - = ; ; = = = = = = = @ @ % % % 1 - ; # @ @ # # + z $.7.w.K.R.K.r.w.r.t.0.0.y.0.0.0.:.&.&.&.&.&.[ [ z e t e w w w g V V } &.1.0.r.y.t.t.t.t.t.t.y.r.r.r.w.0.0.9.1.1.1.1.1.1.1.1.<.<.+.+.+.O.} B N N m m m m m m m m g f f f & $ o . . . . O $ @ m } &.&.1.0.0.0.q.q.q.q.q.q.q.q.q.0.9.9.1.,.+.+.,.,.,.,.,.,.,.,.+.+.+.+.,.,.+.%.@.v       O g 6.r.q.9.0.0.9.9.e.e.e.9.5.5.4.<.,.#.! m f r r f f f w - - - - - = 1 % $ o . . .     %   o %   @ #.R.2XkXvXVXVXnXVXVXVXVXbX3X4X5XnXnXcX3X4X4X3X3X4X@XW.*.W M g x V M o.#.W t w g Q #.W N l j 8 8 & w - f g M M g g l M W W E l g f f f l W @.=.=.~ M l f f l k s s s f f f f f f f k f s s i i i i p i i i i i i i i i i i i i i i i i i i i i i i i i i i i i i i i i i i i i i i ",
"> > > > > > > > s s s s > > > 1 3 3 1 1 % % $ $ @ @ @ @ $ $ $ $ O % $ O @ # - & # # # # # # # # # @ # # # # # # @ @ @ # # @ @ @ r ! #.W m q # q r t r # O O O @ # w t t t w w w q q q q q q q 6 6 6 6 6 q q e e e e e e e w # # @ @ @ # # @     @ t t +.r.I.1X<X8.n ; @ @   # t m m m m q + # # w ; # @ # @ @ @ @ @ @ @ O @ @ 2 2 g @     @ # & 8 i d d p p d d d d s d p i s e z H.K.-.0 0 u u _ u 0 5 + + + + # r N V z e 7 6 6 6 6 6 e e q 6 w 8 8 6 * 8 8 i i i i i i i i i d p p p p p d d d d i i i i i i p i 8 d e E.R.K.e.r.r.T.1X3X4X3X4X3X5X5X1XT..X@X<X1X1X1XoXoXXXXX<X5X@X@X@XoXe.e.Y.<X3X1X@XXXE.oXXX4X@XH.O.m g g M M M M M M z z g g x x M M M M M M m N N M v v v E R l 1 1 - - = = # % @ = - f b b g f - 2 f f f v M N N M M N N m N B %.+.<.<.5.r.e.e.K.K.e.6.$.B g t m W %.4.e.U.T.<X1X1X3X4X1XoXXXY.e.1.<.} <.1.w.e.e.e.e.w.e.H.T.XX.X.XT.U.H.e.5.w.J.J.6.4.2.4.7.@.N v k k g f - - ; ; ; ; = - f f k k f = = = ; % & = = = = = = = % % % % % - - w @ # q q [ J.XXK.K.e.1.&.&.&.&.&.&.&.&.&.:.:.&.&.&.&.{ &.%.[ z z e e e w w m } %.&.&.0.q.r.t.t.t.t.t.t.t.t.t.r.r.w.0.0.1.1.1.1.1.1.1.1.1.<.<.+.+.+.O.} C N N N m m m m m m m g g f f - % $ . . . . . O @ # m $.<.1.0.q.q.q.q.q.q.0.q.q.q.q.q.0.9.1.1.+.+.,.,.,.,.,.,.,.,.+.+.+.$.,.,.$.#.@.b O     O r 7.w.0.0.0.q.0.9.1.1.1.1.1.1.1.<.,.$.@.! N f w f f f w - - - - - - = % % X . . . . . $ X o   w #.R.4XkXvXvXnXVXVXnXnXnXnXvX3X4X5XnXnXvX3X3X3XkXkX4XE.F.*.! M z z M M o.$.O.g g m #.*.@.E M s & & & w w g g l l f g g b E E E l g g f l E ~ @.=.#.~ R l f f l k s f f f f f f f f f k f s i i i i i i p i i i i i i i i i i i i i i i i i i i i i i i i i i i i i i i i > > > > > > ",
"> > > > > > > > > > > > > > 3 s f 1 & % O O O O % @ @ @ @ @ @ @ @ O O @ @ # # # # @ @ @ # # @ @ @ @ # ; # # # # # ; r r ; # @ # q N W m t q 6 y t m t # @ O O @ # q t t t w q q y q q q y q q q q q q q e e t t e w w & # # O O O O @ # @ O   @ ; m Z 1.U.Y.1XoX,.# @ @ @   @ r z z m m t q q q r r w # ; # @ @ @ O O O O O - f n b O     @ # & d w d p p p d d j d d d s d d d &..XK._ 0 0 ) ) _ _ 0 0 5 + + + # r m m z e 5 5 6 6 + 6 z z e 6 6 6 6 # # 8 8 8 i i i i p p p i i i i i s s s s d i i i i i i i s i i s d &X&XK.e.H.Y.oX3X5X2X5X3X3XkX5X5XoXoX1X1X1X1X@XT.XXXXoX<X1X.XT.oXU.5.e.T.<X2X1X<X@XT.T.T.@XXXJ.#.B z M M M M V W W V M m M V V W W W B m m B W W m v v v b b f 1 f 2 = ; = % = = - 2 n b b f 2 2 2 f f f f v b b n n b N N C +.5.5.1.1.1.w.e.w.e.e.5.} m t q # r N O.4.e.K.U.oXoX@X1X1X4XoXoXE.R.H.w.1.+.&.<.<.5.7.5.4.J.U.T.T.T.oXoXT.U.5.} } %.$.O.O.! E E b f r ; f f 2 - - = = = % = = - 1 - 1 - = ; ; = # % % & % = = = = % % % % ; # # # q V 7.F.K..XK.w.0.&.&.&.o.[ [ { &.&.&.&.&.&.&.&.&.&.&.&.%.[ V z e e e w w B %.&.&.0.q.r.t.t.t.t.t.t.t.t.t.t.r.q.w.q.0.0.0.0.1.1.1.1.1.1.1.<.<.+.+.+.} } B N N m m m m m m m m g k f 1 & $ . . . . . . O   q B &.<.1.0.q.q.q.q.0.0.0.0.0.q.q.0.9.1.1.+.+.,.,.,.,.,.,.,.+.} +.+.,.,.,.#.@.M - O   o @ w <.5.9.0.0.q.0.9.1.1.1.1.1.9.1.<.,.+.%.! W v f f f f w - - - - - - = = % % X X . . o     O O ! W.&X2X5XvXnXVXDXDXnXkXkXcXcX5X5XvXnXbXcX3X3XkXkX3X<XW.7.#.! M g g g M W -.*.B z N @.*.~ E M s 8 s s j d l g g g j j g l E E M g g g k M W @.@.#.@.~ M g f f l g w s s s f g s s f g j s i i i i i i i p i i i i i i i i i i i i i i i i i i i i i i i i > > > > i i i > > > > i i > ",
"> > > > > > > > & & & & > 1 s f & % O o O O @ @ % % % @ @ @ @ @ O O O @ @ @ @ @ @ @ @ @ # # @ @ @ @ # # # # # # ; b E M w ; ; w r v M g t q q z m v r # @ @ @ @ ; w t t g e q q y q q q e e e e t t t t e t t t w # + O O O O O     @ # % @ # ; q t t 1.r.r.oXr.C @ # @ @   @ ; t t t m m t t t m v g r w # @ @ @ O O O O @ 2 b Q E       % f g R d 9 p p p d j j s s d s d d e w.K.{ 7 0 ) ) ` ) ) 0 0 7 7 + + + 6 d e z 7 5 7 9 5 + 6 z z e 6 + 6 6 + # 8 w s i p p p p p p s i i i i i i i i i i i i i i i i i i d 8 w $X%XK.w.U..X<X6X3X2XkX3X3X3X5XkX<X@X<X1X1X<XoXT.XXoXoXoXoXU.e.T.w.5.U.oX1X3X<X<X@XR.I.E.@XT.J.$.o.V o.R R V V o.o.W W V B W W @.#.O.B B B W #.O.N k v b b f = 1 f 2 ; = % % = = - f b n f - - 2 2 f v f f f f f f g k N B $.8.I.H.w.1.<.5.w.w.e.r.w.+.C t r r t m C <.<.5.e.oXT.U.R.oXE.E.E.E.E.T.R.U.5.<.+.} } } $.5.K.T.XXT.T.oXoXT.H.<.} B B O.O.B b f f w f - ; - - 1 1 - = = = = % % = = @ = = % % ; ; % % % % % % = = = = % # # # # z O.F.K.U.H.w.&.&.&.[ [ [ o.[ [ [ [ [ [ [ &.&.&.&.&.&.&.&.{ %.o.[ V e e e w 6 B $.&.1.q.y.t.t.t.t.t.t.t.t.t.t.t.r.r.q.w.q.0.0.0.0.1.1.1.1.1.1.<.<.+.+.+.} } V B N N m m m m m m m g g f - # O . . . X . . o   @ g O.<.1.1.0.q.y.q.0.0.0.0.0.q.0.9.9.1.<.+.,.,.,.,.,.,.,.,.} } +.+.$.2.#.! M #   o o O O @ C 5.5.0.1.1.0.w.5.1.1.1.<.1.1.1.1.,.+.! ! M b f f f w - - - - - - = = = = % X . . o @   # W J.&X2X5X5XcXvXDXDXVXmXkX3X5XkXcXvXnXnXbXcX4X3X3X3X4XE.I.2.@.W v f w w m W -.7.#.m M E ~ E R b f s f f g g M g j g j k g l E E l g g g l E ~ @.@.#.~ E l f s s g g w s s f f g s s f k j s i i i i i i s p i i i i i i i i i i i i i i i i i i i i i i i > > > > > i i i > > > > i > > ",
"> % % > > & > > & & > 3 k f & %   % % @ @ @ @ @ @ O O O O @ # f r O O @ O @ @ @ @ O @ @ # ; ; ; # @ @ @ # # # w w m O.m g v v t ; r v g t y y Z V t q # @ @ @ ; r t t t t t t t y t t y e e e t t t t g w r g w O O O         O     % $ % @   r q t Z 1.1.Y.oX9.m ; @ @ @   @ w w q Z B $.<.} m m m m M k w @ O @ @ @ @ @ @ - R Q Q   o O O w & w 8 9 j d d i j a s j j 8 w y &.&Xw.0 0 ) ) ) ` ) 0 0 ) u u 7 + + + e d e 6 5 y 9 + 6 6 e e e + + O O + O + i i s d i i i i i i i i i i i i i i i i i i i i i i s > s 8 w V %XR.e.T.T.1X5X4X5XkXvX3X1X5X5X1X1X1X4X1X<XoX.X.XoXoXoXT.U.H.e.e.e.H.T.oX1X1XoXE.W.H.T.R.K.5.-.$.$.*.o.o.W M W @.@.W o.W o.O.$.%.O.W O.! W B ! M v M b g f 2 1 1 - = = % @ @ @ - n E b - ; - 1 f g f f - - f f 1 f l b N @.6.I.U.5.,.<.1.w.e.1.<.1.<.$.O.N Z t m B O.<.5.w.e.w.5.e.I.U.I.I.U.R.R.T.E.K.7.%.B V V O.$.6.K.@X@XE.XXT.J.,.%.O.! O.@.W g b f - - - f n k k k 3 1 = = = % o % % o X % % % $ $ % % % % 1 % % 1 % @ % @ @ # + B J.T.R.J.1.&.&.o.[ [ V V V V V z z z [ [ o.&.&.&.&.&.&.&.&.&.%.} V z e e w w # t +.5.0.q.q.t.t.t.t.t.t.u.u.t.t.t.r.r.q.q.0.0.0.0.0.0.1.1.1.1.1.1.<.<.<.+.} } } B B m m m m m m m m m g g f - $   X X . X X . %   @ m ,.1.1.1.0.q.q.0.0.0.0.1.q.0.9.1.1.+.} +.,.,.,.,.+.,.+.%.O.%.#.*.3.W -   o   o o @   @ N 6.w.1.1.0.1.1.5.1.1.<.<.<.<.<.<.,.+.O.C ! N k w - - ; ; = = - - = - % % % X . X o   w W 7.T.@XkXmXvXcX5XvXcX3X3X3X5X5X5X5XcXbXnXvXcXkX3XkX3X<XW.8.7.@.N M w w r M @.-.#.N N M g M E E l f f k l x x x g g g g g g l E E l M g M E W ~ @.=.~ Q E g j j s g g s w w s j s d d g g j s s s s s s s i i i i i i i i i i i i i i i i i i i i i i i i i i i i i > > > > > > i > > > > ",
"% > > > & s > $ % 3 k T 3 % O O % O O @ @ # @ O O O O # # # & s M w O O O O @ # @ @ @ @ ; ; ; ; # # @ # @ @ w b w t m v v v v t w w t m Z t y m m q # O O @ @ ; g z m m Z t t t y e e e q w e e g g g t r ; @ O O O       O @ % % % % O @ @ @ f M Z Z } 1.T.<Xr.m ; @ @ @   # w t t m B %.,.} B m m m v g w # @ @ @ @ @ @ ; f b E #   $ # O # Q J.x 9 d p d j i i i s s w e o..XK.{ 0 ) ) ) ` ` ` _ ) _ _ u e 6 + 9 z d 5 5 5 7 6 + + 6 6 8 q + + O O + + * i i i i i i i i i i i i i i i i i i i i i i i i i i i s i 8 8 d J.&X.XU.oX3X5X5X5XcXcX3X4X5X5X1X1X1X4X1X<XoX.XT.T.E.XX.XT.H.e.5.4.<.5.H.T.XXU.K.W.R.W.H.J.w.w.w.5.-.o.o.W V o.o.o.W V V [ o.O.B B B N B O.#.O.N M N k f - - 1 1 = = = = @ @ - f n n - @ ; - 1 g b g f 1 1 1 1 1 f g l k M ! 7.J.e.e.5.1.<.1.1.<.1.5.e.6.4.O.V V N } <.4.5.5.4.5.7.,.7.F.J.I.J.J.R.@XXXI.7.%.B V B O.$.6.F.8.8.J.8.,.,.4.4.4.2.! v r = = 1 1 f k k f 2 1 1 1 = = = = = % $ $ % % % % % % % % o $ % % = # @ ; ; # g @.J.H.H.e.1.&.%.&.[ [ [ V z z z g g d e g V [ o.o.&.&.&.&.&.&.&.{ [ [ V z e e w w 6 t $.0.0.q.q.y.t.t.t.t.t.t.u.u.t.t.r.r.q.q.q.w.w.0.0.0.0.1.1.1.1.1.1.<.<.,.+.} } } B m m m N m m m m m v g f - $ o . X . . X . X o % r B +.1.1.0.q.q.0.0.0.0.1.1.1.9.1.1.+.} } ,.,.,.,.,.,.,.%.%.,.*.^ - @   % $ o o   O   @ N 4.5.5.1.0.1.1.<.<.<.<.<.,.,.,.,.,.+.O.C C N v r - - = ; = & = = % = % % $ = %     w #.K.@X5X5X5XvXcX5X1X1X1X1X1X5XcX5X3X5XcXbXbXmXcXkXkXkX<XR.W.F.7.! m M W W r m o.-.*.W M g s g l l f s f k R M x g g g g l l l M R E E Q N W W ~ @.@.@.~ E M g j d s g g s w w s d s d d g g s s i i i i i i i i i i i i i i i i i i i i i i i i i i i i i i i > i i > > > > > > > i > > > > ",
"% > > > > > > > G k 3 % O   O > % O 1 g E @.@.#.g w # r s w s l N g # O O O @ O @ O O # # # & & # # @ @ O O ; v r t r q v v Z t r q t m V m B O.m r q @ @ O   ; g z m m z t y y y y t t t t t t m g r ; w @ O             O % # # % %     O # b ! m Z B 1.U.oXe.m ; @ @ O @ ; w t r t m B } V m t t r w w # @ # @ @ @ @ ; - w s k   @ O @ O O g M 6 8 8 p i p i j j s 8 e 7 &.&X:.0 0 ) ' ` ] ` ` ` ` _ ' _ u e 5 9 d 9 + 6 5 5 6 + + 6 + 6 6 + + O O + + * s i i i i i i i i i s i i > i i i i i i i i i i i i i s i 8 w 8 g J.XXT.@X3XkX5X3X5XkX3X<X3X3X2X4X2X4X1X<XoX.XT.U.U.T.oXoXT.U.K.w.1.1.e.H.U.7.<.&.4.7.&.<.e.R.U.F.-.o.W V z M V B V M V o.O.B V m B B O.$.$.B m M b g f - = = = = = = = = = f n n - ; @ ; - f b b g f f f - - f f g b f v M O.,.<.5.5.w.w.e.H.U.U.H.H.J.7.$.} V B } 5.&.$.&.<.<.%.N m m N ! 2.6.J.U.@XE.H.4.} m m B #.*.$.$.7.8.8.7.J.L.J.8.#.b ; ; @ = f f f f 1 = = 1 1 1 1 1 = = = = % % % % X X X X % = % % % O O ; # # B w.J.$.&.&.&.&.&.%.[ [ B V z u e e w w s w w w g m B o.[ &.&.&.&.{ { { [ V z e e e w w 6 t $.0.0.q.t.q.t.t.t.t.u.u.t.t.t.t.r.r.r.r.r.r.w.w.0.0.0.0.1.1.1.1.1.1.1.<.<.+.} } B V N N m m V V N N m v g f % o o . X . . .   . o O w B +.<.1.0.0.0.0.1.1.1.1.1.1.1.<.} } } ,.,.,.,.+.#.$.#.#.! b ; @     O . . X   O @ O f $.4.5.1.1.1.1.<.<.<.<.&.+.+.+.+.+.+.O.C C N M k f - = # & % % % % % $ $ $ & $ O v 4.R.1XkXCXVXvXvX5X3X1X1X4X3X2X2X5XcX5XcXnXnXbXkX2X4X4X4XI.3.7.F.7.@.E N #.#.m m #.F.3.W b f f f g f f > s f l l g g g g g l l l M E E E ~ E ! ~ ~ @.@.~ Q b k g j j d g g j s s j j d d d j j s i i i i i i i i i i i i i i i i i i i i i i i i i i i i i i i > > > > > > > > > > i i > i > > ",
"> % % & & & s G h > $   $ & $ $ % # M W @.7.2.3.W g # # r w d l x g w O @ O O   @ $ O # # # # # # O O @ O O @ # r m q # t v v t m m B B O.} O.$.v r ; # @ O   w g g m m t y q q y y e t t t g m t # O                     O @ % @ O $     @ - l B v t Z } 5.I.5.m ; @ O   @ r ; r q w t t Z t q q # ; # @ @ @ @ @ @ @ @ ; ; # @ #   @     O & w g x d 8 d i i i i a d d 9 z w.*X' 0 ' { ` ` ] ` ` ` ` _ _ _ u u 5 7 7 5 + 6 6 + + + + + + 6 q # + + + # * 6 s i i i i i s s i i i i > & i i i i i i i i i i i i i i i i 6 s # g J.<X<X2XkXkX3X3X5X4XXX@X1X4X2X3X4X1X<XoX.XT.U.U.T.T.T.XXoXoXT.U.e.H.U.R.6.4.%.} O.B %.J.@XR.5.$.V z e e g z m m B O.%.O.} B m B O.#.$.$.m m N M b f f - = = = = = % = = f n f = @ ; - f b b b f g f f - - f g g w f g v B O.O.%.<.e.H.H.U..XT.T.U.e.<.+.O.C } <.&.} } %.O.B m t r q r v m W #.8.J.R.R.J.#.m v N W O.#.$.2.F.J.J.F.7.#.! g ; @ ; f b b b k k 1 = = = 1 1 3 = = = % = = % = % X X X X % % @ @ @ O q m %.5.e.1.%.&.[ [ } %.[ [ m t m z t w w w w w w w # w # e z V [ [ o.o.o.;.&.[ [ V z e e d w w # e +.0.0.y.t.q.t.t.t.t.u.u.u.t.t.t.r.r.r.r.r.r.r.q.w.0.0.0.9.1.1.1.1.1.1.<.<.,.} } } B B B V V V B B N m v g w # $ $ o . X X . . X o   O g O.&.<.0.0.0.0.1.1.1.1.1.1.1.} } } } ,.,.,.,.,.#.O.W b f @     o X o . . X   O @   # W $.<.1.1.1.5.1.<.<.<.+.+.+.+.+.+.+.%.! ! ! N M f - ; # ; & % % % % $ % @ @ - M 4.T.<X5XvXVXVXvX5X6X3X5X5X5X5X3X3X5XcXvXbXbXvX5X<XE.E.E.E.7.^ ^ @.@.! N ! @.#.B O.6.L.7.E b f f - f f - # & s f f s s s s f g l l b E E E ~ E W W ~ @.@.~ E l f f j j j g g j j s j g d d d j j i i i i 8 8 8 8 i i i i i i i i i i i i i i i i i i i i i i i i > > > > > > > > > > i i i i > > ",
"% & & & 3 k G h % $ $ % > % % $ & k ~ @.@.@.! @.#.z # + # q r g z M g & @ O O # @ $ @ @ O # & - # # # # # O O O w N g q q q Z m B O.+.%.} O.O.B r w @ @ O   @ w b z g t y q q y t t t m g t t t w O # ;                   $ % @ $ O $ O     - f W m m q C ,.r.8.M ; @ @ O @ f ; w # q q t e q q # # @ @ @ @ @ @ @ @ @ @ ; w # # w O     O O ; w W o.6 d p i j i a i d e 7 [ w.:.) ' ' ` { { ` ` ` ` ` ` ' ) 0 u 7 7 5 6 6 6 6 + + + + + 6 6 q w # # # 8 8 i i i s i i i i i i i i i i i i i i i i i i i i 8 8 i i s s i * 8 d 6 B E.@X2XkX5X2X4X<XXXU.R.XX<X4X<X4X4X<XoXoXoXT.R..XU.U.T.@X@X@XoXoX@X@X@XK.6.$.m z } <.K.@XXXe.4.O.V z e g g m M @.2.4.O.B B B B O.O.O.$.N W E b b f = @ % % = = = % % 3 l k f = - 1 f b N E M v M M k w w f f f f f k v v m B } +.4.H.U.T.H.H.U.H.e.5.<.&.} +.<.<.+.+.&.$.O.B B m v g v q ; v #.2.J.L.6.#.B v t m N N M M v v M N b f r ; @ @ = g k b k f f 1 = 1 = = = - - - 1 1 1 1 % % % & % % @ % ; # w m V w.0.0.&.&.&.&.+.%.%.} o.V m z m g g e r w & # # # # @ # O # w x V [ o.o.o.o.o.[ [ z e e e r s r + e O.5.0.y.t.t.t.t.t.t.t.t.u.u.t.t.t.r.r.r.r.r.r.q.w.0.q.0.0.0.9.1.1.1.1.1.1.<.+.} } C B B B B B B N B N N v g w O O $ . . o X . . . O O # v O.&.1.1.0.0.0.1.&.1.<.} } } } %.+.$.,.#.#.2.@.E w # @     X o o o . . . .   o   O g o.%.+.<.1.5.1.<.<.&.+.+.+.+.+.+.%.#.O.! ! N m v w # # - ; % % @ @ @ @ O ; W 6.U.@X1X5XcXVXVXcX5X5XvXmXkXcXvX5X5X5XcXvXmXcX3X@XE.R.R.W.R.2.M n M M N ! #.#.! $.4.8.F.#.b g 1 = = - 1 - & 1 1 f f f f f f f f f l g E E Q Q E E E ^ ~ ~ Q R l f s g g g g g g j g g g g g g j j s s i i i i i i i i i i 8 8 & & 8 8 8 8 i i i i i i i i i i i i > > & & > > > > i i i i i i i i ",
"& % > s G k 3 % & % % & % % & & = Q *.*.#.#.O.#.O.V t q # + # q q e g w # O O @ @ @ @ @ # & w s # # # # # O O # # g v w q q t V %.&.&.} m m m g w - @ O O   # w g v g t t y y t t t m m m m v r # # ^ ~ = @             o $ @ O O O O O O O w w M v g t C ,.7.,.m ; # @ @ O ; ; w @ # r t q q q q ; # # @ @ @ @ @ @ @ @ ; w r r g O = @ = w O w V *.+ d 8 i i i j p p y u { :.0 ) ) ' ' ` ` ` ` ` ` ` ` _ _ ) _ 7 7 7 6 6 + + + 6 + + + 5 8 6 q + + 6 8 8 i i i i i i i i i i i i i i i i i i i i i i i 8 8 8 i i s > i i i s w 6 O.R.4X2X2X4X<X@XE.I.R.XX<X<X@X@X@XoXXXXXoXoXoX.XY.H.r.T.@X<X<XXX@X@XXX6.$.o.m m %.<.J.@X4XU.4.%.B z t r g v M O.#.$.O.B B B W ! B B O.! ! E b g f = % % % = = = = 1 f k k 1 = - f g b N E N W #.@.N k f f f f k k b v v v m N B +.H..X.XY.H.r.r.e.e.e.1.<.1.5.w.4.&.%.} O.O.O.! v r r f q r v N @.#.#.@.! N v v v v b M b v g - ; ; # @ ; - - 1 f f 1 = = & # = = % % - - - - - 1 1 = 1 & # @ # O # t B 7.K.U.w.0.&.&.{ { [ [ [ [ V V V z t t r s w w w w ; ; ; # # # # # 8 8 z V o.o.o.o.[ V z u e e r r s s 8 e B 5.0.y.y.t.t.t.t.t.t.t.t.u.u.u.u.t.t.r.r.r.r.r.q.0.q.q.0.0.9.1.1.1.1.1.1.1.,.+.%.} C C B B C B B B N N m g f @ O @ o o o X . . . . o   @ v &.1.1.0.0.0.1.&.} } } } C C O.%.+.2.2.#.E b ; O o       X . . . . . .     o o O w N } } +.<.1.1.<.<.+.+.+.+.+.%.+.%.O.O.! C N m M f ; # @ @ @ @ @ @ @ O ; m 7.J.T.oX<X4X5XvXvX5X5XcXbXnXnXmXcX5X4X<X3XcXmXkX<XR.W.W.W.F.F.~ n f v N ~ 2.7.$.%.F.6.2.#.E l f = = ; = = = % % 1 2 f f f f g f f f b k E E Q E E E E W ^ ^ E b f f s s j g g g g j g g g g g g j s s i i i i i i i i i i i i i i i 8 8 8 8 i i i i i i i i i i i i i i & & > > > > i i i i i i i i ",
"> & 3 G k s & $ > % % 1 1 & % $ @ ~ @.#.@.O.! ! B m v t q # @ @ @ # # & # @ @ @ $ % % ; - w f f # # # # # @ @ # O # t r q q t V $.&.%.Z y q q ; ; - @ O O O ; s g g t t t t t t t m m m m N v w   ; *.~ @         O O   O $ O   O O       $ w # b g v t C ! +.! m ; ; @ @ O # ; w @ ; r q r r t w w ; # @ @ @ @ @ @ @ @ ; r w r # @ - % f M # w -.D.d 8 i j i i i 8 9 u [ { { 0 ) ) ) ) _ _ _ ` ` ` ` { _ _ _ _ 0 7 5 5 6 + + + 6 6 + + 5 6 6 6 + + 6 9 9 p p p p i i i i i i i i i i i i i i i i i i i 8 8 8 8 i a < i j s 8 8 6 t #.R.<X4X<X@XoXXXR.T.E.E.E.R.I.I.U.R.T.E.oX@X.XU.H.r.e.U.T.@X3XkX2XXX<.B m m O.&.&.5.@X4XU.<.,.C m g f g v v ! ! ! ! W N N W ! W C ! @.W b f - - # = % % % % = 1 3 k 1 1 = = - f k b N N W #.7.7.2.@.b f - w - f g v b M N N B } 5.U.U..XoXT.Y.U.T.U.r.e.e.H.U.e.1.+.O.%.$.$.#.! N N b f q q q r k b W ! ! ! m m v v b g 2 = @ @ @ @ ; - 2 2 2 f f 1 = = = = ; # % % = = = = = = = - s # # w q Z <.K.oXoX.XK.0.&.[ { [ [ [ [ [ [ V m z t w w f f f f g f f r r w w w e r w w g z M V m V z z z e e w r r w w r 6 m 5.w.r.y.t.t.u.u.t.u.u.u.u.u.u.u.u.u.t.r.r.r.r.r.q.w.w.w.0.9.9.9.1.9.1.1.1.<.,.+.O.} } } } C C C B B B m v f # @ @ . . . . . . . . o     @ B } &.<.5.1.&.} } [ B B C C O.%.,.,.@.N ; %         o . . . . . . .         X o # g V } +.+.1.<.<.&.+.} } } } %.O.O.! ! ! C C m v v r ; # # ; = % @ # w B $.J.J.K..X1X5X7X5X3X4X5XcXbXbXvXcX5X1X<X<X3XcX3X4XE.J.F.F.F.2.#.N v q r N 2.3.6.$.! 7.$.! N b f - % % % = = % $ % = 1 - f f f g f f g l l E R E M b M E W ^ Q R g f f w s f f g g g f f f g g g g f s i i s s i i i i i i i i i i i i > > > > > > > > > > > > > > > > i i & & > > > > i i i i i i i i ",
"& k T G s & % > % % % % % $ % % ; #.! ! %.%.%.N v t v m m m t q ; @   @ O @ % $ $ # 1 f f f w - & & # & & # @ # # O q r ; q t m %.%.[ t q q q # @ ; @ O O O w g t t t g Z Z Z Z t m m m m M g #   k *.b   O @ @   @ % @ O O     O         $ # O f f v t C C #.,.v ; ; # @   @ # r @ # r w t t v r w # @ @ @ @ @ @ @ @ # ; r w w f -   - k f w w W d 8 d 8 i i i i p 9 [ &.{ 0 0 _ _ _ ' ) 0 ) ' ` ` { { _ _ _ [ 0 9 5 6 + + + + 8 6 + + + 6 + + + 6 9 d 9 p p p p i i i i i i i i i i i i i i i i i i i i 8 8 i i i i j 8 d s d w g q *.@X@X@XXXXXXXU.U.H.J.8.6.,.,.7.e.U.R.oX<X1XoX.XY.r.5.r.XX4X2X@XW.$.m m O.$.7.4.e.XX@XU.e.<.O.N g g k f f N m M N N M M N W W ! O.! N r ; # # # 1 % % % % = 1 k 1 = % % 1 f f b v M v W 2.6.J.J.6.! g ; - - f f f v b N N B V 4.T..X@X1X<XoXXXT.U.H.r.H.H.e.1.<.&.$.%.O.O.@.@.! B N M f ; ; ; - f b ! *.#.! W N b f f = % - - ; = - f f - f f 1 = # = = = ; = = = = = = - @ @ # ; # O t $.r..X@X6XoX*Xr.:.{ [ [ { [ [ [ [ m m m m m m z v g g v m m m v g g g g t w w e g w w g g g z z t e w e w r w w r w + z 1.w.r.t.t.u.u.u.u.u.u.u.u.u.u.u.u.u.u.t.t.r.r.r.r.r.w.w.w.0.9.9.9.9.9.1.1.1.<.,.+.} } } } } } } C } B N m g # @ @ . . . . . . . . o O @ @ q Z } %.&.<.&.} B V m B C ! %.#.#.W f @   O O       o . : X . . . .         o o % f m } } +.<.<.<.&.} } } } } O.O.O.! C ! C C N v v v f r r f v f ; r B &.4.e.H.H..X1X6X6X6X6XvXcXcXcXkX3X3X3X4X<X<X3XkX<XE.R.I.F.7.2.! N n n ; q M @.2.7.7.O.! M M M f - = % % % % % % $ % = - - f g g g f f g l l E M M k g b M E Q W b f - 1 f w f f f f f s f f f f f f s s i i s s i i i i i i i i i > > > i i i i > > > > & & & & > > > > i i & & i i > > > i i i i i i i ",
"k h 3 > > > > > : : : : : % % % b E O.O.B m Z m N N N N m m m N b ; @ O @ O @ % % # b E 1 ; k f 1 1 & & # # + + # # # + q w t m B m t Z z t q q @ # O O O # r r g m m t m m Z Z V m m m N M w   O ! *.w # @   @   @ f O O   O     O O     $ @ O w g w r O.J.E.R.7.B r q w ; ; ; f @ @ r r t Z t r ; @ O @ @ @ @ @ @ # # # w w # ; # @ % @ O @ r M s l s s i i i 9 u 0 w.:.{ 0 ) { ` ' ' _ 0 0 _ { | { { ` _ { _ 5 5 + + + + + 6 8 # O O O + + + 8 p p d p p p i i i i i i i i i s d d d d s s i i i i i i i i i i i i i i i i i 8 w 8 x J.&X@X@XE.R.U.H.5.+.,.%.! N ! $.7.8.U.@X@X<XoXoXT.U.e.U.@X@XW.$.B B B $.$.4.w.H.E.T.J.4.4.$.! m g b l b b v v v v v v M N N B W M k w ; ; # # # 1 = % = 1 f k 1 % % = 1 f g k v v v m O.7.J.I.U.8.W v r ; f g b b N B B B } %.K.oX@X4X4X@XT.I.K.J.6.6.6.7.<.&.4.4.$.%.O.O.! N m N N v - ; = - - n ^ @.@.N g ; - - = # = f w - - f f f f 1 = = = = = = @ = = @ = 1 % & # # # # q m $.r.oXOX1X6X@X|.y.&.{ [ [ [ [ [ V V V z V [ } [ V V B V V V V } } } [ B V V m z z g g g r w r s r w w w w w w r s s s w + e 5.0.r.t.t.u.u.[.[.u.u.u.u.u.u.u.u.u.t.r.r.t.r.r.r.e.w.w.r.w.0.9.9.q.9.9.1.1.1.,.+.} } } } } } } } O.} B B b - @ O $ $ $ $ X X X X $ $ O @   O # w v m O.#.! m m B B ! #.~ f % @ @ O ; t g # O   $ . . . . . .           o   # g B O.+.<.<.<.+.%.} } } } C O.O.! ! C C N N M b v v ! 2.$.W z g B &.<.w.r.t.Y.<X5XvX5X3X5XvX3X5XkXcX5X3X3X3X1X<X4X4X@XR.I.W.J.3.2.N v f 2 2 ; M ~ 7.J.D.~ N v M M 2 @ = = % % = @ @ @ % = - g b b g g b b g T b b b R l g b b Q ^ E l f 1 1 - - - f g f f f f f f f f f - > 8 i i i > & & & & & & & & & & & > > > > > > > > > > > > > > > > > > > > > > > > > > , , i i i i ",
"3 > % $ % % % % % % : : % % % % E E B m V m Z m m m m m m m N ! O.M ; @ O     @ = k T = @ - f l s & # & # # + + # # + # e t t t t t m V m m g r # @ # O @ # w g m m m m V V B B B B N N N b ; O @ W ! # O O O # f b T O O   O O O O O O   $ @   w b g N H.4X4XE.8.,.O.! ! B N ! E ; O ; r g m t g ; @ O @ O @ @ @ @ @ @ # w w ; # @ @ O @ @ @ w # =.=.w + i i i p 5 _ y.{ ) 0 ' ` ` ` _ 0 u u u _ ' { | _ ) ' _ 5 + + + + + 5 6 6 + O O O + + 6 9 p p p p p i i i i i i d s s d d d d d i i i i i i i 8 i i i i i i i i i i i i s * 8 d N J.@X@XoXE.E.U.e.5.+.B N N B W B B $.6.J.T.@X1X@X.XU.r.U.I.6.B t m O.#.&.%.$.6.H.8.<.,.4.$.O.M g g k l b b b b k v v v M m M M b g - - - 1 1 1 1 = = = f k 2 - % % - 2 f f g v v v M B 7.U.E.E.W.7.! v f g k b N ! #.$.O.O.B 4.J.H.E.E.J.4.#.$.O.B B B B B W W B N N B B N N v M M b f 1 = ; ; r N ~ #.^ M f ; - # 1 1 1 - - 1 1 1 3 3 = % = = = = = = ; = = 1 ; @ # # + z $.w.|.&X&X1X>XOXOX|.t.:.{ { [ [ [ [ [ V m m V [ %.&.&.%.%.%.} } } } %.%.%.%.[ [ B B V m m m v g f w w w & - & ; w w r r s s r # t <.w.r.t.t.t.i.[.[.[.[.u.u.u.u.u.u.t.t.r.r.t.u.u.u.r.r.r.r.r.w.0.9.9.9.1.1.1.1.<.+.+.} } } O.O.O.O.O.} C B M f @ O $ $ $ $ X X X X $ $ $ O @ @     @ # - f v M m M W v b f @   @ @ ; $.J.7.B w O   $ $ . . . .       . . o   @ r m } %.&.&.&.+.} } } } C B O.! C C C C N M M v v v B ,.$.B m o.$.5.w.r.Y.Y.oX2X5XvXvX5X5XcX3X5X5XcXvXcXcX5X4X4X4X@XE.J.8.F.7.3.#.n f 2 2 2 ; M ~ 3.F.2.N v v v f - @ = = % % % % @ % = - - f b b b k b b g b b b l b l g k b ^ ~ R k f 1 1 - - - f f f f f f f f f f s 1 & i i i i & & & & & & & & & & & & > > > > > > > > > > > > > > > > > > > > > > > > > > > , i i i i ",
"% % $ $ % % % % & & % % % % & # W N m m V m v v v t t g m m N C ! ^ M g ; @ @ - f f f @ = - f D.T f - s & # # # # # w t g t w # # q v m B V M g # @ # @ @ # w v M m M m B B W B N N N M b g w # g W B t z m m m W ^ Q @ O O O O O O O O   $ O   @ @.@.*.6.H.8.6.4.2.#.@.! N M E =.b   @ r v m m r ; @ O @ O @ # # @ @ @ @ ; r ; @ @ @ O   @ ; w w @.*.w s 8 6 d 9 u :.y._ 0 _ { ` ` ` _ u [ ' 0 _ _ { ' _ _ _ 0 5 + + + 5 5 5 6 # O O O O + # w d p p p p p p p s s d d d d d d d d d d p p p p i i i i i i i i i i i i i i i i s & s w + B K.@X@XXXT.H.8.4.O.O.N M m m v t m B %.6.T.<X1XoXT.H.e.7.%.v t B %.$.$.O.%.<.4.%.} %.4.7.$.N g f f k g g g g g g k k g g g v k f f f 1 1 - 1 = = = 2 k k 1 = = 1 1 1 f f g v g v v m O.6.U.@X@XI.2.! f r k b ! #.$.,.+.%.Z N C O.#.#.W M g g r w w w r g g g v v v v M b b v v g g f 1 = % @ ; f E #.#.^ M f = = = 2 1 1 1 1 1 = = = 3 3 1 = = = = 1 = - # # ; ; g V $.r..XoX@X6X@XOXOX|.t.0.:.&.[ [ [ [ [ [ [ [ V [ %.&.&.1.1.&.&.&.&.&.&.&.&.&.&.&.%.%.} } } B B m m g r w w w & & & - ; w r r s s r q q } 0.0.y.q.t.i.[.[.[.[.[.u.u.u.u.u.u.Y.u.u.r.Y.Y.Y.u.r.r.r.r.r.q.9.9.9.9.1.1.1.<.,.+.+.} +.+.+.+.+.+.O.} B M f %   $ $ $ $ X X X X $ $ $ O O @ @       @ @ @ - - b b ; -   @   @ ! J.I.H.H.5.B q @ @ $ $ . . . . . . . . .   O # g B O.+.+.%.+.} } } B B B B B C C C N N M b n v v v O.$.} B %.4.e.U.Y.T..X1X2X5XvXnXmXvXcX5X3X5XcXvXcXcX3X<X4XE.I.J.7.,.2.W ^ ^ v - - 2 2 f N W ~ ~ W f f f f - ; @ = = % @ % % = % = - - g b E M k b b g g g l l b g f g R ~ ~ R f 1 1 1 = = - f g f f 2 f f f f 1 1 - & & & & & & & & & & & & & & & % & & & & & & & & & & & & & & & & & & & & & & & & > > > > > > > i i ",
"% % % % > > > % > & & % % % & # b v g z B m Z r t t t z t t v N M ! ! N v f f b g # # @ - # b $X/ k - f - & # # w m B m t r # # @ # q g m B N g ; # # O @ # ; v M v M N W W W N g g k s f f w w W *.4.$.+.+.8.K.N R R $ O O O O O O O O O @ O   k F.2.#.@.#.@.7.4.2.#.#.@.! W E W b O ; r t N N w # # # @ @ @ # - # @ # ; r r ; @ @ O     @ - ; ; *.D.8 6 w d 5 7 :.K. .) ' :.{ { ` _ _ _ [ { ' _ _ { _ _ ' 0 5 5 + + 9 9 6 6 8 + O O O O + 8 d d d p p p p d d d d d d d d d d d d d d d p p p s i i i i i i i i i i i i i i i 8 i s * w w O.@X<X<XU.e.<.,.O.O.N m v v g g g g m C 8.R.<X@XoXT.8.<.B Z B %.4.&.$.$.%.%.%.O.O.%.6.H.F.O.f f f f f f f f f f g g f f f g f f f f = - = = = = 1 f n f = % = 1 1 - f f f k v m m m C %.5.XX<XR.7.! r q f N ! #.4.7.4.4.O.B m v v t g w ; f - - f - ; f f f f f f f f g g f f 1 1 1 1 = - # # - b W =.=.~ T f 1 - 1 1 1 = = = = = = = 1 = % 1 = = = # - & 6 q m 5.K..X&X%X&XOX@XOXOX|.y.:.&.&.[ [ [ [ [ [ V [ [ [ %.&.&.0.w.w.0.&.&.&.&.&.&.&.&.&.&.&.%.%.} } } B m m m g r r w - & & - - w w s s s w 6 6 V 5.0.r.q.i.i.u.[.[.[.[.u.u.u.u.u.u.u.u.u.U.Y.Y.Y.Y.r.r.r.r.r.q.q.9.9.9.9.1.1.1.<.+.+.+.+.+.+.+.+.%.+.} C m f = O $ $ $ $ X X X X $ $ $ O   o $ $ o o o o $ o   % ; O O     r 8.E.T.T.Y.r.r.<.O.g ; @ O   o . . . . . . .     @ w m B O.%.O.} } } B B B B N N N B C N N M N v v v t m O.} &.<.w.U.oXoXoXoXoXoX1XcXVXbXvXcXcX5XcXmXcXcX5X4X@X@XI.F.7.%.! ! v N N v f f f v N W M v v g f f 2 - = = @ = = % o = = = % = - - k M M b b b b g f f g l b g f g R ~ ^ b f 1 1 1 = = 2 g g f f f f f f f 1 1 & & & & & & & & & & & & & & & & % % & & & & & & & & & & & & & & & & & & & & & & & & > > > > > > i i ",
"% % & & % % % % : % % % % % % % b b g z B B N m Z t t t t t v m N N N N E N M b w # ; @ ; - T (.~ k 1 1 - w ; # W O.N t # # @ @ @ O @ # r g g w ; # @ # # ; q q w w w w r g s & - - - - - - w f ! 6.4.U.e.Z m m # # # O O O O + O O O   O @ @   w L.3.@.W N v q q w w w ; ; ; ; @ ;   @ r g N N w ; # @ @ @ @ - g ; # @ @ ; ; ; @ O     @ f - O b 7.M & 8 9 6 7 0 t.y.` 0 _ :.` { _ _ ' [ { { { _ ) _ u _ [ 7 5 5 5 6 6 9 6 6 5 + + + O + 8 d d d d d d d d d d d d d d d p p p p p d d d d d d s s i i i i i i i 8 8 8 8 8 8 i 8 s 8 * g # r 7.@X2XE.H.,.} C N B B N N M v g r t N O.7.@X4X@XE.U.J.$.N O.4.6.J.J.7.O.} O.O.O.O.J.E.W.O.r f f g g g f f f f f f w - - - f f 1 - = = = = = 1 f n f 1 - = = = 1 1 - f b M W O.O.O.} B %.J.E.I.@.v r r f f M ! 7.J.J.J.7.%.M f ; 2 f - - 1 - 1 f f b k f - - - ; ; - - f f - 1 - 1 = = & # & # = f E ~ ~ Q b k 2 2 2 2 3 3 : = = = 1 f = % & w & w s g z %.e..XoXOXOXOXOXOXOXOXOX|.y.:.&.{ [ [ V [ [ V z V V [ &.&.&.1.0.w.r.0.0.0.0.0.0.1.1.&.&.&.&.&.%.%.} } } B m m v g g s w & # # - - w w w w & w q z 1.0.y.q.q.t.u.[.[.[.[.[.u.u.u.u.u.u.u.u.u.u.Y.Y.Y.U.u.r.u.t.r.r.0.9.w.w.1.1.1.1.,.,.+.+.+.+.+.+.+.+.} } N l - O $ $ $ $ X X X X X X X X . o o o o o X .   X $ %   @   @ #.U.1X<X>X XY.Y.u.r.w.O.m w # O     . . . . . . X     ; f m B O.} } } } B B V m N N N N N N m M N b v v m V } &.w.e.T.@X<X@XXXY.R.XX1XvXnXcXkX3XcXcXvXmXkX3X3X4X@XE.I.I.8.! ! N ! ^ N v b b M N E W E g 2 2 - ; f = @ @ @ % % % = % % = % = 1 f E E E b b M b f 2 f f g b f f g E Q W b 1 = & 1 = = f g g f f f 1 f f 3 1 = & # & & & & & & & & & & > > & & % % & & & & & & & & & & & & & & & & & & & & & & & & > > > > > > > > ",
"% % & & % % % % : : % % & % % % f k v z m B m m t y y y q q r t N N W ! N M g w ; @ # # # - k D.=.R k 1 # - - w N b w # @ O     O O O # # # # # # # @ r g w r r g w w & - s & # & & & & # # - w B C <.} H.T.Z t # O O O O O O + O O   O O @ @   s 7.E v w ; ; @ @ @ @ @ @ @ @ @   O   O k v N v r ; # @ @ @ # f f @ # # @ ; w w # @ % = k k @ @ D.(.& d e 6 y 5 &.y.| ) 0 ) ' _ _ _ _ _ [ { { { | _ _ u u z y 5 5 5 6 6 6 5 5 + + + + + 6 d d d d d d d p p p p d d d d d p p p p p d d j d d d d s s i i i i i i 8 8 8 8 8 i i i i 8 8 s & # g $.@X4XXX4.C V m B B W W N v v v g m m O.R.4X4XXXE.T.6.%.4.4.6.w.J.&.B V B B } $.J.E.W.O.w w - g g g f f 1 1 1 1 1 1 - 1 f 1 - = = = = = 1 f k b 2 1 = - = 1 1 2 f g b E O.#.$.$.B B B } 7.F.! w f f g g f M O.2.4.7.4.$.N v ; ; w - - - - f b b b g - = = ; = = = = - 1 = = = = = = & & & & & & 1 k T E b k k 2 2 1 3 1 = = = = - - w & # w w e o.7.K..X.XOXOXOXOXOXOXOXOX*Xt.:.:.{ { [ [ [ V V V z z z [ { &.0.0.0.0.r.r.r.0.0.0.0.0.0.0.0.0.1.1.&.&.+.%.} } B V m m g t e s f & # # & w w w w ; w 6 u <.0.r.q.q.t.u.[.[.[.[.[.u.u.u.u.u.u.u.u.u.u.Y.Y.Y.Y.U.I.r.t.r.r.0.w.w.w.1.1.<.<.,.,.+.+.+.+.+.+.+.+.} } B l - @ @ $ $ $ X X X X X X X X . . . . X . . . . $   O @ O O U.4X1X6X6X>X X Xu.Y.u.r.5.O.m t #           . . . X     @ w b N ! B B B B B B V m m N N N N m m v v n v v B [ +.5.H.T.2X5X4X<XoXI.T.1X5XmXcX3X3X3XcXcXcXcX3X3X2X<X@XR.F.I.2.N @.! ! ! M b N M N W W E b f - - = ; = @ O @ % % % % = % = = % 1 g b E E M b b b b f f f f f k f f k E W b f 1 = & 1 = = f g g f f f 1 f f 3 - # % # & & & & & & & & & & & & & & % % & & & & & & & & & & & & & & & & & & & & & & & & > > > > > > > > ",
": : > > > > > > : : & & & & % % # f v g t t t q y q 6 q # # ; ; t v m N g r ; # w ; ; # & # f =.D.=.Q f = = - f f w # # # # @ @ @ O @ # O @ # ; ; # ; f r ; ; r v g w # # & & & & > & & # # f v H.cXoXe.U.U.O.O # O $   O O O $ O O   O O O O     ;   O ; ; @ @ @ O O O @ @ @ @       @ f b m v g ; @ O @ @ ; f ; @ @ ; ; ; ; ; ; # f f b b @ f D.l w 6 + e 5 w.:.{ 0 ) ' ) ) 0 0 _ _ ' ' | | | { _ _ u u 7 7 5 5 6 6 6 5 + + + + O + 8 d d d d d d d d p p p p d d d d d d d d d d d j d d p p d d d d d i i i i 8 8 8 8 i i i s i i i & 8 ; # w D.4X@XH.+.B B m m M N N v k v m N m B 7.XX@X@XI.J.2.$.4.6.$.} o.V m m V B $.6.8.U.J.! g w - g g f f f 1 1 1 1 1 1 1 1 1 1 1 = = = - 1 f n n k 2 - = = = 1 2 f b b M W O.@.$.,.$.%.C N O.4.! r b l g f - f f g v N ^ ^ W b g g g g l g f g b b b - # % = = = = 1 1 1 - = = 1 1 1 = & % % % % % O & f k k k f 2 - - - = ; ; ; ; w # y 6 y [ $.e..X.X.XOX*XOXOXOXOXOXOXOX].:.:.&.{ [ [ [ [ V V m x z z V } &.0.q.q.q.q.r.y.y.y.0.q.q.q.0.0.0.0.0.1.1.&.&.%.%.} } B V m v g g k g f & # # ; - - & - w # t %.0.q.q.q.y.u.[.[.[.[.[.u.u.u.u.i.u.u.u.Y.Y.Y.Y.Y.Y.U.I.t.t.t.q.0.9.1.5.1.1.1.<.,.+.+.+.} } +.+.} } } } B b w @ @ $ $ $ X X X X X X X X . . . . . . . . %   % O   #.@X2X1X6X6X>X>X>X X|.[.u.t.r.<.} m w O       . . . . X o     # k M B B V B B B B V m m m m M M m m m v n N B } &.w.H.Y.@X5X5X5XcXkX1X3XcXvXvX5X4X3XkXcXcXcXkX3X4X<XR.R.8.,.7.#.B ! ! N W v N E v v E E b f - - 1 1 = @ o @ @ % % % % = = % % ; 2 b b E E E b b E b g f f f f f f f n W E b - 1 = = 1 - 1 f k f f 2 2 2 2 f 3 = % % # & & & & > > & & & & & & & & % % & & & & # # # # & & & & & & & & & & & & # # # & & & & & & & & & ",
"> > > > > > > > % % % & & & % % # l M g w e q q y y y y y q ; ; # # ; q # # # ; r g w # & # k ~ v.=./ T k 1 = - & & # O @ O O   O   O @ O @ ; w r # w w # @ O w v k w # & & & > > > & & # w b W 3XFX3X9.5.,.v @ O $ %   O O O $ O O O O   O O       O   O ; @ # O O O @ @ @ @ @         @ g v m v ; @ O @ # ; ; @ @ @ - # @ @ @ @   @ @ f b @ b =.6 6 e 7 7 w.:.' 0 ) ' ` ) ) 0 0 u _ | | | | | | 0 _ _ u 6 6 + 6 5 6 6 5 + + + + O + p j d d d d d d d d d d d j j j j d d d d p p d d d d p p p d d d d d i i i 8 8 8 i i i s j i i i & i s & 8 W R.@X@X8.B N N v g M N M b M m N N B m 4.J.U.J.$.O.$.J.J.4.V m m m t V O.$.<.4.e.6.O.N f - f f 2 f f 1 1 1 1 1 1 1 1 1 1 = & ; = 1 f k b b f 1 - = = - 1 2 f b v M N O.#.$.4.5.4.+.N B O.m r f f 1 - f g f f f f v b f - 2 g b E E N v v v f f ; % # = = ; ; f f 1 1 & = 1 1 1 1 1 1 % % % % % % & # - - ; ; # # # # # # # 6 + y 1.w.r.K.K..XOXOXOXOXOXOXOXOXOX*X*X].:.{ { [ [ [ [ [ V V z g g z z } &.0.0.q.r.q.q.r.t.y.r.q.r.r.r.q.0.0.0.0.1.1.&.&.&.+.+.} } B B m m g g s s f & # # # # # & - # w [ 1.q.q.q.q.t.u.[.[.[.[.u.u.u.u.u.u.u.Y.u.Y.Y.Y.u.u.u.t.u.u.t.q.9.1.1.1.1.1.1.<.,.+.+.+.} } } +.} } } } W b - % @ $ $ $ X X X X X $ $ X . X . . . . . .   @ O # H.4X3X1X6X6X6X,X,X>XOX X[.u.u.r.1.+.B m @ @ O   . . . . . X o   O f l v N N V m B B B m m m m m m M M M M M ! %.%.w.U.Y.Y.oX@X1XvXVXVXVXnXVXmXkX5X3XcXmXcXcX3X<X4X@XI.3.,.! N %.%.m m N v N N O.@.M f N b f - 2 1 1 1 = o @ = % % % % % % % = % - 2 g b b E E E E W E b f f f 2 f f f n E E b 1 1 = = 1 1 1 f n f f 2 2 2 2 f 3 # % % & & & & & > > > > & & & & & & & & & & # # # # # # & & & & & & & & & & & & # & & # & & & & & & & & ",
"> > > > > > > > % % % % & % % % % 1 R v w q 6 e z [ &.U.@X4.# q w q w ; # w q q r r f & # # s ~ v.v.=./ Q k 3 3 1 %     O     O @ O O O @ @ # r w g M k   O @ @ - b b 1 & & > > > > $ % w v N E.FXDXE.5.,.B ;   @ @ @ @ O O O O O O O O   O             @ # # @ @ @ @ @ @ @             @ r t m t ; @ @ @ ; f - @ - - ; @ O O O O   @   2 g ; ! -.6 e 5 5 :.w.' ) ) ' ` ` ` ) 0 0 0 u &.{ | | { | 0 { [ 7 6 + + 6 6 5 + O O O O O * i d d d d p p p d d d d d d p p p p p p p p p d d d d d p p d d d d i i 8 8 8 8 8 8 i i i i i i i i i i i i s 8 # R.@X@X<.B Z m v g v b b b b M m m B O.8.T.6.%.C $.4.$.W m B m g m O.%.&.4.5.5.7.<.N w - - 2 2 2 1 = 1 3 3 1 = & = = = = = & ; 1 k b k f f 1 - ; ; 1 - 2 g v v M ! O.%.4.H.J.U.6.$.O.N v g g f - - f f f f f f f ; # @ ; = g v n n M M b f ; = = = = = & & = 1 3 1 1 1 1 2 f 2 1 1 1 % % % % % @ # # 6 # # 6 6 y z [ } 0.K.t.K.|.|.|.|.|.|.|.OXOXOXOXOXOXOXOX].y.:.{ { [ [ [ V V V V z d g g z [ &.0.0.r.r.r.r.y.y.q.r.r.r.r.r.r.q.r.0.0.0.0.1.1.&.<.+.} } } } } V m g g g g s f & & & & & & @ @ ; B &.0.q.y.q.t.t.t.[.[.[.[.[.[.[.u.u.u.u.u.u.u.u.u.u.u.t.t.t.r.r.9.9.1.1.1.1.<.,.,.,.} } +.+.+.} +.+.+.} W N - O $ $ $ $ $ $ $ $ $ $ $ $ . $ . $ %   O   O O O.oX6X1X6X1X6X6X6X,X,X>X>XOX[.u.u.r.9.<.O.N b f @     . . . .   . $   @ f k v m m m m m N N M M m v v b M M N N ! +.4.r.Y.Y.Y.Y..X5XkX5XbXnXnXbXcXcXcXcXcXcXkX3X4X<X<XR.8.2.^ M N F.L.O.t B W O.@.#.W E W ^ b g f - 1 = = = X % % = % % ; ; ; ; ; # - f g b E E W W W E R b f f f 2 g f g b E b f 1 1 1 1 1 1 f k k k f f 2 - 2 1 = % % % & & & & & > > > > & & & & & & & & & & & & & & & & & & & & & & & & 8 8 & & & & & & & & & & & & & > ",
"> > > > > > > > % % % % & % % % % & l M r + 6 u [ { r.oXU.O.t # q ; w w & r ; ; w r g r # & s R =.=.v.=./ T h 3 > % O             @ @ # # # # ; w f k f @ @ @ ; @ f k s & > > > > > & @ s t O.VXDXcX4.v ! N ; @ @ @ @ @ @ @ O   O O O O   O             @ % @ @ @ @ @ @ $ $ @ $ O     O w m m t g w # @ @ ; ; # = = @ @               @ = @ ; W @.e 5 5 u { ' ) ) ' ` ] ` ` ) 0 0 5 7 _ | { | { _ _ [ u 5 6 + + 6 5 + + + O O O * i d d d d d p p p d d d d d d p p p p p p p p p d d d d d d d d d p p p i i i i i i i i i i i i i s s i i s s f s w W E.E.U.<.B m m g v b b b b v m m V O.4.H.J.,.C C B m M N B B m m B B O.&.5.5.7.,.m w - f - 2 1 - = - 3 3 1 = & = = = = = = 1 f b b g f f 1 = ; ; = = - f v v N O.O.,.H.XXU.XXU.e.5.,.O.N b b f w - f b W ^ ! E b r # @ @ ; - - 2 f 2 1 - = = = = = = % % % = 1 1 1 1 1 1 - - 2 f 1 = # # # & # # + 6 7 6 &.&.w.w.t.K.*X|.|.|.|.|.|.|.*X*XOXOXOXOXOXOXOX*X*Xy. .{ { [ [ [ V V z m z g d g z B %.&.0.r.t.y.r.r.y.q.r.r.r.r.r.r.r.r.r.r.w.r.w.0.1.1.<.+.+.} } } } B m v g g g f f - # # # # # % @ # v O.<.0.r.y.t.t.t.u.[.[.[.[.[.[.u.u.u.u.u.u.Y.u.Y.Y.Y.u.t.t.r.r.q.9.1.1.1.<.,.,.,.,.+.+.+.+.} } +.+.+.O.W M ; O @ @ $ $ $ $ $ $ $ $ $ $ $ $ %     #   # q e.6X5X1X6X6X>X,X,X6X,X,X>X>XOX Xu.u.t.9.1.+.B N g ; @   o . . . . . o   @ - g v v v m M M M M M M M m v v M M N ! #.$.7.e.U.Y.|.oXoXoX@X3XnXVXbXcXkX3XkX3X4X4X4X3X4X<XE.F.2.@.C b B F.J.! m O.#.#.*.7.3.W M E b g f = - = = & % % % = ; ; = = ; ; ; ; - f b b b M E E E E b g f f f f g f g b E b f 1 1 1 1 1 1 f k k k f 2 2 - 1 1 1 % % % & & & & & & & & & & & & & & & & & & & & & & & & & > > i i > & & 8 8 8 8 & & & & & & & & & & & > > ",
"> > > > > > > > & & % % & % % % % % f R z 6 7 _ { { K.@X.X4.O.z t r g d r g q # q e g g & # w k ~ =.=./ / / T h > > & $           @ # - ; ; q w ; w w ; @ @ @ ; @ - 1 1 & : > > > & & - r B E.DXnX8.B #.=.g @ @ @ @ @ @ @ @ O   O O O O   O             O @ @ @ @ @ @ @ @ $ $ $       # v B N r w # @ @ @ # ; @ ; % O                     @ M R.9 5 7 u { ' ) ) ` ` ` ` ` ) ) ) 0 7 7 0 | { | _ 0 _ u 7 + + + + 6 + + + + O O + i d d i p d d p p p p p i i s p p p p p p p p p d d d d d d d d p p p p d p p p i i d i p i d d s s d d s s s s & j w w F.R.XXe.$.m g v v b M b b m m m m B $.e.J.<.B m m g m W O.O.W N B B O.$.+.<.7.<.m w - - - 2 1 - ; = 1 1 1 = & & - - - - f g b T b g 2 2 1 1 = = - 1 f f f v N C C 4.U.<X@X1XE.U.U.I.8.#.! N b f - q M @.2.,.2.@.v r 2 - = % % % = = = = = = = = = = % % @ = = = = ; ; ; # ; ; - - - ; w 8 d M V [ &.1.w.r.K.*X|.OX|.*X*XOXOXOXOXOXOXOXOXOX|.|.OX*X*X*X].y.:.{ { [ [ [ [ V z x z g e t g V %.&.5.w.t.t.y.q.r.r.q.q.r.r.r.r.r.r.r.r.r.r.r.r.0.1.1.1.<.+.} +.+.O.} m m v g g g f r # # @ $ % O @ @ ; N $.1.q.q.y.q.t.u.[.[.[.[.[.[.u.u.u.u.u.u.u.u.u.u.Y.Y.u.u.r.r.r.9.1.1.<.<.,.,.,.,.+.+.+.+.+.+.+.+.+.O.W g @ @ @ @ $ $ $ $ $ $ $ $ $ $ . . % O   O @ %.oX5XvX6X6X,X,X>X,X,X,X,X,X>X>X>X X Xu.u.q.1.<.} ! N g - @   o . X X % O O @ # f f g v b v m m m m m m m m M N N C %.2.4.w.H.U.Y.Y.oX6X5X3XvXVXnXnXcXkX3X3X4X<X<X<X<XE.W.F.2.! W N M O.F.6.$.4.4.$.#.2.7.#.E b b b f 1 = 1 = % % % % % = = = = = - - - - f f b b k b b b b b b g f f f g f f b N T k 2 - 1 1 1 1 1 f k k k f 1 1 1 1 1 % % % & & & & & & & & & & 8 i i & & & & & & & & & & & i i i i i i i 8 8 8 8 8 8 8 & & & & & & & & & & i i ",
"> > > > > > > > & & & % % % % % % % > M x 7 u ' { :.].OXoXr.&.[ m m M g g g q # # w g g 8 & 8 w b Q Q / / / / G 3 s > >           O # ; ; w r v & # # @ @ @ @ @ @ % % % % % > >   > # @ @ m <XnXE.5.F.3.b ; %   @ @ @ @ @ @ O   O O O O   O               @ @ @ @ @ @     o @ $     O r m N N w # @ O @ @ # ; @ @ @     O       @         # o.-.7 7 u [ _ ) ' ] ] ` ) ` ` _ _ _ 0 0 7 7 [ { [ 0 0 [ 0 5 + + # + + + + + O O O 8 d s i s p d d p p p p p i i i i p p p p p p p p d d d p p p d d p p p p d d d d d p d d p p d d d d j d d s s s j d * 8 g 4.K.U.7.B g v v b M b b M m m m B $.w.e.<.} V V g m W @.! N m N B } %.1.w.e.7.! g w - - 2 1 - ; = - - 1 = & & 1 1 - - f b T E b f 1 1 = = = = 2 f g v v m m N V ,.I.@X4X<XT.T.XXE.H.8.#.@.E v ; ; M #.2.2.6.2.v f v b k 1 % $ = % 1 3 = = = = = = = % % # % @ @ @ @ # # # # # r r g m o.;.&.1.0.r.K.K.*X*X|.|.OXOXOXOXOXOXOXOXOXOXOXOX|.[.[.*X*X].y.:.0.&.{ { [ [ [ [ V z e e e e e z } &.5.0.y.t.t.q.q.y.r.0.0.r.r.q.q.w.r.r.r.w.w.w.r.w.5.1.1.<.+.} +.+.%.} V m v g g g g r ; # # % O O O O @ g %.<.w.y.y.y.t.u.[.[.[.[.[.[.[.u.u.u.u.u.u.u.u.u.Y.Y.u.u.r.r.r.q.5.1.<.,.,.+.,.,.,.,.} +.+.+.+.+.+.O.W f O O $ $ $ $ $ $ $ $ $ $ $ $ : $   @ @ t 5.1XvXvX7X6X7X,X>X,X>X,X,X,X,X,X>X>XOX Xu.u.r.9.1.+.O.! M f - @   o . X .   O   @ - r f g v v v m m m m V V B B B C O.,.7.7.5.e.H.K.t.T.6XvX5XcXnXmXmXcXkX3X4X@XE.<XE.E.I.F.3.#.! N v N 2.F.4.6.J.2.O.#.O.B M M M l l f 1 = = & % % % % = = = = = = - = - - f l b b g b b b b b l f f 1 f l f f b E b g 2 - 1 1 1 1 1 f k k f f 1 1 1 1 1 % % & & & & & & & > > > i 8 8 i i 8 & & & & & & & & & i i s s s s s i i 8 8 8 8 8 8 & & & & & & & & & i i ",
"> > > > > > > > & & & % % % % & % % % j x 0 ' ' ] :.].OXOXw.&.o.B V V V m z q 6 q e t g e 6 8 & s g H R R R Q R k i > > % . . . $ % 1 - w w w w # # @ @ @ @ @ @ ; # % % % % % % 1 % % @ g 2.I.@XR.I.7.f # @ @ @ @ @ @ @ @ O @ $ O O O O                   O @ @ @ O O     o $ % O O # M O.B g # @ @ @ # # @ O                         @ $ x R.7 7 u { { ) ) ' ` ] ] ) ) ) _ ` _ _ u 0 0 _ | _ 7 0 [ 7 + 6 9 # + O + + O O # & w i i i i i i p p p p s s i i i i p p p d d d d d j d d p j j j d d d d d d d d d p p p d d d d d j d d d d s s i j i i 8 8 e -.J.J.$.B m g v M v N M M m z M O.5.H.5.+.} V m g M W W m m B B O.%.<.w.e.7.O.g w - - = = = - 1 1 1 1 - = = - - f f k b E E b f - = = 1 = - f l b v v v m B C } e.E.@XoXXXE.E.R.J.F.6.#.E f ; ; r N #.2.2.^ r r b n k f & & % % % % = = = = = = = = # # # # # w w w g g g z z z V [ o.&.0.w.t.t.K.t.[.|.OXOXOXOXOXOXOXOXOXOXOX*X].].].y.y.].y.y.:.:.&.&.{ { { [ [ u V t e q e e t V %.&.0.r.t.t.t.t.q.t.t.y.y.q.t.t.q.r.r.r.r.r.r.r.q.0.9.1.1.<.<.<.&.+.+.} B N v g g g f r f - # O % $ $ @ O ; B &.0.0.q.q.t.u.[.[.[.[.[.[.[.u.u.u.u.u.u.u.u.u.Y.Y.Y.u.r.r.r.9.1.,.,.+.+.+.,.,.,.,.+.} } +.+.+.%.O.W ; @ O $ $ X X X X $ $ $ $ $ $ $ $ O O q U.6X7X6X7X7X7X7X,X,X,X,X,X,X,X,X,X>X>XOX X Xu.r.q.1.} O.O.B m f ; O     . o o @   @ - w r t v m m V B } } } } %.+.<.1.e.H.J.4.<.5.r.r.U.T.5XvX5XcXmXmXcXcXcX3X<XE.E.E.W.J.F.7.*.! E b g m #.4.$.F.J.O.N W W M b M R b k f 1 = = % & = & & - - - - - - - - - f b b v f k b b M b b k b l f f k k k M W b l f f f 1 f f f f l l k f 1 1 f 1 & # % & & & i i i i i i i i i i i i i i i i 8 8 8 8 i i i s d d d s s i i i i 8 8 8 8 8 & & i i i i i i i i ",
"> > > > > > > > & & & % % % % % % & & 8 x _ ' ` ]  .].OX*Xr.1.%.V V W W B m q + e t t g t w w 8 # w j b R R R R H s s > > : $ % $ & 1 1 w w ; # # # @ @ @ @ @ @ @ % $ $ $ % % % O   # r M 7.E.E.I.! ;   # # @ @ # # # @ @ @ @ $ O O O O                     @ @ @ @ O O O @ % % O   q O.4.} t # @ @ @ @ # @                       X $   O + ;.5 u { ' ' ) ) ) ` ] ] ` ) ) _ ` ` _ u 0 u _ _ u 7 u u 5 5 9 9 5 + + # + O # & s w i i i i i i p p p p s s i i i i p p d d d d d d j j j j j j j j d d d d d d d d p p d d j j j j j j j j d d i i i i j i d e x -.J.5.%.m m g g v N M M M m V %.w.U.H.<.} B m v m B B N B B } %.<.&.5.w.7.$.N r ; ; ; ; = 1 1 1 1 - - = = - f f g g b E N g - = ; = = = 1 f g b b M N C O.,.,.e.R.oXT.T.I.e.4.,.7.7.~ b ; @ @ 2 n ! ^ W b ; f v 2 b k 3 1 1 1 % & % % = = # # & & 8 8 e d g x x z V x x x V [ [ { &.:.0.r.t.].*X*X[.[.OXOXOXOXOXOXOXOXOX*X].].y.y.:.:.:.0.:. . .&.&.{ &.{ [ [ [ V t e 6 6 e t m [ &.0.y.y.t.t.t.t.t.t.t.q.q.q.q.q.t.r.r.r.r.r.r.r.r.w.0.9.1.1.1.<.<.&.+.+.O.B m g g g g f f w # % % . X X   @ t B <.0.q.r.q.t.[.[.[.[.[.[.[.u.u.u.u.u.u.u.u.u.Y.Y.Y.u.r.r.9.1.<.,.+.+.+.} ,.,.,.,.+.+.} +.+.+.%.O.N # @ O $ % X X X X $ $ $ $ $ $ . O @ # V 6X6X6X7X7X7X7X8X8X,X,X,X,X,X,X,X,X>X>X>X X XY.u.r.1.+.} O.} B b f ; @ X   o o       @ w r g m V } +.&.<.1.w.w.r.r.H.U.oX.XH.<.+.&.w.r.r.XX5XcX3X5XcXvXcXcXcX3X<X@XE.E.I.7.,.#.^ E N f v v B #.$.7.J.,.! W W E M b b T f f = = % % & = & & = - 1 1 1 1 - - f g M b v f b b b b b b b b b f k b k b E E b l f f f f k f f f l l k f 1 1 f - & # & & > > i i i i i i i i i i i i d s i i i i i i i i i i d d d d s i i p i i i i 8 8 8 8 i i i s i i i i ",
"> > > > > > > > & & & % & % % % % % & * d ' ' ] ] '.].*X].y.w.%.[ V B B B m q 6 t m z z m w q w # 6 r l x x R Q Q T k k h s 3 > % = 1 1 f w w ; ; w ; # # @ @ @ @ o O o o $ % % - @ @ W 7.@X3XR.v # @ ; ; ; # # # # # @ @ @ @ @ O O O O                     O @ @ @ O O O @ % % # O t O.,.B q # # @ O O # O             O O O   o o %   # # 5 x { { ' 0 ) ) ) ` ` ` ` ) ) ` ` ` _ u u _ ' { _ 7 0 7 5 5 9 8 + + # # @ @ & s s & i i i i i i i i p p s s s s s d p p d d d d d d d d j j j j j j d d d d d d d d p d d d j j j j j j j j d d d p p j i p 8 d d o.7.e.7.o.m m v m M M M M m V %.w.K.K.5.O.B m v m m N m m V [ %.&.5.w.5.5.6.#.m w - ; # = 1 1 1 1 - - - - f f g b g M E b f - ; ; = = - f f g b E C %.,.5.8.8.e.H.E.H.J.2.C C N #.~ T 1 @ @ @ - f b b g - = = - - k k f f f f 1 & ; ; - - s f j d x x x V o.o.o.o.[ [ [ [ [ [ { &.:.:.0.y.].[.|.*X].*XOXOXOXOXOXOX*X|.[.].y.:. . .{ { { :. . .&.&.&.&.&.{ [ [ [ V e w 6 q e m [ } &.0.y.t.t.t.t.t.t.t.t.t.t.q.q.t.t.t.t.r.r.r.r.r.r.q.q.q.9.1.1.1.<.<.<.+.%.B m v v g g g f f & % : 4 X X O   # m } 1.0.r.t.t.u.[.[.[.[.[.[.[.u.u.u.u.u.u.u.u.Y.Y.Y.u.r.r.9.1.,.,.+.+.} } +.+.+.,.&.+.} } +.+.O.O.M @ @ % O % % X X X $ $ $ $ $ $ % o O # } 5X6X7X,X,X7X7X7X7X7X6X,X,X,X,X>X,X>X>X>XOX X|.u.t.9.1.} } } C N v f = o     @   @ ; - m m B O.+.1.e.H.H.Y..XoXoXoXoX@XoXT.e.<.O.+.<.r.Y.1X7X6X1X5XvXcXcXkX3X4X<XE.E.E.I.2.! N M M b f t m C ,.4.7.6.2.@.N N E M l k b 1 = % % % % & = & - 1 1 1 f f f f g b R E b v k b b M M b b M E M k b M b N W E b g f f k f f f f f l l k f f 1 f & # # & & > > i i i i i i i i i p p p d d i i i i i i i i i i d d d p d d 9 p 9 p p p 8 8 8 8 i i w w w w 8 8 ",
"> > > > > > > > & & & % & % % % % $ & + u ' ` ]  .].].].].y.w.&.O.B B m m m q q z V z m m w q w q 6 w g l x E ~ ;.~ R R H G k 3 1 1 & = w r r q r g g w ; ; @ @ @ O O   o X $ % % @ M 3.W.@X4.t   # @ r ; ; ; # @ @ @ @ @ @ @ @ O O O O                       @ @ @ @     O @ @ ; # v ! B t # q # @ @ O @           O O % % % $ % X 1 @ O 5 u { ' ) ) ) ) ) ) ) ) ) ) _ ` ` ` _ _ 0 0 _ { { _ 0 7 5 5 6 6 5 5 6 * + # & - 1 & & i i i i i i i i i p d d s s s d p p d d d d d d p d d d j j j j d d d d d d d d d d d j j j j j d d d d d d p p j p j j p d d d V 5.7.O.B m m m g g x x g M O.5.U.U.J.&.O.B m N V V V m B } $.<.e.5.&.&.6.4.! N g - # - 1 1 1 1 1 1 f f f f k N g N E M f - ; = = = - f g b E ~ @.2.8.H.J.J.J.J.J.2.#.! v N N E W T 2 = % @ % - 2 = = 1 1 % $ 1 1 3 f f f f r w w s j g x x R R [ o.o.o.o.;.{ [ [ [ [ [ { { &.:.:.0.y.y.].].].].].*X*X*X*X*X*X].].y.y.0.&.{ { { &.&.&.{ { &.&.&.&.&.&.&.{ { [ z e w 6 e z [ } +.&.0.y.t.t.t.t.t.t.t.[.u.t.y.q.t.t.t.t.r.t.t.r.r.r.r.r.r.q.9.1.1.1.1.<.<.+.} N m v g g g f f - & % 4 X X $ @ O ; } &.0.r.t.y.t.u.[.[.[.[.u.u.u.u.u.u.u.u.u.u.u.u.u.r.r.9.9.1.,.,.+.+.} } } +.+.+.&.+.} +.+.+.%.O.b @ @ % $ $ % X X X $ $ $ $ $ $ % O @ # Y.5X7X7X7X7X7X6X8X7X6X6X,X,X,X>X>X,X,X>X>XOX X Xu.t.0.1.+.} } } B N v 2 @ @ @ f r v E @.#.%.$.<.5.e.U..X@X@X1X6X1X1X1X1XoXY.5.1.<.,.5.I.1X5XvX3X1X5X3X4X3X4X<XE.W.I.W.E.8.,.! N g f g r r C ,.6.8.7.,.B ! E N b b b f 1 = = % @ % % % & - 1 f f f f f f g R Q ~ E b v v M M M M b b E W b f l b b W ~ E b g g g k f 3 1 f f l l l f f f s & # # & & i i i i i i i i i i i i p p d d i i i i i i i i i i d d d p d p 9 p p p d d s 8 8 8 8 8 w w w 8 8 8 ",
"> > > > > > > & & & & & & & & > > > & 5 0 ' ` ]  .].].].:.:.&.%.[ V B V V m w q t m V z m g q e q # & w e z V o.W @.=.@.Q R G G G h 1 1 f f r t g v v g v b r @ @ @ O     o @ @ # @ ~ ~ 7.E @   @ ; w ; ; ; ; @ @ @ @ @ @ @ O @ O O           O             @ = @ @ @ O O O @ @ # w v W #.B t # # @ @ O         O O O * & & @ @ = % 1 w 5 0 { { ) ) ) ] ] ' 0 0 0 0 0 ' _ | | _ _ _ _ {  .{ { 0 5 6 5 5 6 6 * * & & & & & i i i i i i i s s s s d d d d d d d d d d d d d d j j j j j j j j j j j d d d d d d d d d d d j j d d d d d d p p p p d d j j j j z d e o.5.5.&.B m V N M M V N m B $.J.T.U.4.O.B N m m V [ o.o.} O.O.O.} B O.*.4.4.2.@.b & & 1 - 1 3 = 1 - r q N %.C m ! ~ M r ; = = = = - f f b W ~ #.#.2.2.2.2.#.#.E E N b f f g b T b 2 = % % % - = = % % % % % % % > 1 & & 8 w g z z x z V [ [ [ o.[ { { { &.&.&.{ { { { { { &.0.0.0.y.t.t.t.].y.].].t.y.y.y.y.y.0.:.:.&.{ { { { { &.&.&.{ &.&.&.&.:.&.{ { [ [ z & 8 w e m [ +.&.0.0.y.t.t.t.t.t.[.[.[.u.u.t.t.t.t.t.t.t.t.u.t.r.t.t.t.t.q.9.1.1.1.1.1.<.+.%.C V m v g g f f w = % $ . . X $ $ O t +.0.q.t.t.t.i.i.[.[.[.[.[.u.u.u.u.u.u.u.u.u.t.r.r.r.9.9.1.<.,.,.+.} } ,.+.+.,.,.+.+.+.%.O.} ! f % $ $ $ . X X X X $ $ % % % $ . @ # q vX7X9X7X9X9X7X7X7X8X8X8X,X,X,X>X,X>X>X>X>X>X XY.Y.t.r.0.<.+.O.} } B m t t m B O.$.$.$.4.1.e.r.r.Y..X<X1X6X6X6X6X1X1X1X1XoXU.5.1.1.e.U.@X5XvX5X5X4X<X<X@X@XE.E.I.F.F.J.J.6.! W E f - f b N %.7.J.8.$.! N E W N b n f f = 1 % % % % % % = # f f - - f f g E W ^ W b f v E N N N N E ~ ~ E k b M E E ~ ~ M l l l k f f s 1 f k l g k f f s & & & & > > > i i i i i > > i i i i i i i i i i i i i i p p p d d d p p d d d d p p p p i i s s i i i i i i i i ",
"> > > > > > > & & & & & & & & > > > # 6 _ ` ] ]  .`.].:. .{ { } %.} B V V V e q t M V z m z t e q # # w w g V O.o.W Q E Q Q Q Q Q T k f f f t g t g g g r v r ; @ @ @ @       $ @   g ; f @   @ f f r ; # # # @ @ @ @ @ @ @ O @ O o         O O         O   @ @ @ @ @ O @ @ @ @ @ # g O.=.! g ; # O O           $ O O s 8 O   % % & x z 0 { { ) ) ` ] ] ] ) 0 0 7 7 0 _ _ | | _ _ _ _ { { { _ 7 7 6 6 6 6 + * * & 8 8 i i i i i i i 8 i i i i i s s s s d d d d d p p p d d d d j j j j j j j j d d d d d d d d d d d j j d d d d d d d d d d d j j j j j j j z d z o.w.F.$.B m B N M M N B O.%.w.U.H.4.%.B B B m W o.O.o.o.W W B V m m W #.$.2.@.N f - 1 1 1 1 1 1 ; q v $.4.%.C ,.#.b ; ; = - 1 1 1 f g g n b b M b b b b k f g f f f - - 2 f b n 2 1 = % % = % % % % % : % % > & * * e z M V z x x x [ [ [ [ { { { { { :.&.&.&.&.&.:.&.:.0.0.y.y.y.t.y.y.y.:.:.:.0.:.:.:.:.:.:.:.&.&.{ { { [ [ &.&.&.&.&.&.&.&.:. .{ { [ V g & & w t B } &.&.0.y.y.t.t.t.[.[.[.u.u.[.u.u.t.t.t.t.t.t.t.u.u.t.r.t.t.t.q.0.9.1.1.1.1.<.+.+.} V m v v g f f w - % % O o X X $ O w B <.0.r.t.y.i.i.[.[.[.[.[.u.u.u.u.u.u.u.u.t.t.r.r.r.e.1.1.<.,.+.+.} +.+.+.+.,.,.,.+.+.%.O.C E & % $ $ % . X X X X $ $ % % % % %   # <.CXCX9X9X9X9X9X7X7X8X,X,X,X,X,X>X>X>X,X>X>X>X X|.Y.t.r.r.1.&.} C } } } } $.+.<.7.6.e.e.H.T.Y.Y.T.oX<X6X5X1XoX.X|.|..XoX<XoXU.r.I.R.U..X1X5X5X4X3X4XT.E.R.R.W.I.8.7.3.,.! 7.#.N b f r k E #.4.6.7.$.O.B N M E E b g 1 = ; = % $ % % # = = 1 - f k f f l b E W W E b v b E E E E E W ^ W b M R E ~ ~ ~ W b l l l l f f f f f g l l k f s s 8 8 & & > > i i i i i i i i i i i i i i i i i i i i i i p p p d d d p p d d d d p p p p i i s s i i i i i i i i ",
"> > > > > > > & & & % % % % & > : > * 6 ' {  . . .'. . .{ { { %.%.} B m B V t q e m m z t m z q q # # # 8 g V O.O.W N b l b E ~ =.=.~ E g g g t t t g g t t t g w @ @ @ O O O @ @ O #   @ @ # - f f ; ; @ @ @ @ @ @ @ @ O O O O @           O O       O @ @ @ @ @ @   @ @ @ @ @ @ @ w k v w # O @ O         O O $ $ & f ; @       # y [ &.{ _ ) ` ] ] ] ] ) ) 0 0 7 0 0 [ | | _ _ _ | | | [ u 7 7 6 6 6 + # * * i 8 & & i i i i 8 8 8 8 i i i i s s s i s s s s p p p p p p p p j j d d d d d d d d d d d d d d d d j j j j d d j j d d j j j j j j j j j d d d 9 9 z $.F.F.#.B B N N m m W O.%.5.K.K.6.$.} B B V W O.o.W V m M v v g g g M W @.@.N f f f 1 1 & 1 1 ; r m 7.6.<.#.4.@.g # # - 1 - - 2 g v g f f f f f w - w ; @ = ; ; ; = = - 2 f f f 2 = = % = % % % % % % % # # # w x V [ [ [ [ [ [ [ [ [ [ { { { &.&.:.:.:.:.:.:.:.:.:.:.y.y.y.y.y.y.:.:.:.:.{ :.&.{ { { :.&.&.&.{ { { [ [ [ [ [ { &.&.{ &.&.:.:.:.&.{ [ V e # # w m } } &.0.0.y.t.t.[.[.[.[.[.u.u.u.u.u.u.t.t.u.t.u.t.t.u.t.r.r.t.t.r.q.9.1.1.1.1.1.<.+.} B m m v v k f f - # % @ O X X X @ @ t %.5.w.t.q.y.i.i.[.[.[.[.[.[.u.u.i.i.u.u.i.r.r.r.r.9.1.4.,.,.+.+.+.+.+.$.+.+.,.,.,.%.#.@.N f % $ $ % X X X X X X $ $ % % % % $ O # XXVXSXSXCX9X9X9X9X7X8X,X,X8X,X,X>X>X>X>X>X>XoX X|.Y.Y.r.r.<.,.%.} +.+.<.<.4.<.w.H.U.U.U.T..XoX@XoXoX<X1X6X<XY.Y.Y.Y..X@X2X1XoXoX@XE.R.oX3X5X5X5X3X4X8.R.E.U.8.7.7.7.,.! v W ~ E v r q m 4.F.J.F.4.O.W M M b M b k 1 = ; ; % % % % = = = = f f f l f b E E E W E M b M E E E E E E ~ W E b M E ^ @.=.~ M g R R b k f 1 f f g g k l k f f s i i i i > i i i i i i i i i i i i i i i i i i i i p i i p p d d d d p p d d d d p p p p i i i i i i i i i i i i ",
"> > > > > > > & & & % % % % & > : & * 7 ' ]  . . .] ] ] { { { %.%.[ B m B B t q q g z t e z g q # # # # 8 d V o.V W W N l w s l T Q Q M g g t Z t t m m Z t t Z m q @ @ @ O O   @ O @ @ # @ # @ @ # ; @ @ @ @ @ @ @ @ @ O O O O @         O O O   O O @ % % % % @ @   @ O @ @ @   @ @ @ @ O O @ @ O     o O O O O - f f @ # @   # 6 0 :.:.) ) ) ] ] ] ] ` ) ) 0 0 0 0 0 _ { | _ 0 u | | _ _ y 7 6 6 + + + # * & i i & & i i i i 8 8 8 8 i i i i s s s i s s s s p p p p p p p p j j j d d d d d d d d d d d d j d d j j j j d d j j j d j j j j j j d d d d d d 9 9 e z $.F.F.#.m B B m N N B O.<.J.H.w.%.B B B B B B V m b g g k g g g r r g M N b f f f f 1 % = - - v O.J.6.4.,.2.N ; # - - - - - 1 f n g f f ; w f f f f - ; @ @ % % @ @ = - = 1 2 2 = = % % % % % % % % % # 8 z [ o.&.[ [ [ [ [ [ [ [ { { { { &.&.:.:.:.:.:.:.:.0.y.:.0.y.y.y.y.:.:.&.{ { { { { { { { { &.&.{ { { [ [ [ [ [ [ [ [ [ { { {  .:.:.:.&.{ [ V e 8 & e V } +.&.0.y.t.t.[.[.[.[.|.[.u.u.u.u.u.u.t.u.u.u.u.u.u.u.u.r.r.t.t.t.q.0.9.1.1.1.1.<.+.} [ V m m v g g f f - # $ O X X X $ O # B <.w.t.t.q.y.i.u.[.[.[.[.u.u.u.i.i.u.u.i.t.r.r.q.1.<.,.,.+.+.+.+.%.%.+.,.,.,.,.,.@.b f % % $ . $ $ X X X X X X $ $ % % % % % O q <XCXCXSXSXSXCX9X9X7X8X,X,X,X,X,X,X,X,X>X>XOX>XoXoXY.Y.r.1.+.+.+.,.<.5.5.5.w.r.T.<X1X1X1X1X1X1X1X1X1X6X6X4X1X.XY.Y.Y..X<X6X5X2X1X@XoXoX4X5X4X3X3X2XE.2.R.@XI.6.7.3.2.#.N v E N f r t v ! 4.6.6.2.#.! ^ E M b b k f # # = = % % % & = = = = f l b f b Q ~ E E E M b b E E E N N N N ~ E M E W ^ @.@.@.W b b E R b k f f f k k f f l k f f s i i i i i i i i i i i i i i i i i i i i i i i i p p i i p p d d d d p p p d d d p p p p i i i i i i i i i i i i ",
"> > > > > 1 1 > > > > > > > > > : # 8 u {  . . . .] ` ` | { [ [ B V m m B m r w w w t g t g g t w 6 # # 8 8 e V V V V N M d # # & s g r t t Z t t t Z V Z Z t y V m v r @ O O O       O O   @ @ @ @ @ @ @ @ @ @ @ @ @ O O O O O @       @ @ @ O     O @ @ # # # @ O   @ @ @ O @ O @ @ # # @ O O         $ O O O @ 1 g - @ @ ; # 5 0 :.:.) ) ) ` ] ] ] ` ) ) ) ) 0 0 0 0 _ ' _ u u u | [ u u 7 5 6 + + + + # * & i > > & & & & & & & & & i i i i i i i i s s s i p p p p d d d d j j d d d d j j j j j j j j j j d j j j j j j j j j j j j j j j d p p p p p p p p d e 6 z 7.J.6.O.B N B N m B %.&.e.J.4.B B B m m M v g g k f f s f s w f s f f k l b g k f f 1 = # ; m 2.J.J.6.8.$.g # - - = 1 1 1 f g g g f f 1 f g g b b f ; % % % @ @ @ o o = = = = = = % X X % : $ % @ & w V [ o.&.&.{ { { &.[ { { { { { { { { &.:.:.:.:.:.:.y.y.y.y.y.y.y.t.0.:.{ { { { { { { { { { { { { [ [ [ [ [ [ [ z V V [ [ [ { { {  .:.&.&.&.[ z e 8 8 w V } &.1.0.q.y.t.[.[.[.|.|.[.[.u.u.u.u.u.u.t.t.u.u.u.t.u.u.u.t.t.t.t.r.q.9.0.9.1.1.1.<.&.} B B m m g g k f - % @ $ O O . o O O w %.5.w.t.q.y.y.i.i.[.[.[.u.u.u.i.i.u.i.i.t.r.q.9.1.<.,.,.+.O.+.+.O.C %.,.4.2.! b f - $ $ $ $ $ $ $ % % X X X % % % % % $ $ % # q oX6X7XCXSXSXSXCX9X9X7X7X8X,X,X,X>X>X>X>X>X<X<XoXr.0.1.<.1.<.1.5.r.H.r.r.H.H.oX3X5X2X<X@X1X1X6X5X4X1X1X1X1XoXY.Y.Y..X1X5X5X5X1X4X2X3X5X5X4X3X3X<X<XR.7.W.R.F.3.2.@.N v f f N b g v m B 4.4.6.4.#.B W E N M g f 1 % % % % % % $ % % % = - f b E R b @.*.~ E N M b M M E E b N N N N ^ M b N =.#.@.~ @.W E ^ E b f 1 f f f f f f g l k f w i i i i i i i i i i i i i i i i i i i i i i i i i p p p p d d d d d d d d p p p p i i i p i i i i s s s i i i i i ",
"> > > > 1 1 1 > > > > > > > > > & * 9 u { ]  . . . . . .{ { V V m m m m m m r w w w w g m g m m w q 6 # 6 6 e m O.O.o.m M g w r w g f w t t t t t u t Z Z Z Z t Z V B N v r # # @ o       O @ @ @ @ @ @ @ @ @ O @ @ O O O O O       O @ & # $   O $ % % % # = ; @ O   @ @ @ O O @ @ @ % = 1 %   o o   O $ O O O @ f k r v v m y u {  .) ) ) ` ` ` ] ` ) ) ) ) _ _ _ _ ) _ _ _ 0 0 u [ [ u 7 5 5 + # # + # * & & i & & & & & & & & & & & 8 8 & 8 i i i i i i i i i p p p p d d d d d d d d d d d j j d j j j j j d d j j j j j j j j j j j j d p p p p p p p p p p d d 8 e o.7.J.4.O.B N W N B } 4.e.J.4.O.B N v v v g g k f f f f f - - f f f f f g k b f f 1 - # ; ; N 4.7.J.U.K.#.r # - - = = f f f g f f f - f f n b T b f - # % % % @ @ @ % = = = = = = % X X % % $ @ & g m [ [ &.&.:.:.:.&.&.&.{ { { { { { { &.:.&.:.:.:.:.:.y.y.y.y.y.y.y.0.:.{ { { { { { &.{ { &.[ [ [ [ [ [ [ [ [ V V z z z z [ [ [ [ { { &.&.&.[ [ u w 8 * 6 m } &.0.q.y.t.t.[.[.[.[.|.[.[.[.u.u.u.u.u.t.u.u.u.u.t.u.u.Y.u.u.u.u.t.r.q.9.9.1.1.1.1.&.+.} B N m v v k f f ; @ $ O O . . $ o @ B <.0.r.t.y.y.y.i.i.u.u.u.u.u.u.u.u.u.t.r.9.1.1.,.,.+.+.+.+.} ! +.,.#.#.@.M f O   O $ % $ $ $ $ $ % % X X X % % % % % $ $ % @ q oX1X6X7X9XSXSXCXCX9X9X7X8X,X,X,X,X6X>XoX@X.Xw.} } } 1.1.1.r.T.oX1X1XoXR.K..X1X5X6X@XoX@X1X1X@XoXoX1X<X.Xr.r.t.Y.oX1X5X5X1XE.R.T.@X2X3X4X1X<X3X<XR.F.6.J.F.2.@.! N r ; f b E N W ! C 4.e.8.,.$.@.W N b b g 1 - = % = = % % $ $ % % ; = 2 g M E b W 3.=.W E N M b M E E E b E E N N N b b E ^ ~ #.#.@.W E E b k f 1 f f f f f f l l f f w i i i i i i i i i i i i i i i i i i i i i i i i i p p p p p p p p d d p d p p p p p p p p i i i i s s s i i i i i ",
"> > > > 1 3 1 1 : : : : : : : > & 6 y _ { ] ]  . . . . .{ _ e e t t t t m v w w e w e g m m m m t q w 6 6 6 e z o.%.%.o.W M r q w w w q w t y y y t t t Z Z Z t Z B N N ! M w f - $     % @     @ @ @ @ @ @ @ @ @ O O O O O     O O % & & & % O % # & # & - - = @ @ @ @ @ @ @ @ @ @ @ @ 1 k k 1 $ $ $ $ $ O $ $ = f f v W [ [ [ :.:.` ) ] ` ) ) ) ) ) ) ) ) _ ` { ` _ _ ) ' ' u 0 u u u e 6 6 + # # * * * & & & & & & & & & & & & & & & 8 8 8 8 i i i i s s i i s i i i d d d d d d d d d d d d d d d d j j d d j j j j j j j j j j j d d p p p p p p p p p p p p p d 9 e z O.6.6.*.O.O.O.B B B &.5.J.J.$.B m g v v b l l f f 1 f 1 & - 1 - - - f f f f f f - - ; ; v #.7.} 5.K.L.W w w - - = = f f f f f 2 - - f f k b n f 1 = = % = % % % % % = = = = % % % % % % % # w g V } } { &.&.:.:.:.:.:.&.&.&. . . . . . . . . .:.:.0.y.y.y.y.y.y.y.:.&.&.{ [ { { &.{ o.[ [ [ [ [ [ [ [ [ V m V z z t e e t z V [ [ [ { &.&.&.[ V e 6 & * 6 t } 1.q.y.q.t.t.[.[.[.|.|.[.|.[.u.u.u.u.u.u.u.u.u.u.u.u.Y.Y.Y.u.u.u.t.t.q.0.0.0.0.0.1.<.+.O.B V V m m v g f = % O O O . X X o   w O.1.q.t.y.y.y.y.i.i.u.u.u.t.t.t.t.r.r.q.1.,.,.,.,.+.+.+.,.C C #.,.! v f @ # # O O @ @ O @ @ @ @ % % X X X % % % $ $ $ $ $ O # w.OX>X6X9XCXSXSXSXCX9X7X7X7X,X6X>XoXq.1.&.} } +.1.1.1.r..X1X3X5XvXkX1XT.r.r.Y.oXoX.XoXoX@XT..XoXoXT.I.w.5.w.H..X2X5XkX1XU.5.5.8.r.H.R.XXoXE.oXU.5.,.,.,.,.~ N b r # - b E @.#.2.2.6.J.6.4.B B N M M b f 2 ; # = = = = % $ % $ % % - - f b E b E #.*.^ E N M b b b M M M b E E N b b b N W ^ ~ =.#.^ b b b b k f 1 f f 3 f f g l k f w 8 i i i i i i i i i i i i i i i i i i i i i i i i i p p p p p p p p p p p p p p p p s s s s p p p i 8 i i i i i i i ",
"& & & > > > : : : : : : : : > & * 6 0 ' ` ] ]  . . .:.{ _ u e e y t t t g g w q e e t m N m m z g w w w 6 + q t %.%.O.} o.B m q q q w t q q y q q y t t m Z Z t Z B B B O.m w E f = % O @     @ O @ @ @ @ O @ @ O O O O O       % $ % & & & # $ # # # % = - - - @ @ @ @ @ @ @ @ @ @ @ % 1 h h 3 % $ $ $ O O $ % n n r m V y u y.:.) ) ] ` ` ) ) 0 0 0 ) ) ) _ { { ` _ ) ) ' { _ 5 u y y y 6 + # # * & & & & & & & & & & & & & & & & & & & & & & & & & 8 i i i i i i i i s s s s d d d d d d d d d d d d j d d j j j j j j j j j j j d p p p p p p p p p p p p p p p p d 8 w B -.7.4.$.$.O.B B m B $.J.H.4.W m v v M M b k f > # 1 & 1 1 - - 1 1 2 1 1 2 f f - - r q v 7.U.%.,.$.6.m ; f - - = 1 1 1 = 1 2 2 2 2 1 f g g f 1 - 1 = = = = = % % % % = = = X % % % % % & f x V o.} { &.{ &.:.:.:.:.:.:.:.:. . . . .&.:. . .:.:.:.:.y.y.y.y.y.y.0.:.{ { { { [ [ [ } } [ [ [ [ [ z z u u z u z t e q 6 6 q e z u V [ [ { &.o.[ z e 8 & # # t } 1.q.y.t.t.u.[.[.[.|.|.|.|.[.[.u.u.[.u.u.u.u.u.u.u.u.Y.Y.Y.Y.Y.Y.u.t.r.r.q.q.q.0.1.1.<.+.} B N m m m v f - % O $ O . X % X o   g &.1.q.q.y.q.y.i.i.i.u.t.t.r.r.r.q.9.1.<.,.,.,.,.+.+.+.+.O.! ~ M ;   @ # @ # # m O.N q @ @ @ @ $ $ $ X X % % % $ $ $ $ % $ # y Y.oX6X9XCXCXSXSXCXCX7X7X>X>XY.} [ V } V } +.5.H.U.T.oX2XcXcXcXcX5X@XY.e.5.0.t.Y..X.XY.w.e.e.r.H.5.} } <.w.U.@X5XkXkX1XI.I.I.e.4.4.J.T.E.E.U.8.C O.,.! W E f - ; @ ; f b #.6.I.J.J.7.C B O.! N b b l 1 = ; # = ; % % % % % $ % % - 1 f b b f W =.~ E E b b b v v b b M E N M b v b M W @.^ #.=.~ g f b E T b k f 1 1 f f 1 g l k & * * 8 i i i i i i i i s s s i i i i i i i i i i i i i i p p p p p p p p p p p p p p p p s s s p p p p 8 8 i s i i i i ",
"& & > > : : : : : : : > % % > & 6 y _ { ]  .'.'. . . .| _ u e t y y t t g e q q w e w t m m t t g e e w 6 + 6 y [ $.4.+.} } V t q q q q q q y q q t t t z m m m t V B ! ! M ; ; g f = %       @ @ @ O O O @ @ @ O O O O O O O @ % % % % & & & & & & & # # - 1 1 = ; @   @ @ @ @   @ % % 1 h 3 % % . $ O %     b T 2 # + 5 0 { { ) ) ` ` ` ` ) ) 0 7 0 u ' ' ' ' _ _ _ _ _ { [ u 7 0 e e 6 + + + * # # & > > > > > > > > & & & & & & i > > > i i > > i i i i i i s s s s s s s i s s s s i i p d p d d d j j j j j j j j j j d d d d d p p p p p p p p p p p p p p p p s j w z #.-.-.7.%.%.-.O.m V } $.5.6.$.m m M M b f 1 = & % & & 1 1 1 1 1 1 % 1 f f 1 - - - f g m J.XX} %.O.*.b # w 1 - 1 f f f f 1 f f 1 1 f f k k 1 1 - = = = = = % % % = % % % % : % % % % % & g V V [ o.&.&.&.&.:.:.:.:.:.:.:.:.:.:.:.:.:.:.:.:. .:.y.y.y.y.y.y.y.0.:.&.&.[ [ [ [ [ [ m m [ [ [ V V u z u u z t e y q q # # q w t z z [ [ [ [ V z d r & & & 8 6 V 5.q.t.t.[.[.[.[.[.[.[.[.[.[.[.[.[.|.|.|.u.u.u.Y.Y.u.Y.Y.Y.Y.Y.u.u.u.t.r.r.q.q.w.0.1.<.<.} B V N N v v g f # % O O $ $ X X X   # } 5.0.r.q.q.q.y.y.t.u.r.r.r.q.w.9.1.<.,.,.,.,.+.$.#.@.~ W f @ ; @ @ ; # # y <..XoXT.r.t # @ @ O o % X X X $ $ $ $ $ $ % % O q +. X>X6X7XCXCXSXCXvX1Xt.+.} V } C C } +.1.H..X@X4X5XvXvXVXvX5X1XoXoXT.9.1.5.r.U.oX1XoXU.w.e.e.<.} } V } 1.Y.1X5XbXcXXXI.H.R.R.I.T.T.U.I.T.R.8.5.4.2.@.M b f = @ @ ; v ! F.@XR.J.F.#.O.@.! E b b b k 1 $ ; # # ; = = = % % $ $ 1 f f f g f Q #.~ E R R b b b b b b b b b b b b R E W ~ @.#.@.W b f g W #.~ l 1 f f f 3 f f l k s & & 8 i i i i i i i i i i i i i i i i i i i i i i i i i s i i i i i p p p p p p p p p p d d d d d p i i i i i i i i s s ",
"& & > > : : : : : : : : % & & * 6 u ' {  .'.'.'.:.:.{ _ u u t t t t t z g w q 6 w e w t m m m t g e e w 6 + 6 q B %.<.+.B B B m t t q q q y y q q q t t z z z t m V B B O.N # @ % % @ @ @ @ @ @ @ @ O O O @ @ @ O O O O O @ @ @ % % % % & & & & & & & & % - f f # # # @ @ @ @ @ @ % $ $ 1 k 3 : : : % o % k f - ; r q y { :.{ ) ) ` ` ` ] ` ) ) 0 0 0 u _ { { ' _ _ _ _ ' ' _ 0 7 7 y 6 # + + * * & & & > > > > : : > > & & & & & & i > > > > i > > i > i i i i i i i i s s s s s s s s s i p p p d j j j j j j j j j j d d p p d p p p p p p p p p p p p p p p p p i s d i g o.7.7.4.$.$.$.%.O.B B O.4.7.$.m M M M b g = = & & & & 1 1 1 1 1 = = = 1 = ; - f f k M ! J.J.B $.$.7.E & - 1 - 1 f f 3 1 1 1 1 1 1 1 f f f 1 1 - = = = = = = % % = % % % % % % % % $ $ & j x V [ [ &.&.&.&.&.&.&.:.:.:.:.:.:.:.:.:.:.:.:.:.:.:.y.y.].y.y.y.0.:.&.{ [ [ [ [ [ [ [ [ } %.&.&.%.[ [ [ [ [ [ [ m z t e q q q w t g z z V z z z g s w & & & & # V 1.r.t.t.[.[.[.[.[.[.u.[.[.[.|.[.[.[.|.|.[.u.u.Y.Y.Y.Y.Y.T.Y.Y.u.u.u.t.r.r.q.q.q.0.1.1.<.} } B V m m v g g - # O o $ $ X X $ O @ g $.w.r.q.q.q.q.q.t.r.q.q.0.9.1.1.,.+.,.,.,.$.2.2.#.E f % @ @ @ @ ; r +.T.1X1X>XOX XY.r.} t # # @ @   o $ $ $ $ $ $ $ . O # @ t H.oX1X5X7X5X7XoX+.Z C } } } %.} O.%.+.5.U.@X5X5XcXcXvX6X6X1X@X.XT.U.r.w.e.r.H.oX1X1XT.e.w.4.} B C } 1.U.oX3X4X5X2XU.8.J.U.R.R.U.e.,.+.U.R.I.H.6.2.@.N f ; ; ; ; v #.7.R.E.J.2.#.W W W E M b l k 3 1 % # ; = = - = = % % % % 1 f f f g b E ^ ^ E M b b b b b b b b b b b b b E ~ #.~ ^ W E b f f b ^ #.E k 1 f f f 3 f f k f s & 8 i i i i i i i i i i i i i i i i i i i i i i i i i i s s s s i i p p p p p p p p p p d d d d d d p i i i i i i s s s ",
"& & > > : : : : : : : : % & & 6 7 ' {  . .'.'.'. . .| u y t t t z z z g g w 6 # w t e e g m V m g e w w 6 6 6 6 m } <.&.} } O.} B t q q q q q q q q q y t t z t V m B W O.M @ @ @ % ; = ; @ @ @ @ @ @ @ @ @ @ @ @ @ @ @ @ @ @ @ % % % % & & & & & & & & % # 1 f l f f - @ @ @ @ @ % $ $ 3 3 3 : . . % O & R R r + 6 u &.:.` ` ` ] ] ] ] ` ` ) ) ) 0 0 u _ { { ` _ _ _ ` ' _ 0 0 7 7 6 6 # + * & & & & & > > > > : : & & & & & & & & > > > > i i > > > > > i i i i i i i i i i i i i i i i i p p d d j j j j j j d d d d p p p p p p d d d d p d d d d d d d p d p s i p i i s M -.5.4.$.&.%.$.$.} B B %.4.4.! m M b b f = = = = - - - - 1 & = = = = = # - - f b N ! 2.F.$.m $.4.D.Q - - f - - 1 1 1 1 & & & 1 1 1 1 f f f 2 1 = = = = = = = = % % % % % % % X $ o $ # r z z [ [ &.&.&.{ { { &.&.&.&.&.&.&.&.:.:.:.:.:.:.:.y.y.y.y.y.y.:.:.&.{ [ [ [ z u u V [ } &.5.w.0.1.&.&.&.&.&.&.&.%.} B V m g t t g g z z u u e e r w - 1 > & & # t %.0.t.t.[.[.[.[.[.t.t.[.[.|. X X X|.|. X|.[.Y.Y.Y.Y.Y.Y.T.T.Y.Y.Y.u.u.t.r.q.q.q.q.0.1.1.<.} B m m m m g k f # O $ X X X X $ O O # B <.5.w.q.q.0.0.0.0.9.9.1.1.<.,.,.,.$.2.2.*.! E b f % ; ; ; ; r 4.<X3X7X6X>X>X>X X[.Y.r.1.} # @ @ O @ O $ $ $ $ $ $ % o @ O # w.Y.u.u.t.1.} <.1.e.<.<.1.5.<.%.+.,.4.H.oX2XkX5X5X6X6XoXoX.XT.oX@XT.H.H.H.U.U.T.@XXXJ.7.$.O.N C +.5.U..X<X4X1X1X<XE.T.R.J.6.4.$.O.O.+.e.U.R.J.O.N v f 2 = - v t N 2.8.I.8.,.#.! W @.~ M b l f 1 = % & % % = = - = = % % = 1 2 f g g k M E W ^ W E M b R b l l b b b b b b b E ^ ~ W M b l f - g E ~ ~ l f f f f f f f l f s w 8 i i i i i i i i i i i i i i i i i i i i i i i i i i i s s s s s s p p p p p p d d d d d d p p p p p p p p p p s s s s ",
"& & > > : : : : : : : : & # * 6 0 '  . .:.'.'. . . .| u y y z t z z t t t w q # w t w e g m m Z t t w w 6 6 6 6 u } <.1.%.} O.O.B m t t q q q t q q q q e t m m Z m m W W M # @ @ # - - - ; @ @ @ @ @ @ @ @ @ @ @ @ @ @ @ % % % % % % % & & & & & & & & % @ = f g f - - ; @ @ @ @ 1 3 % 3 3 3 : 3 4 % O   O O + 5 [ { { ) ) ) ] ] ] ] ` ` ) ) ) ) ) _ 0 ) { { ` ) ) _ { ' 0 0 0 7 7 6 # # * & > > & & & > > > > : : & & & & & & & & > > > > i i > > > > > i i i i i i i i i i i i i i i i i p p d d j j j j j j p p p p p p p p p p d d d d d d d d d d d d d d s s i p s s 8 d %.6.4.$.&.%.$.%.%.} B O.4.7.$.m g k f - # # = = - - - = = = = = 1 = = 1 - - f M ^ #.7.7.N t O.7.7.E - f f 1 - - 1 1 1 1 & 1 1 1 1 1 f f k f 1 = = = = = = = = % % % % % % % X X o O @ & d z [ [ &.&.&.[ [ [ [ [ [ [ [ [ { &.&.&.&.&.:.:.:.:.:.y.y.:.:.:.&.{ [ V V m u u u V } &.0.w.w.w.0.0.0.0.0.0.0.0.1.&.%.} } B m m M m z z e e w 8 - - 1 1 s & & + q [ 5.t.t.[.[.[.[.[.[.t.[.[.|. X X X X|. X X|.u.|.|.T.|.Y.T.T.|.Y.u.u.u.t.r.r.q.q.q.0.0.1.1.+.} V V V m v g f - % O X X X X X @ O @ w B +.1.r.w.1.1.1.1.1.1.1.<.,.,.,.,.2.*.~ M f - # & ; # q m +.oX7X7X7X7X6X,X>XOX XOX|.u.q.1.C r ; O @ O $ $ $ $ @ @ %   O q y +.<.} } 1.r.T.<X2X<XI.I.R.R.R.H.5.1.w.T.oX1X4X1XoX.XoXY.T..XoX<X@XT.U.R.R.I.J.J.J.7.%.B m B C +.1.w.U.T.oX1X1X4X<X@X4XE.7.%.! B m } <.J.U.U.8.m r q ; 2 - v N M ! 7.8.8.5.2.7.@.~ ~ M b b f f 1 % % 1 @ % = - 1 = = % % 1 2 f n b b b M E ^ ~ ~ E E b E b g l g g g g b b b R M b v f g g g f g M W W f f f f f f f f l f s 8 i i i i i i i i i i i i i i i i p i i i i i i i i i i i s s s s s s d d p p p p p p d d j d p p p p p p d d d p s d s s ",
"& & > > > > : : > > > : & * 6 9 _ ` ]  . . . . .y. .| [ u u t z m m g t g w # # # w e t z m V m z z t y w q q 6 q m %.4.$.%.O.O.O.B m t q t q q q q q q e z m B V Z V B W E - O @ $ # - 1 - ; # @ % @ @ @ @ % % % % % % % % % % % % % % % # # & & # # & # @ @ # R R f f g @   f k ^ ^ G 3 3 3 3 3 : < % # # 5 5 ) :.{ ) ) ` ) ] ] ] ` ` ) ) ) ` ` ` ` ) _ ` ` _ _ _ _ _ 0 0 0 7 9 8 6 * # & > > > > > > > > : : > & & & > > > > i i i i > > > > i i i i i i i i 8 8 8 8 i i i i i i i i d d d d d d d d d d d d p p p p d d d d d d d d d d p p p p p p d d d d d d d d d d p e V w.6.$.$.$.$.O.%.%.O.B $.4.*.B g g f w - & - 1 - - - # # = = = 1 1 1 1 - w k W #.2.,.,.t t W 6.7.E - f f f - - - 1 f f 1 1 = & = 1 1 3 2 k 2 = = = = = = = = % % $ $ $ X X . . o o   O w z [ o.;.&.&.[ [ [ V V V V z z [ [ [ [ %.&.&.:.:.:.:.y.:.:.:.{ { [ V z u z t u Z [ &.0.0.q.r.t.r.q.q.q.r.q.0.0.0.0.1.&.+.%.} B B B m z t w w & - - 1 1 1 & & w 6 m &.q.t.t.[.[.[.[.[.[.[.[.[.|. X X X X X X X XY.|.|. X.X X XY.Y.Y.u.u.u.t.t.q.q.q.0.0.1.1.+.[ B V m m m l g f % o o X X X X $ $   O w t N +.1.1.&.+.+.<.1.<.<.<.,.#.@.~ N ; ; ; # # # r Z <.oX5X7X7X7X7X6X6X,X,X>X>XOXOX[.t.q.<.C t ; @ @ O % % $ @ % O @ r N B } ,.1.r.T.1X5X5X5X2X4X4X4X<XE.I.5.w.H.U..XoXoX.XY.Y.Y.T.oX@X1X1XXXH.J.L.F.4.#.O.C B m m B B ! +.+.&.w.U.T.<X5X1XE.oX4X@X6.^ N v v ! 4.8.I.I.7.m v v m v n ! @.#.6.J.J.J.H.8.2.@.~ W b b g 1 = % % % % % % = = 1 = = % = f k n g b b n b E ^ ~ ^ R b b b g f g k k k b b k k g f f f f f f f f f b R b f f f f f f k l f s 8 & i i i i p p i i i i s s i i i i i i i i i i i i i i i i s s s s s s d d p p p p d d d d d d p p p p p p d d d d d p p p ",
"& & > > > > : : > > : & * 6 6 0 ' ` ]  . . .>.].y.:.{ [ u t t t m m m g g w # # # w e t z m m V m z t e w q q q q t B %.%.O.O.O.O.} V Z t q q q q q q q q t m m B Z m m B W w O @ $ $ # - = # % % % @ @ @ @ % % % % % % % % % % % % % % % % & & & & & & & # % % R Q R f -     k T =.=./ T T T G G < % % O + 7 _ { ` ) ) ` ) ) ` ] ` ` ) ) ) ` ` ` { | _ _ ' ` _ ) _ _ _ 0 7 7 7 9 6 * & & > > > > > > > > > : % & & & & > > > > i i i i > > > > i i i i i i i i 8 8 8 8 i i i i i s i p d d d d d d d d d d d d p p p p d d d d d d d d d d p p p p p p d d p p d d d d s d d e x -.6.$.%.$.&.O.O.%.O.B W $.%.B g t r w w - - 1 - - - ; = = 1 1 1 1 1 - w g N ! #.$.%.$.m t W 7.3.E f f f f 1 - - - f f 1 1 % $ % % = 1 1 2 2 1 = = = = = = % % $ $ $ $ X X . . .   o O 8 d x [ o.&.&.[ [ } } [ V m z u z z m m [ [ [ { &.:.:.0.:.:.:.{ [ V z t e e y z [ } 1.0.q.r.t.t.t.t.y.t.r.r.r.q.q.0.0.1.<.&.%.O.} B V z t t w w ; & = & - 1 & 8 8 u &.0.r.t.t.t.[.[.[.[.[.[.[.|. X X X X X X X XY.|. X X X X X X|.Y.u.u.u.u.t.q.q.q.0.0.1.1.<.} B V V m M v k f # O o X X X X X % @ @ % @ # t B O.O.$.$.,.<.,.,.$.O.N M 2 ; ; @ ; # t %.5..X7XvX7X7X9X7X7X7X6X,X>X>X>X>XOX Xu.t.1.} m t # @ O O o   @ @ ; N ! $.,.5.r.Y.oX4X5XcXvXbXbXvXcXkX@XH.5.5.r.Y.T.oX1X1XoX.XoXoX1X<X3X1XE.J.,.,.2.@.M g r r g M V B W B B } +.5.r.Y.@X6X<XT.oX4XE.3.E v f g ! 4.7.F.F.,.v m N ! ! 2.6.F.J.I.J.8.8.8.2.! ~ ^ ^ E f - = % % $ $ % % % ; = = = = % 1 f g g f g b b b W ^ ~ E b l l g g g g k k g g k f 1 - - - f f f f - f k b l f f f f f f f k k s & & 8 i i i i p p i i i i s s i i i i i i i i i i i i i i i i i s s s s s p d d d d d j d d d d d p p p p p p p p p p p p p p ",
"> > & > : : : : > > > & # 6 y u ' ` ]  . . . . . . .[ u y y y y m V B m g w # # # w e t z z m B V m z e q w w w q q Z B B } O.O.} C C N Z r q q q q q q q q t m V V V Z m B k & # % # # % % % % % % % @ % % % % % % % % % % % % % % % % & & & % & & & & & & % % 1 1 1 %     % f 1 k Q / / / / T 3 . $ @ 6 z { :.` ) ` ] ` ) ) ) ` ` ) ) ) _ ` |  .{ | _ _ _ _ _ ) u 0 u 0 7 7 6 8 6 * # & > : : > > & & % % % % & & & & > > > > i i i i > > > > i i i i i i i i 8 8 i i i i i i s s d d p p d d d d d d d d d d p p p p p p d d d d d d d s s i s s i s d d d d d s s s s s p p d o.7.-.$.&.$.$.O.O.O.O.B O.#.O.M g r r f w - w w w - - - - 1 1 1 1 1 - f M ! @.O.O.O.$.m q W #.~ b f f f f f 1 - - 1 f f 1 = % % % % % = 1 = = = = = = = % % % % % $ $ % X . . . . X o @ 8 d x [ %.o.V V } %.+.} B V m z z t t z Z V [ { { &.:.:.:.{ { [ m z t w q t V &.1.0.y.r.t.t.t.t.t.t.t.t.t.t.y.y.y.0.0.0.1.&.%.O.O.B m m t t w w ; & # & 1 & & 8 e [ &.0.q.t.t.[.[.[.[.[.[.[.[. X XOXOX X X X X|.|.|. XoX X X X X|.Y.u.u.u.t.r.q.q.q.0.0.1.1.} } V V m M M k f - $ X X X X X X X % % $ @ @ @ # r m B ! O.#.@.^ N b f - - ; ; q B ,.U.1X7X7X7X5X7X7X7X7X7X6X6X,X,X>X>XOXOX{.u.q.0.+.N g w # % % % = f b ^ 2.7.8.H.U.oX<X3X6X5XcXvXvXcXkX3X4XoXI.w.w.U.Y.<X1X6X3X4X4X3X3X1X1X5XXX7.! N ! N b f f r - f b N B B B C +.<.w.r.Y.<X6X1X@X<XE.7.~ n b f f ! #.7.6.2.%.C ,.,.7.7.J.H.H.I.J.7.#.,.,.@.! E E b f - ; @ % % $ $ % % % # = = % = = - f f g g g b T E Q ^ E T n k f f g g g k f f 2 1 1 1 1 1 f 3 3 f f k b b l f 1 f f f f f f k k & & & & i i p p p p i i i i s s i i i i i i i i i i i i i i i i i i s s i p p p j d j j j j d d d d p p p p p p p p p p d p p p ",
": > & % : : : > > > > & 5 7 0 _ ) ` ]  . . . . . .{ | u y q q q t m V z g w # # # w e t t z Z B B V z e q w w w q q t m m B O.! C } C C N t q t q q q q q q t Z Z Z B m t N M f O O % % % % % % % % % @ % % % % % % % % % % % % % % % % & % % % & & & & % % % % % % % @   1 l 1 O   % T / / / T : $ # + 7 :.:.) ) ` ] ] ] ) ) ) ) ) ) ) _ _ ` | | | | ` _ 0 ) _ 0 0 0 u 0 7 7 7 6 * # & > : : : > > & & & % % % & & & & > > > > i i i i > > > > i i i i i i i i i i i i i i i i s s d d d d d d i i i i i i d d p p p p p p d d d d d d s s i i s s i i d d d d s s s s s s p p 9 x -.7.$.$.+.<.$.} } O.O.O.#.#.W m g r r f w - - - w w 1 1 1 1 f f - f b W @.O.B B B $.v q W N b g f g f f f 1 - - 1 1 f 1 = % % % % % % % % % % % % % % % % % % % $ $ % X . . . X X o O # d x V o.o.z z [ &.&.+.%.} B m m g t t t Z [ [ { &.:.:.:.{ [ Z z g r w e t [ &.0.y.y.y.t.t.t.t.t.t.t.t.t.t.t.t.r.0.0.0.1.1.&.} } [ V V m g t w w w - % 1 % & * + z &.1.y.q.t.[.[.[.[.[.[.[.|. XOXOXOX X X X X|. X|. X X X X XoX XY.u.u.u.t.r.r.q.q.q.q.1.1.<.} V V m M M l g 1 % X X X X X X . % % $ $ ; ; @ @ # ; g b E b g - - ; ; ; q q ,.<X7XvXvX7X7X7X7X7X7X7X7X7X7X6X,X,X>X>X>XOXOX[.t.q.<.B m r w ; - f M @.4.2.6.H.XXoX<X6X5X5X5X6X4X1X3X1XoXXXR.U.H.w.r.Y.oX1X6X5X3X3X3X5X2X4X@X@XJ.C N v v f f f - - f v M B O.O.O.+.<.5.r.Y.oX1X5X3X4X@X7.#.W n f - f E ! ,.,.+.#.7.I.8.6.8.I.8.7.8.2.! ! ! N ! W b v g - ; @ % % $ @ @ $ % % # = = % = = f f g g g b T W ^ ^ E b k k f f 1 k b k f 2 - = % = 1 f f 3 1 1 - f b E b g f f f f f f f k k f & & & 8 i i p p p p i i i i s s i i i i i i i i i i i i i i i i i i i i i i p p d p p p j j d d d d p p p p p p p p p p d p p p ",
"< : : % % : > > : : > * 6 0 ' ` ` ] ] ]  . . . . .:.&.z t e w w g g g g t w # # q w e t t t Z [ [ } } u e q w q q q q t m B O.O.C C C C C m t q q q q q q w e t Z B [ V B m M M # # O O & & % % % % % % % % % % % % % % % % % & & & & % % % # # & & & & & & % % % % $ o k k % O O @ @ @ % 1 3 T l + 5 0 &.{ ) ) ] ] ] ] ] ] ) ) 0 0 ) ) ` ` | | |  .{ ` _ _ _ _ 7 5 7 7 9 7 7 6 6 * & & : : : & > & & & & & & & & & & & & > > > i i > > > > > i i i i i i i i i i i i i i i i i d d i i i i i i i i i i i i i i i i i i i i s s i s s s s s s s s s s d d d s s s s s s s d d d e e -.6.7.$.4.+.4.$.B B O.O.#.$.O.m z g g s & # - # - f f f f f 1 s f f E ~ W N m V O.$.m r v b r k b l f f f f - f f s 1 f 3 % % % % % % % % % % % % % % % % % X % % % % X X . . . X o o % 1 l l W o.V m V %.1.&.&.&.%.} B m t t y e z [ [ &.:.:.:.&.[ z z d w 8 e V +.&.r.t.t.t.t.t.t.t.t.t.t.u.t.t.t.t.t.q.q.q.0.1.1.+.} } } V m t r f f w - = % $ % & $ 8 V &.0.r.t.t.[.[.[.[.[.[.[. X XOX>X>XOX X X X X|. X X X X X XoX XY.u.u.u.u.r.q.q.0.9.9.1.<.} [ V m m M b g f $ o $ X X X o % % % % % % % % # % % % 1 = ; - ; ; ; ; t e.<XvXVXVXCX7X7X7X7X7X7X7X7X7X7X7X7X,X,X,X>X>XOX{.[.u.q.1.} m t v m C ,.6.J.J.J.R.@X3X6X5X5X6X1X6X1X<X1X1X<XXXT.Y.U.H.w.r.oX1X6X5X5X4X<X4X4X<X@XI.8.7.! v f 2 f 1 - - r f v N W O.$.,.<.5.r.I.T.1X3X3X@XE.F.3.#.^ f ; ; f N N ! #.,.6.I.I.7.,.8.8.6.7.2.@.^ N E N n v f - = % @ % % % % o o @ % % = 1 = = = = - f b b b b E W ~ W b b k k f f f f k k 1 = = # = = 1 1 f f 1 1 f f l b k f f f f f f f f h f > i i i i i i i i i i i i i i i i i i i i i i i i i i i i i i i i i i i i i i i i d d d d d d d d d d d d d d d d d d d d d s s p ",
": : : % % & > > : > & 8 5 ) ` ` ` ] ] ]  . . . . .{ { [ z t r r t t t t t w + # # w w t t z V } } +.%.V e q q q q q q t m m B B B B B B B N Z q q q q q q w y e Z V B V m m M N f # $ & $ $ % % % % % % % % % % % % % % % % % & & & & % % % # # & & % & & & % %   % 1 1 3 =   @ @ - = %     o - z z { { ` ) ) ] ] ] ] ] ] ` ) ) ) 0 0 _ { | | |  . .{ ` _ _ _ u 5 5 7 y 7 7 7 6 6 * & % : : > > & & & & & & & & & & & & & & > > i i > > > > i i i i i i i i i i i i i i i i i i d i i i i i i i i i i i i i i i i i i i i i i i i i s s s s s s s s s d d i i i i s s s s s d d w e o.7.7.&.5.5.%.4.$.V B B O.$.#.W M g g s - # - # - f f f f f s - - f b E E M m B #.4.m w r g k b b b l l f f f f f f 1 f 3 % % % % % % % % % % % % % % % % % % % % % % % X X X . . . o $ & f g E B V t Z %.&.1.1.<.&.&.+.O.B t e q e z [ %.&.:.:.&.[ [ z d i d z [ &.0.y.t.t.t.t.t.t.t.t.t.u.Y.u.u.u.t.t.r.q.y.0.0.1.1.} } } V m t t r f w - = % $ $ % O * d %.1.r.t.t.[.[.[.[.|. X X XOXOX>X>XOXOX X X X X X X X X X X X X|.u.u.u.u.t.q.q.0.9.9.1.<.} } V m N M b k - $ X X X X X X $ $ % $ % % % % % % % % % 1 ; ; ; @ r %.2XvXSXDXSXSXCX9X7X7X7X7X7X7X7X7X7X7X,X,X,X,X>X>XOX[. X|.Y.0.} B C +.4.e.T.@XoXoX<X3XkXcX6X4X<XoXoX1X1X1X5X5X3X4X1X<XoXU.e.H.oX1X5X5X5X1XoX<X@XR.J.3.#.^ v r - ; - 1 f f f f b N ! O.,.6.e.e.U.oX1X5XkX<XJ.8.7.2.=.E f ; ; ; v N ! ,.F.W.W.3.! #.,.,.#.@.! N v g b g 2 - = @ @ @ % % % % % % @ @ = % % = 1 1 - f g b E W W W W ^ W M n v g k f f f f 2 1 1 = ; = 1 1 2 f f f f f f f l b k f f f f f f f f f s > i i 8 8 i i i i i i i i i i i i i i i i i i i i i i i i i i i i i i i i i i i i i i i i i i s s i i i i i s s s s d s s d d d d ",
"> > > % & & : : : > 8 9 0 ' ] ] ] ]  . . . .{ ` | { { V z e r r e t e e g w # # # q w t t m [ %.+.&.+.} z 6 6 e q q q t t g m W W B B N B B m t q q q t e w y y t V B V m m m N E - @ & $ $ % % % $ % % % % % % % % % % % % & & % % % % % % & & % % % % & & # # % & & % $ o   % 3 3 = $     O O y &.:.` ) ` ] ] ] ] ] ` ` ` ` ` _ ) 0 ) {  . .|  .{ { { ' [ _ 0 5 5 5 7 e e 7 6 # # & % : : & & & & & & & & & & & & & & & & & > i > > > > i i i i i i i i i i i i i i i i i i i i i i i i i i i i i i i i i i i i i i i i i i i i i i i i i i i i i s s i i i i i i i i s s s s i d x -.6.4.w.H.%.%.4.$.z z B O.*.#.B x l g f w # = - f 3 3 f f s & & w f k g g B C #.2.W g g g N B B M M E M g l g f f = 1 1 & % % % % % % % % : : % % % % % % % % : : % % X X X . . . $ O $ 1 f l N B t t %.&.5.5.1.<.<.<.$.O.B z e y e z [ [ &.:.&.[ V z d i z V %.&.0.t.t.[.[.[.t.t.t.t.u.u.Y.u.u.u.u.t.t.r.r.q.0.0.1.1.} } B V v t g f f 1 - = $ $ $ $ $ # t %.0.q.t.t.t.[. X XOXOX XOXOX>X>X>XOXOX X X X X X X X X X X X Xu.u.u.u.t.q.q.q.0.9.1.<.+.} B N B m v k # @ o o X X X X $ $ $ $ % % % % % % & & = 1 f @ q 6.<XnXDXFXFXFXFXSXCXCX9X7X7X7X9X7X7X7X7X7X,X,X,X,X,X>X>X X Xu.t.0.+.+.5.J.R.XX3XcXvXvXcXvXvX5X6X<XoX.XoX1X3X6X5XcXcX5X1X<XXXU.J.J.R.XX1X4X1XXXU.U.J.4.C C C M v f f f f f f f g g v N ! O.,.6.e.H.XX2XcX3X4XE.,.#.2.#.^ b 2 ; q r M #.7.J.R.J.8.#.N C W W N M v f ; - - - = @ @ o @ $ % % % % % % % % = % ; - - ; ; - E ~ =.#.~ ^ W W M b g f g f f 2 f 1 1 = = # = 1 f f f f f f 1 1 f f g g g f f f k f f k h f > & & 8 8 8 i i i i i i i i i i i i i i i i i i i i i i i i i i i i i i i i i i i i i i i i i i i i i i i i i i i s p p p p d d d d ",
"> : > & & > : : & * 5 0 ' ] ] ]  .'.'. . . .{ _ _ [ [ V z t r r e e e e g w # # # q w t z m } } } &.&.%.V 6 6 e q q q t t t m W #.O.B m m B N v y q q t t w y q y m m m m m m N ! f # # % % % % % % % % % % % % % % % % % % & % % % % % % % & & % % % % & & # # s & O     $ % 3 3 = = 1 O O + 5 :.y.` ` ] ] ] ] ] ] ` ) ) ) ` ` { ` _ ) ` |  .| { { { ` ' ' u 7 5 5 5 5 e e 6 # * & & : : > & & & & & & & & & & & & & & & & & & i > > > > i i i i i i i i i i i i p p p i i i i i i i i i i i i i i i i i i i i i i i i i i i i i i i i i i i i i i i i i i i i i i i i w w 8 8 i d 8 o.w.7.5.H.J.O.%.6.o.z m m =.=.O.V b g f f # # - 1 1 1 1 1 s 1 & - f s g g W C O.#.$.W W m O.#.O.m M W N b b f - & % % % & % % % % % % % % : % % % % % % % % % % % % % X . . X . . $ O $ & f g g m z t %.&.5.5.1.<.1.1.<.%.O.B z t e u u z [ &.&.[ V m d w x o.&.&.y.t.[.[.[.[.[.u.t.u.u.u.Y.u.u.u.u.t.t.r.r.q.0.0.1.1.<.+.B m v t g f f - - = $ o % $ $ O + [ 5.r.t.t.t.[. X XOXOX{.OXOX>X>X>XOXOXOX X X X X X X X X X X Xu.u.u.u.u.r.q.q.0.9.1.<.<.O.B N N m M v @ @ @ o X X X X $ $ $ $ % % % % % & & & 1 % @ ; # VXDXFXFXFXSXFXSXSXSXCXCX7X7X9X9X9X7X7X7X7X8X8X,X,X>X>XOXOX Xq.&.1.1.r.U.E.@X4XcXVXVXVXvXbXcX3X1XoXoXoX1X6X6X5X5XcX5X5X<XE.R.W.J.8.e.e.U.T.E.U.8.4.%.B N N ! B M b k b g g g g g g g m W #.7.e.T.<X5XkX3XXXR.I.#.@.#.^ ^ n f n M ^ 2.J.E.E.F.@.N ! N v M b v f 2 ; ; = = % @ o O o $ $ % % % % % % = = % - 1 g - ; - f =.3.3.=.~ W T b b k f f 2 2 2 1 f 1 = & # = 1 f f f f f f 1 1 1 f f f f f f f f k f f k h s & & & 8 8 8 8 i i i i i i i i i i i i i i i i i i i i i i i i i i i i i i i i i i i i i i i i i i i i i i i i i s d p p p p d d d d ",
"% % & & & & % % * 5 0 ' ] ] ] '.'.'.'. . .{ _ _ u u z z t t w r t t r r g r # # # q w t t m [ [ &.1.w.5.} e + 6 q q q t g g z N N B B N N B N m t q q q w q q q w z B B B V m m W N w O # & % % # # & % % % & & % % % % % % % % : : % % % % : : % % % % % % O O # @   O > 3 3 : 3 % = - O + [ w.:.] `  .] ] ] ] ` ) ) ) ) ) ` { { { ` ) _ | :. .{ | ' ' _ u 0 7 5 5 5 5 e e 6 # # & : : > > > > & & & & & & & & & & > > > > > > i i i i i i i i i i i i d i i i p p i i i i i i i i i i i i & & i i i i i i i i i i i i i i i i i i i i i i i i 8 8 8 i i s i 8 i i 8 8 8 8 8 8 i d 9 z 6.7.5.J.K.7.$.-.7.W t t B W O.W V l f s - 1 f f k f 3 3 1 1 1 1 - w s k v N m N W W @.B #.4.#.z g W @.Q g s w - = = & & % % % % X X X % % % % % % % % % % % % : X X X X . . . . $ $ $ $ w g r g m e V <.1.5.5.1.1.1.1.$.$.O.B m m z u u u [ [ [ m g w * z o.1.0.y.t.[.[.[.[.|.[.[.u.u.u.Y.u.u.u.u.u.t.t.t.q.0.0.0.1.<.+.} V Z t g g f - = 1 % o $ $ O $ O w o.w.t.t.t.[.[.{. XOX XOX>X>X>X>XOX X X X X X X X X X X X X XY.u.t.r.u.r.q.q.w.9.1.,.,.+.} B B M M k @ o % o X X X $ % % % % % % % % = = & & = 1 ; # q DXDXFXFXFXGXFXFXSXSXSXSX9X9X9X9X9X7X7X7X7X7X,X>X,X,X>X>Xu.| } 1.r.Y.T.XX1X5XvXVXVXnXvX5XvXcX5X<XT.XX1X6X5X5X6X5X5XkXkX<XR.W.W.J.2.#.$.4.8.e.5.<.%.B B B } ! N v g f f b k g g k k b N ! $.6.I.@X5X3X@XK.J.J.2.! ^ E n n N ! ,.7.J.W.R.R.F.~ M M n v v n f 2 - ; @ @ @ o o o o o o o X % % = = % % % % @ 1 f f - = g ^ 3.D.3.#.^ b n n b b v g f 2 - - 1 = = # # = 1 1 2 2 f n g 1 - 2 f k k g f f f f f 1 f f s & & s > > > > i i i i i > > > i i i i i i i i i i i i i i i i i i i i 8 8 i i s s i i i i s s i i p p p p p p p d d j d d d d d p p p ",
"% % % : : > % & 6 7 ) ` ] ] ] '.'.'. . . .{ _ u 0 y e t t t t g g g g t g r # # 6 q w t t z Z V %.1.w.w.%.V q q q q w t g g g M m B B B m m m B t t q q q q q q q t m V B V V m N W g # # # & & & & & & & & & & % % % % % % % % : : % % % % : : % % % % % % O     O O & 3 3 3 % = = @ O 5 [ w.*X] ] ] ] ] ` ) ` ` ` ` _ _ _ ` |  . .` _ `  . .{ { ' _ _ 0 0 7 7 5 5 5 7 e 8 # # & > : > > > > > & & & & & & & & & & & & > > > i i i i i i i i i i i i i i i i i p i i i i i i i i i 8 i i i & & i i i i i i i i i i i i i i i i i i i i i i i i i i i i i i i i i i 8 8 8 8 8 8 i p 9 d -.6.6.w.U.U.w.$.-.$.B t t m B O.W N g f f f f f 3 1 > 1 1 1 1 1 1 - f f g m v t r M #.O.W #.B t z W #.#.M g w & & # % % % : % % X X X % % % % % % % % % % % % % X X X X . . . . $ $ $ $ & f f w w # z 4.1.5.5.1.5.5.1.<.&.$.O.B V V m Z u u z u y w 8 8 e [ 1.q.t.[.[.[.|. X X|.[.[.u.u.Y.Y.Y.Y.u.u.u.t.t.q.q.q.q.0.1.<.} B Z t v g f f 1 1 % o $ $ @ @ # O w $.r.t.t.[.[.{. XOXOXOX>X>X>X>X>XOX X X X X X|. X X X X X X Xu.i.q.u.t.r.q.0.9.<.+.+.%.} B N M b 2 O o % o X X $ $ % % % % % % % % = = & & = - w # @XDXFXSXFXFXFXFXGXFXFXSXSX9X9X9X9X9X9X9X7X7X7X6X7X6X>Xu.+.&.1.Y.Y.Y..X@X1X5XvXnXVXnXcX3X3X5X5X5X<XoX<X6X3X3X5X5X5X5X5X3XE.W.J.F.2.N v N $.$.$.$.<.$.O.} B B C N v r k v E b l l k k v m N B $.J.XX<XXXJ.6.4.$.! ~ M v n ^ ,.7.8.F.J.J.F.#.N v v v f 2 2 2 1 1 = % % @ @ o o o X X X X X % % = = % % % = = f n f ; f E #.3.3.3.#.W b n n b g g g 2 2 - 2 1 = # # # = 1 1 - - 2 g f - - f k l b g f f f f f f f f & & & > & & & & > > > > > > > > i i i i i i i i i i i i i i i i i i i i i 8 i i s s i s s s s s s s p p p p p p p d d j j d d d d d p p ",
"% % % : : : % * 5 c ' ] ] ] ] '.'.'. . . . .' u 0 e e e t t t t t t g t t w ; # ; q w t t t Z V &.5.e.H.5.o.z 6 q q e t g t g z m B B N m g m ! N v q q q q w w q e z m B V V m m ! N w & & & > & & & & & & & & : : > > > > > > & & & & % % : : % % % % $ $ o     @ % 1 & % 3 = @ @ 6 7 [ :.{ ) ]  .] ] ] ) ) ) _ _ ` | ` ` ` |  . .` | _  .{ _ _ _ 0 0 0 0 7 7 7 y 7 e 6 # * & > : > > > > > > & & & & & & & & & & & & > > > i i i i i i i i i i i i i i i i i i i i i i i i i i 8 & 8 & & & & > > > > > > > > 8 8 8 8 i i i i i i i i 8 8 i i i i 8 8 i i i i i i 8 8 8 8 8 8 i 8 8 8 W 6.7.w.U.T.K.&.o.%.%.B t t m W @.W N l f f - - - & 1 1 3 3 1 1 1 f f f f f f w # w #.#.B B m t m W #.*.O.N g w & # % % % 4 : : % % X % % % % % % % X X % % % % X X X X X X . . X X X $ % s l w # 6 y $.1.5.9.5.5.9.1.1.<.$.%.O.} [ [ V V u t e q w w w w m &.r.t.[.[.[. X X X X[.[.|.|.|.Y.Y.Y.Y.u.u.u.t.r.q.r.q.w.5.1.+.} V Z v k g f 1 3 % O o o X X % O # V 5.t.[.[.[.[.{.OXOX>X>X>X>X>X>XOX X X X X|.|.u.u.[. X X X Xu.i.r.t.r.r.0.1.1.,.} } } } C N M v ; O o % o X X X X % % % % % % % % = = = = # - ; q 3XDXFXFXGXGXGXFXGXGXFXSXSXSX9X9X9X9X9X9X7X7X7X6X6XoX9.Z } +.w.Y..X.X1X5XcXvXvXvXvX5X3X1X1X1X3X3X3X3X6X5X1X1X5X5X3X4X<XE.J.3.2.#.b r r N %.$.$.<.8.7.$.O.B B C %.N b M E E b g l v g g g t v C 7.U.E.R.J.2.! ! E ! n n ^ 3.3.7.2.,.#.! v v r ; 2 - - - 1 - = = = % $ $ @ o o % % % % % % % % % % % % = = f k k 2 ; b ^ ~ 2.3.2.^ E b g n b g f f - - 2 2 - - ; ; = = - 1 - - 2 f 2 - 2 g k b b g 2 f 2 f f g f 1 # & & & & & & & > > > > > > > > i i i i > > > > i i i i i i i i i i i i i i i i s s s s s s s s d d d d d d d d d d d d d d d d p p d d ",
"% % % : : : & 8 7 '  . .] ] ] '.] ] ]  . . .' u 0 y y y q t t t t t t r r w ; # ; q w t t z V } <.0.r.H.e.+.V q # q t t t g t g g m ! O.N m m B ! m t q q q w w 6 w t z B B V Z m B W M & # & & & & & & & & & & > > > > > > > > > > & & % % : % % % % % $ O     $ = = 1 ; @ - # w 6 7 { :.` ` ] ] ] ] ] ) ` ) 0 _ _ {  .| | | |  .|  . ._ ` | ) 0 0 0 0 7 7 7 y y e u z # * # & > > > > > > > > & & & & & & & & & & & & > > > i i i i i i i i i i i i i i i i i i i i i 8 8 8 8 8 8 & * & & & & > > > > > > > i 8 8 & & 8 8 8 8 8 8 8 8 8 i i i i i i 8 i i i i i i i 8 i 8 8 8 i i 8 8 g 7.-.F.K.R.K.4.B B @.$.m g t m #.@.Q M g f - # & - 1 k 3 3 1 1 1 f f f f ; f f w w W W B m t t V o.#.*.*.O.m w ; ; # % % 4 : : % % % X X $ X X % X X X X X X X X X X X X X . . X X X X $ @ l f w w e B 1.w.0.9.1.5.9.1.1.&.+.%.} [ [ [ V V m m z g r w + t &.r.t.[.[. X X X X X[.|.|.|.|.Y.Y.Y.Y.Y.Y.Y.u.t.t.t.r.q.0.1.<.} m Z v v g f 3 1 & @ o o X X   % O # [ 0.u.[.[.{. XOX>X>X>XOX>X>X>X>X X X X X|.|.u.u.u.u.Y. XY.u.u.r.r.r.q.9.1.+.} } } } O.O.! N v @ o X % X X X X X % % % % % % % % = = = = - # ; q 4XSXFXFXFXGXGXGXGXGXFXSXSXSX9X9X9X9X9X9X7X7X1XY.1.} } <.1.9.Y.oX<X6X5X5XbXbXvX5X5X4X<X<X<X1X5X5X5XcX5X3X1X1X4X3X<XE.I.8.,.W N v r r v ! O.$.<.5.e.4.$.} } B %.4.%.N N W b g f g v f r r t N %.6.J.I.J.6.C M ^ N N M ~ 3.^ ^ W n v N M v f 2 ; ; = = = = = = = % % % % % o o % % % % % % % % % % % % = - f g f - b ^ #.~ =.#.=.W b f f g E g - - - - 2 2 f - = = = - 1 f - - - f - ; 2 n k b g f f f f f f k f & & & & & & & & & & & > > > > > > i i i i > > > > > > > > i i i i i i i i i i i i s s s s s s s d d d d d d d d d p p p p p p p p p d d d ",
"% % : : : : * 9 ) ]  . .] ] '.'.'.'. . . . .{ _ u e y q q q t t e e e t r w ; ; ; w w g m m m B +.1.w.K.K.7.V q q # q t t g t t g m B O.O.m m B V B t 6 q q e q q w w t m V m Z m N B N l & # & > > > > > > & > > > > > > > > > > > > > > > > > $ > : % % O   o = 1 k b k e 6 5 0 { :. .` ` ] ` ] ] ] ) ) ) ) ) _ _ {  . . .|  . . . .| _ _ _ u 0 7 7 7 7 7 y u e e e s # & & & > > > > > > > > & & & & & & & > > > > i > > > > i i i i i i i i d d i i i i i i i i i i 8 8 8 8 > > i i i i i & & & & & & & > > & & & & & & & & > > > > > > i i i i i 8 8 8 8 8 i i i i i i i i 8 8 i 8 j @.7.6.H.U.W.w.%.m m #.-.o.t e W O.@.O.g f f - - - 1 h f f 1 1 1 f f f f f f f r r g O.O.B V B B B %.$.4.*.B t ; - @ % % % % % X X X X X X X % % % % % % % % % X X X X . . . . X X X X . % k b f w g v 1.0.w.w.0.9.5.1.1.<.+.+.} } } [ } B m m m v k r w # Z K.K.|. X X X X X X[.[.[.[.|.|.|.|.Y.Y.Y.Y.u.u.t.r.t.r.q.0.1.} } Z Z m f f 1 1 - % $ X X X . . $ @ t <.u.|. X{. X>XOX>X>XOX>X>X>X>X>XOX X X Xu.u.u.u.u.u.u.u.u.u.r.9.9.1.<.1.} ,.,.} } ! ! W E - % % : 4 X % % % % $ $ % % % % % % = = = = = ; ; Z 6XSXFXGXGXGXGXGXGXSXFXFXSXSXSXCX9X9X9X7X6Xt.[ [ } } 1.e.e.H.T.oX6X5X6X6X6X6X6X5X3X1XoXE.4X5XcX5XcXcX3X3X4X<XXXE.W.J.4.C N N k r f f v M B $.,.4.5.4.+.O.O.$.4.7.4.! v b v g g v v f v v Z O.7.I.R.I.8.! ~ 2.#.N E E ^ M n n f f f f f f f 2 - - - = = = = = = = % % % % % % % % % % % = % % % % % - - - f n b g b E W #.3.#.^ b f - f n b f - - - - - 2 f 1 - = = f g f 2 f f f f f f f k k g f f f f f b h 1 > > > > > & & & & & & & & > > i i > > > > > > > > > > > > i i i i i i i i i i s s s s d d d d d p d p p p p p d p p p p p p p p p d d d d ",
"% % : : : * 9 0 ' ` ] ] ] '.'.'.'. . . . . .{ { z u e y q y y e e e e t r w w ; # w w g m m m V } &.0.e.K.w.O.t q # q r t t t Z g m m B B m m m t m e q 6 6 q q w e t t m V V V m N B ! M s & & > > > > > > & & i i i i i i > > i i > > > > > > % % % & O     = n 2 k @.@.[ [ _ :. .] ` ` ] ] ) ` ` ) ) ) ) ' ` _ _ { |  . . . . . .| | ) _ _ u 0 7 5 5 7 7 y e e e w w & & & & > > > > > > > > & & & & & & > > > > > > > > > i i i i i i i i i d i i i i i i 8 i i i i 8 8 8 8 > > > > i i & & & & & & & & > > & & & & i i i > > > > > > > > > i 8 8 8 8 8 8 8 i i i i i i i i & 8 i i 8 R -.7.w.J.J.J.-.V m W %.#.V e g W @.W M b g f - - 1 f f f f 1 f f f k l f g s s w g Q %.%.%.%.B V #.#.O.#.N g f w @ $ % % % % X X X X X X X % % % % % % % % % X X X X . . . . X X X X . % 1 k g w r v <.0.5.w.w.0.9.5.1.1.1.+.} } } } o.B m m M M v g r q q <.Y.|.[.[. X X X X[.[.[.[.|.|.|.|.Y.|.Y.Y.u.u.t.t.t.t.q.0.1.+.} V t m g f f f 1 = $ X X X X % % $ # m 1.Y. X XOXOXOX>X>XOXOX>X>X>X>XOX X X Xu.u.u.u.u.u.u.Y.u.u.q.1.1.1.<.,.+.+.+.%.O.O.! W E - % $ : < 3 % % % % $ $ % % % % % & & = = = 1 ; # Z 5XCXSXGXGXGXGXGXGXFXGXFXGXSXCX9XCXCX>X|.&.} } <.9.0.r.u.e.r.Y..XoX1X6X6X4X5X5X5X5X3X4X4X3X5XcX5XcX5X3X4X@XE.I.F.6.,.C m v v f f v M B ! C +.,.1.w.5.1.5.6.6.8.F.6.$.B N E v f f r r t v C ,.I.R.J.2.! ^ 2.3.=.W T v f = - - - 1 1 1 1 1 - - - = - = = = = = = = % % % % = = % % % % = = % % % = % = - f n b n f M W ~ 2.=.^ b f - - 2 g f 2 - - - - - 2 2 - - - 1 b T b g f f f f f f f g k g g f f f k l h > > > > > > & & & & & & & & > i i i > > > > > > > > > > > > i i i i i i i i d d s s s s d d d d d d d p p p p p d p d d d p p p p p d d d d ",
"% % : : > 8 0 ) ` ` ] ] ] '.'.'.] ] ` ` ` { { [ V e q q w e e e w e t t t r w ; # w q r g m m V [ &.w.H.U.H.<.N q # q w t g t m t g m m m m m m t z t q q # q q w t t t m V V N V V B O.W g w & & > > > > > > > i i i i i i i i i i i i i > > > > > & & O @ 1 b l Q b M o.[ :.:. .` ` ] ] ] ] ` ) ) ) ) ) ) ' ` ` _ _ |  . . . . .| | | 0 _ u u 0 7 5 5 7 7 y 6 e 8 8 & & & & & & > > > < < > > & & & & & > > > > > > > i i i i i i i i i i i i i i i i i i 8 8 8 8 8 8 8 8 8 8 > > > > > & & & & & & & & & & & & & & & i i > > i > > > > > > > & & > > & & & & i i i i i i i i & 8 i i * g o.4.4.5.J.J.6.o.m m B #.O.m g m B o.W Q M g w - & s s s f f f f k l b l g s s d g o.$.$.$.%.V m o.O.W B m v g f ; 1 % % % % X X X X X X X X % % % % % % % % % % X X . . . . X X X X . X $ k b f r v +.5.5.w.r.q.0.0.1.1.1.1.+.+.} } } B V m M m v g t q q V K.oX|.[.|. X X X X|.[.[.|.|.|.|.|. X|.Y.Y.u.u.t.t.t.q.q.1.+.} V t m v g g g 1 = $ X X X X % $ % O # B r.|. X XOXOXOX>XOXOXOX>X>X>XOX X X Xu.u.i.u.u.u.u.u.t.r.9.,.<.<.,.4.7.,.#.,.#.! N N b @ O % % 4 . % % % % $ % % % % % % & & = = = = ; # B 6XCXCXGXGXGXGXFXGXFXGXFXSXSXCX7X6XoX} [ } 1.r.U.Y.Y.u.u.r.r.t.Y.<X1X1X6X5XcXvXcX5X5X5X5X5X5XcX5XcX3X4XE.W.J.7.,.! C m v t v v v N ! @.#.$.,.<.e.U.H.H.H.H.H.J.J.F.$.N N b r r n M M C O.7.U.@XI.2.! N ^ ^ ~ ^ W b 2 - = = = = = 1 1 - - - - = = = = = = = = = = = = = = = = = % = = = = & & # = = - f b E b n g M ^ ~ =.^ M f 2 - - 2 f 2 - - - - - 2 2 - - - - 1 T W E b g f f 2 f f f b k g g f f f l k s & > > > > > > > & & & & & & & & & & & & & & & & & & i i i i 8 8 i i i i i i d d s s s s d d p d d d d d p p d d d d d d d d p p p p p p p p ",
"% % % * 8 5 ) ` ] ] ] ] ] '.'.]  .] ` ` _ _ _ z V e q 6 q w e e e t t t t r q q q w q q t g m m %.5.e.K.T.U.4.C ; # # q t g v m t t t t m m g m m B m t e q q q w t t t m m V V m m B C O.V g & & > > > > > > > i i i i i i i i i s i i i > > > % & % O @ k E M M d w e _ { :.` ` ` ] ] ] ] ] ` ) 0 ) _ ` ` ` ` { ` ` |  .:. .{ ` ` | _ 0 _ u z u 7 5 5 5 7 6 6 w 8 * # & & & & > > > > > > > > & & & & > > > > i > > > i i i i i i i i i i i i i i i i i 8 8 8 & & & & 8 8 8 8 > > > > & & & & & & & & & & & & & & & & i i > > i > > > > > > > & & > i & & & & i i i i i i i i & & i i 8 w V -.&.4.5.F.F.-.B m m B O.B V t m #.@.@.W l s w & - s s f f f f f g R l l d e z M @.-.4.-.$.V m o.O.W O.N N m f - # $ X % % X X X X X X X X % % % % % % % % % % X . . . . . X X X X o o $ 1 b b f g B 5.w.w.r.q.q.0.9.1.1.1.<.+.} } } B B m M m m v v ; r q } .X|.OX|.|. X X X X X|.|.|.|.|. X X X|.Y.u.u.t.t.t.r.q.0.&.} [ z m g v g g f = $ $ X X % % $ % # O q +.t.|. X XOXOXOXOXOXOXOX>XOXOX X X Xu.u.i.q.t.t.r.9.e.e.8.4.4.<.,.+.,.+.#.#.! v w @ ; @ @ % % : : % % % % $ $ % % % % % & & & = = = - q } 1X7XCXGXGXGXGXSXFXFXGXFXSXvX1Xt.0.} } r.e.H.T..X.XY.t.q.t.r.t.Y.<X1X1X6XvXvXcX5X3X5X5X5X5XcXcXcX5X3XE.H.6.2.! N m m v v v v N W ! @.#.$.4.4.5.R..XT.T.U.K.U.I.J.4.! v t r v N ! #.#.2.7.U.@X@X7.! ! ^ E E T n n 1 % @ % % % % ; = = = = = = = = = = = = = = = = = = = = 1 = = = = = = 1 % % = 1 f f b T E M n n M W E W b b f - - f f g 2 - - - - - 2 2 - - 1 f ; b E T b g 2 f 2 f f g b b g f g f f l s 1 > i > > i > i > > & & & & & & & & & & & & & & & & & i i i i & 8 i i i i i i d s s s s d d d d d d d d d d p s d d d d d d d d p p p p p p p ",
"% % & 8 0 ) ` ] ] ] ] '.'.'.'.'.]. .] _ 0 u z V z e 6 6 # w e e w t t t t w q q q w q q t m m V +.5.H.U.T.U.7.O.r # # w t g m m m t t t g t t B $.$.O.B m t q q w r t t t m m m m m V V O.@.V w & & & > > & & & i i i i i i i i i i i i i i > > 1 % O @ s E E g + 6 u [ :. .) ) ` ] ] ] ] ] ] ` ) ) 0 _ ` | ] ]  .` _ | :.0. .` ` _ | 0 0 _ z e 7 7 5 5 5 7 8 6 8 8 & & & % & & & & & > > > > > & & & & & & & & i i i i s s s s i i i i i i i i i > > > & & & & & & & & > > > i & & & & & & & & & & & & & & & & > > > > > > > > & & & & & & & & & & & > > > i i i i i i 8 8 8 8 i > & i * 8 g O.&.&.4.w.J.6.@.m z m B O.} m m O.o.W B M g s & # s s s s s s g k M M M r e x V $.6.5.w.4.V g B O.B B O.#.#.v f % $ o % % % % % % % % % % % % % % % % % % % % $ X . . . . X X X X X o O % k b b g m 4.5.w.r.w.q.q.0.9.9.5.<.<.+.} } } B m m m m v r q w w + r.|.|.[.[. X XOX X X X X X X X X X X X Xu.u.u.u.t.t.q.q.1.+.} V m m v f f f - % $ $ $ % $ $ $ & O O w <.t. X X XOXOXOXOXOXOXOXOX X X X X|.u.t.0.9.1.1.1.5.4.,.,.2.2.,.7.2.#.! v ; # # # # ; ; @ O % % % % % % % % % % % % % & & = ; = 1 - q w.OX7X9XSXFXGXGXFXFXFXSXCX<Xr.} } w.r.T..X.X.X.X.X|.t.t.Y. X|.Y.Y..XoX1XcXnXcX5X3X3X3X5X5XcXcX5X4X<XE.J.2.! W M v v t g v N N W W @.@.@.O.$.4.e.U..XoXoXR.H.K.J.7.$.N t q r ! 2.7.7.8.H.I.E.E.F.3.#.^ n n b n - = % % = % $ % % = = = % % % = = = = = = % = = = = 2 2 2 2 - - 1 1 - - - - = 1 f 2 f b E E b b b g v M E M b b f f g g g g f f - - - - 2 2 - 1 f g - n T b n f f 1 1 - f b b k f f f k l f s & 8 i s s i i i i i i i i > > & & & & & & & & & & & & & & & > i i i i i i i i d s s s s d p d d d d d d d d d d d d d d d d d d d d d p p p p ",
"% & 8 5 ) ` ] ] ] '.'.'.'.'.'.'.].:.{ _ u 0 u u e w 6 6 # 6 w e t t t t t w q q q q q q w t m B +.5.H.U.T.U.8.,.m q # w t g m m m t t t t t Z B 7.6.$.O.B m t q w w r r t Z m m m m V m o.#.W z s & & i & & & 8 i i i i i i i i i i i i i > > > & % # f M l ; + y 0 &.:.` ` ) ) ` ` ] ` ] ] ` ` ` ) ) ) ` |  . . .` ` | :.y.:.{ _ _ ' 0 u u e 7 5 5 5 + 5 6 8 8 8 & & > : : & & & & & & > > > > > & & & & & & & i i i i i i i i i i i i i i i i > i > > & & & & & & & & i i > > & & & & & & & & & & & & & & & & > > > > > > > > & & & & & & & & & & & i > > i i i i i i 8 8 8 i i i 8 i 8 8 d V $.-.4.5.J.6.*.W m m V B B V m V W W W V M g s w s s s - w s f g b M N g z V o.$.w.H.K.J.O.t M O.O.%.$.4.7.O.N f % % % % % % % % % % % % % % % % % % % % % % % $ . . . . X X X X X X O O 1 k b l v %.5.e.e.q.r.q.0.9.9.9.1.<.<.} } } B V m m v v f f w ; # } .X|.[.[. X XOXOX X X X X X X XOXOX X X|.u.u.u.u.t.r.r.0.1.&.B m m v v v f - % $ $ $ $ $ $ $ % @ % # V 5.Y.|. X XOXOXOXOXOXOXOXOX X X[.u.u.t.1.1.,.,.,.,.2.4.2.2.2.#.! N r ; ; ; # # # q v M f @ # # % % % % % % % % % % % % & & # % = @ # w. X,X7X9XGXGXFXFXSXCX6Xu.} 1.e..XXXXX1XoX.XY.Y.Y.Y.t.u.|.Y.Y.Y..X.XoX3XcXnXvXcXcXkX5X3X3X5X4X<X@XW.F.,.N M v v g v g v m N N W W O.O.O.O.%.<.5.r.U.oX@XT.6.4.$.C O.B v t N ,.F.8.7.J.I.I.U.J.,.,.=.M v f 2 1 % o o % - % $ $ % % = = % % % % = = = = = = % = = - 2 2 2 1 1 1 1 1 - - - - 1 2 f f n T E b g f g f f b W E b b g f g b n n f f - - - - 2 f 2 f g g - f k k f 2 1 1 2 1 g b g f f f f k k f > > i s s s i i i i i i i i > > & & & & & & & & & & & & & & & & > i i i i i i i d s s s s d p d d d d d d d d d d d d d s s d d d d d d p p p p ",
"& * 9 0 ` ] ] '.'.'.'.'.'.'.'. . .| ` _ u u e t e 6 6 6 # q w e t t g g t w q w q q q q w t M o.$.5.e.K.U.H.5.<.O.t # q t t t m m Z t g t t Z V &.4.$.%.%.B m q q q q r t t t m m V m m B O.O.V d s i 8 i i i i i i i i i i s s s s s s s i i > # # - f w + O + [ { { ) ) ` ` ` ) ) ` ` ` ` ` ` ` ` ` _ ` |  . .` ` _ `  .:.:.{ ' _ 0 7 0 e 7 6 6 5 + + + 6 e w 8 & > > : : > & & & & & > > > > > & > > & & & & i i i i i i i i i i i i i i i i i > > > & & & & & & & & > > > > & & & & & & & & & & & & & & & & > > > > & & & & & & & & & & & & & & & > & & & & > > > > 8 8 8 i i i i 8 i 8 w z $.4.7.7.w.w.4.o.V B B } O.O.V z V W W W M l f s s s - - w r s g v m W V W O.%.-.w.K.U.K.4.m v #.$.4.5.6.6.$.#.v ; = % % % X % % % % % % % % % % % % % % % % % % $ $ . . X X X X X X @ O % 1 l b v N 7.e.e.r.r.q.0.0.9.1.1.1.<.} } } } B m m m v v n - ; q y r. X|.[.[. XOXOXOXOXOXOXOX XOX>X>XOX X|.|.u.Y.u.u.t.t.q.1.&.} V m m v v f 1 ; % % % @ @ % % % % % & q V w.u.[. XOXOXOXOXOXOX X X X|.u.u.u.r.1.,.+.+.$.,.,.,.@.! W N r ; ; ; ; ; ; # 4.J.R.U.#.q @   % % % % % % % % % % % = = = # # = ; # 1.|.OX8X9XCXFXFXSX>Xu.q.r..XoX<X5X5X3X3XoXY.H.t.Y.Y.t.r.r.t.Y..X@X1X1X3X5XnXbXmXcXcX3X4X4X@XR.I.I.6.,.! v f f f f g f g M B W W ! O.O.O.C %.&.<.w.U.XX@XU.<.%.B B #.O.B m %.7.J.e.J.I.I.e.5.,.! ! E n v 2 1 1 % % % % $ o $ % % % = % = @ % % % % % % = % = = = 1 2 2 1 2 1 1 1 1 - - - - 2 2 2 f b E b g f 2 g f f b W W E b b g b b T b f 2 2 2 2 2 2 v g g g f - 2 f f 2 1 1 1 f f g g f 1 f f k l k > i i s s s s i i i i i i i i i > & & & & & & & & & & & & & & & & & > i i i i p i s s s s s d p p d d p d p p p p d s s s s s s d d d d d s d s s ",
"8 6 0 ' ] ] ] '.'.'.'.'.'.'.] ` _ _ _ u u y y y 6 6 q q q w t t t t g m t w q w q q q q r g N #.&.5.e.e.r.5.<.%.#.t q # t t m m m m m g t t Z m } $.$.#.$.O.m r q q w w w t t t m V m m m B o.W x j 8 8 i i i i i i i i d d d d s s s s s s s s # l l # O + e &.{ ` ` ) ) ` ` ` ` ) ) ) ) ` ` ] ` ] ` ` `  . .| ` _ _ _ { { { ' _ u 5 7 9 7 6 6 5 6 + + + 6 w w * & > > : : > & & & & & & > > > & & & > & & & & i i i i i i i i i i i i i i i i > > > > & & & & i > > > > > > > & & & & & & & & & & & & & & & & > > > > & & & & & & & & & & & & & & & > & & & & > > > > 8 8 8 8 i i i 8 i 8 8 d %.4.7.4.7.7.-.O.} } O.$.-.%.B m z B W W M g s s s 8 & & w r s g g N O.W %.-.-.7.w.K.R.T.J.! m O.%.4.e.6.6.4.2.r - = % o % X X % % % % % % % % % % % % % % % % % $ $ . . X X X X X X $ @   & k b v m 4.8.9.I.r.0.0.0.9.9.1.1.1.} %.} } B V m m v f f = f @ # t .X|. X X X XOXOXOXOXOXOXoXoX>X>X>X X X|.Y.|.u.u.t.t.r.1.1.} V m m v v f 2 - % % % @ @ % % % % % O O e %.r.u.[. XOXOXOXOX X|.|.|.|.u.u.t.r.5.,.+.,.2.#.~ ^ M v ; ; ; ; ; ; q +.I.E.4X1X1X1XT.5.} q @ % % % % % % % % % % = = = % & o f ; V t. X,X7XCX6XY.Y.t.Y.Y.oX<X1X5XVXVX5XoXT.Y.Y.Y.Y.Y.Y.Y.Y..X<X5XcXcX5X3XcXnXnXcX5X3X3X<X@XU.8.7.7.,.! N v v v v v v v M N W W ! ! #.#.O.O.%.&.5.e.U.E.E.J.<.%.O.$.4.#.! ! 4.8.H.I.U.U.J.4.#.! ! W M n 2 2 % % % % % o $ % % % % % = % = @ % % @ @ % % % % = = - 1 2 1 1 1 f 2 1 - 1 - - - f f 2 b M M k - - - f g g b E E E M b v E W E n f f 2 f 2 2 f n g g f f 2 2 f f 1 1 1 1 f f g g f - 1 k l k f > i s i s s s i i i i i i i i i > & & & & & & & & & & & & & & & & & & > i i i i i s s s s s d p d d d p p p p p i d s s s s s s s d d d d s s i s ",
"5 0 ' ] ] ] '.'.'.'.'.].'.'. . ._ u u u u e y q q w w w w g t t t z m m M w ; w w w w w w g m O.$.5.e.w.5.<.,.$.O.B q # e t m m B B m Z t m v t m m O.$.#.#.! g w ; ; # r t g m m V B m B B W o.z e 8 w i i s s s i s s d d d d p p s s f s > # s W + + u &.:.{ ' ` ` ` ) ) ` ` ' ) 0 0 ) ` `  .`  .| ` | >.| ` ` ` _ ) ' [ _ u 0 7 7 5 5 6 5 5 5 6 + + + 8 w # # & & & & > & & & & & & & & & & > > > > > > > > & > i i i i i i i i i i 8 8 8 8 i 8 8 8 8 8 8 & i > > & & & & & & & & & & & & & > > > > > > > > > > > > > & & & % % % % & & & & & & & & & & & & & & & & & & & 8 i i & * i i 8 8 V 4.7.-.$.4.7.O.%.%.4.w.6.7.O.M m V W W z g g f s s - & w r d g N z #.*.@.#.$.7.7.e.T.T.H.$.N N O.7.J.J.$.4.! N b 1 % $ % % % % % % X X % % : : : : % % % % % % % % % . . X X . $ $ $ $ . $ 3 l b v %.8.9.r.r.r.q.q.q.0.1.1.1.<.} %.} [ V N m v r r f g @ # ; 7.|.|.OX|.OX>X>X>X>X>XOXOXOX>X>X>X X X|.|.|.u.u.u.t.t.0.1.} } N m v v f r - # @ $ % % $ $ % % % % % & g O.w.Y.Y. X|.[. X|.u.t.u.Y.u.u.r.e.5.,.,.#.E b b n - = ; # ; q q J.oX5XvXvX7X6X6X,X>XoXu.1.q @ @ % @ % X X = = % o = % % = = @ w t w.|.OX|.Y.u.0.q.oX6X<X1X1X5XVXVXbX1XY.Y.T..X.X.XoX1X1X1X5X5XvXvXmXcXvXbXcX3X5X3X4X<XE.I.4.$.O.O.! ! M g v v b b b v v N N N N W ! O.O.O.O.%.<.w.U.E.U.7.B O.B B #.O.O.4.6.J.J.F.F.D.2.@.~ ~ ^ W b k 2 1 = % % $ o @ $ % % % % % % % % % X % @ = % % % % = = = = - - 2 2 - - - - - - 2 2 n g f f v f - - - f 2 g b M W E n n b M W E b b b g f f 1 1 - 1 f 2 2 f f f f - 1 1 f f f f f f 1 1 f l l f i s i i i i s s i i 8 8 8 i i i 8 8 & & & & & & & & & 8 8 8 & & & & i i i i i i i d s s i i i i p p i i i i a a p s i i i i i i i i s s s s i i i i ",
") ) ] ] ] '.'.'.'.'.].].].]. .| _ u u 7 y y 6 6 8 w w w w e t t g z m m m w ; w w w w w w t m B O.$.4.4.$.+.+.%.O.B t # q t m V B B m m g m g g g v W #.! W M w w - # @ # q r g m B B m m B W o.z e w s s s s s s s d d d d d d d d s s s i f M Q + 5 [ { :.` ) ` ` ` ` ) ) ) ` ) ) ) ) 0 _ |  . . . .`  . .` ` ` ` _ ) _ _ 0 u 0 e 7 5 6 6 5 6 6 5 6 + 8 g g w # & & & & & & & & & & & & & > & > > > > i i > > > > i i i i i > i i i i 8 8 8 8 i 8 8 8 8 8 8 & i > & & & & & & & & & & & & & & > i > i > > > > & > & & & % & % % % % % & & & & & & & & & & & & & & & & & & & 8 i i 8 8 i i i 8 w %.4.&.$.$.-.$.%.7.J.J.J.J.7.W B V V W V M g s s s w w w r j g g m #.#.o.W V B } $.K.R.L.O.t m O.6.J.J.6.4.2.F.W b 3 1 % % $ % % % X X % % : : : : % % % % % % % % % . . X X . $ $ $ $ o $ > f b v B 5.e.r.r.r.r.q.q.0.9.1.1.<.&.} } [ V V N m v r r f @ @ O z K.|. X XOX X>X>X>X>XOXOX>X>X>X>XOX X X|.|.Y.u.u.t.t.q.1.+.} B m m v t f - ; $ $ % % $ % % % % % % # # w Z +.q.u.|.Y.u.t.Y.Y.t.t.t.w.r.e.7.#.#.r ; r f - - = r t ,.E.4XvXvXCXCX7X7X7X6X,X,X>X XY.5.B q @ = % = % o % = = = o o = % @ # m w.t.t.t. X.XY..X6X5X1X1XvXvXVXVX3XT.T.T.1X1X1X1X6X6X5XbXvXmXVXnXbXcXvXvX5X3X3X3X4XR.8.,.4.$.%.O.O.! B N v b b b v g v m b v v N W ! W B } O.&.6.H.U.e.O.N O.B B 2.7.4.2.#.#.#.#.#.#.~ W ~ ~ ^ W k 2 = % % % % % X $ % % % % % % % % % % % % @ o % % % % = = ; ; - - 2 2 - - - - 2 f f v g f 1 2 - - 2 2 f f f l b R W E b n b N W E b b k g f f 1 1 - 1 2 1 f f f f f 1 1 f f f f f f - 2 f k l k f i i i i i i s s i i 8 8 8 i i i 8 i 8 8 i i i & & & 8 8 & 8 & & 8 8 i i i i i i i i s s i s i i i i i i i i a a p a i i i i i i i i i i i i i i i i ",
"` ] ] ] '.'.'.'.'.'.'. . . . .` _ _ u y y y 7 6 6 6 # # q w t t z m m m m e ; w w w w w w t m m } O.&.<.<.%.O.O.B B t q y t m B B B N m g g g r ; # # # @ # ; # - # # O @ @ # ; t m m m m B [ B x d s s s s d d p p d d j j j j j j j s j > s l + 5 [ &.{ ` ) ` ` ) ` ) ) ) ) ) ) ) ) ) 0 ) `  . . . .`  .` ` ` ` _ _ ' _ 0 0 0 e e 7 + 5 6 7 6 6 6 6 6 d x g & # & & & & & & & & & & & > > > > > > i i i i i > i i > > > & & & 8 8 8 8 8 8 8 8 > > & & & & & & > & & & & & & & & & & & > > > > i > > > > > & & & & & & % % % & & & % % & & & & & & & & & & & & & & & & & & > i a i i i i i 8 8 + V -.$.$.$.$.-.$.5.J.J.J.U.J.-.o.V m B W N g d s s w s s s j g g W @.@.W z t t Z B 6.U.R.$.t m B *.L.4.! %.7.F.~ E k 3 : % % % % % % % : : % % % % % % % % % % % % % $ $ $ $ $ $ $ $ $ . . $ 1 v v v <.r.r.r.t.r.q.q.q.0.0.1.1.+.+.} } B V B N M v f f - %   O &.|. XOXOX>X>X>X>X>X>XOX>X>X>X>X>XOX X X|.|.u.u.t.t.q.0.<.+.B m m v v f f = % % % % $ $ % % % % % % @ @ # q V } w.r.t.U.r.t.t.9.e.6.F.7.@.r q q ; t q q q m I.5X5XVXnXCXCXCXSXCX9X7X7X6X,X,XOX XY.5.C t ; % % % % X % % = % @ ; @ f # t <.r.Y.@X6X1X1X6X5X5X1X3X6XvXVX7XoXU..XoX1X1X1X6X5X5X5XcXnXVXDXnX5X5X5X5X5XvXcX1XH.4.4.7.7.4.$.O.$.O.B B M N N M M v g v k g g v N W W B } O.$.5.e.J.5.} #.4.4.*.F.F.4.@.! B N W @.~ ^ ^ ^ W T b 2 = % o X $ $ $ $ % % % % % % % % % $ $ % % % % = = % % ; ; - - - - 2 2 - - - - 2 f v n f - - - - - - 2 f f f l b M ^ E M M N E W E M b b g f f 1 1 - - 2 1 f g k g f 1 f f f f f 1 = 1 f l b l h s s s i i i i i i s i i i i i i i i i s s s s i i > & i 8 8 & 8 8 8 8 i i i i 8 i i i s s s s s s s s i i i i d d d d i i i i i i i i i i i i i i i i ",
"] ] '.'.'.'.'.'.'. .] ` ) _ ` [ _ u u 0 y y q 6 6 6 6 # w t t t z m m m m e # w r r w w r t t m V B O.%.O.O.B B B B g q q t m B O.W M g w & # O O   O O     O O # # @ @ O O O O # 6 t V m V [ V x d s d d d d d d d d j j j j j j j j j s * + 6 u -.:.{ ` ) ` ) ) ) ) ) ) ) ) ) ) ) ) ) ) ) `  .:. .` `  .` ` | ` _ _ { ' 0 7 u e e 7 + + 6 7 7 6 6 7 d g x s O & & & & & & & & & & & & > > > > > > > i i i i > i i i & & & & & & & & & 8 8 & & > > & & & & & & & & & & & & & & & & > > > > > > > > > & & & & & & & & & % % % & & & % % & & & & & & & & > & & & & & & & & & > i a i i i 8 8 8 6 8 z %.$.$.-.$.&.4.5.e.J.H.R.K.6.#.B V W V M g d r s s d s s j g x W o.o.V e t e t V $.J.E.6.m g g W 6.! v ! 3.@.~ E k 3 = % % % % % % % : % % % % % % % % % % % % % % $ $ $ $ $ $ $ $ $ $ . O @ f N Z } e.r.r.u.r.q.q.q.q.0.0.1.&.&.} } [ B B B m v f f f % % O q Y. XOXOX>X>X>X>X>X>X>X>X>X>X>X>X>XOX X|.|.u.u.t.t.q.0.1.+.C m N m v f f - % % % % $ $ % % % % % % % @ @ # ; # } <.5.5.r.r.e.r.4.*.k ; ; r q ; r ; q H.<XVXDXSXSXSXCXSXSXCXCXCX9X7X7X,X,X,XOX Xu.r.1.C r @ X X : X X = @ = ; @ ; M B <.r..XoX<X<X<X<X1X1X1X4X5X5XvX5XoXY.Y.oX1X5XcXcX5X4X6XkXbXDXDXDXcX1X1X5X5XvXVX5XT.H.r.8.%.%.$.$.#.2.! M M N W W N N b k k g f f g M B W W } O.+.5.e.H.J.6.J.J.J.F.4.#.W W W M M W ~ W E E b b f = % % $ $ X X $ $ % % % & % % % % % % $ $ % % % = 1 1 1 - ; ; ; - - - 2 2 1 1 1 1 1 2 f f = = - - - - - - - f f g f M ~ ^ N M E W ^ W M b k g f f 1 1 - - 1 1 f k b g f - f f f f f = = 1 l b b f s s s i i i i i i i i i i i i i s s s s s s s s s s i i i i i 8 8 8 8 8 i i i i 8 8 i i s s s s s s s s i i i i d d d d i i i i i i i i i i i i i i i i ",
"'.'.'.'.'.'.'.'.].'.] ` 0 0 u u u e 7 y 6 w 8 6 # # w w w t t m m m V V m e q w t t r r t g m m V m B B O.O.O.O.O.W m w # q v M N v w @ O O O     O O O % % O   O O % % O O O O   O w m V [ [ [ x j j j j j d d d j j j j G G j j d d 9 9 5 9 x 0 ' ) ) ) ] ` ) ) ) ) 0 ) ) 0 ) ) ) ) ) ) _ |  . . ._ ` | _ _ ` _ _ | { ' 0 7 7 7 y 5 + + 5 6 6 e e e x x d & # & % & & & & % & & & & & & & & & & & > i i i i i i > & & & & & & > > > > > > > > i > > > i > > > & & & & & & & & > > > > > > & & & & & & & & & & & % % % % % % % & & & & & & & & & & & & & & & & & & & & & & & i i i i i 8 8 8 6 8 6 o.#.$.-.4.&.4.4.7.e.J.J.H.K.4.O.V o.B M g g d g j d s d j g M M o.-.W w g t Z V C 4.W.J.N g k M E v v M N E T k k 3 3 : % % % % % % % % % % % % % % % % % % % % % . . . . . $ $ $ $ $ O O O ; v N B 5.e.t.t.t.q.q.q.q.0.0.1.<.+.+.} [ [ B B m n f g f   % @ # <.oX X>XOX>X>X>X>X>X>X>X>X>X>X>X>XOX X X|.[.u.u.u.t.q.1.} } m N N v v g - % % @ % % % % % % % % % % % % @ @ @ # q C 7.6.6.$.m w ; - f ; ; q ; q 3XVXDXDXFXFXFXSXSXSXSXSXSXSXCX9X9X7X,X,X,X,X X|.t.9.} m f > % : : $ %   # ; t W #.8.XX@XoXoX<X1X5XcX5X5X5XkXvXVX5XoX.X@X1X3XcXvXkX5X1X<X4X5XbXVXVXvX5X1X1X6X3X5XbX5XoXU.5.<.+.O.,.7.6.6.#.N N B B W B ! N g g s g g g m N B O.} } ,.5.J.U.U.H.J.6.4.$.! N N @.W E N E E b g f - = % @ $ % % $ $ $ $ % % % % % % % @ @ % % % = % = 1 1 1 1 1 1 2 2 2 2 1 1 1 1 1 1 1 1 1 1 1 = - - - - - - - - f f f g f b E N M M E ~ ~ ^ E E k f 2 2 f f - - f f g k k n f - f f f f 1 = 1 l l b f s s s s s i i i i i i i i d d d d d d d d d s s i i i i i i i i i 8 8 8 & & & i i & & & 8 s s s s s s s s s s s s s s s s i i i i i i i i i i i i i s s s ",
"] '.'.'.'.'.'.'.`. .{ _ 0 u 7 7 y 7 7 6 w e w w # # w w e g g m m V B V m e w w t t t t t g m m m m B O.$.$.$.O.W N N v w w w ; @ @ O   O O % % $ O   O O $ $ O O % % % O O O O O O # z V [ [ [ z z j j d j d j j j j j j j j j j d c c 0 0 u _ ) ) ) ` ) ` ) ) ) ) 0 0 0 0 ) ) ) ) ) ) _ |  . . .| _ _ | _ ) _ _ ' { { _ y 7 7 7 7 6 5 + 6 6 e z z z z d & # & & % & & & & % % & & & & & & & & & & i i i i i > > & & & & & & & > > > > > > > > > > > > i > > > & & & & & & & & & & & & & & & & & & & & & & % % % % % % % % % % & & & & & & & & & & & & & & & & & & & & & & & 8 i i i i 8 8 8 6 # 8 x @.#.-.7.7.$.&.4.5.4.5.J.H.w.$.o.o.o.B M g g g g d s j l l R R =.P.4.m t m V B C $.F.F.W k b f f f ; - @ 1 1 1 1 > : : % % % % % % % % & 1 % % & 1 % % % % % % X . . . . . . $ $ $ o o O O @ f N m 4.8.r.r.t.r.q.q.q.q.0.5.<.&.&.} [ [ [ B m v v g g @ $ @ O q r.OX>XOX>X>X,X>X>X>X>X>X>X>X>X>X>XOX X|.[.u.u.t.t.y.1.+.} V N N m v f - % % % % % % = = % % = = % % % % % % % # @ ; M v r ; ; - f @ v m r.oXFXFXFXFXFXFXFXFXSXSXSXSXSXSXCX9X9X9X7X,X,X,X,XOX[.i.0.<.B g & % % $ o f b F.L.J.F.L.@X<XoXoX3X5X5XvXbXvXvXmXVXVXvX1XoX1X1X5XvXvX5X1XoXoX1X@XoXoX1X3X3X4X1X1X1X<X5XbX5XT.5.4.<.$.4.6.6.7.#.m g m m m B O.#.W k s s d g M V W O.%.+.$.5.J.K.H.J.6.4.$.! ! B W ! #.W W E b f - ; % % @ @ @ $ % % % $ $ % % % % % % % % @ @ @ % = 1 2 2 2 3 1 1 1 1 2 2 2 2 1 3 1 1 1 1 1 1 1 1 1 1 1 - - - - - - - f l g f b b b b n n N ^ ~ ^ W E g f 2 f f f 1 - f f g g b g f - f f 3 3 = - f b l k f s s s s d i i i i i i i i s s d d d d d d d s i i i i i i i i i i 8 8 & & & & & & & & & 8 i i i i s s i s i i i i i i i i i i i i i i i i i i i i i s s s ",
"'.'.'.'.'.'.'.'. .` _ ) u u 7 7 7 6 6 6 8 e w w # # w w t t m m m B B B m e q e t g t t t g v m m m B O.*.#.! ! ! N M v ; ; ; O O @ @ @ $ $ o o $ $ $ $ % $ o o % % % % % % @ O @ @ # q V [ [ [ x u j j d d d j j j j d j d d j c c c _ _ ' ) ) ` ) ) ) 0 ) ) ` ) ) 0 0 0 0 ) ) ) ) ) ) `  . . . ._ ) _ { ) ) ) ' [ { { u 7 5 7 9 9 6 + + + 6 e z V M g 8 & & & & % % % % % % % & & & & & & & & & & > > i i > & & & & & i i i i i i > > i > i i > > > > > > > > & & & & > > > > & & & & & & & % % % % % % % % % % % % % % % % % % % & & & & & & & & & & & & & & & & & & & & & 8 i i i & 8 8 & & 6 8 d Q *.4.6.6.%.+.<.4.&.<.5.H.J.-.O.o.o.o.B M M x x d j g l l x M #.D.J.O.t B } %.$.4.4.6.! v f ; ; - @ 1 f # = % % % : : : % % % $ $ % % 1 1 1 1 1 = & & % % % X X X . X X X X . . . o o o o   ; f v %.e.e.r.t.t.r.q.r.w.0.0.1.&.&.} } } [ B m m v g b ; o o @   C .X>X>X,X,X,X>X>X>X>X>X>X>X>X>X>X>X X X[.[.u.u.t.r.1.+.} B N N M b f ; @ @ = = = = = = = = = = = = = % = = = % ; - @ ; ; @ ; 2 ; M @XvXDXDXDXFXFXFXFXGXGXFXFXSXSXSXSXCX9XCX9X9X7X,X,X,X,X>X[.u.t.0.} m w - @ k ^ D.W.kXkX2X@X3XcX3XoX1XcXvXVXVXVXvXvXvXcX5X2XoXoX@XoX3X5X2X@X.XU.U.r.5.9.U.<X1X<XoX<X1X<X1XcXcX<X5.+.5.6.8.H.e.6.$.W g g B m B O.,.4.W g w w s M W #.$.4.7.5.5.e.K.J.F.2.O.! C B B ! ^ W E b b g - # % % % % % $ @ $ $ % % $ % % % % % % % ; ; % % = 1 1 1 f f 2 1 1 3 f f f 2 2 2 1 3 3 3 1 1 1 1 1 1 1 1 = - - - - - - - g M f f b v v v v n N ^ ~ ^ E b g f f f f f f - g f g b b f - 2 f 3 1 1 = 1 k b l f s s d d d d d p p p s d d s d d d d p p p p p p i i i i i i i i i 8 8 8 8 8 & & & & & & & & i i i i i i i i s s s s i i i i i i i i i i i i i i i i i i s s ",
"'.'.'.'.'.'. .] ` ) ) u 0 7 7 7 6 6 6 6 6 w w # # # q w t g m m m B o.B m e q t t m v v t t v v B V B O.#.#.#.*.#.R g - @ % = $ O O o   $ $ % % $ $ $ $ $ o O $ O $ % % % % $ o   O O + z [ [ u [ u c c c d d d d d d d d d c u c _ _ _ ` ` ` ` ` ] ) ) ) 0 ) ) ) ) 0 0 0 0 ) _ ` ` ` ` `  . .` | _ ) ) _ 0 0 0 _ ' _ u u 7 5 7 9 9 6 + + + 6 e z V M e & & & & & % % % % % % % & & & & & & & & & & > > > & & & & & & & i i i i i i > > i i i i > > > > > > > > > & & & > > > > & & & & & % # % % % % % % % % % % % % % % % % % % % & & & & & & & & & & & & & & & & & & & & & & i i & & 8 8 & & 8 j 8 z -.7.4.4.&.+.+.<.&.$.7.e.w.4.%.o.B } [ V V V x g j g l l j r M *.J.4.m O.%.4.6.6.6.6.W v f w - @ 1 - % = = = % % : : % % % % % % % = 1 1 2 3 1 = & & % % % X X X . X X X X X X X o o o o o   ; r N 8.8.r.u.t.r.r.q.r.0.0.1.&.&.} [ } } C m N v f g = @ % $ @ q 1.>X>X>X>X,X>X>X>XOXOX>X>X>X>X>X>X X X[.[.u.u.t.t.1.1.+.B B m m b f # % @ = = = = = % % % % % = = = = 1 1 % 1 1 1 # - - - r ; C 4XDXDXSXFXDXFXFXGXGXGXGXGXFXSXSXSXSXSX9X9X9X9X7X8X,X,X,X,XOX[.t.0.&.B N N 2./.2X2XR.2XkXkX5XvXvXcX5XvXvXVXnXbXmXcXnXkX3X<XU.e.e.H.T..XU.r.w.e.H.r.9.1.r..X3X3X<XoX<X3X<XoX5X@XU.<.<.5.5.5.1.+.O.O.B g m m V } ,.8.8.#.g w w r M O.4.6.J.J.e.8.J.J.J.7.#.W N W ! ! N b b b f 1 ; # % % % % % $ @ @ @ $ $ $ % % % = % % # % ; ; 1 f f f f f f f f 1 f f f f f 2 2 2 1 3 1 1 1 1 1 1 1 1 1 - = - - - - 1 - - T W f - g f f f v v M ^ =.^ E b f f f f g f f 1 f f k E T f - f f 3 1 = 1 f l l f s s s d d d d j d d d d j d d p p d d p p p p p s i i i i i i i i 8 8 8 & 8 8 8 & & & & & & & i i i i i i i i i i i i i i i i i i i i i i i i i i i i i s s s ",
"'.'.'.'.'. . .` ) 0 0 0 7 7 5 6 6 & # # # & & & # # q w t g m m V B O.W m w q t g g g g t t t m m W W B W @.#.~ b f % $ % % % % : : : % > % $ O $ $ % $ % $ @ @ O O $ % % % % $ O O O + 5 u _ 0 0 _ _ u ' c c c c u u u 0 0 u ' ' ` ` ` ] ] ] ` ` ` ` ) ) 0 0 _ _ ` ) ) 0 ) _ ` ] ` ` `  . .] ` ` _ _ ) 0 0 0 _ [ _ u u 7 5 9 6 e 9 6 6 + + 6 e t z g w * & & > & & & & & & & & & & & & & & & & i i i > & & & & & & & & > > > > i i > > > i i i > > > i i i i i > > > > & & & & & & & & & & & & % % % % % % % % % % % % % % % % & & & & & & & & & & & & & & & & & & & & i i i i & & & & & & 8 8 s s 8 g #.6.7.$.<.<.&.&.7.&.$.&.4.4.4.%.[ [ } o.o.V M x x j l k s g w @.J.8.} O.7.K.R.W.J.L.2.f g % % - ; ; ; @ = & & & % % & # # # # & = 3 f k k 3 1 = = = % $ % % % X X X X X X X X X X X X X . O o @ r #.8.e.r.r.r.r.r.r.q.q.0.&.&.} } } } } B m v g g g O @ o @ @ } .X,X>X,X>X>X,X>X>X>XOX>X>X>X>X>X X X[.[.u.u.u.t.9.<.} B B N m v - # % 1 : : % 3 3 $ % 1 % % = = & & & 1 1 = 1 1 1 1 1 = ; q C 1XCXSXSXSXFXFXGXFXFXGXGXGXFXFXFXSXSXCX9X9X9X7X7X,X,X,X,X,X>X Xu.0.&.O.4.8.L.2XkX@X@X4X5XkXkXkXmXvXvXVXVXnXcXkX5X3X2X@XT.J.5.5.4.5.<.<.<.1.1.5.w.w.w.w.Y.1X5X5XoXoX5X@XT.<X2XoXU.e.w.e.e.e.1.%.B m g g m B %.<.e.U.U.<.m t t e O.J.H.H.H.e.7.4.,.$.=.#.~ W N E E b b b g f 1 1 = # % % % % % % % $ % % % % % % = 1 = % % = ; f l b b l g f f f f k l k k f f f f - - 1 = = 1 1 1 1 # = = - - - 1 1 1 1 - 1 Q E l f g k g f g b E ~ W E M b g f 2 f f f 1 = - g T T f - - f 2 - - = f k l k d d d d j d d d j j d d d d d d p p p p p p i i i s s s i i i i i 8 & & & & & & 8 8 8 8 8 8 i i i i i i i i i s s s s s i i i i i i i i i i i i i i i i i s s i ",
"'.].].].].:.| _ 0 0 0 0 y y y q # # # # # # & & # 8 q w t m m m m B O.B m w q t t g g m t t t g g N W W W M b f - & % % : : = : 3 > : % : % $ $ $ $ $ $ $ @ @ @ % O $ % % % % % % O O + 5 0 u 0 0 ) ' ' { { { ' ' ' _ u 0 u _ ) ' ` ] ] ] ` ` ` ` ` ` _ ) 0 0 ) _ ` ` ) ) _ ` ]  .] ` ` ] ] ` ` ` ` ` _ 0 0 u [ _ 0 7 0 7 5 6 6 9 e e e w 6 w w t z e 8 * & & & & & & & & & & & & & & & & & & & & & & & & & > & & & & & > > > > i i > > > > i i > > > i i i > > > > & & & & & & & & % % & & & & % % % % % % % % % % % % % % % % & & & & & & & & & & & & & & & & & & & & i i i i & & & & & & i i s * s w o.7.7.&.4.<.<.<.4.<.&.$.w.e.w.&.%.[ [ o.[ V M x x d j s # g v W 4.J.%.$.J.U.T.R.L.J.*.M b k ; @ - ; @ - = & & & & % % @ # # - 1 k k l k k 3 1 = = % % $ % % % X X X X X X X X X X X X X . . $ @ @ v #.8.8.r.r.t.r.q.q.q.w.0.1.+.} } } } B B m v g g   O %   @ t 1.OX>X>X>X>X,X>X>X>XOX X X>X>X>X X X|. Xu.u.u.r.w.1.} C N N M v - # % & % 3 3 : : > > % 1 > % % & & # # = = 1 1 1 1 1 - ; q 1.5XCXSXSXSXFXGXGXGXGXGXGXGXGXFXFXFXSXSX9X9X9X7X8X6X6X,X,X,XOXu.1.} +.<.e.U.E.4X5X<X4XkXvXmXbXbXVXVXVXVXvX5X5X2X@XT.H.J.6.4.$.%.O.O.+.+.<.1.1.1.1.1.r.U.oX6X5X5X1X1X4XoXT.<X1XE.H.J.J.H.H.e.6.4.%.B B B W O.<.5.I.T.I.4.B m B O.6.U.K.J.6.6.O.O.B N E W E R E E M b f f f - = = ; ; % % % % % % % % = = = = = = & = % @ ; - g b T R b b b l f l l b l k f f 2 - - - = = = = 1 1 1 1 # = = = 1 1 1 1 f f 2 f E R b b b b b f b b E ~ W E b b g f f f 2 2 1 1 f b E b 2 - 2 f - - = - f l l f d d d d j d j d j j d d d d d d p p p p p p i i i i i i i i i i i i & & & & & & 8 & & 8 8 8 i i i i i i i i i i i i i i i i i i i i i i i i i i i i i i i i s i ",
"].].].].:. .` _ u y y y y e e y # & # # # # # # # q w t g m m B B B O.B m q q t t g g m t t t g M N M M w # @ @ # & & : = = = > % > > & & % % % $ $ O O @ @ @ @ @ % O % $ $ % % % % O O + 7 u 0 0 0 _ ' {  . . . .{ { ` _ ) ) ) ) ` ` ` ` ` ) ) ) ) ` _ _ _ ) ) _ ` ` ` ` `  . . .` ` ` ` ` ` ` `  .{ _ 0 0 u z 7 7 7 7 7 5 9 5 9 z x x d d e w t t q 6 * # & > & & & & & & & & & & & & & & & & & & & & & & & & & & & & > > > > > > > > > > i i > > > > i i i > & & & & & & & & % % % % & & % % % % % % % % % % % % % % % % % % & & & & & & & & & & & & & & & & & & & & > i i & & & & & & & i i s + w + z 4.5.6.4.4.4.4.4.4.&.%.6.H.K.e.&.} } o.V W R V x x j s & s N B $.K.7.e.T.H.6.7.#.#.~ ~ ~ ^ b f f f ; r w - - s 1 - - - f f g l R T n k k 2 1 1 = = % $ % % % X X X X X X X X X X X X X . . . O   @ f ! 7.8.e.r.q.q.q.q.w.0.1.1.+.} } } B B N v v l   O o   O @ t u.>X>X>X>X>X>X>X>X X[. X X>X>X X XY.Y.u.u.r.q.1.<.} B m M b f ; % # = 1 = 1 = 1 1 1 3 3 3 1 = 1 = = ; ; = = 1 1 1 3 1 ; q r.7XCXSXSXSXFXGXGXGXGXGXGXGXGXGXGXGXSXCX9X9X9X7X7X7X6X1X|.t.0.1.<.<.1.H.@X3X3X3X5X5X5XkXvXVXVXVXDXVXVXcX3X3X3X@XJ.4.4.4.,.$.O.O.O.O.+.+.<.<.<.1.1.0.U.oX4X5X5X4X1X1XoXY.T.oXT.U.H.H.J.H.J.e.4.4.O.B O.#.,.7.5.I.T.XXR.J.$.O.*.2.6.F.$.#.O.#.B N m M M R R b R M b f f f 1 = = # = = % % % % % % & & = = = = & & = & % ; - 2 b b b b b E M b l l l l f f f f - - ; ; - - - - 1 1 1 1 1 - - = = = 1 1 f g f g b b b b b b b l b b E W E M b b f f f g - 1 1 f k T E f - - 2 2 - - - - f l f w d d d d j j d d j j j d d d d d p p d d p i i 8 i i i i i i i i i i i i 8 8 & & & & & & 8 8 i i i i i i i i i i i i i i i i i i i i i i i i i i i i i i i i i i ",
"'. . .] | _ _ _ u y y y e z t y w w & # # # # # # q q t g m m B B B O.B m w q t g g g g g t r g g g r ; @ O @ @ # # # % % % $ @ % $ O   O O @ @ @ @ O @ @ @ @ O O % O % $ $ % % % % @ O + 6 e u 0 0 0 0 ` {  . . . .] ` ' ) 0 0 ) ) ) ) ) ) ) ) ) ) ` ` ` ` _ _ ) ` ` ` ` ]  . . .` _ ` | ` ` `  . . ._ 0 u u 7 7 7 7 7 7 5 9 5 e x V V z z e 6 e w 6 # * & & & & & & & & & & & & & & & & & & & & & & & & & & & & & & & > > i > > > > > > > > i > > > > & & & & & & & & & & & & % % % % & & % % % % % % % % % % % % % % % % % % & & & & & & & & & & & & & & & & & & & & i > & & & & & & & > i j i 8 + + 6 $.6.J.4.4.7.5.4.4.<.%.&.e.T.R.w.%.} [ o.o.o.Q Q M g s s w g W 4.W.H.R.H.&.B m v v k k E W #.2.! W N v f f s g f f k b b E Q ^ E b k k k 2 1 = = = % $ % % % X X X X X X X X X X X X X . . . X o   @ ; ! 4.8.5.9.r.r.0.0.w.w.1.1.+.} } B B N M b b @ @   % % @ # }  X>X>X>X,X,X>X>X X[.[. XOXOXOX XY.u.u.t.q.0.<.+.! C N N b - # ; = - 1 % = % = = % - % % & = = = ; ; ; = = = 1 1 1 1 w y r.6XCXSXSXSXFXGXGXGXGXGXGXGXGXGXGXGXFXSXCX9X7X9X7X6XOX|.0.&.1.r.Y.T.U.T.4XcXcX3X5XkXvXvXvXnXnXVXVXbX5X1XoXoX@XJ.%.O.%.$.%.C O.$.<.<.,.<.<.1.<.1.5.r..X<X5X5X5X4X3X3X<XXX.XT.e.e.H.J.e.e.5.7.} O.m B *.6.7.5.e.U.E.E.I.F.$.#.2.2.*.O.N N B B N N M b b b b l b l g f 2 1 - % # & = = % % % % & & & & % % % % % & 1 1 f 1 f f g g k b M E E M b l f f - f f f - - - - - - f f - 1 1 1 f 2 1 1 = = 1 1 g b k b k k n n g b b b k b b E R M b b f f g f - = 1 g T E T 2 - 2 2 - 2 f f f f k s s d d d d j j d d j j j j d d d d p p d d i i 8 8 i i 8 8 i i i i i i i i 8 8 8 & & & & & 8 8 i i i i i i i i i & i i i i i i i i i i i i i i i i i i i i i i i i ",
"] ` _ 0 u u u u y 7 7 7 7 e e t q ; # # # # # # q w w t t t m B C C C B g w w t g r t g g k g f w # @ @ O   O @ @ # - - - = # # O O O O O O O O O   @ @ @ O o O O @ % % $ $ $ $ = % @ @ O # e u u u 0 0 ) ` ]  . . .] ] ` ) ) 0 0 0 0 ) ) ) ) ) ) ) _ ` ` ` | ` ` ` ` ] ]  . . .` ` ) _ _ ` `  . . .| _ 0 0 e 5 7 5 7 7 7 7 5 7 z V V x z z g 6 w w w 8 * & & & & & & & & & & & & & & & & & & & & & & & > > & & i i i i i i i i > > > > > > > > & & & & & & & & & & & & & & & & % & & # % % % % % % % % % % % % % & & & > > > > & & & & & & & & & & & & & & & & & & & > & & & & & & & & s i i i * & + 8 + o.6.F.J.w.5.5.4.4.&.&.%.w.R.R.J.&.[ V o.o.o.o.o.V g w s r r O.F.R.E.U.4.B t g f w w w r v #.6.6.2.#.O.! m M M b N W ~ ! @.#.W b l g g k 2 2 3 1 1 % % % % % % X X X X X X X X X X X X X . . . $ O   O # M ,.5.9.w.q.0.w.9.1.1.1.<.} } B B B N b b @ @ @ 1 Q - # q 5.oX>X>X>X>X>X>XOX X[.|. X X|.Y.u.r.r.q.1.,.+.%.%.! ! E v = @ - - ; ; - w ; ; ; ; @ w - - - ; = = = = = 1 = - 1 1 1 q u u.6X9XCXSXSXGXGXGXGXGXGXGXGXGXGXGXGXSXSXCXCX7X>Xu.t.0.1.0.K.Y.T.oX@X@X1X3XkXcXcXmXnXvXkX5XcXVXnXbX5X3X@XY.U.w.$.O.B C B B O.$.<.4.4.4.4.5.1.w.w.r.U.oX6XcXcX4X1X1X1X@X.XH.<.<.5.e.e.6.6.5.4.V m z B 7.J.e.5.5.H.R.J.7.$.#.*.#.@.! E N N N v l l l b b b b l g f f - - - - & % % & & % % % % # # % % % % & & & = 1 3 g f f f f k b E ^ ^ W M b b g f - - - - - - f g n n b b f f 2 - f 2 2 - 1 # ; f T E b b k g g f f g k b g f g b b b b b g f f f - - g b W T n f 2 2 2 - g g g g j j d d d d d d j d d d j j d d d d d d p p d d i i 8 8 i 8 8 i i i i i i i i i i 8 8 8 & & & & i i i i i i i i i i i & i i i i i i i i p p p p i i i i i i i i i i i i ",
"_ ) 0 0 u y e y y 7 7 y 7 y e q q # # # # # ; ; q w w t t m B B O.O.! B v w w g g g g g g f w ; @ O O O O @ # ; b b M M N M k r ; w r g g r # O O O       o @ @ O @ @ % $ $ $ $ % % $ @ @ @ 8 e x _ u 0 0 ) `  . . .] ] ` _ _ _ _ ) 0 0 ) ) ) ) ) ) _ ` `  . . .` ` ] ]  . . .] ` _ ) ) _ ` | | ` ` _ u 5 5 7 5 7 7 7 7 e e y e z x z d d g e 6 8 8 8 8 & & & & & & & & & & & & & & & & & & & & & & & & > > & & i i i i i i i i > > > > > > > > & & & & & & & & & & & & & & & & & & # & % % % % % % % % % % % % % & & & > > > > & & & & & & & & & & & & & & & & & & > > & & & & & & & > i i i 8 & & + * 8 M J.R.R.K.e.5.4.<.&.&.%.5.K.R.H.w.$.[ o.W o.o.W M d w w g g ! 6.U.T.J.B m t g k w r r q m B ,.J.8.4.,.#.O.W W ! ! #.#.#.O.E v k f f f f 2 2 3 1 1 % % % % % % X X X X X X X X X X X X X X . . $ $ o o   @ r ! <.5.5.e.q.9.5.1.1.<.,.+.} C B N b b @ O @ f 3.f @ @ Z e.>X>X>X>X>X>XOX X|.u.u.u.u.t.r.r.9.1.<.,.,.,.#.W W b f ; @ - - ; ; ; # ; q ; ; ; w # @ ; = - = = = = 1 = = = 1 - y [  X7X9XSXSXGXGXGXGXGXGXGXGXGXGXGXFXFXFXSX7X<XY.q.0.Y.Y.H.U..X<X<X1X4X3X5XcXbXbXVXDXVXcX3X5XbXVXnXcX5X1XY.H.r.<.%.B B m m B O.,.4.5.5.e.e.w.1.5.r.U.oX6XvXVXvX3X1XXXU.U.H.5.<.5.e.J.J.J.6.4.<.%.V m } 6.H.H.J.e.J.8.2.@.! ! ~ E E M b b b l g l l l l g g g g f f - - - - & & % % % & % % % % # # & # % # & & = 1 1 f f 2 f f b ^ #.=.=.#.~ E R b g f 1 f g b b b E W ^ ^ ^ W v f f 2 2 2 - - f 1 1 g E W b n g f f f f f g k g f f f f b b b f 2 2 f - f n T E T g 2 - - 2 2 b b l g j j d d d d d d j d d d j j d d d d d d d p d d i 8 8 i i 8 i i i i i i i i i i i i 8 8 8 8 i i i i i i i i i i i i i i i i i i i i i i p p p p i i i i i i i i i i i i ",
"_ 0 u u z e y y 9 8 9 9 8 8 q # ; # # # # ; q q q w w t m N C ! O.O.! B t q q g g k f f w ; # @ O O @ # w k N W @.@.@.! ! W m v t v N O.#.O.M r # # @ O     @ @ O O @ % $ $ $ $ $ $ $ o % @ # 8 z [ _ 0 0 0 ) ` ` { ` ` _ _ ) ) _ ' ' ) ) _ _ _ ` _ _ |  . . . .` ` ` ]  .] ] ` ` _ ) 0 _ { ` ` _ _ _ 0 5 5 5 5 5 5 7 y m z e e z z e e e g d 6 8 8 s 8 & & & & & & & & > > > > > > > > > > > > i i i i > & & & & & & & & & & & > > > > & & & & & & & & & & & & & & & & & & & & & & % % % % $ $ % % % % % % % % % & & & > > > > & & & & & & & & & & & & & & & & & i i & & & & & & & & > i > & & & & # # 8 w 7.R.T.U.H.e.7.4.&.$.&.4.J.U.R.K.7.%.o.W o.o.o.V g g r g g N 4.J.J.6.N v N W E k g g N B B O.5.e.6.7.O.O.B O.O.O.! ! W B M g k k f f f k 2 3 1 1 = % % % % % X X X X X X X X X X o o o X X . X X . o $     ; N ,.4.1.9.9.9.1.1.1.<.,.} } C B M b O   @ R 3.E O   @ m r.oXOX>X>XOX X XY.u.r.q.w.q.e.8.5.4.<.,.$.#.W v n r ; - ; - - ; ; q t ,.8.8.R.E.#.M ; ; - = - 1 1 1 1 = = - - ; q }  X,X9X9XSXSXGXGXGXGXGXGXGXGXFXGXGXFX7XY.0.1.1.r.oX<X1X1X1X6X3X5X5XvXmXmXbXnXnXZXDXVXnXnXnXDXDXnXkX4XoXU.H.5.<.O.B m v N O.$.1.e.r.r.e.e.e.5.w.H.oX6XvXVXVXvX4XT.1.,.4.<.4.5.e.J.J.H.e.<.&.7.5.O.O.4.e.J.J.6.6.7.#.! ~ ^ E M M b b g f f f g l l g f f f f f w - - - = & & % % % & & & & # # % # # # # # & 1 1 1 3 f f g b b W #.2.*.=.#.~ E E b g f f k M E W ^ ^ ^ ^ W E b v f f 2 2 - - - 2 2 f b E E b b f 2 2 2 2 2 f f f - f f f g b g f - - f f g b E T b g - - - 2 g T b l g j j d d d d d d j d d d j j d d j j d d d d d s i i i i i i i i i i i i i i i i i i i 8 i i i i i i i i i i i i i i i i i i i i i i i i p p p p p p i i s i i i i i i i ",
"0 0 u z z t e e 8 6 6 8 8 w q # # # # # ; q q w q w w t m B O.O.O.O.! N t q q g g l g w # # @ O - f g b M W ~ ^ @.! W B ! ! B m t t N O.$.$.O.M r g g w @           O O % % % $ o $ % o % % $ # e z [ u 0 0 0 0 ` ` ` ` ` _ _ ) ' { ` _ ) _ _ _ ` ` `  . . . .| ` ` ` ] ] ] ` ` ` ` ) ) _ { _ ) 0 u 0 7 5 5 7 5 5 5 y t [ V e y e e e 6 e g d w 8 8 s i i > > > s 1 1 i s s s s i i i i i i i i i i i i & & & & & & & & & & & & > > > > & & & & & & & & & & & & & & & & & & & & & & % % $ $ $ $ % % % % % % % % % & & & > > > > & & & & & & & & & & & & & & & & > i & & & & & & & & > i > & & & & & & & # & W J.U.T.U.J.e.7.<.$.<.4.w.H.K.H.F.7.o.o.o.o.@.o.V M v f g m O.4.4.J.8.O.! B E v M W B } +.+.<.e.H.6.B m m W B N m v g M N N N M b b f 2 2 3 1 1 = % % % % % % X X X X X X X X X o o o o X X X . . . O $ @   ; N $.4.<.1.9.9.1.<.,.} } } } C N b @ O @ *.*.=.;   # O Z Y.OX X[.|.|.|.Y.Y.r.9.1.1.5.8.,.,.%.N g r q ; ; ; ; ; ; ; ; q T.<X4XnXDXnXVXVX5XT.%.r ; ; ; = 1 1 1 1 - - - ; y } |.>X7X9XCXSXGXGXGXGXGXGXGXGXGXVX6XY.1.} 1.r..XoX<X<X4X5X5X6X7XvXnXnXnXbXbXnXVXDXDXDXVXVXnXDXDXnX3XXXR.I.H.<.+.O.B m B O.$.<.5.r.I.r.1.1.1.e.U..X1XcXvXvXcXkX@Xr.} <.e.5.6.e.e.H.H.J.6.} O.J.e.<.7.H.J.6.4.B ! ! ! W W R b R g f - - f f f b b l f f f f f f - - - = = & & % % % & # & & # # % % # # # = 1 1 1 1 f f b b E ^ ^ ~ ~ E ^ W E b b b g f f b M E N N N v b v f - f f 2 2 - - - - - 2 f n b b b b 2 2 - - 2 2 2 2 ; - - f f g b g f - - f f b E E T b f - - 2 v b R l g j j d d d d d d d j j d d j j d d j j d d j d s i i i s s s i i i i i i i i i i i i i i i i i i i i i i i i i i i i i i i i i i i i i i p d d d d d p s i s i i i i i i i ",
"0 7 u V V z u y q 6 6 q t t w # # # ; ; ; w q w w w r g N ! O.O.O.O.B m w q r g b r @ @ @ @ ; r k M N N b b M W @.W N N ! W B N Z t m O.%.,.%.N m g g k f O         O O O $ $ $ % $ o o $ @ O @ + u [ [ _ 0 0 0 _ ` ` ` { ` _ _ _ {  .| ` _ ` ` ` `  .>. . . .` ) ) ` ] ` ` ` ` `  .` ) ' ' 0 0 0 0 0 7 5 5 7 7 5 0 z u V x e 6 y e e e e d d 8 8 i i i i i s s s s s s i i i i i i i s i i s s s i > > i > & & & & & & & & & & > > & & & & & & & & & & & & & & > > > > > > > > > & & & % % % % % % % % $ % % % & & & & & & & & % % % % % % % & & & & & & & > > > & & & & & & * & > i > i & & > & & & & & # 8 g F.R.U.U.H.5.<.1.&.7.5.J.J.5.6.5.-.o.V %.%.$.o.M g v w q B C $.6.K.6.O.@.O.g m B O.O.+.1.5.5.H.O.B g M ! W g r v m N O.@.! #.! v g 1 1 1 1 = % % % % % % % % X . X X X X X X X X . . . X X X X . . . O O O # b ~ #.<.5.4.<.<.,.} } } } O.! l & O ; 2.D.#.f O @ # y r.Y.u.|.u.u.Y.U.U.I.5.,.$.O.%.v r ; w # # # ; y +.e.r.Y.1XcXvXVXSXFXFXFXFXFXSXCX7X.X<.Z q ; ; 1 = 1 1 = - - ; t 1. X>X,X9X9XSXSXFXFXGXFXFXFX5Xe.<.} } <.w.U.oXXX.XoX<X1X1X6X5XbXbXbXnXnXnXnXnXnXnXVXVXDXDXDXDXDXvX<XI.H.U.r.5.<.<.%.B } %.<.e.U.U.r.1.1.5.r.T.oX@X<X<X1X3X3X4XI.,.4.e.H.I.U.H.I.H.H.8.8.6.8.H.7.%.J.J.$.O.m N N E E b b g f - ; @ ; - f g b b l f 1 1 1 1 1 - - - 1 1 1 & & & & & & & # & = ; = = & & - - 1 1 f k b b k g g g b b b b M E E b v r r g b ~ @.N N b v k k k k k g r - r - = = - 2 2 f g b k g g - = = - 1 f f 1 - = - f b b b n f g g g g R W E T f 1 1 1 f b E R l f s j j d j j j j j j j d d p p p p p p p p j j d i i i i i i i i i i i i i i i i i i i i i i i i i i i i a i i i i i i i i i p p i a a p p j j j j j j j j p a a a i i i i ",
"0 y u z V x z e q q q q t t w q # # # ; ; w q w w w t m B ! ! O.O.O.W m r q q w ; # @ @ ; w r r k b M M b M N E ! W W ! ! W B N m Z Z C +.,.%.V m v v v k ; O       O O O O $ $ @ $ $ O       O 7 [ [ | { _ 0 _ ) _ ` | { ` _ _ _ |  . . .| ` ` ` `  .>. . . .` ) ` ` ` ` ` ` `  . .` ) _ ) 0 0 0 7 7 5 7 y e e 7 e z z z z e 5 6 6 6 7 d x g 8 8 i i i i i s s s s s s i i i i p p i i s s s s s i > > > > & & & & & & & & & & & & & & & & & & & & & & & & & & > > > > > > > > > & & & % % % % % % % % $ % % % & & & & & & & & % % % % % % % & & & & & & & > > & & & & & & & & & i i > & & & & & & & & * * 8 d =.P.L.H.R.U.w.5.<.4.4.5.w.$.%.$.$.$.%.o.o.$.#.W g e t t g m O.4.J.R.J.4.%.N B B } O.+.1.9.5.w.7.O.W M b g m m B O.N O.#.3.7.@.^ g - 1 1 2 = % % % % % % % % X . X X X X X X X X . . . . X X X X X X . $ o o % - ^ #.$.,.4.<.<.,.+.} } O.W w O O @.7.7.2.N O @ O V Y..X.XY.r.r.r.e.e.6.#.m r @ ; ; ; % @ ; r T.<X6XvXVXVXVXSXSXSXSXSXFXGXGXGXFXSXCX7X6X|.<.Z # # - 1 1 1 1 1 1 ; t +.u.OX6X9X9XCXSXFXFXFXDX1XY.} B } 1.e..X2XkXcX5X5X3X3X3X5XcXmXnXnXnXbXcX5X5XvXnXnXVXDXDXDXDXVXnX5X<XXXU.U.e.5.1.<.+.} } <.w.K.H.Y.Y.r.r.Y..X<X<X.XU.T.XX1X4XXX4.,.8.T.T.T.E.XXXXU.U.H.J.H.U.R.6.C O.O.B N M b b b l f f - ; ; = @ - f b b b b f f - = - - - - & - - - 1 1 & & & & & & # # - - 1 1 - - f f f f f f k k f f f f f f f f f b b b b g g b ! *.@.E E M b k k k k k g f f f 2 - - f 2 2 f f g g f f = = = - 1 1 1 f = = f n T b n k b l g g l T E T b f = 1 f k T E b k f s j d d j j j j j j j d d p p p p p p p p j d d i i i i i i i i i i i i i i i i i i i i i i i i i i i i i i i i i i i i i i p p i a a p p a a a a p p i i p a a a i i i i ",
"u 0 e z z z z t q q q q e t w q ; ; ; ; ; w q w w r g m B B B ! O.O.W m r q q w ; ; w r r w r v v v M v v v M M B W ! ! O.! B B N Z Z N O.$.O.V m v v v M g & O O         o O . o @ @ O   O # q u [ [ | { _ _ ` _ _ ` ` | | ` ` ` | >.>. .| _ ) `  . . .| |  .` ) ` ` ` ` ` `  .:. ._ ) 0 0 0 0 7 7 7 7 0 u u 0 7 u z e e e e 6 6 6 6 6 z V x 8 8 i i i i i s s s s i i d d p p p p d s s s s s s i > > > > & & & & & & & & & & & & & & & & & & & & & & & & & & & & & & & & & & & & & & $ * # # $ $ % % $ % & & & & & & & & & & & & & & & & & & & & & & > > & & & & & & & & & & i i i & & & & & & & & & 8 8 i i d =.J.J.U.U.e.<.5.$.&.4.4.O.V V $.-.%.V o.#.-.*.V g t g r t B $.J.@X@XU.e.4.%.} $.<.5.9.H.r.5.8.O.W M M M m B $.#.W O.m #.7.! M b f 1 1 2 - % % % $ $ % X % $ o . X X X X X X X . . . . . . . . X X . . o       ; M %.,.,.,.,.,.,.+.O.! ^ @   # 2.7.2.7.^   @ @ +.T. X.XoX XY.<.O.q @ @ @ % @ @ @ = % O ; 7.5XvXCXSXSXSXSXSXSXSXSXFXFXGXGXGXFXSXCX7X6XoXt.+.Z w - - - 1 - = - ; # } t.|.>X7X9XCXCXCX5X1.+.} <.<.1.w.Y.<X5XvXVXVXVXVXvX5X5XvXVXVXVXVXVXbX5X3X3X5X3X5X5XcXcXbXVXVXnX5X1X@XT.H.e.5.4.<.+.&.1.w.H.T.U..XoXoX.XoX1X1XoXT.Y.oX1X3X<XU.<.8.T.XX@X@X@X@XR.J.J.K.I.H.J.,.B m W *.#.W v - f f 1 - # # ; ; - - g g b b k f 1 - = # - = - - # & 1 1 3 1 1 1 1 = = = & - - - 1 1 1 1 1 f f f f f f f - - - - w f f f f g k b f g f b #.3.#.^ ^ E b v k k k k g g f f f - - 2 r r f f f f f 2 = ; = - 1 1 1 f - - g E E b k k T b g g b b T T n 2 = - g b R E k j s s d d d d d d d d j d p p p p p p p p p p j d i i i i i i i i i i i s i i i i i i i i i i i i i i i i i i i i i i i i i i i i i i d d s p p p p i i i i i i i i i i i i i ",
"u y y e e u u t q 6 # q w w w ; # ; ; ; ; w q w w w t m B N B ! O.O.N t q q q r v g r g v g t t v v v v g v v g M N W ! #.O.O.! B Z t Z C %.%.B m v v m m x w O O       o . X o $ $ O O O + y u [ [ | | _ _ | { | ` ` ` ` | ` `  .>.y.y. .` ) _ `  . .` | ` ` ) _ _ ` ` ) `  . . ._ 0 0 0 0 7 7 7 5 5 7 0 u 0 7 7 e e e 7 7 y 6 6 6 6 7 z V x 8 8 i i i i i s i i i i s d p p p p p p s i s s s s i i > > > & & & & & & & & & & & & & & & & & & & & & & & & & & & & & > > > > > & & & & * * # # $ $ % % % & & & & & & & & & & & & & & & & & & & & & & & > > & & & & & & & & & & i i > & & & & & & & & & 8 i i i d x F.R.J.R.T.5.4.%.$.&.4.%.z m o.%.o.V V o.#.4.*.V g z g g N O.e.XX@XXXE.U.e.5.8.r.H.I.T.U.4.%.m m m m m t B 7.6.2.! v ! #.N v b g f 1 1 - % % % $ $ $ X % % o . . . X X X X X X X X . . . . . X X X X o X $ @   ; M ! @.$.,.,.,.,.#.O.@.@ O f 2.6.7.3.!     O H.@X.X|.oXoXu.q @   @ & % $ o =   % 1 ; # e.7XCXCXCXSXSXSXSXSXSXSXSXFXGXGXGXFXSXCX7X>X Xt.w.O.w ; = - - % = = ; q Z r.oXOX7X7X,X X1.} C C } <.H.Y.oX1X4X5XcXvXvXVXVXbX7XvXVXDXVXDXVX5X4XoXXX.XoX1X3X3X3X4X5XbXVXVX5X@XT.e.5.5.5.1.w.r.w.r.Y.Y.Y..X@X1XoXoX@X<X@X@X.XT.@X<X@XXXr.5.U.@X@X@X@XE.U.R.U.I.J.,.! C m N N v N M f f f 1 ; % # % # = - f g b b g f 1 - 1 - = = = - = - & 1 f f f 3 1 1 1 1 = = - - - - 1 1 1 1 1 1 1 f 1 1 1 1 1 - - - f f k b g k b b g b g E #.3.#.@.^ W M v k k k k k b v f f w - f r f f f f f 2 - ; % % = = 1 1 1 f f b E W b g k T g f l b b b b f 2 - 2 b R R b j s s d d p d d d d d d d d p p p p p p p p p p d p i i i i i i i i i i i s i i i i i i i i i i i i i i i i i i i i i i i i i i i i i i d d s s p p i i i i i i i i i i i i i i ",
"u y y y e e e e 6 # # # ; ; ; ; ; q q q w w w w r g m N B B O.$.#.O.N g r q w t m g t r g g g t v M M v v v v v m N W W O.#.%.O.B N V V B O.O.O.V Z Z z m m g 6         o o . o O @ O + 6 t [ [ [ | | _ _ |  . . .` `  .| | | |  .>.>.>.| _ _ `  . .` ` ` ` ` ) ) ) _ ) _  .:.| _ 0 0 0 0 0 7 5 5 7 7 7 e e 6 5 7 y e 7 y e e e 6 + 6 z V V g e 8 i i i i i i i i i p p p p p p p p p p i i i i i i i 8 i i > & & & & & & & & & & & & & > > > > i i i i > i i i i i > > > > & & & & & & & & & & $ * # # & & & & & & & & & & & & & & & & & & & & > & & & > & & & & & & & & & & > i 8 & & > > > > 8 8 & & i s j d d + x 7.6.K.R.J.$.O.$.&.4.-.B z [ %.O.V V V o.*.7.-.W z m m m B 7.U.E.@X4X<X@XXXE.E.T.T.XXXXI.O.V o.B m B %.4.J.K.6.B B O.B ! @.E b g f f = = % % % % % $ $ $ $ . . . o o . . X X X X X X X X X X X X X o o o o     @ f N ~ #.#.,.,.#.#.#.@   M 7.4.7.2.2.m # V .XoX X X>X1X@Xr.@ # = $ . : = o 1 %   @ y 1.7X7X9XCXSXSXSXSXSXSXSXSXGXGXGXGXFXSXCX7X,X Xu.w.&.m ; ; - - - = - - # m <.H..Xr.| | } } } <.1.U.Y.oXoX<X<X@X<X1X6X6X7XvXvXvXVXDXVXbX5X1X.XH.e.w.e.r..XoX1X6X6X5XvXVXVX5XoXU.w.w.w.1.r..X.XY.H.Y.oX<X1X@X.XY.Y..XoX.XU.U..XoXT.U.T.U.e.I.E.@X@XR.6.7.6.F.8.7.#.! ! 2.N E v b f ; ; ; = @ @ @ % # - f b b b g - - 2 2 f 1 - & # # # # k k k s s s s f 1 1 s f s s w w # - 1 f f 1 1 1 1 1 1 1 - - - f b b b b b b k g l g b ^ E E E b b g g k b b b M b b b b f f f f w w f f f 2 - = = = = = 1 1 1 1 g g k T T g f n g k n g l b R b f 2 1 g b R b d d d d d d d d d d d d d d p p d p p p p d d d d d d i i i i 8 8 i i & & i i i i 8 8 8 8 i i i i i i i i i i i i s i i i i i i i i i i i i i i i p p s s i i i i i i i i i i i i ",
"e y y y 6 q y q 6 # # # ; ; ; ; q q w w w w w w r g m N B O.$.$.O.O.N v w q r t g v v g t t g g v M M M v v v v M N W W O.#.O.O.B N m m m } O.O.V Z Z m V V z e O           o o   O # 6 e [ [ | | | _ ) `  .:. . .` `  .| | |  . . . . .` ) ) ` ` ` ` ` ` ` _ ) ) ) ) ) |  .{ ) 0 0 7 7 0 0 7 7 5 7 7 7 7 7 6 5 5 7 7 7 y e y y 6 6 e x V x w 6 i i i i i i i i i p p p p p p p p p p p i i i i i i i i i i > & > > > > > > > > > > > > i i i i i i i i i i i i i i i i > > & & & & & & & & & & # * & & > i i > & & & & & & & & & & & & & & & & & & & > > & & & * & & & & & & & 8 8 & & > > > > 8 8 & i s s d i i 8 8 W 4.F.U.J.$.+.$.4.7.7.O.z z o.O.V z V o.o.-.7.-.B B m g m ! 6.H.I.E.oX@XXXR.U.U.I.U.@X@X4.O.O.O.O.$.<.4.H.U.J.} V B B 4.6.#.W b g f 1 % % % = = % % % % % $ $ $ $ . . X X X X X X X X X X X X X X o o o o   o @ @ - b ^ 2.#.,.#.#.#.# O W 7.4.,.,.,.m # 5.oXoX X XoXOX1X1Xq @ @ & % % X % % % = ; # r.7X9X7X9XSXSXSXSXSXSXSXFXGXGXGXGXFXSXCX7X>X Xu.w.1.O.r ; ; - # ; ; ; w q B } V V } +.1.5.<.5.T..X.XoX@X X XoXoX.X XoX.X@X1X6X5X5X1XoXH.H.e.w.1.<.1.5.r.Y.oX1X6X6X5X7XcX5XoXH.r.r.w.0.r..X.X|.|.@X1X1XoX.XY.Y..XT.H.w.w.U.oXoXT.I.R.E.I.U.E.@XR.J.#.#.! #.#.#.2.#.E N N b f - - ; ; ; % % % 1 f k b b E b b - 1 2 f g f 1 - - - f k l T l f 1 & 1 s s f f f f f f w w 1 1 f f 1 - - & = - = 1 = - - g b b b b b b g f f f b E b f f w g g g b b b b b M E M b b g f f f f f f f 1 - = = = = = 1 1 3 f f f f b b f f k k k g g l b b n f 2 f b R b g w d d d d d d d d d d d d d p d d p p p p d d d d d d d i s i i 8 i i 8 & i i i i 8 8 8 8 i i i i i i i i i i i i s i i i i i 8 i i i i i i i i i p p i i i i i i i i i i i i i i ",
"e w q q 6 6 6 6 q q q q q w w w w w w w w w w w t v N N O.#.$.$.! ! N v q q r g m v g v m v g t t v v m m v v v m m B ! O.O.O.O.! N m m Z B O.O.B Z Z V V V V d $             O O # q e u _ | | | ` _ _ | :. . .` ` `  .` ` | |  . . .| ` ) _ ` ` ` ` ` ` ` ` ` ) ) ) `  .| ) 0 0 0 0 0 7 7 7 7 5 9 7 5 5 5 6 6 5 5 7 6 y e y 6 + q z x x d w 8 s s s s i i s s s p p p p p p p p p d d d i i i i i i i i i i 8 i i i i i i > > i i i i i i i i s s s s i i > & & & 8 & & & & & & & & & & & & & > 8 i i i i i > & & & & & & & & & & & & & & & & & & & > & & & & * * & & & & & & 8 8 & > > i & & 8 8 i i s s i 8 * 6 # w M @.7.J.7.<.$.4.6.F.4.V t V o.W V W o.W o.4.6.-.#.W V m N %.7.8.e.U.U.H.7.7.7.7.7.E.E.6.4.7.4.7.7.<.5.H.U.U.4.O.O.4.J.J.#.^ M b f 1 % % % = = % % % % % % % % % X X X . X X X X X . . . . . . X o o o o o o o @   @ f W ! #.%.@.@.@ @ *.<.<.4.<.5.} } oX1XOXOXOXOX1X6X6XXXN     % X o = X o % ; # 1X7X7X9X9XSXSXSXSXSXSXSXFXGXGXGXGXGXFXSX7X>X X|.r.1.+.v w ; w - - 2 r r t B B O.1.5.1.5.5.e.H.T.Y.Y.oXY.|. XoXoX<XoXoXoX<XoX.XoXXXH.5.e.5.<.<.<.+.<.1.r.Y..XoX1X1X<X1X6X1X.Xr.r.r.r.r.r.|.@XoX<X1XoX.XoX X.XoX@XT.e.5.Y.oX.XU.H.w.H.T.U.R.E.W.F.7.@.^ ^ ~ @.#.~ E n b f ; @ = ; ; ; % @ ; f n b E E b b g f 2 f f f g f 1 f k l T b b k f 1 1 > s f h l k k g f f w w 1 f f f 1 - - & ; = = 1 = - f b b v v b b g f f 2 k b T b g f f g g b E E E M M N N N b b b v f f f f f 2 1 = = = = = = 1 1 1 1 2 - f g g f f k b g f g b b l k f f g M R g s d d d d d p p d d d d p p d d d d p p d d d d d d d d d d s s s i i i 8 & 8 8 i i 8 8 8 8 i i i i i i i i s i i i s i i i i i i i i i i i i i i i i i i s i i i i i i i i i i i i ",
"e w q q 6 6 6 # q q q q w w w w w w w w w w w w g M m N O.$.$.%.C C N v q q r v g v m v g v t g t v v M M v v v m m B ! O.O.O.O.! N m t m B } } C Z Z V m V x u # O O O O O O + + q t u u _ | | ` ) _ | |  . .| ` ` ` ` ` | | | |  . .| ) ) _ _ ) _ _ ` ` ` ` ` ) ) `  .{ ) 0 0 0 u u u 7 5 5 5 5 9 9 5 5 6 6 5 5 7 y y y y 6 6 + w z x d 9 w d d d d d s s s s p p p p d p p p p p d d d i i i i i i i i i i 8 i i i i i i i i i i i i i i i i s s s s s i > & & & & & & & & & & & & & & & & 8 i i i i i i i i & & & & > > > & & & & & & & & & & & > & & & & # * # & & i & & & & 8 > > i > 8 8 8 i i s s s i * 8 * 6 8 8 o.-.7.F.4.<.7.J.J.F.$.m m W @.o.o.B V V $.6.6.4.$.%.B m v ! 7.J.H.e.,.C M W v B J.7.O.4.e.e.7.&.+.<.H.U.H.J.8.7.6.8.6.%.! M b f = % % = = = = % % % % % % % % % X X X X X X X X . . . . . . . o o o X X X . o o @ % - N ~ ^ ! ^ @ ; 6.<.<.<.<.1.+.1..X1X X X XOX>X1X5X1X5.r @ @ % % % % 1 % # y @X9X9X9X9X9XSXSXSXFXSXSXFXGXGXGXGXGXFX9X7X>X X|.u.0.<.m w # w f g n b W #.$.<.e.H.e.U.r.1.w.r.r.Y.|.Y.|.|.oX@X1X<XoXoX1X5X@XK.H.H.5.1.,.%.} } +.+.%.&.1.r.Y..XoXoX.X>XoXoXY.r.r.r.t..X.X1X1X@X.X.XoX<X<X<X<X<X@XU.r.U.T.XXH.5.<.<.5.H.H.J.J.F.7.@.W Q ^ ^ ~ ~ b g g ; - ; = ; @ @ ; ; % 1 k b b E b g g f f g g f 2 - 1 f l R R T k - & 1 s f f k k l k f f f f f f f f 1 1 1 1 1 1 1 1 1 1 f - 1 g b b k g g f f - - 1 k b g g g - f k b E W ~ ^ E M E E E M b M N b g g f f 1 = = = # # = = & = = - - - 1 f f f g b b g f g b b k g f g b E b s w d d d d d p d d d p p p p p p d d p p d d d d d d d d d d s s s i i i i 8 8 8 i i 8 8 8 8 8 8 i i i i i i s i i i s i i i i i i i 8 8 i i i i i i i i i i i i i i i i i i i i i i ",
"e w w w w 6 6 q q q q q q q q q q q ; ; w w q t t v N W @.#.#.%.B C N t q r t v m m m m m t t t t v v t v m v t m m B O.$.*.4.$.#.O.B m m m B B B z z V V [ z e + O O + + 6 7 5 y y u [ _ | | _ ) ` | |  . .| ` _ ` ` ` ` ` | ` |  .` ) ) ) ) _ ) _ ` `  . .` _ ) ` { { _ 0 0 0 0 _ _ 0 5 5 5 9 5 5 5 5 + 5 9 6 5 6 9 e q w 6 6 6 6 w g d d d d d d d d d d d d p p p p d d d d p p d d s i i i i i i i i i i i i i i i i i i i i i i i i i i i i i i i i i i i > > i i i > > > i i i i i i i i i i d d i i i i & & > > > > > > > & & & & & > > > > & & & & & & & & & & & & 8 8 8 8 8 8 & & 8 8 8 8 s s s i 8 6 & & 6 6 6 g @.7.6.J.6.4.6.J.K.w.O.t o.#.*.#.B B B o.$.7.6.7.#.O.t r m $.7.7.,.O.v f f f v N ! ! 4.J.e.6.<.<.5.e.H.H.U.U.H.8.6.8.4.#.N v b 1 = 1 & 1 1 1 & & % % % % % & > % % $ X X X . X X X X X X X X X X X X . . . X o o o O 2 M ~ ^ ^ @ #.7.<.<.<.1.1.1.|.1X1X X X>X>X,X6X6X3XE.%.@ @ % = X % % % # q OX7X9X9X9X9XSXSXSXSXFXFXGXGXGXGXGXGXFX9X7X,XOX Xt.0.1.O.w r M N ~ #.#.7.F.J.U.U.E.@X<XU.e.e.r.Y..X|.|. X XoX1X1X2X5XkXcX2X.Xe.<.&.+.+.} } } } O.+.$.+.4.5.r.Y.oXoX XOXoX.XY.t.Y.|.<X>X6X6X1XoX.X.XoXT.T.oXoXoXT.U.H.U.T.U.H.8.5.7.6.J.F.7.7.8.,.^ E E E T b n f 2 - ; @ @ @ = ; ; = - ; f b k b v k k f g b b l f - ; w s g l l f f - 1 f k k f f f f f f f f g f s s s s s s - - - s - f f f - f f b b k g g f - = = f f f f 1 - f f g R E E E E E W W W E E E E W W E M l f f f - 1 # # = = = 1 - 1 - - - f f g k n g 2 2 g b b g f b M N b d d d d d p p p p s s s d d d d d d d p d d p d d d d d j d d d s s s d s s i i i i i i > > > > i i i > i i i i i i i i i i i i i i i i i i i i i i i i i i i i i i i i i i i i i i i i ",
"e w w e e q q q q q w e q q q q q q q ; w w q t t m N ! O.@.#.%.O.! N t q t Z v m m m m m m t t v v v v v m v t g m W #.4.4.4.%.$.$.O.m m m V B N Z Z V V [ [ e + + + + 7 0 u u y u u _ _ _ u u _ ` | | | | | ` ` ` ` | ` ` ` _ ` ` ` ) 0 ) _ _ _ ) `  . . .` ) _ ` ` _ ) 0 0 0 u _ u 7 5 5 9 9 6 5 5 6 + 6 5 5 6 6 q 6 6 w q q 6 6 8 e d d d d d d d d p p d d p p p p d d d d p p d d s s i & i i i i i i i i i i i i i i i i i i i i i i i i i i i i i i i i > > i i i i > > i i i i i i i i i i d s i i i i i > i i > > > > > > > & > > > > > & & & & & & & & & & & & & 8 8 8 8 8 8 & & i i 8 i s s i 8 & * 8 8 & 8 8 j Q -.6.J.J.6.7.J.H.K.6.m m B $.$.#.W B O.$.7.w.6.%.z w w g B #.4.,.! g r - w v N E N 8.K.H.e.<.+.<.5.5.e.K.T.T.J.8.8.J.F.2.! b g 2 3 1 1 1 1 & & & % % % & & : % % $ X X . . X X X X X X X X X X X X . . . . X o o O   ; n E ^ ; ,.2.<.<.1.9.1.q.>X6X>X X X>X>X>X6X5X3XoX4.q @ @ = = % % @ # q oX7X9X9X9X9XSXSXSXSXFXFXGXFXGXGXGXSXSXSX7X,XOX Xu.0.+.} V B O.*.F.J.W.R.E.XX@X<X<X1X<XU.r.H.Y.oXoX|.Y.oX1X6X5XcXvXbXvX3X@XH.<.} O.O.O.%.} } C %.$.,.&.&.1.r.U..X|.oXoXoX.X.XoXoXoX1X1X6X1X.X.XoX.XT.U.T.oXoXT.T.U.I.U.T.K.6.<.4.6.J.J.J.7.2.7.! N E b b n f 2 2 - - - 2 - 2 2 2 f f f f b N b N N M b b b b l f f f f f f f f f s f k 1 1 f f f f f f f k l l l k f s s s f f - - 1 1 f f f f f f g b b b b b k f f f f f k k f f 1 f f l M E E E N N E E E E E E E W E E R b l f - = & # = = 1 1 1 1 - - 2 f g k k b f 1 f g b k k b E E b d w d d d p p p p i i i i s p p p d d p p p d p d d d d d d d d i s s s d i i i i i i i i > > > > i i > > i i i i i i i i i i i i i i i i i i i i i i i i i i i i i i i i i i i i i i i i ",
"w w w e e q q w w e t t w w q w q q q q q q r t g m B ! @.#.#.#.O.! m t r t v m m v v m m m v t m v v m m v Z t t m B O.$.4.4.$.2.2.$.B m z V B N Z Z B [ [ [ 0 5 + + 5 u u _ u u u u u u u u _ | | | | ` ` | | | _ ` ` _ _ _ _ ` _ ` _ 0 ) ) _ _ _ |  . . .` _ { ` _ 0 0 0 0 0 u u u 7 5 7 y e 6 5 + 6 6 6 6 + 6 6 6 6 q e t t w q w e d d d d d d d d p p p p d d d d d d d d d d d d i i i & i i > > > > > > i i i i i i i i i i i i i i i i i i i i i i i i & 8 8 8 & & & & i i i i i i i i i i i i i i i i i i i i > > > > > > > > > > > > & & & & & & & & & & & & & & 8 8 8 8 8 8 & 8 i i i i i i 8 & * 8 & 8 8 8 s 8 x -.J.J.J.J.6.J.J.W.K.$.m B O.$.O.B B o.$.4.F.J.4.t t t g m B $.$.! v f w f b M N B 6.K.H.e.<.&.<.5.5.<.6.R.@XE.U.I.J.H.H.6.! n k k f f f 1 & & & % % & & & : % % % X . . . X X X X X X X X X X X X X X . . X X o o O O @ 2 M n 7.,.<.<.5.w.9.Y.1X1X>X X X>XOX>X6X6X1XoX8.v @ @ % % % = @ # q  X7X9X9X9X9XSXSXSXSXSXFXGXGXGXGXFXSXSX9X7X,XOXY.0.} V } O.,.7.J.@X2X3X2X5XkXkX5X3X1XoXT.Y.Y..X.XoXoX1X6X7XvXvXvXmXcX3XT.J.4.$.%.%.$.$.$.$.+.+.+.$.,.$.5.r.H.K.Y.Y..XoXoXoXoXoXoXoX<X<X@X.XY..X.X.XT.R..X.X.XT.T.U.J.6.J.4.O.! 2.F.L.J.6.#.! ! N M v f g f f 2 - 2 f f n n v v v v M N W ^ W E W E N M b g f f 1 - f f f s f f w f f g - 1 f f l l l l l k l l g g g s f f f f f f f f f f s s g g l l b b b b l f f f f f k k f 1 - 1 f f b b E E N N N N N N E E E E E M R R l f - = = = - 1 = 1 1 - 2 2 f l b g f f - - f k k k b E W M g r s s p p p p p p i i i i s i i i i i s s s s d d d d p d d s i i s i p d i i i i i i i i > > > i i i i & i i i i i i i i i i i i i i i i i i i i i i i i i i i i i i i i i i i i i > > > ",
"w q w e t e w w t t t t t w q q r r q q q q r t v M B ! @.$.,.#.O.B v r t Z v m m v v m m m v v m v v m v v t Z t m m B B $.4.,.$.$.#.o.B z m B m t m B [ [ [ 7 + + 5 5 z [ u 0 u u u u 7 0 _ _ { | | | | | | { | _ ` _ _ _ ) _ _ `  .` ) ) ) ) ) {  .{ { ` ) ` ' _ 0 0 0 7 7 0 0 u y 7 7 7 u z 7 5 + 7 e e e 6 6 6 6 6 e z m m z d d d d d d d d d d d p p p p d d d d d d d d d d d d s i & & i > > & > > > > i i i i i i i i i i i i i i i i i i i i i i i i & & 8 8 & & & & i i i i i i i i i i i i i i i i i i i i > > > i > > > > > > > > & & & & & & & & & & & & & & 8 8 8 8 8 8 * & i i s s i 8 & & 8 8 8 & & & i * d @.L.J.J.L.K.K.e.K.W.J.O.B B O.B B B W O.&.6.K.J.o.N N m m m O.$.#.W M g M M m W O.7.U.U.H.1.1.5.e.e.5.5.H.E.@XE.R.H.I.U.I.3.^ b n f f f f > & & & & & & 1 : % % % . . . . X X X X X X X X X X X X X X . . X X o o % X   @ @ v 7.,.4.1.5.w.0.oX1X>X>X X XOXOX>X6X6X>XT.8.N ; @ O X X % % # q u.7X7X9X9X9XCXSXSXSXSXSXFXGXFXGXSXSXSXSX7XOXt.+.Z V +.<.e.U.T.4XcXbXbXbXnXbXvX5X4X1XoX.XT..X.XoX<X6XvXCXVXVXvXcX3X@XT.e.4.&.&.4.4.7.7.4.4.4.1.1.5.e.e.K.Y.Y.Y.Y.|.oX<X1XoX.XY..XoXoX.XT.Y.Y.T.oXoXXXXX@XoXXXT.R.H.2.! O.B m B *.F.F.7.! M M M r q f f v g v f v n b T M N M n v N ~ 2.#.#.~ W E N b v f f - - - 1 f f ; w s f f w w w f f g g b R R R b l f s s s f s f f f f f f f f f f f f f g l l l b b b b g f g l k f f # # # - f f g g E N N N N N M M b b b b b b b b k s f f = 1 1 1 1 1 - 2 f f k b b g f f = 1 g g f b E E E l s s s i p p p p p p i i i i 8 8 8 8 i s s s s s s d p p p p s i s s s s p p i i i i i i i i > > > i i i & & 8 8 & & & 8 8 8 i i i i i i i i i i i i 8 8 8 8 8 8 8 8 i i i i i i i i & & & & ",
"q w w r t r r q t t m m t t t r r r r r q q r t v N B ! @.#.*.2.O.N v r t v m m m m v Z v m v v m v m m m Z v m m m m m m B $.4.$.%.%.$.O.V Z B N t Z V [ [ [ 7 5 5 5 5 u u 0 7 0 7 7 7 0 u _ { { | ` ` | |  . .{ 0 ) _ _ _ ) _ _  .:.{ ' ) 0 ) ` { { ` ` _ ) _ _ 0 0 0 0 5 5 7 7 7 0 7 0 e u z e 5 5 u V V z e + 6 q e t z m m V z g d d d d d d d d d j j j j d d d d d d d d d d d d s i & & i > > > > > > > i i i i i i i i i i i i i i i i i i i i i i i i i i i i i i i i i i i 8 s s s s i i i i i i i i i i i i i i > > i i i i i i i > & & & & & & & & > > i i > > i i 8 8 & & i i i i 8 8 & & & 8 8 8 & i i & 8 s w M 3.J.L.K.U.J.J.J.K.T.4.B O.$.O.B W B o.O.$.6.J.6.$.O.O.B B B $.$.#.o.V V W W O.$.e..X.XU.w.w.e.H.H.K.H.e.J.J.U.XXT.I.U.R.J.2.W b l g f f f 1 & = & = = & % % : % % X X X X X X X X X X X X X X X X X X X X X X X . X .   @ f 2.%.<.1.1.0.u.1X1X1X>X X XOXOX>X6X1XoXY.w.O.g @ % % X = % @ q q.,X7X9X9X9X9XSXSXSXSXSXSXFXFXSXSXSXSXCXOX9.} } <.1.r.T.<X5XcXVXVXVXVXVXVXcX5X5X6X1X1XoXY..X<X5XvXbXVXVXVXmXkX1XT.U.H.e.4.<.5.5.5.w.e.H.U.K.r.r.r.Y..XT.oXoXoX.X@X1X6X<XoX.XY.T..XY.t.H.U.Y..XoX@X@XoX@XT.R.J.F.7.~ M v M M N #.*.#.N b f f f f f v v f g n b b E W W b n v M ~ 3.3.2.#.! ! ! N v b k g f f f - - - - ; - - - w f f g R M M R E E R b l f f f w s s s f f f f s s f f f f f f f f l b M b b R E E E R l f f 1 = # # = f f f l E W M M M M v k b l k k g g g f g k f - f 1 f f l f f f 2 b T T n g - 1 2 g k g b E Q E k f s 8 i i i i i i i i i i i i i i i 8 8 i i s s s s s s p p p s s s s i i p p i i i i i i i i i i i i > i i i & & & & 8 8 8 8 8 i i i i i > & i i i i i i i i i i i i 8 & & & 8 8 8 & > > > > ",
"w w r r q r q q t g m m Z t t t r r r r q q q t v N W ! @.#.#.#.B m t q t v m m m m Z Z Z m m m m m m m m v v v m m m m Z m C O.O.O.%.$.$.} m N m t v V } [ [ 7 5 + 5 5 0 7 7 7 7 7 7 7 u _ ' ' | ` ` ` |  . .{ _ 0 0 _ _ _ _ _  .:.:.{ _ 0 0 ` { _ _ _ _ ) _ _ 0 0 0 0 7 5 5 7 7 7 7 e e e u u 7 5 e V B V V e + 6 y e t g z z m g d d d d d d d d d d j j j j d d d d d d d d d d s d s i & & i i > > > > > > i i i i i i i i i i i i i i i i i i i i i i i i i i i i i i i i i i i 8 s s s s i i i i i i i i i i i i i i > > i i i i i i > & & & & & & & & & > > i i i > i i 8 & & & 8 i i i 8 8 & & & 8 8 8 & i i & 8 s w g g 7.L.L.J.e.U.U.J.T.J.O.O.%.O.O.V V V B B $.6.J.5.4.<.&.O.} O.$.$.O.W V W O.$.<.H.T..XT.e.5.e.U.U.U.e.$.%.,.J.U.XXXXE.E.J.2.^ W b b b l f 1 1 1 = = & & % % : % % X X X X X X X X X X X X X X X X X X X X X X X   X % o @ - #.,.<.1.1.0.|.1X,X,XOX X X XOX>X1X>XoX.Xr.<.M # o = X % % @ # 1.>X7X9X9X9X9XSXSXSXSXSXSXFXFXSXSXCX6Xq.1.} 1.H.U..XoX3XmXVXVXVXnXbXnXbXvX5X5XvXnXnX5X1X<X4X7XbXVXVXVXbXbX5XoXU.H.e.w.4.<.4.w.w.e.H.H.T..X.XT.Y.Y..XoX1X1X<XoXoX<X1X1XoX.XY.r.w.w.w.w.r.Y.oXoXoXoXoXXXU.I.J.7.~ ! N N M M M M N E M k g f ; - f k k v b M T M T b b v b N ^ #.7.F.7.,.! ^ ^ ! W N M v k f f f - - f f f f l b M E W W Q W E R R l f w f f f f s s s s f f f f s s f f f f f f f f f l b b M R E E E M f f 1 1 - # & - - s f b ~ ^ N N M M v k k k g g g g g g l l f - k k b E Q R n v l E Q b k f = f k b b k b E E b f f 8 8 i i i i i i i i i i i i i i 8 8 8 8 i i i i s s i i i i s s s s p i p p i i i i i i 8 & > > i i > i i i & & & & 8 8 8 8 8 8 8 i i i & & i i i i i i i i i i i i i 8 8 & 8 8 & & & & & & ",
"w r q q q q q q t t Z Z t t r r r r r t q q r t m N W ! @.@.#.@.B m t q t v m m m v t t t v m M N N N N m m m v t t g m t m N B O.O.%.$.&.%.B N N v Z V } [ [ 7 6 + + + 5 5 7 5 5 5 7 7 u _ ' _ _ _ _ _ {  . .{ 0 0 0 _ ` _ ` `  . . ._ 0 0 ) { _ 0 ) _ ) ) ) 0 0 0 0 7 5 5 5 6 9 9 y e e u 0 e 9 7 z V V V m y + 6 q t t z t t g e w d d d d d d d d d j j j j d d d d d d d d d s s s s i 8 8 i > > > > > > > i i i i i i i i i i i i i i i i i i i i i i i i i 8 8 8 8 8 8 8 i i i i i i s s i i i i i i i i i i i i i i i i > > i i i > & & & & & & & & & & > > > > & & 8 8 & & 8 8 & 8 i i 8 8 & & & 8 8 8 8 i i 8 8 s w w # W 7.J.F.6.J.R.J.J.I.6.O.B B O.B V m m m } $.6.w.w.r.H.5.<.%.} $.$.O.W O.O.<.5.r.T..XT.r.r.r.H.H.H.4.B B %.4.H.oX<X1X@XU.7.~ ^ E M R b l f 1 1 1 1 & % % % % % $ X X X X X X X X X X X o o o o o o o o o X o X . . X o @ @ W ,.<.+.1.r.>X6X,X>XOX X X X X>X1X>XOX XU.7.O.w @ = X % % @ # } >X7X7X9X9X9X9XCXSXSXSXSXSXSXSXCX X1.} 9.U..XoX1X5X5XcXVXVXVXnXvXvXvX5XcXvXnXVXDXDXVXcX5XvXVXVXVXnXbXvXcX<XH.w.5.5.1.&.&.1.w.H.K.U.Y.U.T.oXoXoXoX<X1X6X1X@XoX.X.X.XT.U.e.5.<.[ } 1.r.oXoXoXoXoXoXE.R.J.F.F.3.! E M M b b g g f f f - @ - f f - r v M M E E M b v v b ^ =.3.7.3.3.,.^ ^ ^ #.2.#.^ W b v g f f f g b b b R E E W W W W E R b b k f w ; w w f f s s s s f f f f s s s f w f f - - - f f f l l l g k g s f 1 1 1 - & & 1 & 1 f b W E M N M M v k g g g g d g g l l l g f l b E ~ ~ W b b T Q E g g f - g b n g b E E M k s - & & & 8 i i i i i i i i i i i i i i 8 8 i i i i i i i i i i i i i i i i i i i i i i i 8 & & & & & & > > i i 8 & & & 8 8 8 & 8 8 8 8 i 8 & & & & & & & & & 8 i i i i i 8 & & & & & & & & & & ",
"w r q q q q q q q t t t t r q q r t r t q q r t m N ! O.O.@.@.! B m t r t v m m v v t t t v v M N B B N N m m v t t t g t Z m m B O.%.%.$.%.} B N v m V } [ z 5 5 + + + 5 5 5 5 5 7 0 0 0 _ _ _ _ _ _ ` {  .{ ' 0 0 0 ) _ ` |  . . .{ _ 0 0 _ _ 0 ) 0 0 0 _ 0 0 7 7 5 5 5 5 5 6 6 9 9 y e e y y 7 e z z e e u 6 + 6 q y t u t t d w w d d d d d d d d d j j j j d d d d d d d d s s s s s i 8 8 i > > > > > > > i i i i i i i i i i i i i i i i i i i i i i i i i 8 8 8 8 8 8 8 i i i i i i s s i i i i i i i i i i i i i i i i > > > > > & & & & & & & & & & & > > > > & & & & * & 8 i & & 8 i i 8 & & & 8 8 8 8 8 8 i s s s w # ; M 4.4.4.<.I.R.7.I.J.4.O.O.B o.B m m m V } <.&.5.U.T.U.e.<.} %.$.$.O.} O.<.5.e.oXoXT.H.U.H.<.<.1.$.O.O.%.4.e.Y.<X3X4X@XI.2.W E E R R b k f f 1 = & & = = % % $ X X X X X X X X X X X o o o o o o o o o o o X X     $ %   k ! %.} 1.r.<X6X,X>X X X X|.|.>X1X>XOXoXY.5.$.v @ O X % % @ # [ OX7X7X7X7X9X9X9XCXSXSXSXSXVX5Xq.} 9.T.<X3X4X5XkXcX5X5XvXvXVXVXvXvX5XcXnXnXVXVXVXVXVXVXnXVXVXVXVXbXmXcX3XT.e.5.1.5.1.&.&.1.w.e.H.K.H.U.T.<X6X5X6X6X5X6X1X@XoXoXoX.XY.r.<.} } [ } w..XoX1X<XoXXXR.I.I.I.F.6.#.N E b g b k f - f - # # - - - - v N N M v b n f f b W #.D.D.3.2.#.#.^ W ^ ~ 2.D.3.=.~ E b k f f b b E W W W ^ W E E b b l g f f f f w w w w f f s s f f f f f f s s s s & & & - - - 1 1 & s f s # - f s 1 - - 1 - & & - & 1 - f b k g N M M b b l g k g s j g l g l l g g l E ~ W E b k E W b f g f 1 b b g g b W E l s & & & & & & 8 8 8 8 i i i i i i i i i i i i i i 8 8 8 8 i i i i i i i i i i i i i i i i i 8 & & & & & & > > i i 8 & & & 8 8 8 & & & 8 8 8 8 & & & & & & & & & & 8 8 8 8 8 8 & & & & & & & & & & ",
"r w w q q q q q q r t Z t r q q r r t t q q r v m N ! O.@.! ! W m v t r t g v m v v t v v v v v m v m B N m m m t t z z z z m m V B } %.$.$.O.B B m m B o.o.z 5 5 + + + 5 5 5 7 7 u _ u 0 _ _ _ u _ | |  . .{ _ 0 7 0 0 _  . .| | { _ 0 0 _ _ 0 0 0 0 0 0 0 0 7 5 5 5 5 5 5 + 6 6 6 9 9 7 7 7 7 e e e e e e 7 6 + 6 6 y e t u g d d s s i i s s s s s s p p p p d d d d d d d s s s s s i i 8 8 > > > > > > > > i i i i i > > > > > > > i i i i i i i i i i i i & & & & i i i i i i i s s i i i i i i i i i i i i i i > i > > > i i & & & & & & & & & & & & & & > > & & i 8 8 & i i a a > i i i > i i 8 & * i i i i i i s s i & & + d #.#.#.#.4.R.J.6.W.e.&.} O.%.O.B V V V } } 5.H.U.oXoXT.J.$.%.<.5.<.<.} &.e.U.T.<XoXH.r.r.5.+.B B O.O.O.%.,.H.<X3X3X3XR.3.^ E b E W l l l f 1 & = = = = = % % X X X X X X X . . X X X X X o . . . . X X . X X o X o $   @ #.O.} } 9.oX1X>X>XOX XY.Y.Y. X>X1XoXoXY.w.<.B q @ = . % @ q V  X7X8X7X7X7X7X9XCXCXSXSXoXr.+.} 5.oXkXvXvXcXcX5X5X5X5XvXbXVXnX5X3X3XvXnXDXDXVXVXVXVXDXnXvXnXDXVXvX5X5X1XoXT.Y.Y.U.U.H.w.5.r.r.r.H.U.T.oX1X4X4X<X<X1X6X1XoX.XoXoXT.H.r.r.r.w.w.5.U.oX1XoXE.U.H.H.H.U.J.2.! N N b g g 2 = % @ ; - - ; @ r M E W M v v g g g N #.2.7.3.3.3.#.~ W b b b M E ~ *.3.=.~ ^ W b g g b n b b E W W E b f f g f f f f k f f f w f s s s f g f f s s s s s s s s s > - 1 1 & & 1 1 1 1 1 & 1 1 > > > & w w 1 1 - - - f s k k g M M b b l g g s w s s d j g g k l l b E M l k M E b k b f f b T 1 f b E E R k s & & & 8 i i 8 8 i i i 8 & 8 8 & > > i i i > > > > > > > > > > i i i i i i i i i i 8 8 8 8 & 8 8 8 8 8 8 8 8 8 8 & & & & i i i > & & & & & & & & & & & & & & & & & & & > > > & & & & & & & & & & ",
"r r r w q q q q q r t t t t q q r r t t r r r t m N ! ! ! ! W N M v t r t t v m v v t v v v v m m m N W W N m m m m m m z z z z V m V B O.%.O.B B V V B o.%.z 6 + + + + 5 5 7 u _ _ _ 0 0 0 0 u _ _ | {  .{ _ 0 0 7 0 ) `  .| | ` _ ) 0 0 0 0 7 7 7 7 0 7 9 5 5 5 5 6 6 5 + + 6 5 5 6 7 9 9 9 9 7 9 6 6 6 6 6 + + 6 6 y e u e d d d s s i i s s s s s s p p p d d d p d d d d s s s s s i s i 8 > > > > > > > > i i i i > > > > > > > > i i i i i i i i i i i i & & & & i i i i i i i i s i i i i i i i i i i > > > > > i i > > i 8 & & & & & & & & & & & & & & > > & & 8 8 8 8 a a i i & i i i i & 8 & 8 8 i i i i i i s i > & * O & w o.Q W W J.R.J.J.H.4.$.<.7.$.O.B B V B %.5.K.U.U.T.T.T.J.$.<.J.K.5.<.w.e.T..XoX@XT.w.1.e.<.} V O.O.O.O.,.5.I.oX3X3XE.F.! E N M M E M g f - & 1 1 = = % % % % X X X X X X . . X X X X X o . . . . X X . X X o X O @ O # ~ %.O.} <.T.>X1X>XOX Xu.u.u.|.oXoXoXoXY.r.<.V q @ X X % @ # Z Y.6X7X7X7X7X7X7XCXVXvXT.C V } r.oXkXZXVXbXcX5X5X3X4X5X5XcXvXbXvXmXnXVXDXDXDXDXDXDXDXDXDXVXVXnXcX5X5X4X4X4X1X<XoX.X@XoX.XY.Y.Y..XoXoX4X3X1X@XoXoXoX1X5X<X.XY.T.E.oXoX.XU.Y.T.T.U.U.T.U.U.J.4.%.$.7.6.7.#.N M v f - ; @ % ; = ; - 2 f E ^ ! ! E v v b ^ #.D.F.3.#.~ @.^ N n n b b b b b b E W ^ W W E E b b b n n b b R E E b k w - w w f f f f f f f s k k k g k f f w w r s s s s s s i & & & & & % & & 1 1 1 1 & 1 > > > & w w s s - 1 s f s k b b b b b b g g d s s s s s g g g l x l b b l g l M b b b g g b T f f k R E R l j s 8 8 8 8 i i 8 8 i i i i & & & & > > i i i > > > > > > > > > i i i i i i i i i i 8 8 8 & & & 8 & 8 8 8 8 8 8 8 8 & & & & & > & & & & & & & & & & & & & > & & & & & & > > & & & & & & & & & & % % ",
"q r t r r r r r r r r r r r r r r r t t r r r v m N ! ! B B N N M v t w t t Z m v v t v m v v m N N B B ! ! B B m m m m z z t t m m m V B O.$.O.B B V [ o.o.z 6 + + + 5 7 7 u _ ' _ ) 0 0 0 u u _ _ | { { { _ 0 7 7 0 _ {  .` _ _ ) 0 0 0 0 7 5 5 5 7 7 7 7 5 5 5 6 9 9 + + + # + + + 5 6 6 6 5 5 5 5 5 6 7 6 6 + 6 6 y e e e 9 d d s s i i s s i i i i p d p p p p p p d d d d s s s s s s i i > > > > & & & & > > i > > > > > > > > > i i i i i i i i > > > > 8 & & & i i 8 8 i i i i d i i i i i i i i i i i i i i i i i i i 8 8 & & i & & & & & & & & & & & > & 8 8 8 8 8 i i i i 8 8 i i 8 & & 8 & i i i i i i i s i i & & & i * * l W W W *.U.K.6.H.5.<.4.6.&.O.} O.B B %.1.K.K.K.U.U.T.R.H.4.5.H.e.5.H.@XoXE.T.@XoXU.1.1.8.$.O.O.O.O.O.%.%.,.I.<X4X4XE.#.W E M v W M l l w - 1 = = % = % % % X X X X X X X . . . X X o o . . X X X X X X X o $ O % O O b ! B C C q.>X1X>XOX Xu.u.u.u.Y. XoX XY.t.5.} t @ o X % @ @ y t.6X7X,X7X7X7XCX7XoXB Z V ,.r.4XkXVXDXVXvX5XcX5X5X5X5X5X7XvXnXnXVXVXDXDXDXDXDXDXDXDXDXDXnXnXnXvX7X5XcXcXvXmXkX3X1X2X2X4X6X3X1X1X1X1X1X6X1XoXoX1X5X5X1XoXT.T.E.E.E.E.XXT.T.R.U.J.e.K.H.8.$.O.! B ! W ! N v f - ; @ % = = f f f v b E E ! ^ E ! ~ 2.7.F.3.#.! ~ W M g v f 2 f g k g f g g g b g k v v n n b b b b g g k l l f f - - - - - f f 1 f f f f b M M g l g f w w s s s s w w i i & & & & & % % % % & & - - & > > 1 1 s s s f f s s s s b E E b M b l g f s w w w s s g g l l M x l k f g l M l b b g b T b - g b E E R k w & 8 8 8 8 8 8 8 8 i i i i 8 8 8 8 8 8 8 8 8 8 8 8 i i i i i i i i i i i i i i i i 8 8 8 8 & & & & 8 8 8 8 8 8 8 8 8 8 & & & > > & & & & & & & & & & > > > > > & & & & & & & & & & & & & & & & % % ",
"r t t t r r r r r r r q q q r r r r t t r r t v m N W W N N N N m g t w t t v m m v v v m v v m m N B B ! O.! B B V m m z t t t m m m V B O.$.O.B B V B O.O.z 6 + + 5 5 u u u u ) 0 ) ) 0 0 u u _ _ ' | { _ 0 0 5 7 0 | { ` ) ) ) 0 0 0 0 5 5 5 5 5 5 9 7 7 5 5 6 6 9 5 + + + # + + + + 6 6 6 6 7 7 7 7 y y 7 6 + 6 6 6 y e e 8 d d s i i i s s i i i i d d d d d p p p d d d d s s s s s s s i i > > > & & & & & & > > > > i i > > > > i i i i i i i i & & & & 8 & & & 8 8 8 8 i i i i i i i i i i i i i i i 8 i i i i i i i i 8 & & & & & & & > & > & & & & & & 8 8 8 & 8 i i i i i 8 8 i i & 8 8 8 & i i i 8 i i i s i 8 & * & & & 8 + E W W @.7.R.6.5.J.4.&.4.$.o.B o.O.} %.5.H.r.H.K.H.U..X@XU.5.e.w.1.e.oXT.U.H.T.@XoXU.1.1.4.$.O.! ! ! C C C 7.I.XX2X@X7.B ! N N N t g N b w w - % % % = % % % % X X X X X . . . X X o o . . X X X X X . X o $ O O $   f ^ N B B 1.oX1X>XOX XY.t.t.t.u.Y.|.|.Y.H.w.%.M ; X X X % # q r.>X6X7X6X6X7X1X9.Z Z C %.<.T.vXVXDXVXbXcX5XcXcXcXcXvXvXnXDXVXDXDXVXDXDXDXDXDXDXDXDXDXDXmXkX5X5X3X4XkXcXvXbXvXcX5X5XvXvXvXvX2X.XY.T.@X1X@XT.oX2X4X@X@X@X@XoXE.E.XX@XXXoXT.H.4.,.$.,.4.O.N N v f v M f r ; ; ; @ ; - g k n b b E ~ ~ #.#.~ W ! #.2.#.#.E g q f f r ; r b n k f g g f f f f g g g g g n n b k g f f - - - 1 # - - - ; - - 1 f - 1 1 f s b N M k g g f f s s w s s w w i i & & 1 1 & & % % % & & & 1 1 1 1 1 1 s s s f f f f f l W #.#.N M M b g s s w w w s s g l l x l l l k s g g l b b b b b b - f k R Q Q l s & * 8 8 8 8 8 8 8 8 i i i i 8 8 8 8 & & & 8 & & & & i i i i i i i i i i 8 8 8 8 8 8 8 8 8 8 & & & & 8 8 8 8 8 8 8 8 8 8 & & & & & & & & & & & & & & & & & & & & & & & & & & & & & & & & & & & & % % ",
"r t Z t t t t t t r r r r r t t r r r r r r v v m N N N B B B B M v t r t g v m m m v v M m m M m N B B ! O.#.O.B B B m m m m m t m m m B o.O.%.O.B B } O.o.z 5 5 + 5 e u u u 0 0 0 _ 0 0 0 0 u _ _ _ _ _ u 0 7 5 0 _ _ _ ) ) 0 0 0 0 7 5 5 5 5 5 5 5 7 7 7 5 5 5 6 6 5 + + O + O O + 6 6 6 6 6 6 e e y e e y 6 + 6 q q 6 w w 8 i i i i s s s s d s s i d d d d d d d p p p d s d d s s s s s i i i i > > > > & & & & & > > i i i i i i > > > > > > > > i i i i 8 8 & & i i i i i i i i i i i i i i i i i i i i i i i i s i i i 8 8 & & & & & & & & & & > > > > 8 8 8 8 8 i p d i i i i i i 8 & 8 8 8 i i 8 8 8 i s s i & & & & * * s * # 8 W W @.O.J.J.7.J.4.$.4.4.O.V B o.O.%.5.e.w.e.H.H.R.@X<X1XT.5.,.1.e.U.U.U.U.Y.T.oXXXH.1.<.%.B B B B B v C +.7.R.4X4XR.6.4.$.$.B m B O.@.v f - = = % = % % % = % X X X X X X X X o o o X X X X . . . . $ $ $ $ % O O @ N m N m } Y.oXoXoX XY.u.t.r.r.Y.Y.u.t.r.5.$.N 1 % X X = @ # w.1X,X6X6XOXq.} Z V } %.<.T.kXVXVXbXvXvXvXvXbXbXvXnXnXnXDXDXDXDXDXDXDXDXDXVXVXVXVXVXDXDXVXcX3X1X<X1X3X5XcXvXnXVXnXbXnXcXkX5XoXU.H.U..XY.H.H.T..XoX@XoX@X@X@X@X@XXXT.U.H.8.,.#.O.W M N v g f k M N g - ; # ; = 1 f g b b b n E ^ ~ ^ ~ ~ ~ ~ ~ ! ^ N f f f f f f r r g b E b k k g f = 1 f g f f v n n g g g 1 2 f f f 1 1 = = = = = = = 1 1 & & - - s l M M g k k b l l g s s w w s s s s s 1 > 1 & = = - = # = - - s 1 1 s - - - - & s f l W *.7.*.W E M k g s s s w w w j j l x M l l l l g g g l M M b l b f - f R Q E b j w 8 8 8 8 8 8 8 8 8 8 8 8 8 8 i i 8 8 8 8 8 & 8 8 8 8 8 8 8 8 8 8 8 8 i i 8 8 8 8 8 8 & & & & & & & & i i i i > > > > 8 8 & & & & & & & & & & & & & & & & & & & & & & > > > & & & > > & & & & & & % % ",
"r t Z t t t t t t t t t t t t t t r r r r r t v v N N B B B B B m v g r t g v m m m m v N m M N m N B B O.%.$.O.B B B m m t t t t z m m m B O.%.O.B B B O.o.z 5 7 9 e u u 0 0 u 0 0 0 0 0 0 u u _ _ _ _ 0 0 7 5 5 u _ _ ) 0 0 0 5 7 7 5 5 5 5 6 5 5 5 7 7 5 5 5 5 5 5 5 5 + O O O O + + 6 5 5 6 6 7 y y e e y 6 + 6 q e w e e w i i i i s s s s s s i i d d d d d d d d d d s s d s s s s s s i i i i i i > > > & & & & & i i i i i i i > > > > > > > > i > i i 8 8 & & i i i s i i i i i i i i i 8 i i i i i i i i i i s i i i 8 8 & & & & & & & & & & > > > > 8 8 8 8 i p p p i i i i i i & & 8 8 i i i 8 8 i s s i 8 & & & & & i & * 6 8 d V W @.%.J.w.w.7.$.<.<.%.B B O.O.%.&.w.w.e.H.R.XX@X<X3X4XE.1.5.U..XXXT.Y.Y.U.T.oXT.T.e.$.O.O.B N N M N C $.J.E.&X4X@XK.4.<.%.+.e.J.7.! N v 2 - = = % % = = % % X X X X X X o o X o X X X X . . . . $ $ $ $ % $ O @ N N N B } u.oX>XoX XY.u.t.q.q.r.t.t.r.r.5.$.W g X X X % @ # <.<X1X>Xq.Z Z } } &.O.%.e.<X5X5XcX5XcXbXVXVXVXnXnXVXVXVXDXDXDXDXDXDXDXnXcX5X5X5X5X5X5XmXnXvX3X1X@X<X1X5XmXVXVXVXVXbXcX5X2X<X.XT.T.T.T.T.T.U.U.U.T.T.E.XXXX@X@XE.H.8.4.O.W ! ! N M M k g k b E E b ; ; ; - 1 f g b b b b n n b N ^ W ^ N M N v r r M ^ N v r k k v v g b k f f f 1 1 1 1 - f f f f g f f f 1 1 1 f f 1 - = # = = = = = = = & & & - - s g l b g g k k l l g s s w w s f s f f 1 1 1 - = = - = # # = - s s 1 1 - - - - s f l Q @.#.#.! E N M k g s s s w 8 w s j l x M M l k j f g l M b R M g s - f b E E M g w 8 8 8 8 8 8 8 8 8 8 8 8 8 8 8 i i i 8 8 8 8 & 8 8 8 8 8 8 8 8 8 8 8 8 8 i i 8 8 8 8 8 & & & & & & & & & & > & & & & & 8 8 & & & & & & & & & & & & & & & & & & & & & & > > & & & & > > & & & & & & % % ",
"q t t t t t t t t t t t t t t Z t r r r r r r v g m N N W W W W N M v t g v m m m m m m N M M N N B B B O.%.$.$.O.O.B m m m m t t t z m z V O.O.O.B B B O.o.u 5 7 u u u 7 7 7 u y 7 5 5 7 0 0 0 0 0 0 0 7 7 5 + 5 u 0 0 0 0 7 7 5 5 5 5 5 5 5 5 5 5 5 9 5 5 5 5 5 7 y y 7 5 + + + O + 6 6 + + 6 6 6 6 6 y y y 6 + 6 y t t e e d s s s s i i s s i i i s d d d d d d d d d s s s s s s s s s s i i i i i i i i i > > & & & & > i > > > > i i i i > > > > > > > > 8 8 8 & i i s s i i i i i i i i 8 8 8 8 i i i i p p p p p p i i 8 8 & & & & & & & & & & > > > > 8 8 i i d d p i i i i i i 8 8 8 8 8 i p 8 i i s s i 8 & & & & & i s + 8 * d 6 g m o.B -.F.6.w.4.O.$.#.O.B O.O.O.%.4.w.H.U.T.oX@X<X4X3X<XY.I.T.<X<XoXT.Y.Y.U.Y.oX1XE.8.$.! N M b b M N ! $.7.K.XX4X.X7.&.,.8.R.T.J.2.%.N v f = = = = = = : % % X X X X X o o o X X . X X . . . . $ $ $ $ . . o O ; N m m B 9.oX>XoX|.u.u.r.q.w.q.r.r.r.0.5.$.! v = X X o @ # B U.Y.&.[ } } +.<.4.w.7.H.XXoX1X6X5XVXVXDXDXVXVXVXVXVXVXDXDXVXVXVXbX5X4XoXoXoXoX@X@X3XkXvXvX5X4X<X<X1X2X5XbXVXvX5X4X1X1X1X1XoXXXU.r..XoX@XoXoX.XT.T.E.XXXXE.W.H.8.F.3.^ N E b b g k w f b W b 2 = = - 1 f g g n b b k k g f g b E N v r q r f g N #.! ^ E N v k k v b g f 2 1 1 1 1 - - - - - = - - = = ; ; = = 1 1 1 = & & & & = = = = & > & & - - f f g v k k k k g l l g d s w s s s f f s s 1 1 = - = - = & = - s 1 s s s s - - f f b R E E N M E N M b g s s s w ; w s j l x R x g d j j g l M x x l g w s l R E R l s & 8 8 8 8 8 8 8 i i i i i i i i i i i 8 i i & & & & & & & & & 8 & & & & & & & & & & & & & & & & & & & & & & & & & & & & 8 8 & & & & & & & & & & & & & & & & & & & & & & & & & & & & & > & & & & & & % % ",
"q t t t t t t t t t t t t t t Z v t r r r r r t t v m N W W W W B m v g v v m N m m m m N M M N N B B B } O.%.$.$.#.O.B m m m m t t z m z m B B O.B B B O.o.u 5 5 u u 7 5 7 7 7 5 5 5 5 5 0 0 0 0 0 7 7 7 5 5 + 7 u 0 0 0 7 7 5 + 5 5 5 5 9 9 5 5 5 5 9 6 5 5 5 7 e u z e 7 + + + + + 6 6 + + 6 6 6 6 6 6 6 6 + 6 6 q z x d d d s s i s i i i i i i s s d d d d s s d d s s s s s s s s s i i i i i i i i i i i i > i i & & & i > > > > i i i i > > > > > > > > 8 8 8 8 i i s s i i i i i i i i 8 8 8 8 i i i i p p p p p p i i 8 8 8 & > & & & & & & 8 i i i i 8 8 i p j j p 8 i i i i & 8 8 i 8 p i p i i i s s i & & & & & & i * i i i 8 d 8 M M o.#.7.J.J.6.+.$.%.B m B %.&.&.1.e.U.T.T.oX@X<X<XT.I.oXE.oX3X5X5X1XoXXXI.H.oX5X1XU.,.B O.W M E N W W m B 4.J.1X<XH.<.5.H.XXE.I.7.$.! b g = = = = % = : : % % % X X X X o o X X X X . . . . $ $ $ $ $ .   o o @ W M N v 1.T.oXoX|.u.u.q.q.w.9.0.w.w.1.1.$.W v f X o o @ ; q <.V Z } 1.9.U.T.T.K.H.U.U.oX1X1XnXDXDXDXDXDXVXVXDXVXbXvXvX5X5X5X1X<XE.U.U.Y..XoXoX1X1X1X<X<X<X1X5X5X5X5XcX5X<XT.I.T.Y.E.oXoXY.H.U.T..XoXoXoXT.U.U.E.U.H.I.W.I.F.6.#.E b g g g f - - g g - @ ; - f 2 f g k f f k k f f f 2 b M M v q r q q M @.2.#.N N M b E N E E b b n g 2 1 1 - = = = - - ; ; - = ; ; % % % & = = = & & & & & & = = & & & 1 - 1 - w g M M b b b g l l l d s w s s s s s s s s - - & & & & & # & > > > 1 s w - 8 f k l l g l M W W E E M g s s s w w w j j l x R x j d g l l l x x g s g s g b M R R k 8 8 8 8 8 8 8 8 8 i i i i i i i i i i i 8 i i & & & & & & & & & 8 & & & & & & & & & & & & & & & & & & & & & & & & & & & & & & & & & & & * & & & & & & & & & & & & & & & & & & & & & & & & & & & & & & & % ",
"t t r r r r t t t g g g t t g g v t t r t t t t v m B B B O.O.B B m m t z m m N N m m m N m N N N N C C O.%.#.#.$.$.O.B B m m z t t g g g m m B B B B B O.O.e 5 7 u u 7 5 5 5 6 6 6 5 5 7 7 7 0 7 5 5 7 5 5 + 5 7 7 0 0 0 7 5 5 5 5 5 5 5 5 5 5 5 5 6 6 7 5 7 7 u [ [ [ z y 5 5 5 5 7 e e 6 + 6 + + + + + 6 6 # + 6 e V x d w d d d i s i i i i i i i i s s d d d d d d s s s s i i s s s s i i s d s s i i i i i i > > i i > > > > i > > > > > > > > > > > > > > > > > i i i i i i i i i i i i & > i i i i i i p p p p p p i i i i 8 & 8 8 & & i 8 8 8 i i i i 8 p j d d i 8 p p p i i 8 8 8 8 p p p p p j j d i i i i & & 8 & & & 8 8 i 8 8 8 w M W B %.6.H.K.4.O.$.$.} B $.$.<.5.H.U.T.XXE.XX<XT.T.E.1X<X3X5XcXcX3X<XoXY.u.T.3X4XXXJ.%.! ! N M N M M m B O.e.oX3XXXU.U.oX<X<XE.H.8.#.E g 1 & 1 1 % % % : : % : % % % % X . o X X X . $ $ $ $ $ % % $ . . . . O b E M m O.I.oXoX|.u.t.r.w.5.1.1.0.w.1.<.$.O.k f % % @ ; v m } +.5.H.T.@X1X1XoXU.U.Y.T.Y.oX6XvXVXVXDXDXDXVXbXvX5X5X3X1XoXE.T.E.R.I.r.r.T.T.T.Y..X<X<X.XY.oX<X<X<XoXoX<XoXoXXXU.r.I.Y.XXXXR.I.I.U.U.R.T.@XK.e.J.J.7.7.F.J.F.6.#.W N b f f f f 2 = = ; = 1 f f g f f f g f f f f 1 1 1 1 g v f r f k k f ^ 2.2.^ M b b M E W W E n n n v g f f f 1 1 - - - - - - = = = = = = % % = = & & % % & & # # & & & & = - w f k b M M M l b b g f s w w s s s s s s s f f w i & & & & & & i > i i s s & * s 8 s l g g g v N W W M g f s 8 * & 8 s s f j j s d j j x x x x l j j j j k M R R l s & 8 8 8 8 & 8 8 i i i i p p i i i i i i 8 s i i > & & & & & & & > > > & & & & & & & & & & i i & & & & & & & & & & & & & & & & & & & & & & & & & & & & & & & & & & & & & & & & > > > > & & & & & & & & & & ",
"t r r r q r r r t t g g t t g g t t t r t t t t v m B B O.O.O.B B m g t z m m N N m m m m N N N N N C C ! O.@.#.#.$.O.B m m m z g g t t g g m B B B B B O.O.t 7 7 0 7 5 5 5 5 5 6 6 5 5 7 9 7 5 5 5 5 7 7 5 + + 5 7 7 7 0 7 5 5 5 5 6 5 5 5 5 5 7 5 5 5 5 5 7 u [ { &.[ [ u 7 5 7 y u z e 6 5 5 + + + 6 6 6 q q 6 6 e x g d d d j d i i i i i i i i i i s s d s s d d d s s s s i i s s s s s s d d s s i i i i i i > > i i > > > > i i > > > > > > > > i i > > i > > > > i i i i i i i i i i i & i i i i i i i p p p p p i i i i i i 8 i i & & 8 8 8 8 8 8 i i p d j d p i 8 i p i i i 8 8 i p p p p p j j d i i i i 8 & & 8 & > > 8 i i i 8 8 8 d M V O.&.J.R.e.$.$.7.6.%.O.$.e.1.5.5.e.U.U.U.E.E.1X5XkX3X3X5XcX5X3XoXoXY.Y.E.<X<X@XoXH.#.N N v b g m m } } 5.U.3X3X4X.X4X5X5X4X@XR.6.^ T b k f 1 = 1 % % % : : % % % % % X o X X . . $ $ $ $ $ % % $ . . . X o 1 b b v Z 5.oXoX|.u.r.r.q.1.1.&.5.0.1.<.+.W v f @ ; k N O.$.J.T.E.@X3X5X4X<XoX.XoXoXT..XoX3XvXbXnXVXVXmXkX5X2X@XoXE.Y.H.e.5.e.5.r.r.U.Y.Y.Y.T.oX@X@XoX.XoXoX.XY.r.r.H.U.Y.oXoX.XT.R.Y.Y.H.r.r.H.H.J.J.J.4.%.$.,.@.@.2.*.#.! E b v 2 ; ; - - - = = - 1 g g f 1 f f f f 1 1 1 1 1 1 - - f f f r f b N b E #.#.E N b v v b E E b b b n n n g f 1 1 1 - - - - - - - = = = 1 = = = = = = = & & & & # # & & & & = = - f v b N W W N b b g f w w w w s s s s s s w f s s s i s i s s s s s s s s w 8 8 s g R M M M v N W W M k f s w & & i i w s s s w j j j j l x x g j j j g x R R l s 8 & 8 8 8 8 8 8 i i p p i p p i i i i i 8 8 i i > & & & & > & > & & > & & & & & & & & & & & i & & & & & & & & & & & & & & & & & & & & & & & & & & & & # & & & & & & & & & & & & & > & > & & & & & & & & & & ",
"r q w w r r q r t t t g t t g t t t r r t t t t v N ! O.O.#.O.B m m t t t m m N N B N m m N N N N N C C ! ! %.%.O.#.#.O.B B m m m g t t t t m m B B B B O.o.e 6 6 6 6 5 5 5 5 5 9 9 6 5 5 5 6 5 5 9 7 0 7 5 + + 5 5 7 7 0 7 5 5 5 5 5 5 5 5 7 0 7 7 5 5 5 7 u [ &.{ &.[ _ u 7 7 e z z z e y 5 6 + + 6 6 q y y e y 6 e d d j d d j d i i i i i i i i i i i s s s s s d d i i i s s s i i i i d s d d d d i i i i i i i > i i > > > i i i i > > > > > i i i i i > > > > > > i i i i i i i i i i i & i i i i i i i p p p p p i i i i i i i i i & & 8 8 8 i 8 i i i j d d p i 8 i i i i i 8 8 i p p p p p j j p i i i i 8 & i i i 8 8 i i i i i i 8 8 w g m o.O.6.R.T.7.O.<.I.J.$.$.5.&.+.B } $.4.e.U.XX4XcXvXcX3X3XcX5X3XoXoXT.I.Y.E.<X4X@XE.6.%.M v v g m B O.} <.H.2XbXkXE.3X5XkXkX3X<XW.3.^ E R b f 1 = = = 1 1 = = % % % % X X X X o o $ $ $ $ $ % % $ . . . X $ @ b b m t <..X.XY.u.r.q.0.1.1.&.1.1.<.+.O.B N v g v O.O.<.J.@XkX5X5XcX5X4X<X<X6X5X1XoX3X1X5XkXbXmXcX5X<XXXT.U.H.e.5.5.<.+.+.+.<.e.H.T.T..XoXoX1X@XoX@XoXoX X|.Y.Y.Y.Y.T.oX<X<X<XoXoXE.U.r.5.5.8.e.4.<.$.B N C #.#.^ W M b v v r - ; ; ; ; - - 1 2 f f g g g - 2 f f f 1 1 1 1 1 1 1 - 2 f f f g E ^ N b E W N E b b b b M N b b b b b n k f 2 1 2 2 - - - - - - - = = = = ; ; 1 = = = 1 1 1 1 - - 1 1 & & = ; - f N N W ! W N b l k f s s w s s s s s s s f f f s s s s f f h f s s w s w w w w s l E W Q N M N E E M l f s s > > > s & w s s s j d s d l x l j j j g x M R R d i 8 8 8 i 8 8 8 i i p p p s s i i i 8 i i 8 8 i > & & & & & & & & & & & & & & & & & & & & & & & & & & & & & & & & & & & & & & & & & & & & > > & & & & & & & & & & & & & & & & & & & & & & & & > > > > & & & & ",
"q q q q w w q q r t t t t t t t v t t t t t t t m N ! O.O.O.! m m z t t t m m N N B N N m N N m N N C C ! O.O.%.O.#.$.#.O.O.B B m z t t t t g m B B B B [ [ y 6 # # + + 5 5 5 5 9 9 9 9 5 6 + + 6 y e z e 5 + + + 5 7 0 0 0 9 7 5 5 5 5 7 0 0 u 7 7 5 5 7 u [ { { { | _ _ 0 7 7 u V z u y y y y + 6 6 6 y e t z z e e d d j j d j j d i i i i i i i i i i s s s s s s s s i i s s s i p p p p d d d d d i i i i i i i > i i > > > > i i i > > > > > > i i i i > i i > > > > i i > > > > > > > > & i i i i i i i i p p p i i i i i i i i 8 8 & & & 8 i i i i p d j d p i 8 8 i i 8 i 8 8 i p p p p p j j p p i i i 8 & & i i i i i i i i i i i i 8 8 w g B B &.K.E.J.O.%.J.@XJ.7.+.+.+.V t V B ,.J.T.<XkXcXcX5X3X5X5X3X<XoXXXU.Y.U.@X5X2X4XT.F.! m m m B B %.+.1.H.1XbX5XT.5XbXvXcXkX3X<XW.2.~ E b b g - - = = 2 1 = = % = % % % X o o o $ $ $ $ $ % % $ . . . X o o f f g t +.U..XY.u.r.r.0.1.1.<.<.<.+.} O.C N m O.O.O.$.e.XXkXbXcX5X5X5X1X1X5XvXvXcX5XkX5X3X2XkX5X1XXXH.e.5.5.w.4.+.+.+.+.+.} +.5.H.T.XXoX@X@XoX.XoX@X@XoX|..XY..X.XY..X1X4X2X1X<X@X@XR.H.5.7.4.7.$.O.B v v N ! W b f f r ; ; ; ; ; ; ; - f f g g f f f f f 1 1 1 f f f f 1 1 1 1 - - - 2 f f v W ^ N b N E N E M M E E E E E b M b b b k g f f f f 2 - 2 2 2 w - = = = = = = & = = 1 1 1 1 1 - - 1 1 1 & = = - b W ^ ! W E l b b k f s s s s f f f f f f f f f f f s f f k k f f s & w w r r j s l Q W @.W M N N N M l f s s s s > > - s s s j j s s j l l j g j j x R x l l s i 8 8 8 i 8 8 i i p p p p s s i i 8 8 i i 8 8 > & & & & & & & & & & & & & & & & & & & & & & & & & & & & & & & & & & & & & & & & & & & & & & > & & & & & & & # & & & & & & & & & & & & & & & & i i > > & & & & ",
"r q q q q q w q t t t t t t t t v v v v t t t m m B ! ! O.! N m z t t t t Z m N N N N N m m m m M N C C B B ! %.O.#.$.#.O.O.B m g t t w w e t g m B B o.[ V 7 6 @ @ # # + 5 7 7 7 y y 6 6 5 + 6 e z z z 7 5 + 5 6 9 u _ _ u 0 9 5 5 7 0 0 0 0 0 u 7 5 5 u [ [ | _ _ _ _ u 0 7 y z z u y y t y 7 6 6 y e t t t V V z d e d d j j j j j s i i i i i i i i i i i i s s s s s s s s s s s p p p d d i i i i i i i i i i i > > > > > i i i i i i i i > i i i i i i i i i i > > i i i i i i & > > > > > > > i i i i i i i i i i i i i i i i i i 8 & & 8 i i i i i j j d i i 8 8 8 i i 8 8 i i d p p p p p p p d p i i 8 8 & * 8 8 i i i i i i i i i i 8 6 8 w N W $.w.R.U.6.O.$.T.U.6.$.&.7.%.B m Z B <.H.XX5X3X3X3X4X1X1X<X@XoXT.H.U.T.oXkXkX5X4XE.7.O.N B B O.%.<.e.U.1XvX1XoXcXVXVXnXcX3X<XR.6.2.2.! @.! v f f f 1 k 1 = = - = % % $ $ $ % % $ O $ % % % % X X X X X @ 1 l s t B e.Y.Y.t.r.r.w.1.<.+.+.+.+.O.} B B } $.<.+.w.K.1XcXvXcX5X4X1X1X5XvXnXVXVXvX5X<XXXT.R.U.H.e.5.<.%.%.$.%.} } %.+.+.%.<.4.e.H.T..X.X.XU.Y..XoXoX.XY.Y.Y.oXoX.XoX4X5X3X4X@XXXXXU.8.4.8.F.8.4.@.E b g v g r ; ; - ; @ @ ; ; - f b g f f f f g n k g f - 1 1 1 1 f 1 = % - - - - ; ; - f f b M b b E E N b M N E E E E N E E M b b b k f f f f 2 - 2 f 2 - - - - 1 1 1 - # # = = 1 1 1 1 - = = & = = = ; w N ^ ^ E E M g l k f f s s s s s s s s g g g g s f s s s f f g s s w w d d s r s d M W O.W N N V M l l k f s s f f s s s s f f j s w s l l k g j l l x x l d 8 i i 8 8 8 8 i d p p p p p p s s 8 i 8 8 8 & & & & & & & & & & & & & & & & & & & & & & & & & & & & & & & & & & & & & & & & & & & > > & & & & > > & & & $ % % % % & & & & & & & & & & & & > > i i > > > > > & & & ",
"t r w q w w w w t t t t t t t t t t g t t t g m m B ! B B B m v t t t t t Z m N N N N N m m m m N N ! ! C ! ! %.O.%.#.#.#.O.B m m g t w e t t g m V [ o.[ V 6 + O @ + # 6 6 7 0 7 y 7 7 5 + 6 6 z z z u 7 5 5 9 e u _ _ ' _ 0 7 5 5 0 u _ 0 0 u u 7 7 7 u [ [ _ _ _ u u u y 7 0 0 u u e u z z y 6 y e t t t z V V x d d d d j d j j s s i i i i i i i i i i i i s s s s s s s s s s s p p p d d i i i i i i i i i i > > > > > > i i i > i i > > > > i i i i i i i i > > > > i i i i & & > > > > > > > > i i i i i i i i i i i i i i i 8 8 8 & & 8 i i i i d j j i i 8 8 8 8 i i & 8 i i p p p p p p p p p p i i 8 8 & * 8 8 i i i p i i i i i i i 8 6 8 x V @.4.U.T.J.<.%.6.e.%.%.5.K.e.$.B Z B +.8.I.@X2X4X4X1XE.E.@X1X1XXXr.9.XXoX3X5X5X2X@XJ.$.B B } O.$.5.e.H.@X5X<X@XcXVXDXVXkX<X@XW.J.6.8.6.J.7.O.W N v b T b f 1 1 - = ; % % % % $ O O $ % % % X X X X X % $ 1 M g w z 1.Y.Y.t.r.r.w.1.<.+.$.%.} V V V } 5.U..XoXoXoX1X5X4X1X1XoX1X6XvXVXVXVXnXcX<XT.e.1.,.+.+.%.+.%.%.+.%.O.} [ O.+.$.$.<.<.7.e.H.H.U.U.U.Y..X.XT..X.X.XoX.XoX<X1X1X1X1X@XE.U.U.H.6.4.4.F.6.2.@.N b g g f w ; 2 # @ ; f g b b g g f f g f f f f f f f f 2 2 f 2 f 1 1 = - = - - ; - - f f f f f b M N b M E E W E E E E N M M M b n k g f 2 - - - 2 f 2 2 - - - 1 1 1 1 = = = = 1 1 1 1 - - = 1 = # ; - k N E N b b b l l k f f s s s s s s s f g g g g f s s s s s s s s s s s d d s r s l W @.W N M M N M l g g k j f f f s s s s s f s s s g l l l k g l l x x d d 8 i i 8 8 i 8 i p p p p p p p s i 8 8 8 8 * * # # & & & & & & & & > & & & & & & & & & & & & & & & & & & & & & & & % % & # & & & & & & & & & & > & & & & $ $ % % % & & & & & & & & & & & & > > i i > > > > > & & & ",
"t r r r r r r r t t t t t t t g v t t t t t m m m B ! B N N m t t t t t t m m N N N N B m m v m N N ! C ! C ! O.! %.#.%.#.#.! N m m t e t t g m m m B o.[ V 5 5 + + # # 6 y y y y 0 e 7 5 5 9 y z u u 7 5 5 9 u u u _ [ _ _ 0 7 7 0 0 _ u 0 0 0 _ 0 7 0 _ ' _ u u u u y y 7 7 0 7 y y y z z e 6 6 q y t y y t z z d e d d d d s j j s i i i i i i i i i i i i i i i s s i i s s s s s p p p p p i i i i i i i i i i > > > > > > i > > > > > > > > > > > > > > > > > > > > > > > > & & & & & & & > > > > i i i i i i i i i i i i i i 8 8 8 8 & & i i i i j d p p 8 8 8 8 i i i & 8 i i i p p p p j p p p p p i i i 8 8 & 8 8 8 i p p i i i i i i i 8 * * d g B O.J.U.K.6.<.$.<.V O.5.R.U.4.O.V } +.5.4.I.@X@X<X1XoXT.E.<X3X<XU.e.U.Y.<X3X3X4XXXH.<.C %.%.<.5.e.H.H..X1X1X<XcXDXDXnX3XE.T.U.T.R.U.R.E.I.6.7.$.! ! ~ ^ E b g g g g 1 = = % % @ o $ % % % % X X X X   . O g r # t +.t.Y.t.r.r.w.5.<.%.O.B V Z m %.<.H.oX1X5XoX.X.X<X1X1X1X1X4XcXVXVXVXnX5X4X.Xr.<.+.+.+.} } +.<.<.4.$.#.O.O.O.$.,.<.4.4.4.<.1.1.5.e.U.Y.U.U.Y.Y..XT..XT.T..XXX@X@XE.J.8.6.8.6.4.,.#.! W N M f f - ; # # @ ; # f b E T b n g f 2 2 f f f f f 1 f f f f f f f f f f 1 1 1 - - - - f g k f f k b M b b E E E E E E E N M M b b b b g f 2 2 - - 2 f f 2 2 2 2 - 1 1 1 1 - = = = 1 = = = 1 1 1 1 = % ; f b M N b g k g M l g f f s s s s s s s f g g g g g s s s s s r r s s d d d d r r d M W W N R V N V M l l l l k j k f f f f s s s s s j l l l k g g k l x j d 8 8 i i i 8 p p p p p p p p p p i i & & & * * # # # & & & & & & & & & & > > & & & & & & & & & & & & & & & & & & & & % % % & & & & & & & & & & & & & & & & % $ $ % % % % % % % % % % & & & & & & > > > > > > & & & & ",
"t t r r r r r t g g g g g t t g v m t t t v m m m N C B N m v t t t t t t m m N N N N N m m v v m N B N B B B B ! O.%.O.#.$.#.O.B m g t t t g m m V B o.[ V 5 + + + + + y y y y y 0 0 7 7 7 0 u y y 7 7 5 5 y x u u _ _ _ 0 0 0 0 0 0 _ 0 0 0 0 u 0 7 0 _ _ _ u 0 u y 7 7 7 7 0 7 7 y y e u y 6 + 6 7 y y y y z e e w d d i s s j d i i i i i i i i i i i i i i i i i s i s s i s s s d i p p i i i i i i i i i i i i i i > > > > > > > > > > > > > > > > > > > > > > > > > > > & & & & & & & & > > > > i i i i i i i i i i i i i 8 8 8 8 8 & & i i i i d i i i 8 8 8 8 i i & & 8 i i i p p d d j j p p p i i i i 8 8 & 8 8 8 i p p i i i i i i i 8 8 8 * 8 g W <.K.U.J.6.$.5.O.[ <.H.H.6.<.} } +.4.$.5.T.T.oX2X4XT.I.T.@X@XR.H.r.Y.XXXX<X1XoXT.4.} $.<.e.J.U.T.T.T.oX@XXX3XbXbXbX4XU.H.U.<X2X4X4X4XXXI.H.6.#.#.#.#.~ W b b E E k 1 = % & % % % % % % % X X X X   % o # w e o.&.r.t.t.r.w.e.5.&.O.V z z V +.5.r..X2X1X6XY.Y.oX1X5X5X7XvXnXVXVXbXmXcX<XT.H.1.} ,.<.<.<.<.<.5.5.7.7.$.O.O.O.$.4.7.5.5.4.$.+.+.<.5.9.9.e.e.H.U.Y.u.t..XoXoXoX4X@XJ.7.$.#.@.,.*.! N M v f k f - ; # ; ; w f g W W b n g n g g 2 - - - 1 f f f f f f f f f f f f f f f 1 1 1 - - f g b b M N E E M M E E N N E E E N M b M b k g f - 2 2 2 2 f f f 2 - - 2 - 1 1 1 1 1 1 1 1 = = = 1 1 1 1 3 & % - g b M M b v g g l g f f f s s s s s f f f g g f g g f s s s s w w s s d g d d r w M N N g N @.#.W W V M l b l l k k k k f s s s s w s l x g j j j g k l l d i p i p i i i p p p p p p p p p i i 8 & & * * * * # # & & & & & & & & & & & & & & & & & & & & % % % % & & & & & & & & % % % & & & & & & & & & & & & & & & & % $ $ $ % % % % % % % % % & & & & & & & & > > > > & & & & ",
"t t t t r r t t v v m m v v t t g g g g m m m m m N B m N N m m g t t t Z m V m N N N B m m v v N N C C N B B N O.O.O.O.O.O.$.$.o.V z e t t t t z m V V o.e 5 + 6 6 5 7 y 0 y y y 0 y 7 5 7 0 u y 7 7 5 5 7 u [ u u u 0 u 0 0 0 0 0 0 0 0 0 7 0 0 7 7 u [ u 0 0 u 0 7 0 7 7 7 0 y 7 7 e e e 6 + 6 6 e e 6 7 y e e d i d s i s p d d d d i i i i i i i i i i i i i i i i s s s i s s s s s d d p i i i i i i i i i i i p i i i i i i i i i i i 8 i i i i i i i i i i > > > > > > i & & & & & & & & 8 8 i 8 8 8 8 8 8 8 8 8 8 i i & & & & > > > > i i i i i 8 & & i i 8 8 i i i i i i i i p d d d d p p i i i i i i 8 8 8 i i i i p p a a i i i i 8 8 8 * * # s V O.J.K.e.6.,.$.4.%.&.5.e.e.6.4.$.%.6.<.<.U.U.R.oX<XoXU.r.E.T.I.e.e.e.U.Y..X@XXXR.e.} <.5.e.w.w.H.5.r.T.T.U.oX5XvXcX3XoXI.<XcXcXcXkX5X@XE.E.E.E.J.3.2.3.D.3.=.~ ~ R l f 1 % @ & = & % . X . . X X $ o O @ e V %.%.w.H.K.H.e.e.4.[ V Z V } 4.e.T.@X2X1X1XoXY.|.oX4X5X5XcXvXbXvX5X5X1XoXY.r.<.&.<.<.4.<.5.6.e.e.5.4.6.$.#.O.} $.,.6.4.4.,.<.<.+.1.w.e.w.1.5.w.U.T.T.T.oXoXoX@X@XU.6.2.*.! ! N N M M f f - - - ; # ; # f b M ~ ~ E b b g f g f - = = f 1 f f f f f 1 2 - - f 2 1 1 1 1 1 f b b g g b N M E @.*.@.~ ~ E M M N b b b b b b k g f f f f f f f f f f f f - - - - - = = = = - - - 1 1 1 1 1 1 1 % % & f b E b M E M g k l g g s s s s - - f f f f f g k k g j j s s s s s w s d g r r g g M z V @.*.@.Q W W V N M M x l k l k h > s s s s f g l g s j j j H l j d s s p p p p p 8 p p p p i i i i d i s s s i 8 8 & * * * & & & & & & & & > > > > > & & & % % % & & & % % & & & & & & # & & % % % & & & & & & & & & & & & & % % % % % % % % % % % & & % % & & & & & & & & & & & & & & & & ",
"t t t t t t g v v v m m v v t t g g g g g g m m m m N B W B m m m t t t m m m m N N B B N m v v N C C C C C C B B B C C O.O.O.O.O.B m t t t e e t z V V [ 7 5 5 5 7 7 7 0 7 0 0 y y 7 6 5 7 0 0 7 7 5 5 5 7 0 u u 0 0 0 0 0 0 0 0 0 0 7 5 5 5 7 y 7 9 u u 0 y 0 u 7 7 7 7 7 y 0 y y y e e e 6 + 6 + y y 6 7 7 e e d s d i i p p d d s s i i i i i i i i i i i i s s i i s s s s s s s s s s s s i i i i i i i i i i i p i i i i i i i i i i i i i i i i i i i i i i > > > > > > i & & & & & & & & 8 8 i i i i i 8 8 8 8 i i i i & & & & > > > > i i i i 8 8 8 & i 8 8 8 i i i i i i i p p d d d p p p i i i i 8 i 8 8 8 i i d d p a a i i i i i 8 8 8 & & * 6 j o.-.R.J.4.7.<.<.%.+.w.U.H.e.7.%.$.,.<.4.5.U.XXT.T.<X<XT.oXoXT.e.e.e.I.T.R.T.R.I.5.+.+.e.R.5.&.%.+.} <.<.5.E.4X5XnXbX5X1XcXnXnXvXbX5XXXT.@X4X2XE.F.J.F.F.F.3.~ ~ R b b l f f - # & $ $ $ o o $ $ $ $ % - R %.&.%.w.J.H.H.5.$.B t V } 5.H.U.oX6XcX6X1X1X<XoX1X3X5X5X1X1X2X3X1XXXY.U.e.w.r.e.e.e.5.5.e.H.J.e.e.5.<.4.#.O.W O.$.4.J.I.H.r.H.e.e.H.U.T.T.r.5.r.Y.T.T..XXXU.e.J.H.J.4.#.~ N b v v f ; f f f - ; ; ; r M N E W ~ W E b b f f f f - = 1 2 2 f f f f f f f 1 1 f f f f 2 f f g l b b b b b N ^ #.7.7.2.#.^ E M M v b b g k g f f - - - - 1 1 2 f 2 2 1 1 - = = - - - = = - - - - 1 = 1 1 = & & & # 1 g b b k M N k r g k g j s w s - - - 1 s s s f f f g g j j j j s s s w 8 w g g g m V W @.#.=.@.W W W W N M M x x l k k h s i s s s f g l g j j g l l l l j s s s p p p p p p p p i p i i i i s s s i i i 8 8 & & & 8 & & & & & & & & > > > > > & & & % % % & & # # % & & & & & & # & & % % % & & & & & & & & & & & & & % % % % % % % % % % % % & % % & & & & & & % % & & & & & & & & ",
"t t t t t t v v v m m m m Z Z t v v g g t t g v m m N B O.W N N m t t t m m V m N N B B N v v v B C C ! ! ! C B B B B C } O.O.O.O.B V m t t t t t t m V V 6 5 7 7 7 7 7 7 7 7 7 0 7 7 7 7 7 7 7 7 7 5 5 7 7 7 7 7 0 7 0 0 0 0 0 0 0 9 5 5 5 5 5 9 9 7 7 0 7 7 7 7 7 5 5 7 e e y y y y e e e 6 + 6 + y y y y y e d d s s i i p p s s s s i i i i i i i i i i i i s s i i s s s s s s s s s s s s i i i i i i i i i i i i i i i i i i i i i i i i i i i i i i i i i i > i > > > > > > & & & & & & & 8 8 i i i i i i i i i i i i i > > i i > i > > i i i 8 & 8 8 8 i i i 8 8 8 8 8 i i p p p p p p p p p p 8 i i 8 i i i i s s p p s s i i i i 8 8 i i & & * * * 8 M W L.R.$.6.w.&.<.+.w.U.H.e.5.%.$.,.5.5.5.U.oXU.Y.oX4X<X1X3X1XT.e.5.e.H.r.e.r.I.5.<.+.J.XXe.%.B } V B B ,.U.4X5XnXVXnXnXVXDXVXmXcX4XR.T.<X3X2XR.R.(.E.F.F.3.#.^ E W W E R b g - f f f f 1 1 1 1 = % # w & w 6 + y e u z t t V O.<.e.T.oXoX2X5X5X5X6X6X5X6X5X3X3X<X.XT.oX@XE.U.r.e.1.5.H.U.T.U.H.H.H.I.e.5.e.8.4.$.! V B W O.<.J.T.XX.X.XT.T..XT..XoXT.r.U.U.H.e.U.4.O.<.L.R.J.2.! N v r r f v v b f w f f f M W ~ W E W ! W N v g f - f f - = 1 2 2 2 2 f f g g g f f f g g g g g g g g k b b b ~ #.#.#.#.#.@.W ~ W E E b R R b f f - = = = = = = = = = - - - - = = = = 1 1 1 1 - - - - = = = # = = # # # f b T k k N W b k b b g g s w - - - = > > 1 s f f f f j j j j j s s s w w w g z x B O.@.=.=.#.Q Q W R N M x x l l g j s s i i s s f k l j j f j l l l j j d s s s p d p p p p p p p p i i i i i i i 8 i i 8 8 8 8 8 8 & & & & & & & & & & & & & & & & % % & & & & % % & & $ $ $ $ % % & & % % & & & & & & & & & & & & & % % % % % % % % % % % % % % % & & & & & & & & % % % & & % % % ",
"v t g t t t v v m m m m m v Z t g v v v t t t v v N W B ! W W ! m t q t m m m m m N B N N v v v N N C O.! ! C N B B C O.O.} } } O.o.B m z z g t t t z V V 5 5 e 5 7 5 7 7 7 7 7 0 7 5 7 7 7 9 5 7 7 5 5 7 7 7 5 7 5 5 5 7 0 0 7 7 9 7 5 5 5 5 5 5 9 y y e 7 7 7 5 5 5 7 7 e e 0 e e e e e y 6 + + 6 y y e e e d s d s s i i p p i i i i i i i i i i i i s i i i i i i i s s s s s s s s s s s s i i i i i i i i i i i i i i i i s s s s i i i i i i i i i i i i i i > i > > > > > > & & & & & & 8 8 8 i i i i i i i i i i i i i > > i i i i > > i i 8 & & & 8 i i i i i 8 8 8 8 i i p p p p p p i p p i 8 8 i i i i i p p p p p s i i i i 8 8 i i i & & * 8 8 8 8 M *.R.6.<.J.6.7.&.4.e.e.w.5.+.%.7.e.e.e.H.U.r.r.R.XXoX3XkX5X@XH.1.1.1.1.1.5.U.8.4.+.e.@XH.$.} B B N m O.J.@X5XVXDXDXDXDXDXDXnXbX4XT.E.@X4X3X<X<X3X<XW.F.3.#.#.~ ~ ~ W W E M M E M E b l g f f f - - w w & w g g t t t t V &.J.U.XX1X1X1X5X5X6X1X1X5XvXcX3XoXT.H.e.e.H.H.e.5.1.5.1.5.r.H.U.U.T.T.U.H.5.<.e.5.<.O.m m m m B $.e.T.<X1X1X@X@XoXT.T.<XoXT.U.U.e.5.$.4.6.J.F.#.! @.k v k v v b b v f f k N ^ ^ ! ! @.E N ! N N b f f - - 1 - = 1 1 2 2 2 2 f f g k b g f f f f f f f f g f f g k b E ~ ~ E N E E E M b b b b R E E f f - 1 = = = # # # % % = = = = # # = = 1 1 1 f - - - - = = # # = = ; ; - g b b b M @.#.M b b k l g f s - - = = & & 1 1 s s f f s s s s s s s s w s d g g M W #.=.*.#.@.W W W M M l g j j j s s s i i i i s k l j j f f j l l l f s s s i i p p d d p p p p p p i i i i 8 8 8 8 8 8 i i 8 8 i i & & & & & & & & & & & & & & & & % % & & & & % % & & $ $ $ $ $ $ & & % % & & & & & & & & & & & & & % % % % % % % % % % % % % % % % & & & & & & & % % % & % % % % ",
"m Z t t t t v v m m m m m v Z t v g t t v g t g v N W N W O.! B M t r t Z V V B N B B m m v t v m N C C C C B B N B C O.O.} B B O.O.B B V m g t t t t z z 5 y y 5 7 7 7 7 9 7 7 7 5 6 6 y 7 5 5 5 5 7 5 7 7 7 7 5 5 5 5 7 7 9 0 5 5 5 5 5 5 6 6 + 6 9 7 7 5 5 5 5 6 7 5 5 y e e y 7 7 y q 6 6 6 6 6 6 7 y e e 8 s i i i i i i p s i s s i i i i i i i i s s i i i i i i i i i i s s s s s s s s i p i i i i i i i i i i i i i i s s s s s i i i i i i i i i i i & & & & i i > > & & & & i i > > s i i i s s s s i i i i 8 8 8 8 & & & & i i i i 8 8 8 8 8 i i i i i 8 8 8 8 8 i s i i p p p p i i i i 8 8 i i i p p p p p p p p i i i i 8 8 & & 8 & & * & i i i + s z F.L.2.6.J.w.5.<.<.w.5.+.V } 5.w.e.e.e.w.9.w.r.T.oX5XbXkXXXI.+.} <.5.1.1.e.e.7.$.4.E.R.$.B V m N B O.,.H.<XcXVXVXDXDXDXDXnXbX3X<X<X<X4XkXkXkXcXkX(.F.3.2.*.*.*.#.#.#.! ! $.#.#.W N v g k v b g f f l l l k x m v m O.J.R.1X1X1X5X5X5X5X5X1X<X1X5XcX3XXXe.4.+.+.+.+.$.<.<.1.5.5.5.w.w.r.T.oX@XI.e.5.5.4.1.,.O.m m N m B #.6.T.<X3X5X3X4X1XY..XU.H.w.7.7.6.*.#.*.=.@.W M g g g k b N N b b b b b b M N N W #.7.#.~ ! W M f w f 2 2 2 f f f f f f f 1 f g g g f g g g f g g v l f f f f - w k M M E W W E M b b f f f f f g g f f f f 1 1 1 & = = # # # = = = # # = = = 1 1 1 1 3 1 1 = % % % & = ; ; f b M v E W #.#.E M M M l k f f - ; # # & & - - s s s s s s s s f f s s w s g g M ! #.*.=.#.~ W W W M g j d d s s s i i i s f j j k j j s s s s k k j s s s s s i i p p p p p p p p p p i i i 8 8 8 & & & & & & 8 8 8 8 i i & & & & & & & & & & & & # # $ $ & & & & & % & & % % % % $ $ % % % % & & & & & & & & & & & & % % % % & % & & % % & & & & & % % % % & & & & % % % & & % % % % ",
"v Z t t t v v m m m N N N v v Z g t t t v g g g v N W N ! @.! m M t r t Z m V B B B B N m v v t m N C C C C B B B B B C B B } } o.O.o.B m z t w t t t z e 5 y 7 5 5 7 7 5 7 7 5 5 5 5 5 7 7 5 5 5 5 5 5 5 7 7 7 5 5 5 5 5 7 7 7 7 5 5 5 5 5 6 6 + 5 5 6 6 5 6 7 y e y 7 5 5 e e 7 5 5 7 y y y y y y 6 6 6 e w 8 i i i i i i p p s s s i i i i i i i i i s s i i i i i i i i i i i i s s s s i i i p i i i i p i i i p i i i i i s s s s s i i i i i i i i i i i & & & & i i > > & & & & i i > > s i i i s s s s i i i i 8 8 8 8 > > i i i i > > 8 8 8 8 i i i i i 8 8 8 8 i i i s s i i p i i 8 i i 8 8 i i i i p p p p d p d p i i i i 8 8 & & 8 8 & & i i 8 & & O 8 W J.7.$.J.J.J.6.<.w.5.+.[ +.4.e.U.r.e.r.w.9.5.U.oX5XcX5XXXH.+.} +.1.<.<.5.e.5.%.$.U.E.4.B m m B W O.#.4.I.<X5XnXDXDXDXDXVXvXcXcX3X4X3XcXcXmXmXmXkXR.8.2.2.F.F.8.6.6.6.8.I.J.7.$.O.B B O.#.! #.#.#.$.*.#.@.O.O.$.4.H.@X2X5X.XoX6X5X6X6X6X1X<X<X1X@XU.5.O.} V V } } ,.4.5.5.w.e.w.w.r.T.<X3X1Xr.1.1.<.+.+.+.C N B W B B B %.H.oX1X5X6X3X1XoXT.5.%.O.O.$.2.#.N N b g f f f g b b M N E N E ! #.N f v M ~ 7.D.7.*.@.! N v f f f f f f f f f f f f f 1 f g g f g v n g f f g g l f f g f w f N ~ ^ W E E b f r g f - - = - f f f f f 1 1 1 1 1 = - # # # = = = = = = 1 = = - 1 3 f 3 1 1 = & & % # ; = f b b k W @.*.*.~ E M M l k f f - - - - - - - - f s w w s s s s s f s s w s k b W *.2.#.#.@.W E M g g j j d j d d d s i i s j l l k j s s s j j l j s s s i i i i i p p p p p p p p p p d s i 8 8 8 & & & & & & & & & & i i i & i & & & 8 & & & & & & # & & & & & & % % & & % % & & % % % % % % & & % % & & & & & & & & % % % % & % % % % % & & & & & % % % % % & & & & % & & & % % % % ",
"v v t t t v m m m m m m m v v Z t t t v v v v v m N W B ! O.W N M g r Z m m V V B N B B m m v v v N C ! C C C B B B B B B B } } o.O.O.B V z t w e t t u e 5 7 5 5 5 5 7 5 5 5 6 5 5 6 6 6 6 5 5 5 5 5 5 5 5 7 7 5 7 7 7 5 5 5 7 5 5 5 5 6 6 6 5 + + 5 5 6 y y y z z u 5 + 6 7 9 6 5 6 6 y e z z u y y 5 + 8 8 8 i i i i i i p p p i i i i i i i i i i i i i i i i i i i i i i i i i i i s s s s i i i i i i i i i i i i i i i i s s s s s s i i i i i 8 i i i i 8 & & & i i > > & & & & i i i i i i i i i s s s i i i i 8 i i 8 i i i i i > & & 8 8 8 8 i i i i 8 8 8 8 i i s s i i i i i i i i 8 8 8 i i i i p d d p p d p d p i s i i & & & & 8 8 8 8 s i & * & + # w @.7.$.6.J.K.H.7.4.4.<.&.+.<.w.T.H.H.r.r.r.1.r.T.oX<X1XXXH.+.} +.<.<.<.5.w.5.%.%.J.E.J.B v v N W O.@.! ,.I.1XvXDXDXDXDXDXDXnXnXcX5XcXmXnXnXnXnXcX@XI.J.J.E.E.R.U.T.R.E.<XXXU.J.6.7.7.8.J.K.T.E.U.e.6.7.$.B $.e.XX3X5X5X2XoX1X6X6X1XoX XY.T.R.R.e.<.+.B N m v N B %.,.+.<.w.H.Y.H..X@X1X5X1Xr.1.<.} +.+.+.O.C O.O.O.O.! O.e..X1X3X1X@XXXT.6.O.v m M N E v M k f g g - ; r k N @.#.#.! W B v r v ! 7.F.F.7.=.@.E M M k f v f v b n g g f f f g g f f g f f f v v f r f f g f f f g v b E ^ ~ ^ E N b k g b g f - - ; 1 f 1 = = 1 1 f 1 1 1 1 1 = & = = 1 1 = = 1 1 = 1 1 1 1 3 1 1 = & % % % % ; = f g k g v ! *.#.! N v b b b l f f f f f f f s s w w w w s s s s s f f s w s b E @.#.#.@.! W M b g r w w s f j j j d j d d j l l l g s w s s j j g s s s i i i i i i p p p p p p p p p p d s i i & & & & & & & & & & & & 8 i i i i i i i i 8 8 & * * * # & & & & & & & & % % % % % % % % % % % % % % % % % % % % & & & % % % % % % % % % % % % % % % % % % % % % % % % % % % % % % % % % ",
"v v t t v v m m m m m m m v v Z t t v v v v v v m B ! W W W W O.m g t Z Z Z Z m N m N B N N M v v N C ! C C C C B N B B O.} } B o.o.O.o.B m t t e e t u e + 5 5 5 6 5 5 5 6 6 5 + + + 6 6 6 6 + + 5 5 5 5 7 7 7 5 7 5 7 5 5 5 5 7 5 5 5 5 6 5 + + + 5 7 y y t u V V e 5 + 5 6 6 6 5 5 6 e z m Z u u z y + w 8 8 i i i i s i i i i i i i i i i i i i i i i i i i i i i i i i i i i i i i i i i i i i i i i i i i i i i i i i i i s s s s s s i i i i i i i i i i 8 8 8 & i i > > & & & & i i i i i i i s i s s s i i i i i i i i i i i i i > & & 8 8 8 8 i i i 8 8 8 8 i i i s s i i i 8 i i i i 8 8 i i i i p d d d p p d p d s s s i i & & & & 8 8 i i s & & i * & # # w #.6.$.6.K.K.8.+.&.<.%.} +.5.T.U.Y.Y.Y.Y.r.Y.Y.XX@X1XE.e.} } +.<.+.<.4.w.w.&.$.4.K.K.O.m m N W N ! B C 4.T.vXVXnXDXDXDXDXDXVXnXnXnXnXVXnXVXnX3X4XE.E.4X4X4X@XXX@X@X<X5X<XE.T.T.XXT.T.T.@X2X<XT.H.J.w.&.&.w.U.1X5X7X6X<XoX<X1XoX|.Y.t.q.w.1.1.<.+.$.O.N N m N ! O.%.$.4.5.U..X.X<X1X5X5X1XU.e.<.+.,.+.} %.%.$.$.$.,.,.4.e.T.@X@XE.J.7.,.#.W v f k f f 2 ; - ; ; - r v M W @.#.#.! N m v v m @.7.F.F.2.@.W W M b b k f f k v n b n g f f g b b b f g f - f f f 2 2 r r f - f g b M E E M N E E N k f f b g f - - % = - = # = = 1 f f 1 1 1 = = & = & = = & & 1 1 = = 1 1 1 1 1 = % % % % % % ; - f f g g v #.#.! W N M N N b b b g f f f f f f s s s s s s s s s s f f s w f M ! @.W N N N M k g w w w & s f j j j d j d l l l j j s d j j j g j j w 8 s 8 8 i i i i i i p p p p p p p p d s s i 8 & & & & & & & & & & & 8 8 i i i i i i i i i 8 & * * * & & & & & & & & & % % % % % % % % % % % % % % % % % % % & & & % % % % % % % % % % % % % % % % % % % % % % % % % % % % % % % % % ",
"v v v v v v m m m m m m v v v v m v g t g t g v m N ! O.! O.@.! B g t m Z m V m N m m B N B m N v m C ! C C B N N N B B O.O.O.O.B O.O.O.B V m z t t e e 9 + + + 5 6 6 6 6 6 6 6 + 6 6 6 6 + + + + + 5 9 9 9 7 7 5 5 7 7 7 5 5 7 7 7 5 5 5 5 5 5 + 5 7 0 u u u u u u y 5 5 5 6 + + + 6 7 e t V [ z z z e 9 6 8 s > > > > i i i i s i i > > > > > i i i i > > > > > > > > i i i i i i i i i i i i i i i i s s s i i i i i s s s i i i i i s s i i i i i i i i i i 8 8 & 8 & & & & > > > > i i i i i i i i j s s s i i i i i i i i i i i i i i i i i i i s s s i i i i i 8 s s s s i i i i s i i i i i i 8 8 i p d d d d p d d d d i i i > & & & & i i i i & & & & & & & # # w o.6.4.J.W.J.4.%.+.<.<.<.+.<.w.T..XY.Y.r.r.T.T.oX1XoXr.<.1.e.&.+.&.&.&.4.4.$.$.7.J.$.N m W O.N W ! C +.H.4XvXvXnXVXDXDXDXDXDXDXDXVXDXDXnXmXcX3X3X<X3XvX5X<XoX<X1X4X5X1X1X1X2X@XoXoXoX5XcX3X.XU.K.w.5.0.0..X6X5X5X5X1X@X<X@X@X.Xt.w.9.e.w.4.<.,.2.$.! W N B ! %.,.4.6.5.H.oX1X1X5X5X6X1X.XU.e.<.<.,.<.1.5.J.K.I.T.T.U.H.U.T.I.6.%.! W M b k f f 2 - - ; ; - - f r M @.@.$.#.W m v t m ! $.7.7.#.^ N M M b b b b k g g v f v b b g f f g b b v k f f f f g f 2 f g g f f f k b W ~ W b N b b g f g g k f g g - f f = = = = = = 3 1 1 & = 1 = % = = = = & # = = = = = = & % % % = % % = % % # - g f g v m W @.#.~ W E N E N b b b b l k l g g f f s s s f s s s s s f s s b W W W N M M g f w & 8 w s s j f f f s j j l x x l d j j j j j l j s s s s 8 8 8 8 8 i i i p i p p p p p p p s s i p i 8 8 8 8 8 8 8 8 8 & & 8 8 8 8 i i i i i i i i i i & & & & & & & & & & & & & & & & % % % % % % % % % % % % % % % % % % % % % % % % % % % % % % % % % % > > > > % % % % % % & : % % % % ",
"v v v v v v m m m m m m v v v t v v v g g t g v N N ! O.O.#.#.O.B t t g m V m V N N m N m N B N v m B C C B B N N N B B B W O.O.B O.O.O.o.B V m t t q q 6 + 5 5 5 6 6 6 6 6 6 6 6 6 6 6 6 + + + + + 5 6 9 9 7 7 5 5 7 7 7 7 7 7 7 7 5 5 7 7 7 7 5 7 u z [ Z u u u u y 7 7 7 6 + + + 6 y t z Z V u u z e 8 8 i s > > > > i i i i s > > > > > > > > > i i > > > > > > > > i i i i i i i i i i i i i i i i s s s i i i s i s s s s i i i i s i i i i i i i i i i i i 8 & & & & & & > > > > i i i i p p i i d s s i i i i i i i i i i i i i i i i i i i i s i i i i i i i i i i i i i i i i i i 8 8 i i i i i p d d d d d p d d p d i i i > & & & & i i i i & & & & & & & & * & g o.7.6.L.R.e.4.5.5.6.4.+.<.w.r.Y.Y.r.r.H.T.T..X<X@XU.5.e.T.e.<.&.} &.&.&.<.<.<.7.4.! m m O.! ! O.%.5.U.<X5XcXnXVXDXDXDXDXDXDXDXDXDXnXnXcXcX5X3X<X3X5X3X1X1X4X1X1X3X3X5XkX5X<XoXoX1XVXnX5X1X@X.Xw.1.&.r.oX1XcXvX7X1X6X1X<X@X|.t.r.r.H.e.4.<.4.4.$.! W N B O.O.$.4.5.e.r.Y.oX4X5X6X1X<XoXoXU.1.1.<.1.e.T.@X@X4X4X@XE.I.J.7.2.@.W N M b f - - = = = = = - - - n N ! #.$.O.B N ! ! @.#.*.*.#.! M b v b b g k v b b b v k k v v b k f f g g f f g f r f f g g f g v v g k k b b N E E b b b b b k b b b n n g f f f 1 1 # = = = = = = = & & & & % % % % & # = = = = = ; % $ $ % % % % % # % ; f f v v m N W ! ~ ^ W W W E N M b b b b b M M b l l k f s f s s s s s s s g M W Q E M l g f - & # 8 w s s s s w 8 s d l x x l d d j j j g l l j s s s s i 8 8 8 8 i i i i 8 i p p p p p p s s p p i i i 8 8 8 8 8 8 8 & & 8 8 8 8 & 8 i i i i i i i i i i & & & & & & & & & & & & & & & % % % % % % % % % % % % % % % % % % % % % % % % % % % % % % % % % : > > : % % % > % % & & % % % % ",
"v v v v m m m m m m m m v v v t g v g v g t g v N N ! O.O.#.#.O.B t t g m m m m N N m v m N C C m m N B B B B B N B B B B B B W ! ! O.O.o.o.B m z t q e + + 5 5 6 6 6 6 6 + + 6 5 6 6 5 5 + + + + + 5 5 7 7 7 7 5 7 7 7 7 7 7 7 7 7 7 7 7 0 0 7 7 u [ [ [ u u u u y y y e y 6 + + # 6 y t t u z u z e e 6 8 > > i i i i s s s s > 3 > > > > > > > > > > > > > > i i i i i i i i s s i i i i i i i i i i s s s s s s s s s s s s i s i i s i i i i i i i i i i i i 8 & & & & & & > > > > i i i i p p s s s s s i 8 8 i i i i 8 8 i i i i 8 8 8 8 i p d d i 8 8 8 i i i i i i i i i i 8 8 i 8 8 8 i i i i i p d d d d d p d p p i i i i i 8 8 8 8 i i > & & & & & & & & & # # # r *.4.L.E.K.6.5.e.U.H.5.<.1.5.e.Y.r.r.H.U.T.T.oX@XT.r.U.@XXXK.w.<.<.&.+.<.4.<.4.7.$.O.B O.O.O.%.<.U.oX1X4X4XcXmXVXDXDXFXFXDXDXDXDXDXmX3X3XvX5X4X1X1X1X1X2X5XcX5X5X5XcXVXvX1X@X<X5XDXmX5X5X5XoXe.w.&.w..X1XvXvXnXvX5X6X1X<XoX.X.XT.U.w.<.<.4.7.4.$.O.B C O.O.$.4.5.5.r.H.oX@XoXoX.XoX.X.XU.e.5.5.H.U.@X<X<X4X<XI.J.7.2.C M b v f 2 ; = = - = = - - = - v N C ! #.#.2.%.O.#.4.7.4.2.#.@.N g f f f k g f f k b b b b b b v v b k g g k g k b v f f f g n n f v b b v b b b b b b b b b b b b b b b b b n b b n b b b 1 - - 1 = = = & = & & & & & # % & & = = = % % % % @ @ % % % % % % # 1 g b M N E ! W E W ^ E E W E E N M b b R R E M M M M b l k f s s s w s f f M E W R R x g s & & # # i i s s s w w 8 s j l x l j j j l l l l x j d d d i i i i i i i i i i i 8 8 8 p p p p p s s s p s s s i i 8 8 8 8 8 8 8 8 8 8 8 & & & 8 i i i i i i i i > > & & & & & & & & & & & & & & # & % % % % % % % % % % % % % % % % % % % % % % % % % % % % > > : % % % % % > > % % % & % % : % ",
"v v v v m m m m m m m m v v v t t g v m g t g v N N ! O.O.#.#.@.B t t t V m V V N N m v m m N N N N N N B N B C N N B B m B B W W ! o.o.O.o.} V z t w z + + 5 5 6 5 6 + + + + 6 5 7 5 5 5 5 + + + + 5 5 7 7 5 7 5 7 7 7 7 5 7 7 7 7 0 0 u u u 7 7 u [ _ u u y u u y y e e q 6 + + + 6 e u t e e y e e e 6 8 > > i i i i > > > i 3 3 > > > > > > > > > > > > > > i i i i i i i i i i i i i i i i i i i i s s s s s s s s s s s s s s i i i i i i i i i i i i i i i i 8 & & & & & > > > > i i i i d d d d s s i i 8 8 i 8 i i 8 8 i i i i 8 8 8 8 p p d p i i 8 8 i p p p i 8 8 8 i i 8 i 8 8 8 8 i i i i p p d d d d d p p p p i i i i i 8 8 8 8 i i & > & & & & & & & & & # # # g *.J.R.E.e.$.5.H.H.5.<.H.T.Y.Y.r.r.e.e.U.T.oXoXT.H.T.1X1XXXU.e.4.4.+.&.5.5.4.4.4.$.B B O.O.,.8.T.5X5X1XE.4X3XmXDXDXDXFXFXDXDXDXDXmX4X4XcXcX5X3X3X5X5XcXbXnXvXcXcXvXVXVXbXvXmXVXDXnXcXcXkX<XH.w.1.e.@XvXVXnXvXcX5XvXvX5X5X5X1XoXr.1.+.<.8.8.7.$.%.O.! O.} %.<.4.w.r.e.Y..XY..XY.U.U.U.K.H.e.H.oX@X@XoXE.XXU.#.! W W N n v 2 ; ; = - = - = - f g b n n N C 2.8.7.6.6.6.7.7.2.O.M M M b l k g f f f f f k l b v M N N N b b v g b b b b b b v k v n b n n b n b b b b b b b b b b b b b b b b b b E b b b b Q ~ Q k f f - 1 1 = ; % & & & & # # & % & = = % % % % % @ % ; % @ @ % % ; f k M N ^ ~ @.W N N W E M N E E E N M M E E E M M M M M M b k f s s r s g l M N M M x g s & & & & & i i s s & w s j l l l l g j j j g l l l x j d d d i i i i s i i p i i i 8 8 8 i p p p p s s i i i s s i i i 8 8 i i i i 8 8 8 8 & & & & 8 8 i i i i i i i i i > & & & & & & & & & & & & & & & % % % % % % % % % % % % % % % % % % % % % % % % % & > > > % % % % % % > > % % & & & % % % ",
"v v v v m m m m m M m v v v v t t v m m v v v v m m B ! O.#.#.@.B t t t m B B B N N m v v N C N N N m m m N B B B B B N m m B B B o.o.o.O.O.o.B m t t t + 6 6 5 6 6 6 6 + + + 5 7 5 5 7 5 5 5 + + + + 5 5 9 7 7 7 0 7 7 5 7 7 0 u u u u [ [ u y 0 _ _ u u u u y y y t u y + # + # + 6 q t e e y y e e 9 6 8 & > i i > > > > > > > > > > > > > > > > > > > > > > > > > > > > > > s s s s i i i i i i i i i i i s i i i i s s i i s i i i i i i i d d s i d d d i i i i 8 i i > > & & & & i i i i p p s s s i i i 8 8 i i i i i i i i s i i i s s d d d p 8 i i i p p p p i i i 8 i i i i i i 8 8 i i i p d d d j j d p p p p i i i i i i i i i s i i & & & & & # & & & > > > & & * R 7.L.@XR.1.+.<.7.5.<.H.Y.U.T.Y.T.H.5.w.H.T.oXoXU.T.2X3XoXT.e.w.e.4.+.<.J.J.5.8.4.O.B B } <.e.U.5XvXoXI.E.4XvXVXVXDXDXFXDXDXDXDXnX3X4XcXcXcX5X5X5XnXDXVXnXvX5XvXVXVXDXDXVXDXDXDXDXnXnXvX5X@XU.H.T.3XmXmXmX7X1X1XvXbXnXvX5X1XoXY.w.1.5.U.R.J.$.%.O.O.O.C } +.,.1.5.1.r..XoXoXY.w.U.U.U.U.E.@X@X4XR.H.J.J.7.@.N M n v 2 2 - ; - - - - 2 f g b N v v N ! 2.J.I.J.F.8.7.2.2.@.W N b b l g f f f f f f f k g f g b E N E E b b b b b b N E M b v M M b b n b M b b b b b b b b M E E N M M M M M E W W W b b #.*.^ b g f 1 1 - - ; = ; # % # # # # % # ; ; % % % % % % % % # @ @ ; - f v N N ! #.#.! E N N E M n v N N E N b b M E E E M M M R E E b b k g l l b E M M x g j j d s s w w w > > & & s s f g g g g s d d g g l g j j d j j p p p p p i i i i p p p i i 8 8 8 i p p p p p p p s s i i p p i i i i i i i i 8 8 & & & & & & > > > i s s i i i i i > & & & & & & & & & & & # % & & & % % % % % % % % % % % % % % % % % % % % % % % % % % % % % % % % % % % % % % % % % % ",
"v v v v m m m m N N N N m v v t g g v v g g g g g m B W O.#.#.O.B t t t m B B B N m m v v N N N C N N m m N B B B B B N m B B B B B O.o.O.O.O.B m t t q + 5 6 6 6 6 6 6 + + + 5 7 5 5 7 9 7 5 5 + + + 5 5 9 9 7 7 7 5 5 5 0 z [ u _ u u u z u 7 0 _ _ u u u u y y u t t q + # q # + 6 6 q q y e e e 9 6 8 8 & > > > & & > > > > > > > > > > > > > > > > > > > > > > > > > > > > i i i i i i i i i i i i i i i i i i i i i s i i i i i i i i i i i s s i d d d i i i i 8 & & & & & & & & i i i i p p s i i i i i 8 8 i i i i i i i i s i i s s s d d p p i i i p p p p p i i i i i i i i i i i i i i p p d d j j j d p p p p i i i i i i i i i i i > & & & & & # & & & > > > > & & # N 7.E.@XU.<.+.+.4.w.U.U.r.U.T.@XoXe.+.1.r.E.XXT..X3X5X@X.Xe.w.K.e.&.&.e.T.H.5.1.<.C m } ,.5.XXcXvXXX8.I.XX5XnXVXDXDXFXDXDXDXDXnXmXcXvXcXcXcXcXvXVXDXVXnXmXvXnXDXVXVXVXVXDXDXDXDXDXnXbXmXcX2X@X.X<XcXvXvX5XoX<X1X6XvXvX5X1XoX.XY.U.H.Y.Y.H.5.%.O.B B C C } +.<.5.1.e..X.X|.u.H..XoX@XXXXX@X@XR.7.,.,.#.! M n 2 - = ; = - - 2 f 2 f v E E N M v N ,.6.J.I.I.J.J.6.,.@.! b f g b l g f f f f f f f f f w f g N N N N N M M M b b M N E M N E W N N N M E E E N N M b b M M N E M M b n M M E E E W E b E #.@.M b k v g 2 - = ; = = # # % % % % % # = ; % % % ; = = # # # # ; ; g M ! #.#.#.#.#.^ N N N E M M b E E E N b b M M E E E E E R E E R b b b b l l b g x x x l j s i w w i w > > w s f k l l f f s f f g g g j d d d d j j p p p p p i i i i p p p p p i 8 8 8 i p p p p p p s s s s p p i i i i i i i i i 8 & & 8 & & & > > > > > i i i i i i i i > > > > > & & & & & & % & & & % % % % % % % % % % % % % % % % % % % % % % % % % % % % % % % % % % % % % % % % % % ",
"m v v m v m m m N N B N m v v t v g t t g t t t g m B W O.#.#.! m t e t m m B B N m m m m N N C C C B N m N B B B B B N B B B B B B W O.O.O.O.o.B m g + + 5 5 5 6 6 6 6 6 6 6 5 7 7 7 0 0 0 9 6 + + + 5 5 5 9 5 7 7 5 5 7 u ' [ u z u u u z u 7 u _ u u u y y y y u t y q q q t q 6 6 6 + 6 q e e e 6 6 8 i i i i 8 > > > > > > > > > > > > > > > > > > > > > > > > > > > > > > > > > > s s s i i i i i i i i i i i i i i i i i i i i i i i i i p d i i s s d i i i i 8 & & > & & & & & i i i i p p i i 8 8 i i & & i i i i i i i i s s s s d d d p p p i p p p d p p p 8 8 i i i i i i i i s s i i p p d d j j j d p p p p i i i i i i i i i i 8 & > > & & # # & & & & > > > > & # w N 7.E.XXH.%.V +.e.oX.Xe.r.U..XoXH.1.+.5.U..XT.T.3X5X1X@XK.e.H.e.4.1.e..XoXH.5.e.<.} } +.9.oX5X5XoXe.8.H.<XmXVXDXDXDXDXDXDXnXVXDXnXbXcX3XcXbXmXnXnXbXmXbXnXbXVXVXnXVXDXDXDXDXDXDXVXbXnXbXcX3X1X2XnXDXnX1X<X1X<X1X7XvXcXcX5X1X<XoXoXoXoXU.5.%.C B B } } <.1.Y.T.U.r.Y.Y.Y..X.XoXoX@XE.I.R.R.7.C N ! M b f f - = - - 2 f g v M M N N N M v v $.2.7.8.J.J.J.8.+.,.,.@.W b b b g f f s 1 3 3 f f f f f f f b E N M N N N M M M M N E W ! #.#.! W W W W ^ ^ W E E N N M b b M E M M b b M M M M b N v v ^ #.~ b v b M b g 2 - - - = ; ; % % % % ; ; = = @ ; - - - - = = - ; f v E #.2.7.*.#.@.! E N N N N M N E E E E M b M b b E N N M E E M M M M b b M b k l g x x l j d d w s s s s s f f f f g l l f f f s g g g d d s d d j j d d p p p p i i i i i i p p p p i 8 8 8 i p p p p p p p d d p p p p i i i i i i i i 8 8 8 8 & & & & & & & > i i i i i i i i i i i i > & & & & & & & & & # & % % % % % % % % % % % % % % % % % % % % % % % % > > % % % % % % % % % % % % % % ",
"m v m m v m m m m N N N N m m v v t t t t t t t v m W O.O.#.@.W m t q t m m B B B m m N m m m C C C B B m N N B B C B B B B B B B B B o.o.O.O.O.} V m + + 6 5 5 9 6 6 6 6 5 5 5 7 0 0 0 0 9 5 5 + + + 5 5 5 7 5 0 7 5 5 7 u _ u u u u u u u u 7 z [ z u y y y y y t t q 6 q t z m e 6 6 + + 6 e w 8 6 8 8 > > > > > > > > > > > > > > > > > > > > > > > > > > > > > > > > > > > > > > > s s s i s i i i i i i i i i i i i i i i i i i i i i i i d d i i s d d i i i i 8 & & & & & & & & i i i i d i i 8 8 8 & i & & i i i i i i i i i i s s d d p p p i p p p s i i i i 8 i i i i i i 8 i i i s i p p d d d d j j d p p p p i i i i i i s i i i & & > > & & # # & & & & > > > > & s # # m 6.U.XX$.B V } 1.1.<.e.H.T.oXT.H.5.1.e.T.U.U.1X5X3X2X.XH.w.w.e.5.w..X1X.XH.U.e.+.} } 1.Y.1X5X1Xr.1.5.XX3XnXDXDXDXDXDXnXnXnXDXDXnXnXcXnXnXcXcXmXnXnXVXnXVXDXDXnXDXDXDXDXDXDXDXDXVXVXnXcX5XnXbXVXVX5XoX1X1X1X6X5X7X7XvXnXcX5X5XcXvX5XE.e.%.C B } %.,.e.U.Y.oXoXT.T.Y.T.<XoXoXU.U.J.6.J.6.O.m M b v f f 2 2 2 f n b T W ^ E W E b v v B $.7.2.#.,.J.8.,.B 7.W.R.3.W E n 2 f f s 1 1 1 1 f f - - f f k b E E b b M N N N N E E ^ ~ 2.7.2.~ W ^ ^ ^ ~ ^ E E E E E N b v b b M M M M M n v v b v r v ^ #.~ N v b E E E b f 2 - - = ; = = = = ; = - - ; - f g f 1 - - ; f b E @.3.7.7.@.W N N N N N N M M E W W W E M b b b b N N M M W E N N E E M M b b b b E R x d r s d j j j j j g k l b f f f f g g g g k k f j s s d j j d d d p p p p i i i i i i i i p i i i 8 8 8 i i i p p p p i d p p p p s i i i i i i i i i i i & & & & & & & & i i i i i i i i i i i i i > > & & & & & & & & & & % % % % % % % % % % % % % % % % % % % % % % % > > & % % % % % % % % % % % % % ",
"m m m v m m m m m N N N N M m v v g g t g t t g M B O.#.O.O.O.B m t t m m B B B B W B N M M B C C ! C C B N N B B B C B B V m m v m B B } O.O.O.O.B z + 5 5 5 5 5 5 5 5 5 5 7 7 0 0 0 0 0 9 7 7 5 5 5 5 5 5 7 7 7 0 0 7 7 u u u e u 7 7 e e 7 y [ [ z u u z z y y y y q q t z m m z e 7 6 + + 6 w 8 6 * & & > > > > > > > > > > > > > > > > > > & & & > > > & & & & & & & & & & > > > > > > i i i i i i i i i i i i i i i i i i i i i i i i i i i i i i i i i i i i i 8 8 8 8 8 i i i i i i i i i i i > i i i > & & 8 8 8 8 i i i p p d p p p p p p p i p p i i i i i i i i s p p p p p p p p d d d d d d d d d p p p p p i p i i i i i i i i & & & & & & & & & & & & & i > > > & & & # e W 6.E.U.$.V z t m V %.J.T.XX@XoXR.e.<.E.XXU.XX3X2X1X<XT.H.1.e.r.e.U.oX@XT.e.U.w.1.+.1.r.oX4X1XU.1.8.e.I.<XcXVXDXDXDXVXVXbXnXVXVXVXDXVXVXnXmXvXnXVXnXDXDXDXDXDXDXDXDXDXDXDXDXDXDXbXvXbXvXvXvXvXvX5X1X4X5X4X6XcXbXvXnXVXVXVXDXVXVXvX4XR.e.<.,.5.e.U.XXoXT.XXoX<X@XoXXXE.U.U.H.6.4.2.#.! M M n v v g f 2 f 2 f b W E b b v v M N W O.2.7.$.O.7.7.O.N ! F.J.J.F.#.W E b f 1 s s s s f f k k f f f f g v M b b b M E E W W W E ^ #.2.2.=.~ ~ ^ ^ ^ ^ M b M E E N b b b b b b b M M b b b v b v v N #.7.#.! E M E ^ W E b n f f - - 2 - ; - ; 1 1 1 f k k b g w ; ; f N ~ #.2.7.7.*.! ! W N E N E N E E W W W E E M b b M b W M M E W E E M M M M b M M E E x l g d g g g g x g g x E E x g f f f f k k k k k f s s s s s s i i p d p p p i i i i i s i s d i i p p s i i 8 i i i i i i i d d d d p p p p p i i i i i i i 8 & & & & & # # & & & & & i i i i i i i s i i i > i > > > & & & & & & & & % % % % % % % % % % % & % % % % % % % % > % % % % % % % % % % % > > > > ",
"m m m v m v v m m m N N N N M m v m g g g t t z N W W O.O.O.O.B m t t z m m m m B B N m N N B C C ! ! C N N B N B B C C B V m m v m m m B B } } O.B z + 6 6 5 5 5 5 5 5 5 5 7 0 0 0 0 0 0 9 5 5 5 5 5 5 7 7 7 0 0 0 0 7 9 u u 7 0 e 7 7 e 0 7 7 x x z u u u e y 6 q q q q t t z z z z e e 6 + + 8 8 & * & & > > > > > > > > > > > > > > > > > > & & > > > > & & & & & & & & & & i i > > > > i i i i i i i i i i i i i i i i i i i i i i i i i i i i i i i i i i i i 8 8 8 8 8 8 i i i i i i i 8 i i > > i i > > & & 8 8 8 8 i i p p p p p p p p p p p i p p i i i i i i i i p p p p p p p p d p d d d d d d d d p p p p i p p i i i i i i > & & & & & & & & & & & & & & i i > > & & & & 8 g O.6.R.F.B t z t z V 4.W.XXT.T.U.H.e.T.@XR.I.@X4X4X@X@XXXU.T..XH.r.Y.XXU.5.U.U.e.1.e.r..X1XoX5.,.1.e.5.I.<XcXVXVXVXVXVXVXnXmXvXcXcXmXnXVXnXbXnXVXnXVXDXDXDXDXDXDXDXDXDXDXDXDXVXvXcXcX5XcXcXcXcX5X3X5X1X<X<X3X7XvXVXVXnXmXmX5X3X1XoXY.R.T.oX2X3X4X1X1XoX1X4XoXU.U.I.H.H.J.J.F.6.7.! N E N M v n g f f f 2 2 f b b v b ^ ! ! @.#.#.! m O.B B O.#.6.I.I.,.#.#.^ b v f - s s s s s 1 f f k 3 1 f f g b M M b b b N N E E W N E ! #.#.~ ^ ~ ^ W E M b b b b b b v b b b b k k b b b b b v v v ! 2.J.I.7.%.^ W ^ #.#.~ W N b b b b k f f f f f - f Q Q b g g f - f k M ^ #.#.2.*.#.W E N M v b M M M E W ^ W E E M b b M b W E E E M M M E W E E N N N E E x x g j g g g g j g x M R M g s f f g f l l k k f 3 1 1 s s s i i i i p p p p p i i i i s s s s p i d p s i i i i i i i i i i i d d d d p p p p i i i i i i i i & & & & & & & & & & & & > & > > i i i i s i i i i i i > i > & & & & & & & % % % % % % % % % % & % % % % % % % % : : % % % % % % % % % % > > > > ",
"m m m v v Z v m m N N B B N M M m m m g g t g m N W W W O.O.O.} z e t z m m m m m N N N N N N C C ! C C B N B B B B C O.B B m m m m m m m V B B [ V e + 5 6 5 7 6 6 6 5 5 7 7 7 0 0 0 0 0 9 5 5 5 5 5 7 0 0 0 0 0 0 0 7 9 u y 7 y y 7 y e 7 5 y e z e e y e y 5 6 6 6 q q e t z u u z e e 6 + O & & & # & & > > : : > > > > > > > > > > > > > > & & & & & & & & > > & & & > > > i i i i > > > i > > > > i i i i i i i i i i i i i i i i i i i i i i i i i i i i i & 8 8 8 8 & & i i i i i i 8 8 i i > > > > i i & & 8 8 8 i i i p p p p p p p p p p p i p p i i i i i i i s p p i p p p p p d d j j j j d d d p p p i i 8 i p i i i i i > & & & & & & & & & & & & & & & i i i i & & & & # + g o.6.J.$.m m z g t %.J.XXE.H.U.U.H.r.U.8.$.J.E.@X@X@X@XoX@X1XU.e.w.U.U.5.H.T.T.H.H.H.U.@XE.e.,.,.e.8.5.I.1X5XcXcXvXbXnXbXcX5X3X3X5XbXnXnXbXnXnXnXVXZXDXDXDXDXDXnXnXVXVXDXnXvXcX5X3X4X3X3X3X6X1XoXoXXXY.T.oX1X5XvXvX5X5X5X4X<XoX<X@X1X1X2XkXcX2XoXoX<X4XoX8.} <.J.R.R.F.*.^ W #.@.#.W M v f f f 2 - - - 2 f b b E W ^ ! ! ! N m v v t B $.6.J.R.E.J.! ! ! E b f - f f s f f s 1 s 1 f 1 1 f f g b N N b v b b M E E W M N ^ ~ ~ ^ W ^ ^ E N k b b b g g v b b v v f f f f f b b b b v N #.F.R.R.6.,.#.~ #.3.2.=.~ ^ N E W E b b g g l g g b Q Q l f g f f f k N ^ @.@.~ ~ ^ E E M b v v b b n b N E E b b b b N E E E E b b b M E W W W E E E N M M l l g g j j j j d g x x x g d s j j g f l l k f 1 1 1 1 s s > & 8 i i i i p p p i i i i s s s s s s d d s i i i p 8 i i i i i i d d d d p p p p s s s i s i i i i i 8 i & & & & & & & & & & & & & & > i i s s s s i i i i i i > > & & & & & & % % % % % % % & & % % % % % % % % % % % % % % % % % % % % : > > > ",
"m m m v v t Z m m N N B W N M M m m m m t t t m N W ! O.#.#.O.B z e e t m m B B N B B B N C N C B C C C C B C B B B B C B B B B m m m t z m B B V V e + 5 6 9 9 9 6 6 5 5 5 7 7 7 7 7 0 0 9 5 5 5 9 7 0 0 0 0 0 0 0 0 5 7 y e 9 7 7 6 e e 6 + 7 7 7 7 5 5 7 6 + 6 6 q q q t t z t t u e e 6 + O * # # & & & > > % % & & > > > > > > > > > > > > & & & & & & & & > > & & & > > > i i i i > > > i > > > > i i i i i i i i i i i i i i i i i i i i i i i i i i i i 8 8 8 8 8 8 & 8 i i i i i 8 8 8 i i > > > > i i & & 8 8 8 i i i p p p p p p p p p p p i p p i i i i i i i s p i p p p d p p d d j j j j d d p p p p i i 8 i i i i i i i & & & & > & & & & & & & & & & & i i i i & & & & * # 8 g W J.6.o.V m m m B 4.T.@XT.U.U.H.<.$.B v ! 6.I.@X@X4X2XkX5XoXU.e.e.U.e.5.H.oXXXT.U.H.T.XXU.5.,.e.8.1.5.E.<X4X2X5XkXkX3X5X3X2X1X2XcXcXcXvXvXbXbXnXVXZXDXDXDXDXnXnXVXnXnXcX3X5X5X1X@XoX@X1X3X1XoXU.9.1.5.H.R.1X5X5X1X1X4X<XoXT.E.oXE.T.T.<X3X@XE.XX4X4XE.7.N %.7.J.D.#.M v v N E ^ M b f 2 2 - ; ; @ = 2 g b b N E v v v r v v v v B B $.7.J.J.W.8.! E N b g - = - f s f f 1 1 1 1 1 & # - f f b N N b v v b b M N E M E ~ ^ ~ ^ W E E E N f b b f w r v N M b v f f r r r v b b b v ^ 2.6.F.F.2.#.#.~ 3.3.2.=.~ W M W ^ E M b b b g b M E E b k b k f f f v M W ! ^ E M M b b b k b b v v f f v b b n b b b M E E b k f f l E ~ ~ E E R N N M l g g j j j d s s s d x x x j d s j j j g g l f f = 1 1 & & > & & & & & 8 i i i s s i i i i s s s s s s d d s s s s p p i i i i i i d d d s p p p p s s s i d i i i i i i i i & & & & & & & & & & & & & & & > i i s s s s i s i i i i i > & & & & & & & % % & % & & % % % % % % % % % % % % % % % % % % % % : > > > ",
"m m m v v t v m m N N B W B N N m m v g r r g g M N B ! $.$.O.V t y e t m m B V B B B B C C C C B C ! C ! ! C C B B B C B B B B m m m z z m m m B V + 6 5 6 6 6 9 5 + + 5 5 7 7 5 7 9 7 9 5 5 5 5 0 0 7 0 0 0 0 u 0 5 5 9 y y 5 5 5 5 6 6 + + 5 6 5 6 5 5 6 5 6 6 + + 6 y t t t z t e e e 6 + + # & & & % % % % : > > > > > > > > > > > > > > > & & & & & & & & & & & & & & & & & > & > i > i i > > > > > > > i i i i i i i i i i i i i i i i i i i i i i i i i i i i > > > i i > > > > & & & & & & & & & & & & & & 8 8 i p p p d d p p p p p p p i p i i i i i s s i i p p p p p p d d d d d d j j j d p p p p 8 8 8 8 8 i i i 8 8 8 & & & & & > > & & & & & & & & & & & & > > > & & & i * # 8 z @.6.*.W m g B B } e.XXXXXXU.5.+.B g w v ! 7.R.@X3XcXbXkX1X.X5.1.5.5.<.<.U.oX@XXXU.K.R.R.r.e.9.5.1.1.r.R.E.<X3X4XoXoX4X<X1X2X5XkX5X5XkXcXcXkXcXbXVXnXVXVXbXbXmXmXkX3X4X1X3X2XoXoXT.T.oX6X1XT.r.5.<.<.<.<.H.oXoXE.U.Y.E.E.T.R.XXE.E.E.@X@XI.J.R.@XE.L.2.! N W @.E b b b b b g g f 2 - - 2 2 - - ; 1 f f f g g f v v v m m v t t m B $.7.7.6.2.C C N b v f f f f f f s s s s 1 1 - - & w f k M E M b b b b b b b b b W ~ ~ W W W ~ E M b - k b g w w f b v f r f ; r f f b b b b b ! #.*.2.2.~ ^ ^ ^ ~ #.#.#.#.~ E W E N M N N b b b b E E E M M b b k g f v b N M b b b l g g g g f f f g g g n b b k g g g g g w f g b M R M b M M R M M l g d s s s s s s d j x x g g j d d d j j f k f f - - 1 & & % % & & & & & & 8 i i s s s s s s i i i s s p p p d d d d i i i i i i 8 8 s s s i s s s s p p p p d i i i i i i i i i i i > > & & & & # # # # # # & & > > i s s s s s i i i i i > i > > & > > & & & * & % % % % % % % % % % % % % % % % % % % % % % % % % ",
"m m m v v t v m m N N N B B N N m m v t r r g v m B W ! O.O.O.N t q t m m B B V B B N N C C C C C C C C ! ! C C B B B C O.O.B B m m m m z z z m V m + + 6 6 5 6 6 5 + + 5 5 7 7 9 9 9 9 5 5 + 5 5 0 0 0 0 0 0 0 0 9 5 5 7 y 9 6 6 6 6 6 6 6 6 6 6 6 5 5 + 6 6 5 6 + + + 6 y y y u e e 9 8 6 + # # & & & % % % % : > > > > > > > > > > > > > > > & & & & & & & & & & & & & & & & & & & & & > > i > > > > > > > > i i i i i i i i i i i i i i i i i i i i i i i i i i i i > > i i > > > > & & & & & & & & & & & & & & 8 8 i p p p d d p p p p p i i p p p i i i i s s i p p p p p p p d d d d d d j j j d p p p i i 8 8 8 8 i i i 8 8 & * & & & & > > & & & & & & & & & > & & > & > > & & & & * & e e @.7.4.#.B B B B <.U.T.oXU.4.B V M g g m O.6.@X2XmXbXkX4XoXr.<.+.+.+.B 4.U.@X<X@XU.H.e.e.Y.r.1.<.+.1.e.I.T.@XoXI.H.T.R..X4XkX4X@X1X3X5X5X1X@X5XcXvXnXmX3XkXcXkX2X<X@X<X4X<XT.T.U.T.@X1X<XT.r.1.+.} B B <.I.Y.e.,.4.e.T.E.@X@XR.I.J.J.J.8.F.W.W.6.~ E M k g l g - 2 2 f f - 1 - - - - - ; ; ; @ = 2 - f b N E N N M M t v m N O.%.4.$.,.6.,.! N N n v b M n 1 1 f s s s s s 1 s 1 f f k l b M b b b b g g f k n b W ~ ^ E E N M b b k f b M b f f f f r w r f f f v b M b b v g b ! #.2.7.@.^ W ^ ^ @.#.=.#.~ E E N N N N N N b b M E E E M b b b k g f k v b g g g f f f f f f f 2 - f g g g g g f f - - - - - f b M b b b b M M M l l g d s s s s s j j g g g g d d j d j j j j g f s s - & & & % % % % & & & & & & 8 8 i i s s s i i i i i p p p p p p p p d i s i i i 8 8 i i i i i i s s d d p p d d d s i i i i i i i i i > & & & & & & % % % % % & & & > i i s s s i i i i i i i i i > > > > & & & & & % % % % % % % % % % % % % % % % % % % % % % % % ",
"m m m v v t v m m m N N B W N N m m v t g g g m N W ! ! ! O.C N q q t m B B B B B B N N C C } } C ! ! C ! ! ! C B B C C O.O.O.B B m m m z t t z m m # + 6 5 5 5 5 + + + 5 5 7 7 9 9 9 9 5 + + + 5 7 9 7 7 0 0 0 y 7 5 5 5 6 9 6 6 + 6 6 6 q e 6 y y 6 6 6 6 q y q q q # + q y y t e e 9 8 6 # # # % % % % % % % : : > > > > > > > > > > > > > > & & & & & & & & & & & & & & & & & & & & & & > i i i > > > > > > i i i i i i i i i 8 8 8 8 8 8 & 8 8 8 8 8 8 8 8 > i > > > > i i > > > > & & & & & & & & & & & & & 8 8 8 i p p p d d d d p p i i 8 8 p p p i i i s s i i p p p p p d d d d d d d j j d p p p i 8 i i 8 8 i i i i 8 8 * 8 & & & & > & & & & > > & & > > > & & & & > > > > > & & & # + z #.7.7.$.C } } ,.e.I.T.T.5.B m m g g m N @.J.@XkXmXkX4XoXT.5.+.} B V } 4.T.@X4X@XU.5.5.r.I.e.1.+.} <.e.U.@XU.5.<.5.w.H.XX3XXXT.XX@X@X<XT.U.oX<X4X3X2XXX4X3X3X@XE.T.XXXXT.H.H.U.T.oXoXoXT.r.4.%.B V Z C <.8.8.<.5.5.J.J.J.8.3.#.! W W W #.3.2.~ b b b 1 % % 1 - 1 1 - 2 - - 1 1 - - - ; - - - f f f b E ! ~ ! v w r v M B ! O.} O.O.F.I.7.! N M n n b v f = - - s 1 1 s s s s f f b b l b l g g g g f f f g b T W ^ N N M M b b b k k b b k g k f f r f v v v b M M N N M M g g N #.D.D.#.~ W E ^ ~ ~ ~ ~ ~ E N N N N N N E N M N E N N M v g g f g f g f v f f f 2 1 2 f f 2 1 1 1 f f f f f 2 1 1 1 1 - - 1 k b E M b b b b l l l l g d d s s s s g g g l d d d d d d g g l l k f s s & # % % % % % % % & & & & & & & & i i s s s i i i i i p p p p p p p i s s s s i i 8 i i i i i i i i d d d d d d d d i i i i i 8 8 i i > > i & & & & & % % % % % % & & & > i i s s s s i i i s i i i i > > > > & > & % % % % % % % % % % % % % % % % % % % % % % % % ",
"m m m v v t v v m m N N N B N N m m v t g g v M N W ! O.O.O.B m t q t m m B B B O.C B N C C } } C ! ! C ! ! ! C C B B C O.O.O.O.B B m m z t t t m z + # 6 + + 5 + + + + 5 6 6 9 5 6 9 9 5 + + + 5 5 5 5 7 7 y 7 7 9 5 5 + 5 5 6 + + + + 6 t z e e e 6 6 6 6 y e e t y q + 6 6 q y y e e 6 * # # & % % % % % % % : : > > > > > > > > > > > > > > & & & & & & & & & & & & & & & & & & & & & & & > i i i > > > > > i i i i i i i i 8 8 8 8 8 8 8 8 8 8 8 8 8 8 8 8 > > > > > > i > > > > > & & & & & & & & & & & & & 8 8 8 i p p p d d d d p i i i 8 8 p p p i i i i i p i p p p p p d d d d d d d j d p p p i 8 8 i i 8 i i i i i 8 * 8 8 & & & & > & & & & > > & & & > > & & & & > > > > i > > 8 * w 8 d @.F.J.O.%.B } 4.J.R.U.e.B m g g g M N M 2.E.<X5X5XoXR.E.R.5.} Z N N C 8.J.@X2XoX5.,.1.r.T.e.+.} $.5.K.E.e.4.+.} <.<.e..XT.U..X.XT.oXT.r.r.U.T.XXXXU.@X4X@XU.e.6.e.6.4.,.4.w.e.r.H.T.Y.e.4.%.B V B } <.e.I.W.U.8.7.$.~ v r ; 2 v v v n M b n f = % = 1 1 1 = 1 = = - - - 1 1 - - - 2 v b b E E E E E N b f r v N W W B B O.$.%.7.I.J.2.N N M n n b f - - & > s s 1 1 s s w s l M M M l g f f f f f f f k b E ^ W b M M b M b b g f g g f k b b n v N M M E N M M W ! ^ ! M v N 2.F.3.~ ^ N N E ^ W ^ ~ ^ ^ N N E ! N N N E N E E M N M k f f f f r f f w - - 2 1 1 1 2 f f f f f f 1 1 1 1 1 1 = 1 1 - - f b E b E M b g g l l l l l l g s s r r d g g g d d d s d d x x l l f s s 8 & # # & & & % % % % & & & & & & & & & i i i i i i i i i p p p p p p i i s s s i i i i i i i i i i i p p d d d d d d i i i i i 8 8 8 > > > > & & & & & % % % % % % % & & & & > > > > i i s i s s s i i i i > > > > > & % % % % % % % % % % % % % % % % % % % % % % % ",
"N m m m v v v v m m N N B W W N N m m g g g v M W W ! ! ! C N t q t z m B B B B ! ! B B C O.O.O.C C C C ! O.O.! O.O.O.O.O.O.O.! B B N m m m g t t z + + + + + + + + + + + 5 5 6 9 6 6 + + + + + 9 5 5 5 7 9 y y 9 6 5 + + + + + + + 6 w e z z t u y 6 6 6 q y t e u t t t q + + 6 6 6 6 * & # & & : : : : : : : % % & & & & & & > > > > > > > > & & & & > > > > & & & & & & & & & & & & > > > > > > > > > > > i i i i i i i i i i i > > > i i i > > > i & & & & & & & > > > & & > > > & & & & & & & & & & & & & 8 8 8 i d d s s d s i i i i 8 8 i i i i p p p p d d d p p p p p p p p d d d d d j j p i i i i i i i i i i i > & & & & > > > & & > > i i & & & & & & & & & & & & i i i i i i i i i 8 8 w M *.6.7.$.%.O.O.7.H.K.6.O.m q w v m N E N 6.E.4X4X@XR.R.T.T.4.Z Z B N ! 4.W.@X<XT.1.<.1.U.U.5.&.&.e.T.U.e.<.+.%.} } &.w.Y..XY.Y.Y.U.oXT.H.e.w.H.H.e.T.<X@Xe.,.+.B N B B O.%.O.4.r.R.H.H.5.+.O.+.,.5.I.T.E.W.F.! v f ; - - - = = 2 2 2 2 = = = = = = = 1 = = = = = = = - - - - 2 f k T E E E b b k w w w g r v N #.#.! B %.$.7.J.F.2.! ! N E N n f = = 1 & & 1 1 - s 8 w - s l M M l g f f - 1 f f f g b W E E b b b b v M b k k w f g g b M N E ^ ~ ^ N b b M N ! ! ! ! v M ~ 2.2.^ W E N M M E W ^ ~ ~ ^ W W ^ E W W E W E E E W W b g - f f g f - - g b g f 1 2 f f f k f k k 1 1 1 1 2 - = ; - - f f b R E W R b l f s j l l x l k j g s f f g j f j j d d d d d z d l j f f > > & & & & & & & % % % & > % & & & & & & & > i i i i i i i i i d d d d d d d d i p p i i i i i s s s i 8 p p d d d p p d p p i i i s s i i 8 8 > > > > & & % % % % % % % & % % & & > > > > > > > i s s s i s s s i > > > > & & & & % % % % % % % % % % & % % % % % % % ",
"N N m m v m m v v m N N B W W N N N m g g g m m N W W ! C B N t q t t m V B N B B ! ! B C O.O.O.! ! ! ! O.%.%.O.O.O.O.O.O.O.O.! ! B N N m m m t z z # + + + + + + + + + + + 5 5 6 6 5 + + + + + 6 6 6 6 6 7 7 6 6 5 + + O O + + + + 6 e e e e e e 7 5 6 y y e t z V V V m y 6 6 + 5 6 6 6 & & & > : : > : : : : % % & & & & & & > > > > > > > > & & & & > > > > & & & & & & & & & & & & > > > > > > > > > > > > > i i i i i i i i > > > > i i i > > > > & & & & & & & > > > & & > > & & & & & & & % & & & & & 8 8 8 i i d d s s s i 8 8 i i 8 i i i i i p p p p p p d p p p i p p p p d d d d d j j d i i i i i i i i i i i > & & & & & > > & & > > i i & & & & & & & & & & & & 8 i i i i i i i i 8 8 8 w M #.6.6.<.$.O.7.J.J.J.4.W g w t g M N M ! 6.R.@X@XE.U.E.oXI.+.m m C C #.6.T.4XXXe.<.1.H.T.U.w.&.e.T.T.H.5.&.} } &.1.5.t.T.Y.H.r.r.T.T.T.H.5.1.<.1.H.E.Y.1.} } C m m t m B O.4.U.@XE.U.r.e.J.I.T.@X@XE.F.#.m ; ; ; = - - - = = = = = = = = = = % = = = = = = = = - 1 1 - 2 f f g g b b f f w - w w r v g g M W @.@.O.O.O.4.F.F.2.! C W W N n g - = % = & > s s s - & w - f k b b k f f f f f f f f g l M b b b f f v v b g f f f b M M E W ^ ~ ~ ~ ^ b ^ ^ W E ! @.! W b W #.*.^ N N b k f v M b N W ! ^ ^ ^ ^ E N N W E ^ ~ ^ E b n f - - f f f f b E E n g f 2 f f f f f f f f f 1 = = = - - - f l l b R R R b g f f s j g k k k j j s s j g g j s s d d d d j j z z d s s s i > & & & & & & & % % % & > & & & & & & & & & & i i i i i i i i p p p d d d d d p p p p p i i i i s s i p p p p d d p d p p p i i i s s i i i 8 > > > > > > & % % % % % % % % % % % % % > > > > > > > i i i s s s i > > > > > > > > % % % % % % % % % % % % % % % % % % ",
"B N N m m m m m m m N N N W ! N N m m g g g m m M W W W N N m t q t t m m m N N B ! C B B C O.O.O.O.O.O.%.%.%.%.O.O.O.O.O.O.O.! ! B B B B B m m m g # + + + + + + + + + + + + + + + + + + O O + + 6 6 6 6 6 6 6 5 + + O O O + + + 6 6 y y y y e e 6 6 7 y y e e z V B } V z y 6 + + + 6 6 & & > > > > > & & : > % % % % & & & & > > > > > > > > & & & & > > > > > & & & & & & & & & & & > > > > > > > > > > > > > > > > > > > > i i > > > > > > > > > > i & & & & & & & > & & & > & & & & & & & & % & & & & & & 8 i i i i i i i 8 8 8 8 i i i i i i i i p p p p d d d d d p p p p p p d d d d d j d i i i i i i i i i i i i > & & & & & > & & & > > i i & & & & & & & & & & & & 8 i i i i i i i i 8 8 w 6 8 M =.7.6.6.4.4.J.K.R.J.4.W t r t v M W M ! ,.4.J.U.U.XX@XE.4.B N C N ! $.8.T.@XT.H.e.e.T.U.K.e.e.U.U.H.5.<.+.} &.1.e.U.Y.U.r.H.Y.T.Y.r.e.w.1.<.1.1.e.r.<.+.+.C B B B C } %.4.R.@X4X1XXXXX@X4X2X<XR.8.! v ; @ ; ; = - 1 1 - - = = = = = = = = = 1 1 1 - - - - - - 1 1 1 f f f f f f f ; - - - g k m N W W W W ! O.O.$.6.6.7.O.! ! ! E M b 2 - ; ; = = 1 1 s f - - w r w s g v l k f f f f f f g g k l k g g g f f k v v f f f v N ! ~ @.@.^ W ^ ^ E M ~ ! W E ^ @.@.! ^ ~ ~ ^ E N M v v k v b b M E ^ E E E E E E E M W ^ ^ W b g f 1 - - 1 f g b E E E b g f 2 f f f f f f f f f f 1 - f f f f g b b b b l l f f f f s s s s s s f g l g d d s s s s d d d j j j j d s i s i i i & & & & > > & & % % % > & & & & & & & & & & > i i i i i i i i i p d d d d d p p p p p p p i i s s i p p i i p d d d d d p i i s i i i i i i > i > > > > & & & & % % % % % % % % % % & & > > > > > > > > > > > i s s > > > > > > > > : % % % % % % % % % % : % % % % ",
"B N N m m m m m m m N N N W W N N m m g g g v M N W ! W N m m t q t t m m m N N B B ! ! B B C } ! ! ! ! %.%.%.O.O.O.O.O.O.O.O.! O.! ! ! B B B B m g O + + + + + + + + + O + + + + + + + O O O O + + + + 6 6 6 + + + + O + + + + + 6 q q 6 6 6 y 5 5 5 6 6 q q 6 y z V B B m t t 6 6 6 # & & > > > > > > & & & > % % % % & & & & > > > > > > > > & & & & > > > > > & & & & & & & > & & & > > > > > > > > > > > > > > > > > > > > i i > > > > i > > > > > i & & & & & & & & & & & & & & & & & & & & & & & & & & 8 i i i i i i i i 8 8 8 8 i i i 8 i i i i p p p p d d d d d p p p p p p d d d d d d d i i i i i i i i i i i i > & & & & & & & & & > > i i > & & & & & & & & & & & 8 8 i i i i i i i 8 8 w 8 6 r M W *.6.6.4.4.J.R.E.R.6.O.t t g M W N N ! C +.5.r.w.U.E.U.,.m N O.C O.O.,.J.E.T.U.5.e.U.E.@XT.T.T.U.K.e.5.&.1.5.r.U.Y..XY.U..X.X@XK.H.K.r.5.e.e.e.w.5.e.e.4.+.O.C B O.5.I.E.XX<X<X@XXXE.E.I.8.%.m r q - - = @ = 1 2 - - - = = = = = = = = 1 2 2 2 2 1 1 1 1 1 1 1 1 1 f f f f f - ; f k b N N N N @.! ! W O.$.2.6.J.6.#.W N ! ! E b f ; ; ; = 1 1 k f f s w w r s g g v M l g g g g f f g b l k b f g g g v v k f ; r v E W ~ @.~ ! W E N E N M M N E E N ! @.#.^ ! ^ ^ ^ W W M b f f f f v v b M v b v v M N W ~ ^ W M b g 1 = = - - 1 f g b E b g g f - 1 f f f f f f f k k k k g g g g l l b b l g f - - - - w f s s s s s g l l l d s 8 w s s s d j j j d d p p i i i i i & & & & > > & & % % % > & & & & & & & & & & > > i i i i i i i i p d d d d d p p p p p p p p d s s i s p i i i p d d p p s i s s i i i i i i i i > > > > > & & & & & % % % % % % % $ % & % % % & > > > > > > > > s s 3 > > > > > > > > > % % % % % % % % > : > > > > ",
"B N N m m m m m m m N N N W ! W B N m v v g v v M W ! ! N m m q t t g m m m N N B B B B B B C } O.! ! ! %.%.%.%.O.O.O.O.O.O.O.O.O.} C B B B B B B M # O + + O + + + + + + + + + + + + + + + O O # + + + + + + + + + + + 6 6 6 + + + 6 6 6 6 5 5 6 5 7 e 6 5 6 6 q t m B [ B m t 6 + 8 8 * & > : > > > > & > > > % % & % % % & & > > > > > > & & > > > > > > > > > > > > & & & & & & & & & & & & > > > > > > > > > > i i > > > i > > > > > > > > > > > > > & & & & & & & & & & & & & & & & & & & & & & & > & 8 i s s s s s i 8 i 8 8 i i s s i i i i i i i i p d p p d d p p p p p p p p j d d d p i i i i 8 8 8 > > > i & & & & i i i i i i i i & & & & i i i i i i i i & & & 8 i i i i i i i i i i i w s s s w M o.#.-.&.4.4.6.R.R.K.4.B v t g N ! ! B B } 1.e.1.1.8.U.R.4.N m B C m v B 6.U.U.4.$.4.J.XXXXXXXXU.T.K.<.<.H.U.U.r.e..XoX.X.XY.oXoXoX@XoXT..XT.Y.U.T.XX<X1XoXH.1.<.e.T.@X<XXXXXR.E.J.4.O.M v q r ; f f - = = = - - - - - - - = = = = = = f f k k 2 2 - - - - - 2 f - 2 f f f w ; r v N E B N N E ! ! ! @.2.7.F.J.J.$.W ! 2.2.! v f - ; = - - 1 k f 1 - w w s g g M M M M M N N M b b g g k k k k k w f b M v k k v f v E ~ ~ ! E b M N E W E M b N N E ^ ~ ~ ^ ~ ~ ~ ~ #.^ ^ E N v r r v M N M k N b M E E b W 3.~ E b f - f f 1 1 1 1 f g b n f 1 1 1 - 2 2 f g k g g k b b b l g g l b b b l l f f w w w w f f s s s f f g l b g g g g s w & w j j j j d d p p p p p i i i i & 8 8 & & & & > : % : % % & & # # & & & & & & & > i i i i i i i s d d d d j d d d d d p p s d d i i i i i i i i i d d s s d s i i i i i i i i i i & & & & & & & & % % % % % % % % % % % % % % % % % & > > > > > 3 s i > > > > > > > > > > & & & & % % % % > > > > ",
"B N N N m m m m v m M N N B ! W C N M v v g v v M N ! ! N m m q t t g m m m m N N B B B B B C } O.! ! ! %.%.%.%.O.O.O.O.O.O.O.O.O.C B B B B B B B V # + + + + + + + + + + + + + + + + + + + O O + O O O + + + + + + + 5 6 6 6 + + + 6 + 6 6 5 5 5 6 6 6 6 + + 6 6 y z V [ B m t q 6 8 8 & & : : > > > > & > > > & % & & % % & & > > > > > > & & > > > > > > > > > > > > > & & & & & & & & & & & > > > > > > > > i i i i i > > i > > > > > > > > > > > > > & & & & & & & & & & & & & & & & & & & & & & & > & i i s s s s i 8 8 i 8 8 i i s s i i i i i i i i p p p p p d p p p p p p p p d d d p p i i i 8 8 8 8 > > > i & & & & > i i i & & & & & & & & i i i i i i i i & & i i i i i i i i i i i 8 i i s s s s x V Q @.-.4.4.<.4.e.R.R.6.$.N r v ! #.O.%.O.+.5.e.w.<.4.I.R.8.O.m N t t t C 7.J.7.O.B O.7.J.J.J.e.w.7.+.5.H.U.H.U.U..XoXoXoXT.oX@X@X1X1X@X1X<XoXoX<X<X1X1X<XT.r.Y.oX<X<X@X@X@XI.J.4.C r ; r r r r r - = = 2 2 1 2 2 2 2 - - - 2 f f f f f 2 2 - - - - - - 2 f f f - - w f g v b M N ! W N N W ~ W ! @.#.2.*.*.$.! O.@.#.@.^ N b f = ; = - = 1 f 1 - - s g g z M M V W W Q Q E M b k f g b b v b f f f l b v b M N b b E ~ #.@.E M M N E E N b b b M W ~ ^ W W ~ #.^ ~ =.#.~ W M b f f b W W E b v v v b N N N E ^ E n g f f 1 1 - 1 1 1 2 f f - 1 = = = - 1 f f f g k b b l l g g g g k l g s f w w w w w w f s f f f f g g g g b l l g w w r s g j s s d s p p p p p p i i i & 8 8 & & & & > > % : % % & & # # & & & & & & & & > i i i i i i i p p d d d j j d j d p p d i s d s i i i s s s i i d s s d d s s i i i i i i i i i > & & & & & & % % % % % % % % % % % % % % % % % % % % > > > > i > > > i i > > > > > > > > > > > > > : > > > > ",
"B B N N m m m m v v m N N W ! W C N M v v g v v M N B ! B m v q t t t t m m m m m N N B N B C C O.O.! ! ! ! %.%.O.O.O.O.O.O.O.O.O.! B B B B C B B B w + + + + + + + + + + + + + + 5 + + # + + O @ O O O + + + + + + 6 6 6 6 5 6 6 + + + 6 6 6 6 6 + + + 6 # + + 6 q t z V V z e q 6 6 # & > : > > > & & > > > > & & & & % % & & > > & > > > > & > > > > > > > > > > > > > > & & & & & & & & & & > > > > > > > > > > > > > > > > > > > > & & & & & & > > & & & & & & & & & & & & & & & & & & & & & & & & & & i i s s s s i 8 8 8 8 8 i i s s i i i i i i i i i s i i p d p p p p p p p p d d p p i i 8 & & 8 & & > > i i & & & & & & & & & & > > & & & & & & & & & & & & & & & & s s s s s i i i 8 8 8 8 i s s s w d g M o.$.&.<.$.7.T.4X@XW.4.N w m #.4.e.7.<.+.1.H.H.5.4.U.E.U.#.B Z Z g m B $.2.$.W m m W $.4.4.$.O.} +.,.<.<.U.K.K.e.w.K..X@X@XoXoXoXoXoX1X1X4X4X1X<XoXoXT.T.<X4X4X2X@XXXT.6.N v r q f b n n - - = = = 2 f 1 f 2 2 2 f f f v f f f f 1 - - - - - - 2 f f g f f r r f b M E ! W ! ! B M M N E N W ! ! ! N m M M v v b N b g g f = = 1 1 = & 1 1 - s g M z M N W O.o.W W W N N v k g k b v g g f k M M b M N N g M ^ #.#.@.E v M M M M b b v v f b E E N E ^ ~ =.=.=.=.=.#.^ M v f f v E N b f f g M ^ #.3.*.W E b n g f f 1 - = - 1 1 = 1 - - 1 = = = = 1 f g g g k g f f f g k l g f s s w w w s s s s s s f f f f f f f f f R b g w w s g f f s 8 6 8 8 p d p p p d i i i i 8 8 & & & & > > % % % % & & # # & & & & & & & & & > i i i i i i p p p p d d d d j d d d d p d d s i s i s s i i s s s s d d s s i i i i i i i i i i > & & & & & % % : : % % % % % % % % % % % % % % % % : : > > > > > > i i i i > > > > > > > > > > > > : : > : ",
"B B N N N m m m v v m M N W ! ! B N m v v g v v M M N ! B m t q t t t t t m v m m m N B N N B C O.O.! ! ! ! ! ! O.O.O.O.O.O.O.O.! B B B B B C C B W w # + 6 6 + + + + + + + + + + 5 + + # + # + + O O + + + + + + 5 6 9 6 6 7 6 + + + + 5 6 6 6 w + + # + + + + q q y y y y y q q + # + & > : > > > > > > > > > & & & & % % & & > > & & > > > > > > > > > > > > > > > > > > > & & > > > > > > & > > > > > > > > > > > > > > > > > > > > & & & & & & & & & & & & & & & & & & & & & & & & & & & & > > > > & i i i s s s s i 8 & 8 8 8 i i s i i i i i i i i i i i i i i p p p p p d d d d d p p i i & * * & & & & > > i i & & & & & & & & & & & & & & & & & & & & & & & & & 8 8 8 i i s s s s i i 8 8 8 8 i i s s 8 w j g V O.$.$.O.%.J.@X@X@XR.7.V t m O.F.K.K.6.<.1.U.R.8.8.U.T.U.4.B B B m t m O.N m m t M B #.$.O.B m Z B } $.<.4.w.e.K.U..XoXoX.X.XoX.X.XoX.XT.Y.Y.T.oXoXoXoXXXoXE.XXJ.2.#.m v w w v b b n n f - - f f f k n 2 2 2 2 f v b b ; ; ; - - - - - r f f v v f f f - f b E W E N N N B B N M v g f v M M M v r v N N M M M M b b f - ; = 1 f 1 - - f f g m m z m W 3.*.o.M z M N E M v v b k g r r w M ! W E W W E b ^ #.#.N M M N v v v v v v v f f v b v b N W ~ 2.3.3.2.~ #.^ b v v v v b v f f f f ~ D.3.@.W E n g f f f f 1 = = = = 1 = = - 1 1 1 1 = - f k b b n f f = - f f k g g f w s s s s s s s s s s f k k k g - f f f l l g s s g g f s & * * 8 8 p d p p p d d i i i 8 8 & & & & > > % % % % & & & & & & & & & & & & & & > i i i i i p p p p p p d d j d d d d d d d d s s s s s s i i i i s s s s s i i i i i i i i s i > & & & & & & % : : % % % % % % % % % % % % % % % % % % % % > > > > i i i i i > > > > > > > > > > > > : : : ",
"C B N N N N m m Z v m m B W W ! ! B m v v g m v m N B B B v q r r t t t t t v m m m N N B B B B O.O.O.O.O.O.O.O.@.@.O.O.O.O.O.! C B B B B C C C B B t # + + + + + + + + + + + + + 5 6 6 # # + + + + O + + + + + 6 6 6 5 7 e y 5 5 5 5 + 6 8 e e # + O O + + + + 6 q q y y y y q # + + * & > > % : : > > & & & & & & & & & & & & & & & & & & & & > > & & & & > > > > > > 1 > > > > > > > > > > > > > > > & & > > > > > > > > > > & & & & & & & & & & & & & & & & & & & & & & & & & & & & & & & & > i i i i i i s i i i i & & & & 8 8 i i i i i 8 i i i i i i 8 8 i i i p d p p p j j j d p i i 8 i > > > & & > > > > > & & & & & & & & & & & & & & & & & & & & & & & & > i i i p p p p p p i s i i i i i d d i i i & s s M N W O.#.#.4.K.@XR.U.E.4.O.t z $.J.U.H.5.<.e.XX@XR.J.H.U.J.7.%.O.W m t m m m m g g g z M m m N N C %.$.%.&.4.5.w.w.e.H.e.H.H.H.I.U.T..X.XT.U.T.@X@XoXT.T.J.2.! N v r r w t g k b b l f - - f f k f 1 2 = = = 1 f f f - r r r r r r r f f v v f ; ; ; ; f M W W E W W E N N M b b b g f f b b b r g v v M m b b b b f = f - - - - w r r v N N m m m B #.*.@.N N N M N N E M M g f g r g N W @.~ W E E M b E E N N N M v b b b b b b k k M b g g N E W ^ ~ =.=.=.*.@.^ W b b b g r ; w g v @.#.W E M k g f f f f f f 1 = - 1 - - - - 1 1 1 1 f f k k b g f f f f - s s s f f l l f s s f s s s s g k l g k f w w w f g g f f f f f f s & & > i i 8 8 i p p d d d d s i i i i & & > > & & > > > > % % : & & & & & & & & & & & & > i i i i i p p p p p p p d d d d d d d p d d d d s i i i p p p i i i s s i i i i i i i i i i > > > i > > & & & & & & % % % % % % % % % % % % % % % % % % & > > > > > i i > > > > s s i s > > & & & & & & ",
"C B B B N N V m m m M N B W W O.! B m v v v v v m N B B B v q r r t t t t v m m m m m m N B B B O.O.O.O.O.O.O.O.@.O.O.O.O.! ! B B B B B B B B B B B t # + + + + + O + + + + + + + 5 6 6 6 5 + + + + + + + + + + 6 6 6 5 7 y 7 7 5 5 5 5 8 e e 8 + + O + # + + + 6 6 q q y q q # + + * # > > % % : : > > & & & & & & & & & & & & & & & & & & & & > > > & & & & > > > > > > > > > > > > > > > > > > > > > & > > > > > > > > > > > & & & & & & & & & & & & & & & & & & & & & & & & & & & & & & & & i i i i i i s i d s i i & & & > 8 i i i i i 8 8 i 8 i i i i 8 & & 8 i i p p p p p p p p i i 8 & & & & & & & > & & & & & & & & & & & & & & & & & & & & & & & & & & & > > i i p p p p p p p i i i i i i i i i i 8 i > i s j g M N B #.#.4.6.J.H.J.J.J.-.m t B 4.K.J.e.5.H.XX@XE.e.8.e.7.<.$.4.$.O.v m v g g g g g g g g g t v m B O.%.$.4.4.4.4.4.J.J.w.6.4.5.e.H.e.e.e.H.T.T.H.e.7.#.N g r - - - w r f g g k k f f f f f f 1 - - 1 1 1 f f g g f r r g v b b v f v v v f r - - f g b M b M E E E N M b b b l k f f l b l g r g v v v M v v k g 2 f f f f r r t m N C O.} W W O.$.W V N W N N M M M l l f g k r g N ! #.@.W E b b E E E b v v v f b M M b b b b b b b k k b b N N W ^ ~ ~ @.^ W ^ b b g f f f v M @.*.#.N b f w - - - - - 2 f f - 1 1 2 f 1 1 1 1 f f k k f 2 - = 1 - - - s f f f f k l l l f s s s f f k l l k f f w w f b b b g f f f f s s & & & > 8 i 8 8 8 i p p d d d d s i i i i & > > & & > > > > % % : : & & & & & & & & & & & & > > > i s i i p p p p p d p p p d d d d d d d d d s i p p p p p s i s s i i i i i i i i i i > > > > > > > > > > & & % % % % % % % % % % % % % % % % % % % & & > > > > > > > > > i i i i i i > & & & & & ",
"B B B B B B V m m m m N B W ! O.O.B m t v v v v m N B B B v r t r t t t t v m m m m N m N N B B B ! ! O.O.O.O.O.O.O.O.O.! ! B B B B N N N N B B B B e # + + + O + + O O + + + + + + # # 6 6 5 + + + + + + + + + + 6 6 5 5 7 7 5 + 5 5 6 e e e + + + O + # + # + # 6 6 q q # # # + $ * & > > > % : > > > % % % % & & % % & & & & & & & & & & & & & & & & & & > > > > > > > > & & > > > > > > > > > > > > > > > > > > > > > > > > & & & & & & & & & & & & & & & & & & & & & & & & & & & & > & & & i i i i i i i i s i i i > > i i 8 i i i 8 8 8 8 8 8 i i i i 8 & 8 8 i p p p p p p p i i i 8 8 & & & & & & & & & & & & & & & & & & & & & & & & & & & & & & & & & & > i i i i i p p p p i p p i i i d d d 8 8 8 8 > > & i 8 w s g M W #.#.$.4.6.8.F.J.J.6.B t m O.6.8.4.8.U.@X@XU.4.4.,.$.$.4.4.$.B m g g g g g g g g g r r t g g m B o.O.O.O.o.W $.#.O.W B O.$.<.$.4.4.4.5.4.O.B N M r ; ; - - - w r f k k b b b g f f f - = = = - - f f g v b g v v v M E E M v b k g k g f f g b b b g l b M b b b b k k l k k f g k g g w g N #.*.2.#.#.@.E b b b M v v v N ! $.,.4.7.4.#.O.! N M M E N b b M M k k f g k g k N @.@.@.N M k k E b b b g f f f b b b b b b b b b b b k v v b M M N E E E E E E b b f f f v M E @.~ E k g f - - - - - - - 1 f f 2 f 2 2 2 2 2 2 k k f f 1 = ; % - - ; - f f g g k l M M l l j s s d g l l g f s w f k b b b b f f f 1 & & & & & & > & 8 i 8 8 8 i p s d d d d i d i i i 8 8 & & > > > > % % % % % % % % % % % & & & & & & & > > i s s i i p p p p p p p p p d d d p p d d d p p i i p d d s s s i i i i i i i i i i > > > > > > > > > > > & & & % % % % % % % % % % % % % % % % % % % % > : > > > > > > > > > > i i > > > > & & ",
"B B B B B N N m v m m m N W ! @.O.B m t v v v v m N B B N t r t r t t t t t v m N N N N N N N B B ! ! O.O.O.O.O.O.O.! ! ! B B B N N N N N N N N B V w + + O O O + O O O + + + + + + # # 6 6 5 + + + + + + + + + + + + + 6 6 5 5 + 5 6 6 e e 8 + O O O + + + + # + # 6 6 # # # # $ * & & > > > : : : > > % % % % & & % % & & & & & & & & > & & & & & & & & & > & > > > > > > & & & > > > > > > > > > > > > > > > > > > > & > > > & & & & & & & & & & & & & & & & & & & & & & & & & & & & > & & & i i i i i i s s i & & & > i i i i i i i i 8 8 8 8 8 i i i 8 & & i i p p p p p p p p i i i 8 & & & & & & & & & & & & & & & & & & & & & & & & & & & & & & & & & & > > i i i i i i i i i i p i i i d d d d 8 8 8 8 & > & & & & w w g M W #.#.%.4.6.6.6.F.J.F.#.m t B %.$.5.H.T.XXoXH.<.%.%.%.%.$.O.#.B m t t g g g v l g g g g g g g g m M V V V N g m v g t v m B m B B B B B m g g f - # ; - - - r f k k b b b b g f - - - - - - w f f v b N W W ! ! ! N b v f g g f k b b g g b E b g f f g g f g f f f g g b b f f f f g w v ! F.J.W.J.D.3.^ b E E N b m @.7.J.H.J.J.J.7.*.#.! W N g g b b b M b k k k k k g k W ~ ~ W b b k g v g g g f f f f k b b k b M E b v b b g k v b M v b b b b g g k g g f f v b N E E M k f f - - - - - - - - 1 f f f f f f f f 2 f k f 1 1 # = = - - - - f f g l l l b R R M x l j d j g g f f s f s l M E b b g f s 1 & % # # # & > > & & i i 8 8 8 i d d d d d d d d i i 8 8 8 & & > > > & % % % % % % % % % % % & & & & & & & & i i i s i i i p p p p i i p p p d p p d d d d p i i s d d s s s i i i i i i i i i i > > > > > > > > > > > > & & % % % % % % % % % % % % % % % % % % % % % % > > & & & & > > > > s i > > > > > & ",
"} C C B N N N V m v m m N W W ! O.B m v g v m m N B W ! B t q w t t t t t t v v m N B B N N B B O.! O.O.O.O.! ! ! O.! C C B B B N N N N N N N N m N r O O O + + + + O O + + + + + + # 6 6 6 6 5 + + + + + + + + + + + + + 6 5 5 5 5 7 7 q q 6 + + O O + # + + + # + # # + # O $ $ * & > > : % % % % % % % % : : % % % % > > & & & & & & & & & & & & & & & & & & > > > > & & & & > > > > > > > > & & & & & & > > & & & & & & & > & & & & & & & & & & & & & & & & & & & & & & & & > > > > > > > & i i i i i i i i & & & & & & i i i i i 8 i i i i i i 8 8 i 8 & & i i p p p p p i i i i i 8 & & & & & & & & & & & & & & & & & & & & & & & & & & & & & & & & & & & i i i i i i i i 8 8 i i 8 8 p d j d s i 8 & & & & > & & & i i * & g M W @.#.=.2.7.4.*.4.6.6.$.B t t Z O.5.e.R.E.T.e.<.$.+.%.%.%.O.B m m m m m z b b b v v l k g k g x x V M z g b k g r r g g g g g g w g g s s - # # = - - f g f k k l v v f r f ; ; ; ; w f k k M N W @.#.*.4.#.! M g f f f b b g g g f f g b b n f 1 2 2 2 2 g 1 1 g k k f = f f - ; f r N 7.L.W.J.7.! E M N b b M E #.7.W.@XR.W.J.2.#.! ! O.W E M M b b k g b k k k g k g k W E R b g f f f - f f g f - - f f f f f b E W E M b b g g g k b b b l g b f f k v b b b v v k b l k f - f = # = f f f f 2 f g f f f f f f f f 2 1 1 = = = = ; # f f f f g g l b R R E R x l g j l g g f s f l b b R E b g f 1 1 1 & & & & & & & > > & & > i 8 8 8 i i i p p d d d d p i 8 8 8 6 & & & & & & & % % % & & % % % % & & & & & & & & & & & i s s s s d p p i i i i p s s d d d s s s p i i s d d s s s i i i i i i i i i > > > > > > i > > > > > > > & & % % % % % % % % % % % % % % : : : : % : : % & & & & > > > > s s s s s > > > ",
"} } C B N N N N m m m m N W W ! ! B m g t g v m N B W ! B t q r r r t t v v v m m N B B B B B B O.O.O.O.O.! ! B ! O.O.! ! B B B B B B B B B N N N N s O + + + + + $ O O O + + + + + # 6 6 6 6 5 + + + + + + + + + # + + + 6 6 5 7 7 y y 6 6 + + + + # + 6 6 + + + # + + + # # $ $ & > > : : % % % % % % % % : : % % % % > & & & & & & & & & & & & & & & & & & & > > > > & & & & > > > > > > > > & & & & & & > > & & & & & & > > & & & & & & & & & & & & & & & & & & & & & & & & & & & & > > & & i i i i i i i & & & & & & & i i i i i 8 i i i i i i 8 8 8 8 & 8 i i p p p p i i i i i i & & & & & & & & & & & & & & & & & & & & & & & & & & & & & & & & > > > > i i i i i i i i 8 8 p p 8 i d j j d i 8 & & & & & & & & & i & & w & & s W #.#.=.#.4.4.$.4.J.J.4.O.V Z V O.<.e.J.U.U.J.5.$.$.$.$.$.O.B V m z z m v b b b M M b b b M M M V M x g k k b v v b g f f g f w w s 8 8 1 1 1 1 - f g g k k k g g k f r r ; ; ; r g b N ! O.#.*.4.7.6.F.$.B g g b b M N b f - f g g g k n k f 1 1 1 - - 2 - 2 g b k f = = - ; ; g N 7.W.R.J.,.N M N M M b f M #.6.J.W.U.J.7.#.! N M N N E R M M b l l l b k k k f k k b R b l k f f f f f f f f f g f - f f - w b E E M b b k g g b b g g k g g k g b E @.~ W M b v g g f f - = - 1 1 f f f f f f k k f f f f f f f f 2 f 1 # % % = - - f f f f f f b R b b b b x x x x g g g g l b b R b M l g f 1 - % % % & & & & & & > > & & & > 8 8 8 i i i p p p p d d d p i 8 8 8 & & & & & & & & & % % & % % % % & & & & & & & & & & & & i i s s d d s i i i i i i i s s s s d p p p i i s d s s d s i i i i i i i i > > > > > > i i > > > > > > > & % % % % % % > % % % % % % % : : : : % : % % % % & & > > & & > > s s s > > > ",
"} C C B B N N N m m m m N W W ! ! N m g t t v v m N W W m t q r r t t t v v v m N B B B B B B ! O.O.O.O.! ! B B B C O.O.O.C B B B B B B B B B B N N r O + + + + + $ O O O O + + + + # 6 6 6 5 5 + + + + + + + + + + # + + + 6 5 7 7 y y 6 + + + # # # q q q 6 # # # O O # # # # % & > > % % % % : > % % % % : > : : : : : : & & > > > > & & & & > > & & & & & & i i > > & & & & & & & & & & & & & & & & & & & > & & & & > > > > & & & & & & & & & & & & & & & & & & & & & & & & & & & & > > > > i i i i i & & & & & & & & & > i & i i i i i i i i i & & 8 8 8 8 i i i i p p i 8 i i i > & & & & & & & & & & & & & & & & & & & & & & & & & & % % & & & & > > i i i i i i i i i i 8 8 i p p p j j d d 8 8 & & & & & & & & & > > # s # # & b M W #.O.$.$.O.O.4.8.6.6.7.4.,.+.$.4.w.e.U.U.J.4.&.&.&.&.4.&.O.B V m m m v v v m N N N N N B B V V z g r f v b T M b g f f s f l k h h f 3 1 f f f g b b v b v M M v f r ; ; q v M N ! #.$.$.4.2.4.6.F.F.#.N N E b v f f f f f g g g f k 2 1 1 1 1 1 1 1 1 2 f n k f 1 ; ; ; r N $.J.R.J.7.! N ! ^ W N M b E 2.F.7.2.,.%.! ! N E N N N M R b b b b b b b k k k l b l b l k f f f f f - 2 2 f f b E N f f - - w g g b b b b k g b b b g g g k b b b E #.7.2.~ M M M b b g f - - = 1 f f f f f f b b b k f f f f n n f 2 1 = = = - 1 f g f f f g g k b E b b l k x M M M x x x b E E E T b l f f 1 - % % % % & & > > > > > > & & & > & 8 8 i i i d d d d d d d d p 8 8 8 & & & & & & & & % % % % % % % % & & & & & & & & & & & & i i i i s s s s i i i i i i s s s i s s s s s s s s s s d d s i i i i i i i > > > i > > i i i > > > > > > > > & % % % % : % % % % % % % : % % % % % % % % % % % & & & & & > > s s > > > ",
"} C C B B N N N m m m m N B W ! W N m t t t g v m N B W m r q r t t t g v v v m N B B ! C C ! O.O.O.O.O.! C B B B B C O.O.C B B B C ! ! B B B B B N w O + + + + + $ O O O O O + + + 6 6 6 6 + + + + + + + + + O O O + + + + + 6 6 6 6 6 6 + + + # # 6 q t q q 6 6 + # O # & ; # # & & : : % % % > > % % % > > > : : : : : : & & > > > > & & & & > > & & & & & & > i i i & & & & & & & & & & & & & & & & & & > > & & & & > > > > & & & & & & & & & & & & & & & & & & & & & & & & & & & & > > > i i i i i & & & & & & & & & & > > & i 8 8 8 8 8 8 i i & & 8 8 8 i 8 8 i i i i 8 8 i i i > & & & & & & & & & & & & & & & & & & & & & & & & & & % % & & & & > > i i i i i i i i i i 8 8 i i p p j j d s 8 & & & & & & & & & & i & & & & > # @ & k N O.B W @.$.$.,.6.J.H.U.K.J.e.e.e.J.U.T.U.w.&.$.$.4.w.e.4.$.} B B m m v v m N B W W W W o.o.V m g g g f f n T E R k f f f k k f f k f f f f g b b v M N W W N v r r ; w r v N ! O.%.%.%.%.$.4.6.J.7.#.W W W b f f f f f f - f f 2 3 3 1 = 1 - - 1 1 1 1 1 = 1 - = ; ; r v ! 2.F.J.*.! N E E E N b k E #.3.2.N v N N N M v b f g b b l b b b l g f k f f f l l f f g f f f f - - - = - 2 k ^ =.~ b f w w f g f g b M b b k b b b f g g k b b M ~ 3.3.*.^ b b M M b f f - ; f k k f f f f g b E T b g f f f b n f 2 = = 1 1 k k b b f f f g b b b M N b b k l x x x M V R R Q W E R l k f - # % % % % % & & > > > > % % & & & & & & 8 i i i d d d d d d d z d p 8 8 8 & & & & & & & % % % % % % % & & & & & & & & & 1 & & & & 8 i i s i s s s i i i i i i i i i i i s s s s s s s s d d d s i i i i i i > > > > i i s i i i > > > > > > > > & % % % : : % & % % % % % % % % % % % % % % % % % % & & & & & > s > > > ",
"} } C B B N N N B B N N N B W ! ! B m t t t v v M N B N v r q q t g g g v m m m m B W ! ! ! ! O.! ! ! ! ! C B B C B C N B B O.O.! ! ! ! ! ! C W W ~ s O + + O + + O O O O O + + + + + + 6 # + + O + + + O O + + O + + + + + + + 6 6 6 6 6 6 + + # q t t t t t y e 6 # + # e w # & % % % % % % % % % % % % % % % % % % % % % % % % % & & % & O > 3 > & & > & & & & & > > > & & & & & % % % % & & > > > > & & & & & & > & > > > > & & & & & & & & & & & & & & & & & & & & & & & & & & & & & & i i i > & & & & & & & & & & & & & > > i > > i i i i i i i & & & > i i i i i i i i i 8 & & & & & & & & & & > > & & & > > > > > > > > & & & & & & & % & & & & > > > > i i i i i > > i 8 i i d j j j j i i i & 8 8 & & & & & & & & > > > > & & & & # # k M E M W O.$.$.2.6.R.@X<X@XXXT.T.XX@XE.J.7.&.%.<.7.e.6.5.4.&.$.o.B m m m m N B o.#.%.%.@.W V m N b f f f b M b M b k g l k f f f g f f f f f g M m W W E E M k r r w r m W O.O.O.O.$.,.2.4.4.*.! *.N N E M k r f f g g f 2 f n f 1 1 = 1 = 1 1 1 1 - - = = = % ; f g M O.7.J.7.#.W M M M M b b b Q 3.F.3.N f g f f f f f 2 f f k k k n b n g f g f f f f f f s f f f f f f f 1 - ; f R 3.3.^ E b f r r f f k b E E b g l l g g g g g f g b b W ~ ~ W E b b b g f f 2 2 f 1 2 f g f f M E M b g b n b b g g f f 2 f g k b b b b f f g g b E E W b b k f s r g M R W Q Q Q R l l j s & # # & % % % & & & & & & & % % & & & & > > i i i i p d d j j j j j j j d p i 8 8 & & & # # & & & & % % % % & & & & & & & > & & & & & & & > i i i s i i i i i i i i i i i i i i i i i i i i i s s s s s i i i i i i i i i > > > > > > > > > > & & & & & & & : : > > % % % % % % : : : % % % % % % % : : % & > > > > > > > > ",
"} } C C B N N B B B N N N N W ! ! B m t t t v v M N N N v r q r r t t g v m m m m B W ! ! O.O.O.! ! O.! ! ! C C C ! ! ! ! ! ! ! O.@.! ! ! ! ! W E W g O O O O + O O O O O O + + + + + + # # + + + + + + O O O + O O + + + + + + 6 6 6 6 6 6 + + 6 q e t t t t e q 6 6 + q g w # % % % % % % % % % % % % % % % % % % % % % : % % % % % % & 3 f G k 3 > 1 1 > & & & & & & & & & & & & % % & % & & > > > > & & & & & & > > > > & > & & & & & & & & & & & & & & & & & & & & & & & & & & & & & i i i > > & & & & & & % % & & & & & & > i > > > > > > i i & & & 8 > i i i i i i i i i & & & & & & % % & & & > & & & & & & & & & & & & & & & & & & & & & & & & & & & & i i i i i > > i i i d j j x l j i i 8 8 8 8 & & & & & & & & > > > > > & & & & & & f b b v N W #.O.O.7.XX2X3X2X4X1X@XXXR.H.e.4.%.+.4.5.6.e.e.w.7.&.%.W B B B B W o.O.$.$.$.$.O.O.W N M v g g g v M b b g b g f f g g g f f v v v m m N B W E b g r r t v M W #.$.4.$.$.4.6.7.O.g m B t M v r f M g g g g f 2 2 f 1 = = % = = = = 1 1 - - = = = = - f v B O.7.F.4.#.W E E M b b b b W =.F.L.3.E f g f f - - - 1 1 f f k k k g f f f r - f f f s f k f 1 # - - = - f l R Q ~ W b g f f f f f f f k b b b f g f f f f f f f f b b b M M b b b b g f f f f f f 1 1 1 w g b b k k b b n b b n f f f f g g b b E T b n l b E E E E M b b f ; w s k M V o.o.R M x j f j s & # # & & % % % % & & & & & & % % & & & & & > i i 8 i p d d d j j j j j j j j p p 8 8 8 & & # & & & & % % % % & & & & & & & & & & & & & & & & > > i i i i i i i i i i i i i i i i i i i i i i i i i s s s i i i i i i i i i i > > > > > > > > > > > & & & & & : > > > % % % % % % : : : : % % % % % % : : % % % % > > > > > > ",
"} C C C B B B B B B N N N B W ! ! W m t t g v v N N N M g w w r r r t g v m m m N B ! ! O.O.O.O.O.@.%.%.%.O.! ! ! ! W W W ! @.#.! ! ! @.! ! ^ ! ! @.R #   O O O O O O O + + + + + + + + # + + + + + + + + O O + O O + + + + + + + 6 6 6 + + + + q q q y e t t t q q q # w g w # % % : : % % % % % % % % % % % % % % % % % % % % $ $ % = k f b T k 3 1 1 1 1 1 & & & & % & & & & % % & & % % % % > > > > % % % % % : : : : : & : & & & & & & & & & & & & & & & & & & & & & & & & & & & > i > i & & & & & & & & & % % % & & & & & > > > > > > > > > & & & 8 i i i i i i i i > > > & & & & & & & & & & & & & & & & & & & & & & & & & & & & & & & & & & & & & & & & > > > > i > 8 8 i d j j x j j d i i 8 & & & & & & & & & & & > > > > & % & & & & % @ - s g g b W @.O.#.7.R.@X4X4X2X2X@XK.e.5.$.} %.&.7.5.6.J.J.w.5.w.6.4.O.O.} } o.O.$.&.7.5.7.4.$.#.! N v g r g r g v v M b k f k g g g v v m M m m N N E E M k v f k b E W O.$.W O.#.7.6.$.M r g g w g g b N #.b v g f f 2 2 2 = = = # # # # # = = = = = = - = f f k N O.4.6.4.@.W E E b b b l b E #.3.D.2.E f g f f - - = = - 1 1 1 2 f f r r f - w f g f f s g f f w f - f f E E M b b b k b f f k f f f f g g v g f f f f f - - - - g l b b b b b k k k g 2 f f f f - f f f k b b g g k b b v g g f f f f g k b b T W E T T E E E E E b g - 2 - - f b N W R R Q R R l s 8 8 8 & & & & & % % % % & & & & & & & & & & & & & > > i 8 i i p d d d d d d j j j j d p i 8 & & & & & & & & & & & & & & & & & & & & > > > > & & & & & & > > i i i i i i i i i i i i i i i i i i i s i i i i s s s i i i i i i i i i i > > > > > > > > > > > > > & & : : > > > > : : % % % % % % % % % % % % : : % % % % % % : > > > ",
"C C O.O.B B B ! B B N N N B W W ! W m t t g v v N N N v g w w r w r t t v m m m N W ! O.O.O.O.O.@.@.%.%.#.%.%.O.! #.@.@.! @.! @.@.@.@.@.~ ~ ~ ^ E ~ E f $ $ # O O O O O + + + + + + + + + + + O + + + + + O O O O O O O + + + + + + 6 6 + + + 6 q q q q y e t t q q q # w g ; @ % % : : % % % % % % % % % % % % & % % % % % % % % 1 k k R f l b k 3 % % 3 1 1 1 > & & % & & & & & & & & % % % % : : > > : : % % % % : : : : : : & & & & & & & & & & & & & & & & & & & & & & & & & & & > i i i & & & & & & & & & % % % % & & & & i > > > & & & & & & & & 8 i i i i i i i > > > > & & & & & & & & & & & & & & & & & & % % % % & & & & & & & & & & & & & & & & & & & & & & & 8 8 8 d j j x x j d i i i > & & & & & & & & & & & > > > & & % % % % % > $ $ # w w f b M @.O.#.7.J.J.I.@XE.I.J.4.$.O.O.} O.%.&.5.J.H.J.w.w.6.6.6.7.4.&.-.&.4.5.w.J.6.4.$.$.#.,.,.O.B B m m m m B N M g g r r t v v m m m m m N M M M b M b b E N m m N #.4.6.7.#.m t g r r r g k W E W v g f 2 2 - - - = = = = = = # # = = = = = - - - f f g B ,.4.7.$.! E M M b l l k b T ^ ~ ^ W N b f r f f - - - - 1 f f f f f f f g f f f l l k g w w f s f - f l b b b g g g f f f f f f f f g v f f f - f f f f - - - - g l b b g b b g f f f - f f f f f f f f b f f b M b b b 2 f f f f f g g k b b T T E Q ^ ~ Q b g f - - - - f b E N E M M l M R R x d 8 * * 8 i s & & % % % % & & & & & & & & & & & & & & > > & 8 8 i d d d d d d d d j j j d p i 8 & 8 8 & & & & & & & & & & & & & & & & > > > > > > & & & & & & > i i i i i i i i i i i i i i i i i i i i i i i i i s s s i i i i i i i i > > > > > > > > > > > > > > & : : > > > > : : % % % % % % % % % % % % : : % % % % % % % % > & ",
"O.%.O.O.B B B B B B N m B N B W ! W N M v v v M M N W M r w w r r r t g v m m N N W ! O.O.O.O.O.O.#.#.#.#.@.@.#.#.#.~ #.~ #.#.#.*.@.E b l b b b % # # &     O O O O O O + O + + + + + + O O + + O O + + + O O O O O O + + + + + 6 6 + + + + + 6 q q q q y t t y q # # w w w # % % : : : : % % % % % % % % % % % % $ $ % % % 1 g n n b n T k T T n k 1 1 1 1 1 1 1 1 = & & % % % & & & & & & & & % % % % : : > & % % : : % % % % & & & & & & & & & & & & & & & & > > > > > > > > & & > i i > & & & & & & & & % % % % % % & & & & & & & & & & & & & & & & i i i i > > & & > > > & & & & & & & & & > > : % : : : & & % % % > > > > & & & & % % % % % % & & & & & & & & & & & & 8 p j x x x j d i * & & & & & & & & & & & & & & > > & & & & % % % % % % % % O % - f l M W ! @.B W #.7.J.J.F.4.W B O.} B B O.<.J.J.J.7.&.+.$.7.6.J.J.K.K.K.K.U.R.U.K.4.,.$.$.4.$.$.O.B B B B W o.o.o.N m v m m N N N m m m M b b b v b b b b k g W *.J.6.*.O.v f r w v v N ! N ^ E v g f f f - = - - f f - - - - - - 1 1 1 1 - 2 f f f w k W 2.4.7.$.W M b b g g k k n g n M M v f f 2 r 2 - - ; - f g g f f f f g g g f f f g g g g f s s g s f f b E W E v g f f f f f f b b b b b g g f - 1 f k f f f 2 - f f g f f g g g f 2 2 - - f k b g f f f g b E E E g f f f f f f f f f f b b b E E W ~ ^ E b f - - 1 1 f l E ^ Q R b l l x l x x x j d 8 * & & & & & % % % % & & & & & & > > > > & & & & & & & 8 i i 8 d i i i p d d d j j j j d i 8 8 8 & & & & & & & & & & & & & > > > i i i i > > & & & & & & & & > i i i i i i i i i > i > > i i i i i i i i i i i i i i i i i i i i i s > > & & & & > > > > & & & & > > > > : : > : > > : > % : : : > > : : % % % % % % % % > > > > ",
"O.%.O.C B B B B B B N N N N B W ! W N v v v v M M N W N r w w r r r t g v m m m N W ! O.O.O.@.@.%.#.#.#.#.@.@.#.#.#.#.#.~ @.~ ~ b f ; @ @ @ % @ % $ % & $ $ O O O O O O O O + + + + + + O O O + O O + + O O O O O O O + + + + + + 6 + + + + + 6 q q q q y t y y 6 # O # w # # % % : : : : : % % % % % % % % % % % % @ % = 1 k T T T T b b k b T n k 1 1 1 1 1 1 1 1 1 1 = = = % & & & & & & & & % % % % : > > & & % % : % % % % & & & & & & & & & & & & & & & & & & & & > > > > & > i i i > & & & & & & & & % % % % % % & & & & & & & & & & & & & & & > > i i i > & & & > > & & & & & & & & & & > > : % % : : & % % % % > > > > & & & & % % % % % % % % & & & & & & & & * * i j x x x j d i 8 & & & & & & & & & & & & & & & & & & & & & % % % : : : : % % % % % f b b b E N v t v ! 4.F.6.4.O.m O.} B C &.6.e.e.4.&.+.+.&.&.4.e.K.K.K.K.U.T.T.T.E.I.8.4.%.} V Z O.O.B m m B o.O.O.W B B B B C ! ! ! W N M M g g k f f g M W *.F.#.W g g g g r w r f M @.M b v r g f f - - - - - f f f f f - - - 1 1 1 1 2 2 f f g g b W #.$.7.4.@.E b g f f g g g 2 - 2 f r f v v f 2 ; - ; 2 f f f f f f f f f f f f f f f g g g s s f l b b M ~ W M f f f f f f f v ^ W b g k b b g g 1 f g f f f 2 - - - f f f f g g f 2 2 2 n n g f f f f k M ^ ^ E f f f w f f f f f f g n b n b b W E b n g f - # 1 f l T E W W R T l k l f s j x x H x d 8 & & & & & & % % % & & & & & & > > > > & & & & & & & & & i 8 8 i i i i p d d d j x j j d i 8 8 & & & & & & & & & & & & & & > > i i s s s > > & & & & & & & & & i i i i i i i i i i > > > > i i i i i i i i i i i i i i i i i i i s s s > & & & & & > > & > & & > > > > > > > > > > > > > > > > > > > : % % % % % % % % > > > > ",
"%.%.O.B B B B B B B B N N N W ! ! W N M M v v M N W ~ N f w w r r t t g v m m m N B ! ! O.@.#.O.#.#.#.,.#.@.@.#.@.#.#.~ E b - % % % @ O % % % % % $ % % $ $     O O O O O O + + + + + O O O + + + + + + O O O O O O O + + + # # + + + + + + 6 6 q q q q y e y 6 + + O # w @ # % % : : % : % % % % % % % % % % % % % ; - v n b T b T b n n n n n n 2 1 = = 1 1 1 1 1 1 1 1 1 = = % % % % & % & & & % % % : : % % % % : : % % % & & & & & & & & & & & & & & & & & & & & & > > > > > i i i > & & & & & & & # % % % % % % % % % & & & & & & & & & & & & > i > > i i & & & & > & & & & & & & & & & & > > % % % % & & % % % % % % % % & & & & % % % % & & & & & & & & % % & & & i j x H H x j d i & & & & & & & & & & & & & # & & & & & & & & % % : : : : : % : > % $   & f b E W E k g r v @.F.J.7.W W B B } %.4.5.w.e.4.&.1.5.5.<.&.5.w.5.5.<.<.<.<.6.J.H.H.8.7.<.$.4.5.4.$.B B m m O.O.O.O.O.O.%.$.#.#.O.B M M b k f w f b ~ E b g r r r r l k g g v v N #.M b E b k f w - - - - 2 f f f f f f f f f f f f 2 2 f f f b W #.*.$.$.%.W b g f f f f f - - - 2 v M ^ =.M f 2 2 f f f f f f f f f f b b f f - w s s f g g d g g g g k g g g f w g f ; ; f v N W W b v v n b g g - 2 f 2 2 2 2 - - - - f f f f f f f 2 2 b b g r f k b M ^ ^ N f f g k g f f f f g g b b b b b b N v f - f - - f k b R R R R b l b b f f & & 8 d x H H j s 8 & & & & & % % % % % & & & & & & > & & & % % & & & & & 8 8 8 8 8 i i p p p d j j j j j d p 8 > > > > & & & & & & & & & & & > i i s s s s 1 > & & & & & & & & > > i i > > > > > > > > > > > > i i i i i i i i i i i i i i i i i i s s > > & & & & & & & & & & 1 1 > 1 > > > > > > > > > > > > > > > : % % : % : : % % > > : : ",
"%.O.C B B B B B B B W B N N B O.@.! W N M v M N N ~ @.E f w w r r t t g v m m m m B ! ! O.@.#.@.#.#.*.*.#.~ ~ @.#.Q T & % O % % % % % % % % % % $ % % % : % $ O O O O O O O O O O O O O O O + + + + + + O O O O O O O + # # + + + + + + + + 6 6 q q q q q y y 6 + + O # # $ % % : : : % : % % % % % % % % % % % % ; f b E b b b b T b n 2 n f n n 2 2 - = = 1 2 1 1 1 1 1 1 1 1 % % % % % % & & % % % % % % % % % % : : % % % & & & & & & & & & & & & & & & & & & & & & > > > > i i i s > & & & & & & & & & & & % % % % % % & & & & & & & & & & & > i s > > i > & & & & & & & & & & & & & & & & > > % % % % & % % % % % % % % % & & & & % % % % & & & & & & & & % % & & i j H H H x j p i i & & & & & & & & & & & & & # & & & & & & & & % % : : % : : % : % % % > % & f l b E =.N b f r v 2.6.7.%.O.O.} } +.&.<.5.5.w.e.e.e.e.e.5.5.4.<.&.+.+.%.6.J.U.I.8.6.6.6.J.R.E.R.J.7.#.$.O.$.4.4.4.4.7.7.*.$.@.B b b b b l b b M k s w r r r f g g g v M N N N ! k N @.M k f - ; - - 2 2 f f f g f f f f f f f f f f f g l E ! #.*.,.#.B v r f f f - - - - 1 f f b ^ ~ ^ b f ; r b v f - - - w w w f k b f w - - w s f g g M W E b f f w f g f f - ; r b M E W W b g g b f 2 f f - 1 f 1 2 2 1 - - - 2 2 2 f f f 2 f f 2 2 f g f b M N E b k f f f g g g g f f g b b b b g b N N v f 2 r w w g b R R T b f k k k k k = O # # 8 d j x x x j s 8 & & & & % % % % % & & & & & & & & & & & & & & & & & & & 8 & & 8 8 i p p d d d j j j j d p i i i > > > > > & & & & & & & & & i i s s s s i i & & & & & & & & & > i > > > > i > > > > > > > > i i i & & i i i i i i i i i i > > > > > > > & & & & & & & & & > > > > > > > > > > > > > > > > > > > > % % : : : : : : > > : : ",
"O.C B B B B B B ! B B N m m N B ! W N m m v m N W ! W v w ; w q w t g v m m m m N W ! ! O.#.#.@.#.#.=.*.=.E R T 1 > & % % % % % % % % % % % % % % % % : : : % % O O $ O O O O O O O O O + + + + + + + + O O O O O O O O # # + + + + + + + + # 6 6 6 q q q y q + + # O # % % % % % : % $ % $ $ % o % % 1 o % 1 k T n n n n T T T b n b b n 2 n T n 2 2 2 = = 1 1 3 3 3 1 2 = = 1 1 1 = % % % % % % % % % % % % % % % % % > > % % & & & & > > > > & & & & & & & & & & & & > > > > i i i i i & & & * & & & & & & & & & & $ & & & & & & & & & & & & > > i i > > > > > > & & & & & & & & & & & & & & > & & & & & > & % % % % % % % % % % % % % % % % % % % & & & & & & # * 8 j H H H H x j i i & & # & & & & & & & & & & & & $ % % % % % % % % % % % % % % % % % % % $ % % & & 1 b E Q Q M f f v O.4.4.4.%.O.O.%.+.<.&.1.1.4.5.w.e.e.H.w.5.&.4.&.$.<.6.I.E.R.W.U.K.J.J.W.E.@X@XE.W.K.6.2.$.$.#.#.$.#.O.W v r f k b b M b b b f - ; ; w w f m N C C N N v v M r v M l b w - ; f g f f f f f f f f f f g g g g b k g k M E ~ @.#.#.@.N v v k f r w - 2 - - 2 f v b N ^ #.~ b v M k f f r f f f w w f f f f - - w f g g M g g g g w f b ^ W b - ; r v M N N N W N v f f w f f f w f f f 1 3 3 1 1 1 1 1 2 2 f f f f f f g f b M ^ E M g g g n n k k g f f f f g l b b b b b f f f f g k E E E T g g g k l k f s % % % % % & & > d j x H H j i & & & & & % % & & & & & & > & & & & & & & & & & & & > > > & & & 8 i i i i p d d j j j j d p i i i > > > > > > > > > > > > i > i i s d d s i i & & & & % & & > > > i i i i i > & & & & & & > i i i i i > > > i i i i i i > > > > > > > > > > > > > > > > > > > > > > > > > > > > > > > > > > > > > > > : : % % % : > > % % ",
"C B B B B B B B B N m m m m m B ! B B m m m m N N W W v w ; q q w t g v m m m m N B ! ! @.@.@.#.=.~ Q E k - % % > % % % % % % % : : : : : : : : : : : : : : : : $ $ O O O O O O O O O O O O + + + + + O O O O O O O O O + + + + + + + + # + # 6 6 6 q q 6 q 6 # + # O @ % % % % % : % $ % $ $ $ $ $ $ % 1 k n T T n n n n T T T n n n T b n b b n 2 2 2 = = 1 = 1 1 1 1 1 = = = = = 1 1 = % & & % % % % % % % % % % % % > > % % > & & & > > > > & & & & & & & & & & & & > > > > i i i i > & & & & & & & i & & & & & & & & & & & & & & & & & & & > > > i > > > > > & & & & & & & & & & & & & & & > > & & & & % % % % % % % % % % % % % % % % % % & % % % & & & & # * * p x x H x x j d i & & * & & & & & & & & & % % & % % % % % % % % % % % % % % % % % % % % % % > > % % % - f l b b l f g v m B $.7.4.$.$.$.&.e.e.e.e.e.e.e.e.e.w.&.$.&.$.$.4.,.7.7.2.,.7.6.6.4.4.6.6.J.K.K.K.J.6.4.O.m m m m m m v g k b b b g f f g f f w f f s g M B $.4.%.N v w r w k M E k k b f f f f b k f - f f f f f f g b b M b v b N W @.@.@.@.! b b b b f f r - - - - r v b N ^ =.3.2.@.W E f - f k k f f g f f f - - - - w w s g l x g g g k E =.3.#.W b g v N N N W ! @.! M k v f g g f f f f 1 1 1 1 1 1 1 1 1 2 2 f 2 f 1 2 f n b E ^ W M b g f g n b k k g f f f g l l b b b k g g g g b M E b b b b f f f f f s 1 > % % % % % % & & i d j H H H j i & & & & # % & % & & & & > & & & & & & & & & & & & & & > & & & & 8 i i i p p d d j j j j j p i i i > > > > > > > > > > > > > i i i d j j d i i & & & % & & & > > > i i i i i & & & & & & > > > > > > > > > > > > > > > > > > > > & & > > > > > > > > > > > > > > > > > > > > > > > > > > > > > > > > > > % % % % > > % % ",
"B B B B B B B B N m m v v m m N ! B N m m m m N N W W v q # ; ; w t v m m m m m N B ! ! @.~ @.#.M f - = % % % % % % % % % % % % : % : : : : % % : : : : : : : : $ $ O O     O O O O O O O O O O + + O O O O O @ + + # # # + # + + # # # # # 6 6 6 6 6 6 + + + # # # @ @ % % % % % : % $ % $ $ $ % = 1 k T E T n T n n b n T b b n b T ^ b n n n n 2 1 2 - = = = 1 1 1 1 1 1 = 1 1 = 1 1 1 = % % % % % % % % % % % % % % & % % % > > > > > > > > & & & & & & & & & & & & > > > > > > & & & & & & & & > > > i i i & & & & & & & & % % & & & & & > > > i i > > > > & & & & & & & & & & & & & & & % % % % % % % % % % % % % % % % % % % % % % % % % % % % % $ $ % % # + 8 j x x x x j j i & & & & & & & & & & & & & % % % % % % % % % % % % % % % % % % % % % % % % & > 3 & % % @ % f f l l l k g r g N $.6.5.<.<.7.<.w.H.T.XXT.H.w.5.7.&.%.O.} } O.2.2.$.%.! ! B N N m m B @.#.4.6.J.6.4.$.W B m v g v m v g v v b v k f f f s s s l g M B O.6.8.4.$.O.v r v N N ! M M M k f g g T k f - f f f f f g k b b M v v v N ! #.$.#.O.W N M M b g f f w w - - f v v b N ^ *.#.@.E b f f N E b v f k k f f - - f f f w s l M W @.@.W @.#.*.~ W M g v B #.$.7.7.4.7.#.N f f k b k f f 1 - - 1 1 1 1 1 1 - - 1 2 f f 2 f f g E W E E b k g g f g k n k g f f f f k b b b b b l k b b M M M b g g g f f f 1 1 1 & & & % % % % % % & & & i j x H H H j i & & & & & % % % & & & > & & & & & & & & & & & & & & & & & & & 8 8 8 i p p d d j j j j j j i i i i i i > > > > & & & & & & 8 8 i i d j j d s s & & & & & & & > > > > > i i > > 8 & & & > > > > > > > > & & & & > > > > > > > > & & & & > > > > > > > > > > > > > > > > > > > > > > > > > > > > > > > > % % % % : : % % ",
"B B B B B B B B N N m m v v m N B B N m m m m N W ! W v q # # # w t v m m m m m N ! ! ! @.#.~ E - @ O O O % & % % % % % % % % % : % % : % % % % : : : : : : : : % $ O   O O O O O O O O O O O O + O O O O O O # # # # # + O O O + + + + + # 6 6 6 6 6 # + + + + # # @ % % % % % % % % $ $ % % 1 k T T T k T n k n 2 n n n b b b T E T ^ n n n n k 2 = 1 - = = = 1 1 1 1 1 1 1 1 1 1 1 1 = = % % % % % % % % % % % % % % % % % % > > > > > > > > & & & & & & & & & & & & > > > > & & & & & & & & & & & & i i s s & & & & & & & & % % & & & & & i > > i i i > > > & & & & & & & & & & & & & & % % % % % % % % % % % % % % $ $ $ $ $ $ % % % % % % % % % % $ $ $ $ # * i j H x x x j i i & & % & & & & & & & & & & % % % % % % % % % % % % % % % % % % % % % % % % % > & % % % % # @ # f f k l b k v q m 4.5.e.e.w.5.4.4.w.J.H.e.e.5.4.&.%.O.[ B o.B C ! ! C N v v m g g m v g N #.2.$.2.$.*.$.#.N t m M g g k k g g f r r g l b l E R W O.$.6.6.4.O.@.m v ! #.! @.N N M k k b b b f f f f g k b b b v v v k r r r N W W W N N M M b b b g f f w - f f v b v v n M ~ E N b f k b E ~ E b b l k f w w f b b k s g M R @.*.3.7.7.=.O.M N m m N $.F.L.W.L.J.J.7.#.W N M M k - ; - - - = 1 1 1 1 1 - - 1 2 f f f g b b W E b k g g k k k g f f g g f f f g b b b b b k M b b b b b b g g g f f f 3 1 1 & & & & % % % % % % % & & i s j H H H H j i 8 & & & % % % % & & > > > > & & & & & & & & & & & & & & & & 8 8 8 8 i i p d d j j j j j j i i i i i > > > > & & & & & & & & i i i s j j j s i & & & & & & & > > > > > > > > i 8 8 & > > > > > > > > & & & & > > > > > > > > & & & & > > > > > > > > > > > > > > > > > > > > > > > > > > > > > > > > % % % % : : % % ",
"B B B B B B N N m m m m v v m N B B m m m m N B ! ! ! M w # # ; w t v v m m M N N N E ^ #.=.b % % % % % % % % % % % % % % % % % : : % % : : : : : : : : : : : % % % O O O O O $ O O O O O O + + O O O O $ + + + + + # # O O O O O O O O O O + + + # + 6 q 6 6 w & # $ $ % % % % % % % $ % f 3 k T ^ E T f k n T n n n n n b b b T E T ^ n f n T n 2 1 1 1 1 1 1 = 1 1 = 1 1 2 2 2 2 3 1 1 1 % % % % % % % % % % % % % % % % % % : : : > % % % % & & & & & & & & & & & > > > > & & & & & & & & & & & > i i s s s s > & & & & & & % & & & & & & > > & & & & & & & & & & & & & & & % % % % % % % % % % % % % % % % % % $ $ % % $ $ $ $ $ $ $ $ % % % % % % $ $ $ $ # i d j x H H j d i i & & & & & & & & & & & % % % % % % $ $ $ $ % % % % % % $ $ % % % % % % % % & & & & % % % % & & & & s f l b v v m N %.e.J.5.5.5.5.e.e.4.%.} %.%.%.} o.B V W O.! W N v g g k M M N W W M m B W O.#.4.6.7.$.B N N m g v v v v v t w r g M N N R E o.#.$.-.4.4.B #.O.! #.@.W B O.M M v k n b f 1 f f f k k g g N M v g v t r t O.! N m v b b M b b v g g f 2 2 f f v b M n v v v v M N N W ! @.@.! W E M k f w f M E l s g g g M Q O.W O.#.O.m m N N N O.8.U.R.R.U.W.W.J.7.#.^ E N b g - - 1 f f f 1 1 - 1 f f f f f f g l b T l l b b f f f f f f f f g f k k b b b E E E E b b b l l g g g g f f f 3 1 & % % & & & > % % % % % % % & & & i d x x H x H j p 6 * * & % & % $ % & & & & & & > & & & & & & & & & & & > > & & & & 8 i i p d j j j j j j d d 8 8 8 & & & & > & & & > > & & > i i i s j j j i i i & * & % % > > > > > > > > & & & & > > > > > > > > & & > > & > & & & & & & > > > > > > > > > > > > > > > > > > > > 1 1 1 > > > > > > > > > > > > > > > > > > > > > ",
"B B B B B N m m m m m v v v m N B B m m m m N B ! ! W v w # # ; w t g v m m M N N W ~ #.~ R - $ % $ $ % % % % % % % % % % % % % : : : : : : : : % : : : : : % % % % % O O O O O O O O O O O O O O O O O O + + + + + # + O O O O O O O O O O O + + + # q t e w r & # $ $ % % % % % $ % % f E T T T E E Q E E E ^ T n b T n b n n n T T E n n b T n 2 1 1 1 1 1 1 = 1 1 = = = 1 1 2 2 2 3 1 = % $ % % % % % % % % % % % % % % % % % % > > % % % % & & & & & & & & & & > > > > & & & & & & & # & & & & > > i s s s s > & & & & & % % % & & & & & & & & & & & & & & & & & & & & & & % % % % % % % % % % % % % % % % % % $ $ % % % % $ $ $ $ $ $ % % % % % % $ $ $ # & s j j x H x d p i & & & & & & & & & & & & % % % % % % $ $ $ $ % % % % % % % $ % % % % % % % % & & & & % % % % & # # % & s k l M M N B B $.4.5.w.e.H.R.R.H.7.$.%.$.%.O.#.o.o.#.#.@.#.#.! E M M M M N W #.! W B B W O.4.F.6.4.2.O.! N m m v v v m g g g M B B V W W @.#.O.O.#.$.B ,.4.$.O.! ! ! O.M v v f g g f - - f f g k b M B N N N N m m B $.#.O.! ! W E E b g g f f 2 2 f b b b N M v f v v N E E ! @.*.7.2.*.@.! M k f f k M b g f M N M e z M M z m V m m m m B 4.I.E.E.E.W.J.J.F.2.@.! ~ ~ ^ E b g f 1 f f 1 = - f g n b b b l l l b b g g f f f 1 f 1 - 2 g g b b T T W W W W E E b b l l l l g g f f f f 3 3 & % % % & & & > % % % % % % % % & & i s d x x H H H j d 8 * & & % $ X % % & & & & & > > & & & & & & & & & & > > i & & & 8 8 i i p d j j j j j j d s 8 8 8 & & & & & > & > > > > & & > i i s j j j d i i & * * * * > > > > > > > & & 8 8 i > > > > > > > & & > & & & & & & & & & & & & & & & & & & & & & > > > > > > > > > > > > > > > > > > > > > > > > > > > > > > > > ",
"B B B B N N N m m m m v g v m N B B m m m m N B ! ! B v w # # ; q t g g v v m N N ^ ~ ^ b = $ % & % % > : : : : : : % % % % % % : : : : : : : : % % : : : : % % % % % $ @ O o O O O O O O O O O O O O O O + + + # # + O O O O O O O O O O O O + # # q q t t t t & # % $ % % : % % % 2 f T ^ T b b T T ^ ^ ^ E ^ E n T b n b n b n b T E T b T T n 2 - 1 1 1 1 1 = 1 1 = = = 1 = 1 1 2 3 1 = % $ % % % % % % % % % % % % % % % % % % % % % % % % & & & & & & & & & i > > > & & & & & % $ $ % % & & & > > i i s s s 1 > & & & % % % % & & & & & & & & & & & & & & & % % % % % % % & & % % % % % % % % % $ $ $ % % $ $ $ $ % % % % $ $ $ $ $ $ $ $ % % % % $ % & & i s j j x x j p i 8 & & & % % % & & & & % % % % % % % % $ $ $ $ % % % % % % $ $ % % % % % % % % % % % % % % % & % % % % % & > f b M W W o.} $.4.5.e.U.T.E.R.J.7.5.F.w.7.7.*.=.*.7.2.2.2.@.E l f N N M M V R V B B W O.#.4.4.4.7.#.W m N N N M m N m m v m W O.W V W #.#.W } %.%.B %.2.%.O.$.6.6.#.b v k - 2 2 2 - 1 f g k b N W B B W W O.N B O.#.#.#.#.! E b b g g f f 2 2 2 f T E E E M v v M ^ @.^ M M W ! #.2.#.W M v k f k b k f r g R W m w g m V m V W O.O.O.$.4.J.E.@XE.J.8.7.7.3.2.#.#.#.@.~ ~ W b b f k k f f g k b b b b b l l g g g l f - - f f f f 1 f n b T T E E ^ ~ ^ E b b b b b k k n k f 1 1 3 1 1 % % % % % & & & & & & % & % % % % & & & 8 p j x x H H x x p 8 * # & $ $ % % % & & & & & > & & & & & & & & & & > > i i & & 8 & 8 i p p d j j j j j j d d i 8 8 & & & & & & > i > > > & > > i s j j j j j p i & * * * & > > > > > > > > 8 & i > > > > > > > & & & & & & & & & & & & & & & & & & & & & & & & > > > > : : > > : : > > > > > > > > > > > > > > > > > > > > > > ",
"B B B B N N N N N N m m g v m N B B m m m m N B O.! N g q # # q q r t g t v m N W W M f % % % % % % % : : : : : : : % % % % % % : : : : : : : : : : : : : : : % % % % % $ $ O O O O O O O O O O     O O O + + + # # + + O O O O O O O O O O + # # # q t t z t r & & % % % % : : $ 3 T T E Q b n T n n ^ T T b T ^ n n b n b n b T T T T T T n f n 2 - - 1 1 1 1 = 1 1 = = = 1 1 = = 1 1 1 = % % % % % % % % % % % % % % % % % % % % % % % % % % & & & & & & & & i i > > & & & & & & $ $ $ % % # & & & > > i i i s 1 > & & # % % % % & & & & & & & & & & & & & & % % % % % % % % % % % % % % % % % % $ $ $ $ % % $ $ $ $ % % % % $ $ $ $ $ $ $ $ % % % % % & & > s i d j x j d i i & & & % % % % % % % % % % % % % % % % $ $ $ $ % % % % % % $ $ % % % % % % % % % % % % $ $ % % & % % % % % % & 1 b E W #.$.$.<.&.5.e.J.K.U.U.J.J.K.K.J.D.-.#.#.#.! N m g r g l b N b d w g m W $.$.$.$.%.O.B $.O.m m N ! W B N W W W N B B B m M V O.W V o.*.4.@.! 2.#.,.8.R.I.2.b f r - - - - 1 f k b k b M N N B ! O.O.B B %.7.2.$.@.E b f g g f 2 2 2 2 f v n T E b f - f N ! ! N f M M N N M b v k v g g k l f r g V W m w e g m B o.O.-.7.6.J.L.W.E.E.E.R.7.3.2.2.2.#.=.#.~ ~ ^ ~ ^ ^ E b b b b b T M E E b l g f g g g g - f f g g g g g g k b b b T E E W E M b g g k l b g f f 1 1 f k 1 & % $ % % % % % & & & & & & & % % % % & & & & p d z x H H H x j i * O & % $ % $ % % & & & & > & & & & & & & & & & > > i i > & & & 8 8 i p p d j j j j j j j d i i 8 & & & & & > i > > & > & & > i s j j j j j p i * * * & & : > > > > > > & & > > > > > > > > & & & & & & & & & & & & & & & & & & & & & & & & > 1 > > : > > > : : : > > > 1 1 > > > > > > > > > > > > > > > > ",
"B B B B B B B B B m m m m m m m B B B m m m B W ! W W v q ; ; ; w w w t v v v N W b = % % % % : : : : : : : % % : : : : : : : : : : : : : : : : : : % % % : : : : : : % % % % % O O       O O   O O O O + O O + + + + + O O O O O O O O $ $ # # 6 w e q t t t w & # % % % % % % = - T E T E n T T T b b b n b T T n n b T E E b T T T n E T n f n 2 1 1 1 1 1 1 2 1 = = 1 1 2 1 1 1 1 = 1 1 % $ % % % % % % % % % % % % % % % % % % % % % % % % & & & & & & & & i > > > > & # % % % % % % % % $ # & & > & > > > s > > & & & % % % % % > > > > > > & & & & & & % % % % % % % % % % % % % % % % % % % % % % % % % % % % % % % % % $ $ $ $ $ $ % % & & & % # & & > i d d j x j p i 8 & & % % % $ $ % % % % % % % % % % % % % % % % $ % % % % % $ $ % % % % % % % % % % % % % % > > % % % % % % % % @ - l E #.#.$.4.6.6.6.6.J.J.K.R.R.R.J.F.4.o.M M g g w q w w w f M b g g e d g m O.&.6.4.4.4.4.$.O.B v m B O.O.N O.2.2.O.#.W m m m m W W B N ! 6.3.7.4.7.%.H.E.R.3.b f f - 2 2 - f f g l g g k M m m W #.#.%.,.4.7.2.! M f f f 2 f f f g f f f f f f g f f k v b N M v v ! #.! M v M v g f f g r g r M @.@.N g g g g m W o.%.4.J.L.W.R.R.R.I.F.6.3.3.3.2.3.2.#.~ #.~ ^ ~ ~ ^ W W M M M E N M M b b b b b f f g l k k k k n f f f l k g b b E ^ ^ E b k g b b k g f f f f k 1 = % % : : : % : : : : % % % > > % : % : : : % % % & i p d j x H [ H [ j 8 + * % % % % % % % & & & & > & & & & & & & > > > > > > > > 8 8 8 8 i i d d d j j j x j j j j i i & > > & & & i i i & & & & i i i i j j x x j p a i > > > > > > : > > > > > & & & & > > > > > > > > & & & & > > > > : : : : > & > : : : & & 3 > > > 3 > > % : : : : % & > > > > > > > > > > > > > > > > > > ",
"B B B B B B B B B B B B m m m m m B m m m m B W ! W B g q ; ; q w t g g g m N E b f % $ % % : : : : : : : : % % : : : : : : : : : : : : : : : : : : : : % % : : : : : : % % % % % $ O           O O O O O O O O + + + O O O O O # # + + O + # # 6 q t t t t t q # # % % % % % %   = b T ^ ^ n E T T b b b n b T T b n T T T T b b n T n T n k 2 n 2 = = 1 1 1 1 3 3 = = 1 1 3 1 1 1 = 1 1 1 % $ % % % % % % % % % % % % % % % % % % % % % % % % & & & & & & & & i i > > > & % % % % % % % % % % # & & & & & > > s > & & & & % % % % % % > > > % & & % % % % % % % % % % % % % % % % % % % % % % % % % % $ $ % % % % % % % % % % $ $ $ $ $ $ % % & & & & & & & > i s d j j d p 8 & & % % % % $ $ % % % % % % % % % % % % % % % % $ $ $ % % % % % % % % % % % % % % % % % % > > % % % % % % % % % % $ # f E ! ! ! 4.6.6.6.7.7.6.6.6.7.*.O.V z g N v v M m f ; w k g g g g g g m m O.4.6.8.J.J.7.%.B m v m m W ! N O.7.F.7.4.! O.4.O.O.o.B N g g B B 2.6.J.U.E.H.,.@.g f f - - - - 1 f f g g f g g m m m W 4.J.J.6.W W E M b g f f g f - - = - - f f 2 f f f k v b v ! *.7.D.6.#.W ! W B W M k g g g f v N N N m N g z W *.*.-.7.J.R.W.J.F.7.3.2.2.2.3.3.3.3.3.#.~ ~ ^ W W E E E M b b M E N N M M b b b b b l l b g g g g k k n b l l b R Q W b n n b b b g f f f f 1 1 1 1 % % % % : : : : : : : : : % % > > % % : : : : : : % & & i i d x x H [ o.x d 8 * % % % % % % % & & & & > > & & & & & & > > > > > > > > & 8 8 8 i i i d p d j j j x j j j j i i > > & & & & > > & & & & i & i i p j j x j j j a i > > & > > : : > > > > & & & & > > > > > > > > > & & & > > > > : : : : > > > : : : & & > > > > > > : % : : > : % : > > > > > > > > > > > > > > > > > > ",
"B B B B B B B B B B B B m m m m m m m m m m B W W W B g ; ; q w q t g g g M N b - & $ $ % % % % : : : : : % % % : : : : : : : : : : % : : : : : : : : : : : : : : : : : % % % % & % O O O O O O   O O O O O O O + + + + + + @ @ # # + # O O # + # q t z m m t w # % % % % % % $ X n T T E T n T b b b b T b b b b n b T T b b b T T T 2 b n k 2 n 2 = = = 1 1 1 2 3 1 1 1 2 1 1 1 1 1 1 1 1 % $ % % % % % % % % % % % % % % % % % % % % % % % % & & & & % & & & > > > > & & % % % % % % % % % % & & & & & & & & > & & & & & % % % % % % : % % % % % % % % % $ $ % % % % % % % % % % % % % % % % % % % $ $ $ % % % % % % % % % % $ $ $ $ $ $ % % & & & & & & & & s s d j j p i 8 & & % % % % $ $ % % % % % % % % % $ $ $ $ $ % % $ $ $ % % % % $ % % % % % % % % % % % % % % % % % % % % % % % % % $ @ @ w k M N W #.*.4.7.4.*.O.o.B M z g r g W ! W N N M g r f g g g z g m m m B %.4.7.6.J.J.4.N m g m W ! ! N g W #.#.O.m N *.7.4.o.m g r w t B F.R.E.U.J.,.! W f f f = - f f f - f g k g g M m N O.*.6.8.2.B N N M v f f f f 1 = = 1 1 1 1 f 1 - - f b b g f E @.2.2.#.#.W N #.W M M M v g v g M N M k b M M M M W =.-.*.-.7.F.F.3.#.@.#.2.#.2.2.3.3.3.=.^ ^ N E E E E M R R E E E E E M M b b b b b b v v k g g g g g k k k R E W W b b b b T b k 2 f k k k k = $ % $ % % % % : : : : : : : : : % % : : & & > > % % : : : & & i i d j x x H o.o.x d * $ % % % % % % % % & & > > > & & & & & > > > > & > > > & & & & & > i i p d d j j j x j j j j j i > & > & & & > & & & & i & 8 i i p j j x j j j i i i > & & & & % & & & & & & > > > > > > > > > > > & & > > > > & & : : > > > > : : : > > > > > > > > : > > > > : : : : > > > > > > > > > > > > > > > > ",
"B B B B B B B B B B B B m m m g m m m m m m B O.W W N g ; ; q w q w w t v M b f % % $ % % % % % : : : : % % % % : : : : : : : : : : % % % % : : : : : : : : : : : : : : % % % % % & % O O O O O   O O O O O O O # # # # # # # # # # # + + O # # # 6 e m B B m r # % % % : % % $ 2 ^ E T ^ E T E b b b b T b n b n n T T b n n n T n b 2 n n n n n 2 = = = = = 1 3 1 = 1 1 1 1 3 1 1 1 1 1 1 % $ % % % % % % % % % % % % % % % % % % % % % % % % $ % % % % % & & > > > > & & % % % % % % % % % % & & & & & & & & > & & & & & % % % % % % % % % % % % % % % % $ $ % % % % % % % % % % % % % % % % % % % $ $ $ % % % % % % % % % % $ $ $ $ $ $ % % & & & > > > & & s s d j d i 8 * & & % % % % $ $ % % % % % % % % $ $ $ $ $ $ $ % $ $ $ % % % % $ % % % % % % % % % % % % % % % % % % % % % % % % $ % % @ # # w b W W W W #.7.F.6.#.o.M g g w g W W B M v b M g r v g g g z M m m m W %.$.$.J.L.J.! m v m W ! W v g v N W W M M ! 7.4.W g r r g z W O.6.6.,.O.@.^ E g f - - f g g f w r k k v N W O.O.#.2.2.#.W N N N b f f f g g f 1 1 f f 1 = - = # w k M b g f g v v v M v v v N M ! 2.2.#.N b N W #.W W W W E N M m N W O.o.O.*.2.2.2.#.=.#.=.2.3.3.2.~ ^ E M M W ~ ^ W W W W W E E M b b v b b b b b g f f f g g g g g b T b E E E b f f k b k k k k b k 1 = 1 % $ $ $ $ % : : : : : : : : : : : % % : : & & > > > % : : : : & & i i d x x x ..o.H j & * % % % % % % % % & & > > > > & & & & > > > > & & > > & & & & & & i i i p d d j j j x x x j j s i i > i & & & & & & & i & 8 8 i i s j j x x j j j d s & & & & & & & & & & & > > > > > > > > > > > > & > > > > & & > > > > > > : : : > : : : : > > > > > > > > : : : : % : : : > > > > > > > > > > > > ",
"B m m m m m B B B B B B m m z g t m m m m m B O.W W B t # q w w w q r v M g - % % % % % : : : : : : : % % % % % % % : : : : : : : % % % : % % : % % % : : % % % % % % % : : : : : : % % % % O $ O O O O O O O O @ # # # O O # # # # # # + + + + O # t B O.O.m ; @ % $ % % % % % = T b n T n n b T N n n T T T T T T b b n b b n n n b n T n k n n 2 - = = = = = = = 1 3 2 1 3 1 1 1 = 1 1 1 = $ % % % % % % % % % % % % % % % % % % % % % % % % $ $ % & & & & & > > & & & % % % % % $ O % % % % & & & % & & & & > & & & & & % % % % % % % % % % % % % $ % $ % % $ $ % % $ $ $ % % % % % % % % % $ $ $ $ % % $ $ $ $ % % % % % $ % % % % % % % % > > > > > > i i s s s i d i 8 & & & % % % % $ O % % % % $ $ % % % % % % $ $ $ $ % % $ % $ $ $ $ % % % % % % % % $ $ % % % % % $ % % % % % % $ $ $ % $ @ % # & # b b M l V o.7.J.F.*.W N m g r v M W B M g v N W B m m m m V V W m W O.B m #.4.*.#.! ! W N M b k g r w w k k k g @.W g s s w g g N v ! ! ! ! #.^ b f f k b E M l r f v N W B W O.#.$.2.4.#.N N E M b g g f f f s f f f 1 f - f f f w - w f g v N N N v t N ! ! ! m ! 2.7.2.! N M W W W N W ~ #.#.W M g g R W o.o.O.#.3.3.2.3.3.3.3.3.=.W T b n v E W ~ ~ W E R T b b l l b k k g g f f - ; - f k g f f k b E E E b n f f f g g f k G k k 3 % $ % % % % % % % % % : : : : : : : : : : % % % % % & % % : : : : : : % % & i p j x o.H H x x d & # & % % % % % % % % & > > > > & & & > > > & > > > > > > > > & & & & i i d d d j j x x x x j j d i 8 > > > & > > > > > > & & & i i s j j x x x j j j s s i & & & & & & & > > > > & & > > > > > > > > > > > > > > > % % : : : : : : : > > > > > > > > & & : : : > > : % % : > : : % % > > > > > > 1 1 ",
"B m m m m m m B m m m m m m g t t m m m m m B O.W W B t # q w q q q t b g 1 % % % % % % : : : : : : % % % % % % % % : : : : : : : : : : : : % : : % % : : : : : % % % % : : : : : : % % % % % $ O O O O O O O O @ @ + # O O # # # # # + + + + + @ w M O.#.O.m ; % % % % % % % % % b n n T T T T T b N N T T T T T T b b b b b n n n n n n n n b n 2 - = = = = = 1 = 1 2 3 = = 1 1 1 = 1 1 1 = $ % % % % % % % % % % % % % % % % % % % % % % % % $ $ & & & & & & > & & & % % % % % % $ O % % % % & & & % & & & & & & & & & & % % % % % % % % % % % % % $ $ % % % $ $ $ $ $ $ % % % % % % % % % % $ $ $ $ % % $ $ $ % % % % % % % % % % % % % % & > > > > > i i i d s s i i & & & & & % $ % $ $ $ % % % % $ $ % % % % $ % $ $ % $ % % % % $ $ $ $ % % % % % % % % $ $ % % % % % $ % % % % % % $ $ $ % $ $ % & % % # 1 f l x E o.#.7.*.#.@.*.@.N N v M B W M m W *.*.O.W W o.W V V r g M m m #.7.6.7.*.#.~ W N b g g f w w w f f f g v g s w w g M M #.*.W ~ ^ N W M f f g b N M M v M N W B B ! ! O.$.2.#.W M k k v g f w w w f k g g l l g f f f s w w w w g M ! 7.6.4.$.@.O.@.2.2.2.#.! b N ^ #.! N M M b E ~ #.M M N V W o.o.o.! 2.D.F.D.7.2.*.~ ^ M v n n n f b b M b g g f f g g k k k g g f - - f f f f f f f n T Q W E T b f f 1 f f f f f G k 3 % O $ % 1 % % % % % % % % : : : : : : : : : : % % % % % % % % : : > : : : % % > > i p j H [ H x x x s & & % % % % % % % % & & > > > > & & > > > > > > > > > > > > & & & & i i s d d d j j c x x x j j d i > > > & & & & & > > & & & & i s d d j x x x x x j j s i > & & & & & > > > > & & & & > > > > > > > > > > > > > % % % : : : : : : : : > > > > : : > & : : & > > > % % % % : : % & : : > > > > 1 > ",
"B m m m m m m m m m m m m m g t t m m m m m B O.B N N g ; w w ; q r t g - % % % % : : : : : : : % % % % % % % % % % % : : : : : : : : : : : : : : : : : : : : : % % % % : : : : : : % % % % % % $ # # @ @ O O O O O O + + + + # + + + + + + + + # g E ! @.N r # @ % % % % % % % 1 k n T T T T n N b N T T T T T T N b n n b n n n n n n n n n n n 2 - = 1 - = = = = = 3 2 = = 1 1 1 = = 1 1 % $ % % % % % % % % % % % % % % % % % % % % % % % % $ & & & & & & & & & & & % % $ $ % % $ O % % % % & & & % & & & & & & & & & & % % % % % % % % % % % % $ $ $ $ % % % % $ % $ $ $ $ % % % % % % % % $ $ % % % % $ $ % % % % % % % % % % % % % % & & > > > > i i s s s d s s i & & # & & % $ $ $ $ $ % % % % $ $ % % % X X X % % % % % X % X % % % $ % % % % % % % % $ $ % % % % % % $ $ $ $ $ $ $ $ X % % $ % : % % & & & s f g R W R W ~ #.2.#.~ W M v v m m g M @.6.#.o.O.O.W M g g g g g g M W W @.! W E M b k f f f f w ; - - w g g g r s s b ! ! #.^ M ^ W T E W v w w M N M m O.! O.! O.#.$.O.O.O.N g f g b b r g f f k M W ~ E E E E b k g g M M v g m B O.%.4.F.J.F.4.#.#.2.2.@.! N N #.2.7.! W N E N E W E M M N W W o.o.@.*.7.7.7.#.! N n v v b b M E E E b b b b b l l k k k k k f f f - f f f g f g g f n b E ^ W b f 1 - 2 2 2 - f f f 3 3 3 > 3 : % % % % % % % % % % : : : : : : : : : : % % % % % % % % : : : > : : : : & > i i p x x [ H H H j s & % % % % % % % % & & & > > > > & > > > > > > > > > > > > & & & & & i i i p p d j c c x x j j j s & > > & & & & & > > > & & & > > s d d j x x x x x j j d i 8 & & & & & & & & & & & & & & > > > > > > > > > > : % % % % % % % % : % % % % > > > : > : : : & & & > % % % % : % % % : : : % > > > > ",
"m m m g m z m m m m m m m g t t t m m m m m B O.N N N g ; w w ; ; r r ; @ % % % : : : : : : : : % % % % % % % % % % % : : : : : : : : : : : : : : : : : : : : : % % % % : : : : : : % % $ $ $ % @ # # # @ @ O O O O O + + + + + + + + + + + # + r M W N b w @ @ $ $ % % % % % % k n T T T T T n n n N T T T T N b T T T n b n n n n b n b n f n n 2 - = 2 1 - = = = = 1 2 = = 1 1 1 = 1 1 1 % $ % % % % % % % % % % % % % % % % % % % % % % % % & & & & & & & & & & & % % % $ $ % % $ O % % % % & & & % & & & & & & & & & & % % % % % % % % % % % % $ $ $ $ % % % % $ $ $ $ $ $ % % % % % % % % % % % % % % $ $ % % % % % % % % % % % % % & & > > > > > i i s s s d s s & * & & & & % $ O $ % % % % % % $ $ $ % % X X % % % % % % % % X % % % $ % % % % % % % % $ $ % % % % % % $ $ $ $ $ $ $ $ $ % % $ : : : % & & & & & w j l l M M N E N M M N N M m g g m #.7.@.N B W N g s r s g g M v M M M M E W b g g b f f f f @ # - - f f l g g b W 3.#.E M N b b T ^ W b g v M N m B ! O.#.$.4.6.6.4.B m t g g f r f M N ! @.! ~ ~ ~ W E M b E W ! #.#.#.O.W B #.4.7.6.6.4.#.2.*.2.2.! ! W M v N W W M N E N M M b b M M M E W o.o.@.@.O.W m v v n n E ^ #.#.~ E N b b b b R T b l k k k f f f f 1 f f f w - f g b b E E T b f 2 2 f 2 2 1 1 f f 1 % $ > 3 > % % % > % % % % % % % % : : : : : : : : : : % % % % % % % % : : : > > : : : % > & i p d x x H H H x j s & % % % % % % % % & & & s > > > & > > > > > > > > > > > & & & & & & i i i p p d j j j x j j j j i i > & & & & & & > > & & & & & i s d d x x x x H x j j d i 8 & & & & & & & & & & & & & > > > > > > > > > > : % % % % % % % % % % % % % : % % % : : : : & & > > % % % % : % % % : : : % % > > > ",
"m z m m m m m m m m m g z g t t t g m m m B W W B m v w ; ; ; ; w f ; # % $ % % % % : : : : : : : : % % % : : : : : : : : : : : : : : : : : : : : : : : : % % % : : : : : : % % % % % % % % % % @ O w w # # # # w + + + + + + + O O + + + + # # r w ; ; # % $ $ $ $ % % % X $ $ k b T M T T T T T ^ E T T T T T T T T T T b b b n b n n n n n n n 2 = = = = 1 = 1 = = 1 1 = = - 1 1 = 1 1 1 3 % % % % % % % % % % % % % % % % % % % % % % % % % & & & & > > > > & % $ $ % % % $ % % % % % % % & & & & & & & & % & & & & & % & & & & & & % % $ $ % % % % % % % % % % $ $ $ $ $ % % % % % % % % $ $ $ $ $ % % % % % % % % % % % % % % % > & & > > & & & & > i i i i i i i > > > > > & % % % $ $ $ $ $ % % % % % % $ $ % % % % % % % % % % % % % % % % $ $ $ $ $ $ % % % % % % % % % % % % $ $ $ $ % % % % % % % % % & & & > i s s # w w s b M N E N W N M v v g m @.o.W M l M g s w g g l v W B m g b M M b k f f f f f f - - - - f k k l M @.#.! W N v n b g b E v b N N B B B C B $.,.4.H.J.6.$.m m v v g r v ! 2.7.*.#.W E W E b v k k M M ! 4.7.8.6.$.$.$.<.4.6.4.#.O.! @.@.W N N N M f k v k b b b f f f f 1 f - f g x V V R o.R M g M N ^ @.#.#.~ E b b b b b b b l k f 1 1 2 f f 2 1 1 1 - - f f f b T M b b b g f f f f f 2 1 1 1 % % % % > > & > 3 > > : % % % % % % % % : : : : : : : : : % % % % % % % % % % : > > > > % % % > & > i p j x H o.x x x d i # % % % % % % & > & & > > s > > & & & & & & & & > > > > > > > & & i i i p p p d j j x x x x x j s i & > & & & > > > & > & & > i i i d j j x x H H H x x j d i i > & & > & & & & & & & > > > > > > & & & & & & > > % % % % % % % % % % > > & & & % : : : : : > > > > > > : : : % % % % % > > > ",
"m g m m m m m m m m m g g g t t t g m m m B W W B m v r ; ; ; ; w f - # % % % : : % : : : : : : : : % % % : : : : : : : : : : : : : % % : % : : : : : : % % : : : : : : : : : : % % % % % % % % @ # b E k g g g w 6 + + + + + O O O + + # + # # w # # @ @ $ % % $ $ % % % X $ $ k b T M T T T T T ^ E T T T T T T T T T T b b T n b n n n n n n n 2 = = = = 1 1 1 = = 1 1 = = = 1 1 = 1 1 1 3 % % % % % % % % % % % % % % % % % % % % % % % % % & & & & & > > > & % % $ % % % $ % % % % % % % & & & & & & & & % % & & & % % & & & & & & % % $ $ % % % % % % % % % % $ $ $ $ $ $ % % % % % % $ $ $ $ $ $ % % % % % % % % % % % % % % % > & & > > & & & & > i i i i i i i > > > > > & % % % $ X % $ $ % $ % % % % $ % % % % % % % % % % % % % % % % % $ $ $ $ % $ % % % % % % % % % % % % $ $ $ $ % % % % % % % % % % & & > i s s & & # & w g b E N N N M M M M m W N M g l M g s s M k l v W B m g g M b b k f 1 f f f f - - - - s k g b W #.#.W N M f v g f b b k b N B W B B } ,.6.6.7.8.7.%.N v v g g k g N #.D.7.@.N M M M b k k f f g v B ,.6.e.8.4.$.$.<.4.,.O.B N N N N M N N N M f k b k g g g f - w 1 = = - s l x x V V V V R W @.! W ! ^ N M k g g g g l g g f f 1 1 1 f f f f 1 1 1 1 - f f f b T M b b g f 1 f f f f f = = % % % % % > > & > 3 > > : % % % % % % % % : : : : : : : : % % % % % % % % % % % % > > > > % % % & & & i i d x H H x x x j s & $ % % % % % : : & & > > s > > & & & & & & & & > > > > > > > & & i i i p p p d j j x x x x x j s i & > & & & & > > & > & & > i i i d j j x x x x H H H j j d i > & & > & & & & & & & > > > > > > & & & & & & > > % % % % % % % % % % > > > & & : : : : : : > > > > > > > : : % % % % % % > > "
};
