/* XPM */
static char *result[] = {
/* columns rows colors chars-per-pixel */
"288 64 2 1 ",
"  c #2E5A89",
". c None",
/* pixels */
"................................................................................................................................................................................................................................................................................................",
"................................................................................................................................................................................................................................................................................................",
"..........................................   ...................................................................................................................................................................................................................................................",
".........................................     ...   ............................................................................................................................................................................................................................................",
"........................................      .      .......................................................................................................................................................................................................................   .................",
"........................................              .....................................................................................................................................................................................................................     ................",
"........................................              .................................................................................................................................................................................................................   .       ..............",
".......................................              ................................................................................   ..............................................................................................................................               ...........",
".........................   ........                .   ............................................................................      ...........................................................................................................................                 ..........",
"........................     ..   .                      .....   ..................................................................        .......................................................................................................   ...........    .                    .......",
"..............     ....                                  ..       .    ......................................................    ..         .................................................................................   ..............        .........                           ......",
".............       ...                                  .              ....................................................      .         ...........................................................................    .     ......   ...             ....                            ......",
"............         .                                                   ....   ...........................................                 ...   ....................................................................            ....     .               ...                            ......",
"............                                                               .     .    .....................................                .       ..................................................................             ...                       .                            .  ....",
"............                                                                           .................................   .                        ...........................................................   .                ..                                                        ...",
" ............                                                                           ...............................                              ........................................................                      .                                                         .  ",
"  ....      ..                                                                          .....   .......................                              .......................................................                      .                                                             ",
"   ..                                                                                  .   .     ......................                              ......................................................                                                                                     ",
"   .                                                                                              .....................                              .....................................................                                                                                      ",
"                                                                                                   .....................                            ...................................................                                                                                         ",
"                                                                                                   ...................                                ................................................                                                                                          ",
"                                                                                                   ..................                                  .   ...........................................                                                                                          ",
"                                                                                                   .   ........    ..                                       ..........................................                                                                                          ",
"                                                                                                  .     .   .       .                                        ..   ..................................  .                                                                                         ",
"                                                                                                                                                             .     ................................                                                                                             ",
"                                                                                                                                                                    ..............................                                                                                              ",
"                                                                                                                                                                    ........    ..................                                                                                              ",
"                                                                                                                                                                    .......      .    ........   .                                                                                              ",
"                                                                                                                                                                   .    ..             ......                                                                                                   ",
"                                                                                                                                                                                       .....                                                                                                    ",
"                                                                                                                                                                                         ...                                                                                                    ",
"                                                                                                                                                                                           .                                                                                                    ",
"                                                                                                                                                                                            .                                                                                                   ",
"                                                                                                                                                                                                                                                                                                ",
"                                                                                                                                                                                                                                                                                                ",
"                                                                                                                                                                                                                                                                                                ",
"                                                                                                                                                                                                                                                                                                ",
"                                                                                                                                                                                                                                                                                                ",
"                                                                                                                                                                                                                                                                                                ",
"                                                                                                                                                                                                                                                                                                ",
"                                                                                                                                                                                                                                                                                                ",
"                                                                                                                                                                                                                                                                                                ",
"                                                                                                                                                                                                                                                                                                ",
"                                                                                                                                                                                                                                                                                                ",
"                                                                                                                                                                                                                                                                                                ",
"                                                                                                                                                                                                                                                                                                ",
"                                                                                                                                                                                                                                                                                                ",
"                                                                                                                                                                                                                                                                                                ",
"                                                                                                                                                                                                                                                                                                ",
"                                                                                                                                                                                                                                                                                                ",
"                                                                                                                                                                                                                                                                                                ",
"                                                                                                                                                                                                                                                                                                ",
"                                                                                                                                                                                                                                                                                                ",
"                                                                                                                                                                                                                                                                                                ",
"                                                                                                                                                                                                                                                                                                ",
"                                                                                                                                                                                                                                                                                                ",
"                                                                                                                                                                                                                                                                                                ",
"                                                                                                                                                                                                                                                                                                ",
"                                                                                                                                                                                                                                                                                                ",
"                                                                                                                                                                                                                                                                                                ",
"                                                                                                                                                                                                                                                                                                ",
"                                                                                                                                                                                                                                                                                                ",
"                                                                                                                                                                                                                                                                                                ",
"                                                                                                                                                                                                                                                                                                "
};
