/* XPM */
static char *result[] = {
/* columns rows colors chars-per-pixel */
"288 100 2 1 ",
"  c #34355F",
". c None",
/* pixels */
"................................................................................................................................................................................................................................................................................................",
"........................................................................................................................................................................................................................................................    ....................................",
".......................................................................................................................................................................................................................................................       ..................................",
"......................................................................................................................................................................................................................................................         .................................",
".....................................................................................................................................................................................................................................................           ..      ........................",
".....................................................................................................................................................................................................................................................           .        .......................",
".....................................................................................................................................................................................................................................................                     ......................",
"......................................................................................................................................................................................................................................................                    ......................",
".....................................................................................................................................................................................................................................................                    .   ...................",
"...................................................................................................................................................................................................................................................                           ..................",
"..................................................................................................................................................................................................................................................                            ..................",
".................................................................................................................................................................................................................................................                               ................",
".................................................................................................................................................................................................................................................                                ...............",
".................................................................................................................................................................................................................................................                                 ..............",
"..................................................................................................................................................................................................................................................                                ..    ........",
"...................................................................................................................................................................................................................................................                               .        .....",
"................................................................................................................................................................................................................................................   .                                        ....",
"...............................................................................................................................................................................................................................................                                              ...",
"....................................................................................   ....................................................................................................................................................                                                   ..",
"..............................................................................   ..     ..................................................................................................................................................                                                    ..",
"....................   ......................................................            ...................................................................................................................................   ..........                                                     ..",
"...................     ....................................................                ...............................................................................................................................      ........                                                    ...",
"..................       .   ...............................................                 ..........................................................................................................................           .......                                                   .   ",
"  ...............             ..   .........................................                  ........................................................................................................................             .......                                                      ",
"   ...........                      ........   .........................   .                  .....................................................................................................................                ........                                                     ",
"    ...   ...                        ......       .....................     .                 ....................................................................................................................                .   ....                                                      ",
"    .      .                          ....         ...................                        ..................................................................    .............................................                      .                                                        ",
"                                         .          ..   ............                        ..................................................................      ............................................                                                                               ",
"                                          .               ...........                         ..............................................................  .       ...........................................                                                                               ",
"                                                           .......   .                           .....    .................................................            ...........................................                                                                              ",
"                                                           ......                                 ...      ...............................................              ...   ....................................                                                                              ",
"                                                           ......                                  .        ..............................................              ..     ...................................                                                                              ",
"                                                          ......                                   .         .............................................              .        ................................                                                                               ",
"                                                          .   ..                                  .          ............................................              .          ..............................                                                                                ",
"                                                                .                                            .........................................                             .............................                                                                                ",
"                                                                                                             ........................................                              .............   .............                                                                                ",
"                                                                                                            .    ...................................                                  .........      ............                                                                               ",
"                                                                                                                  ....   ...........................                                   .......        .........  .                                                                              ",
"                                                                                                                   .      ..........................                                    .    .        .   ...     .                                                                             ",
"                                                                                                                           .........................                                                       .                                                                                    ",
"                                                                                                                           .....................    .                                                                                                                                           ",
"                                                                                                                            .     ............                                                                                                                                                  ",
"                                                                                                                                   ..........                                                                                                                                                   ",
"                                                                                                                                    ....   .                                                                                                                                                    ",
"                                                                                                                                     ..                                                                                                                                                         ",
"                                                                                                                                     .                                                                                                                                                          ",
"                                                                                                                                    .                                                                                                                                                           ",
"                                                                                                                                                                                                                                                                                                ",
"                                                                                                                                                                                                                                                                                                ",
"                                                                                                                                                                                                                                                                                                ",
"                                                                                                                                                                                                                                                                                                ",
"                                                                                                                                                                                                                                                                                                ",
"                                                                                                                                                                                                                                                                                                ",
"                                                                                                                                                                                                                                                                                                ",
"                                                                                                                                                                                                                                                                                                ",
"                                                                                                                                                                                                                                                                                                ",
"                                                                                                                                                                                                                                                                                                ",
"                                                                                                                                                                                                                                                                                                ",
"                                                                                                                                                                                                                                                                                                ",
"                                                                                                                                                                                                                                                                                                ",
"                                                                                                                                                                                                                                                                                                ",
"                                                                                                                                                                                                                                                                                                ",
"                                                                                                                                                                                                                                                                                                ",
"                                                                                                                                                                                                                                                                                                ",
"                                                                                                                                                                                                                                                                                                ",
"                                                                                                                                                                                                                                                                                                ",
"                                                                                                                                                                                                                                                                                                ",
"                                                                                                                                                                                                                                                                                                ",
"                                                                                                                                                                                                                                                                                                ",
"                                                                                                                                                                                                                                                                                                ",
"                                                                                                                                                                                                                                                                                                ",
"                                                                                                                                                                                                                                                                                                ",
"                                                                                                                                                                                                                                                                                                ",
"                                                                                                                                                                                                                                                                                                ",
"                                                                                                                                                                                                                                                                                                ",
"                                                                                                                                                                                                                                                                                                ",
"                                                                                                                                                                                                                                                                                                ",
"                                                                                                                                                                                                                                                                                                ",
"                                                                                                                                                                                                                                                                                                ",
"                                                                                                                                                                                                                                                                                                ",
"                                                                                                                                                                                                                                                                                                ",
"                                                                                                                                                                                                                                                                                                ",
"                                                                                                                                                                                                                                                                                                ",
"                                                                                                                                                                                                                                                                                                ",
"                                                                                                                                                                                                                                                                                                ",
"                                                                                                                                                                                                                                                                                                ",
"                                                                                                                                                                                                                                                                                                ",
"                                                                                                                                                                                                                                                                                                ",
"                                                                                                                                                                                                                                                                                                ",
"                                                                                                                                                                                                                                                                                                ",
"                                                                                                                                                                                                                                                                                                ",
"                                                                                                                                                                                                                                                                                                ",
"                                                                                                                                                                                                                                                                                                ",
"                                                                                                                                                                                                                                                                                                ",
"                                                                                                                                                                                                                                                                                                ",
"                                                                                                                                                                                                                                                                                                ",
"                                                                                                                                                                                                                                                                                                ",
"                                                                                                                                                                                                                                                                                                ",
"                                                                                                                                                                                                                                                                                                ",
"                                                                                                                                                                                                                                                                                                ",
"                                                                                                                                                                                                                                                                                                ",
"                                                                                                                                                                                                                                                                                                ",
"                                                                                                                                                                                                                                                                                                ",
"                                                                                                                                                                                                                                                                                                ",
"                                                                                                                                                                                                                                                                                                ",
"                                                                                                                                                                                                                                                                                                ",
"                                                                                                                                                                                                                                                                                                ",
"                                                                                                                                                                                                                                                                                                ",
"                                                                                                                                                                                                                                                                                                ",
"                                                                                                                                                                                                                                                                                                ",
"                                                                                                                                                                                                                                                                                                ",
"                                                                                                                                                                                                                                                                                                ",
"                                                                                                                                                                                                                                                                                                ",
"                                                                                                                                                                                                                                                                                                ",
"                                                                                                                                                                                                                                                                                                ",
"                                                                                                                                                                                                                                                                                                ",
"                                                                                                                                                                                                                                                                                                ",
"                                                                                                                                                                                                                                                                                                ",
"                                                                                                                                                                                                                                                                                                ",
"                                                                                                                                                                                                                                                                                                ",
"                                                                                                                                                                                                                                                                                                ",
"                                                                                                                                                                                                                                                                                                ",
"                                                                                                                                                                                                                                                                                                "
};
