/* XPM */
static char *_85d55ae532940fbfda5197915fac0bbBlsku2ZxDetY7FYj[] = {
/* columns rows colors chars-per-pixel */
"256 1632 18 1 ",
"  c None",
". c #222034",
"X c #663931",
"o c #962424",
"O c #AC3232",
"+ c #BE5D1B",
"@ c #8F563B",
"# c #CF651D",
"$ c #DF7126",
"% c #D37878",
"& c #A5A2BA",
"* c #DBA0A0",
"= c #D8BBA7",
"- c #EBBEA1",
"; c #E9C9B3",
": c #F4E8E8",
"> c #F9F5F5",
", c white",
/* pixels */
"                                                                                                                                                                                                                                                                ",
"                                                                                                                                                                                                                                                                ",
"                                                                                                                                                                                                                                                                ",
"                                                                                                                                                                                                                                                                ",
"                                                                                                                                                                                                                                                                ",
"                                                                                                                                                                                                                                                                ",
"                                                                                                                                                                                                                                                                ",
"                                                                                                                                                                                                                                                                ",
"                                                                                                                                                                                                                                                                ",
"                                                                                                                                                                                                                                                                ",
"                                                                                                                                                                                                                                                                ",
"                                                                                                                                                                                                                                                                ",
"                                                                                                                                                                                                                                                                ",
"                                                                                                                                                                                                                                                                ",
"                                                                                                                                                                                                                                                                ",
"                                                                                                                                                                                                                                                                ",
"                 . .                                                                                                                             . .                                                                                                            ",
"                .#.+.                            . .                                                                                            .#.+.                            . .                                                                            ",
"               .#=#...                          .#.+.                            . .                             . .                           .#=#...                          .#.+.                            . .                             . .            ",
"               .######.                        .#=#...                          .#.+.                           .#.+..                         .######.                        .#=#...                          .#.+.                           .#.+..          ",
"               .#######.                       .######.                        .#=#...                         .#=#..#.                        .#######.                       .######.                        .#=#...                         .#=#..#.         ",
"               .#######.                       .#######.                       .######.                        .#######.                       .#######.                       .#######.                       .######.                        .#######.        ",
"               .#####.#.                       .#######.                       .#######.                       .#######.                       .#####.#.                       .#######.                       .#######.                       .#######.        ",
"               .######=.                       .#####.#.                       .#######.                       .#####.#.                       .######=.                       .#####.#.                       .#######.                       .#####.#.        ",
"               .#####==.                       .######=.                   .   .#####.#.                    .  .######=.                   .   .#####==.                   .   .######=.                       .#####.#.                       .######=.        ",
"                .+++++.                        .#####==.                  .=.  .######=.                   .=. .#####==.                  .=.   .+++++.                   .=.  .#####==.                       .######=.                       .#####==.        ",
"               .=++++=.                 ...     .++++=.                   .$.  .#####==.                   .$.  .++++=.                    .$. .=++++=.                   .$.   .++++=.                 ...    .#####==.                        .++++=.         ",
"         ..    .=+++==.                .=$$.   .=+++==.                   .$.  .=+++==.                    .$. .=+++==.                    .$. .=+++==.                   .$.  .=+++==.                .=$$.   .=+++==.                 ...    .=+++==.         ",
"        .$$.  .=++++==.                 ...$. .=++++==.                   .$. .=++++==.                    .$..=++++==.                    .$..=++++==.                   .$. .=++++==.                 ...$. .=++++==.                .=$$.  .=++++==.         ",
"       .=..$..++.++===.                    .$.++.++===.                    .$.++.++===.                    .$.++.++===.                    .$.++.++===.                    .$.++.++===.                    .$.++.++===.                 ...$..++.++===.         ",
"        .  .+++.++++.+.                    .+++.++++.+.                    .+++.++++.+.                    .+++.++++.+.                    .+++.++++.+.                    .+++.++++.+.                    .+++.++++.+.                    .+++.++++.+.         ",
"            .+++...+.+.                     .+++...+.+.                     .+++...+.+.                     .+++...+.+.                     .+++...+.+.                     .+++...+.+.                     .+++...+.+.                     .+++...+.+.         ",
"                                                                                                                                                                                                                                                                ",
"                                                                                                                                                                                                                                                                ",
"                                                                                                                                                                                                                                                                ",
"                                                                                                                                                                                                                                                                ",
"                                                                                                                                                                                                                                                                ",
"                                                                                                                                                                                                                                                                ",
"                                                                                                                                                                                                                                                                ",
"                                                                                                                                                                                                                                                                ",
"                                                                                                                                                                                                                                                                ",
"                                                                                                                                                                                                                                                                ",
"                                                                                                                                                                                                                                                                ",
"                                                                                                                                                                                                                                                                ",
"                                                                                                                                                                                                                                                                ",
"                                                                                                                                                                                                                                                                ",
"                                                                                                                                                                                                                                                                ",
"                                                                                                                                                                                                                                                                ",
"                 . .                             . .                                                                                                                                                             . .                             . .            ",
"                .#.+.                           .#.+.                            . .                             . .                             . .                             . .                            .#.+.                           .#.+.           ",
"               .#=#...                         .#=#...                          .#.+.                           .#.+.                           .#.+.                           .#.+.                          .#=#...                         .#=#...          ",
"               .######.                        .######.                        .#=#...                         .#=#...                         .#=#...                         .#=#...                         .######.                        .######.         ",
"               .#######.                       .#######.                       .######.                        .######.                        .######.                        .######.                        .#######.                       .#######.        ",
"               .#######.                       .#######.                       .#######.                       .#######.                       .#######.                       .#######.                       .#######.                       .#######.        ",
"               .#####.#.                       .#####.#.                       .#######.                       .#######.                       .#######.                       .#######.                       .#####.#.                       .#####.#.        ",
"               .######=.                       .######=.                       .#####.#.                       .#####.#.                       .#####.#.                       .#####.#.                       .######=.                       .######=.        ",
"               .#####==.                       .#####==.                       .######=.                       .######=.                       .######=.                       .######=.                       .#####==.                       .#####==.        ",
"                .+++++.                         .+++++.                        .#####==.                       .#####==.                       .#####==.                       .#####==.                        .+++++.                         .+++++.         ",
"               .=++++=.                        .=++++=.                         .+++++.                         .+++++.                         .+++++.                         .+++++.                        .=++++=.                        .=++++=.         ",
"               .=+++==.                        .=+++==.                        .=++++=.                        .=++++=.                        .=++++=.                        .=++++=.                        .=+++==.                        .=+++==.         ",
"              .=++++==.                       .=++++==.                       .=++++==.                       .=++++==.                 .     .=++++==.                 .     .=++++==.                       .=++++==.                       .=++++==.         ",
"            ..++.++===.                     ..++.++===.                .    ..+++++===.                . .. ..+++++===.                .=.  ..+++++===.                .=.....+++++===.                . .. ..++.++===.                .    ..++.++===.         ",
"       .....+++.++++.+.                .....+++.++++.+.               .=....+++.++++.+.               .=.$$.+++.++++.+.                 .$..+++.++++.+.                 .$$$+++.++++.+.               .=.$$.+++.++++.+.               .=....+++.++++.+.         ",
"      .=$$$+.+++...+.+.               .=$$$+.+++...+.+.                .$$$+.+++...+.+.                .$..+.+++...+.+.                  .$+.+++...+.+.                  ....+++...+.+.                .$..+.+++...+.+.                .$$$+.+++...+.+.         ",
"                                                                                                                                                                                                                                                                ",
"                                                                                                                                                                                                                                                                ",
"                                                                                                                                                                                                                                                                ",
"                                                                                                                                                                                                                                                                ",
"                                                                                                                                                                                                                                                                ",
"                                                                                                                                                                                                                                                                ",
"                                                                                                                                                                                                                                                                ",
"                                                                                                                                                                                                                                                                ",
"                                                                                                                                                                                                                                                                ",
"                                                                                                                                                                                                                                                                ",
"                                                                                                                                                                                                                                                                ",
"                                                                                                                                                                                                                                                                ",
"                                                                                                                                                                                                                                                                ",
"                                                                                                                                                                                                                                                                ",
"                                                                                                                                                                                                                                                                ",
"                                                                                                                                                                                                                                                                ",
"                                                                                                                                                                                                                                                                ",
"                                                                                                                                                                                                                                                                ",
"                                                  . .                             . .                                                             . .                             . .                             . .                             . .           ",
"                                                 .#.+.                           .#.+.                                                           .#.+.                           .#.+.                           .#.+.                           .#.+.          ",
"                  . .                           .#=#...                         .#=#...                             .                           .#=#...                         .#=#...                         .#=#...                         .#=#...         ",
"                 .#.+..                         .######.                        .######.                         ...+..                         .######.                        .######.                        .######.                        .######.        ",
"                .#=#.##.                        .#######.                       .#######.                       .#=#.##.                        .#######.                       .#######.                       .#######.                       .#######.       ",
"                .#######.                       .#######.                       .#######.                       .#######.                       .#######.                       .#######.                       .#######.                       .#######.       ",
"                .#######.                      .######.#.                      .######.#.                       .#######.                      .######.#.                      .######.#.             ..       .######.#.             .        .######.#.       ",
"               .######.#.                     ..#######=.                     ..#######=.                      .######.#.              .....  ..#######=.              ....   ..#######=.            .=#..    ..#######=.            .=...    ..#######=.       ",
"      .       ..#######=.                .....==..####==.             ..  ....==..####==.                     ..#######=.             .=$$++..==..####==.             .=##+...==..####==.             ..##....==..####==.             .###....==..####==.       ",
"     .=.......==..####==.              ..#+++==+++++++..             .=#..+++==+++++++..                ......==..####==.              ....++==+++++++..               ...+++==+++++++..                ..+++==+++++++..               ...+++==+++++++..        ",
"      .###+++==+++++++..              .##..++++++++==.                ..##.++++++++==.                ..##+++==+++++++..                   .+++++++==.                    .++++++++==.                    .++++++++==.                    .++++++++==.          ",
"       ....++++++++==.               .=..  .++++++==.                   .. .++++++==.                .=#...++++++++==.                     .++++++==.                      .++++++==.                      .++++++==.                      .++++++==.           ",
"           .++++++==.                 .    .++...+.#.                      .++...+.#.                 ..   .++++++==.                      .++...+.#.                      .++...+.#.                      .++...+.#.                      .++...+.#.           ",
"           .+#.+.+.#.                      .#.. .+.#.                      .#.. .+.#.                      .+#.+.+.#.                      .#.. .+.#.                      .#.. .+.#.                      .#.. .+.#.                      .#.. .+.#.           ",
"                                                                                                                                                                                                                                                                ",
"                                                                                                                                                                                                                                                                ",
"                                                                                                                                                                                                                                                                ",
"                                                                                                                                                                                                                                                                ",
"                                                                                                                                                                                                                                                                ",
"                                                                                                                                                                                                                                                                ",
"                                                                                                                                                                                                                                                                ",
"                                                                                                                                                                                                                                                                ",
"                                                                                                                                                                                                                                                                ",
"                                                                                                                                                                                                                                                                ",
"                                                                                                                                                                                                                                                                ",
"                                                                                                                                                                                                                                                                ",
"                                                                                                                                                                                                                                                                ",
"                                                                                                                                                                                                                                                                ",
"                                                                                                                                                                                                                                                                ",
"                                                                                                                                                                                                                                                                ",
"                                                                                                                                                                                                                                                                ",
"                                                                                                                                                                                                                                                                ",
"                                                                                                                  . .                                                                                                                             . .           ",
"                  . .                                                               .                            .#.+.                            . .                                                             . .                            .#.+.          ",
"                 .#.+.                            . .                             ..+.                          .#=#...                          .#.+.                            . .                            .#.+.                          .#=#...         ",
"                .#=#...                          .#.+.                           .##...                         .######.                 .      .#=#...                          .#.+.                          .#=#...                         .######.        ",
"                .######.                        .#=#...                         .#=####.                .       .#######.               .=.     .######.                .       .#=#...                         .######.                        .#######.       ",
"                .#######.                       .######.                        .#######.              .=.      .#######.               .$.     .#######.              .=.      .######.                        .#######.                       .#######.       ",
"                .#######.             .         .#######.             ..        .#######.              .$.     .######.#.               .$.     .#######.              .$.      .#######.             ..        .#######.             .        .######.#.       ",
"               .######.#.            .=...      .#######.            .=#..     .######.#.              .$+.   ..#######=.               .$+.   .######.#.              .$+.     .#######.            .=#..     .######.#.            .=...    ..#######=.       ",
"       .........#######=.             .###......######.#.             ..##......#######=.               .++...==..####==.                .++....#######=.               .++.....######.#.             ..##......#######=.             .###....==..####==.       ",
"      .###+++===..####==.              ...+++==.#######=.               ..+++===..####==.                .+++==+++++++..                  .++===..####==.                .+++==.#######=.               ..+++===..####==.              ...+++==+++++++..        ",
"     .=....+++=+++++++..                  .++++=+++++##.                  .+++=+++++++..                  .++++++++==.                     .++=+++++++..                  .+++==..####==.                 .+++=+++++++..                  .++++++++==.          ",
"      .    .++++++===.                     .++++++++=..                    .++++++===.                     .++++++==.                      .++++++===.                     .++++++++++..                   .++++++===.                     .++++++==.           ",
"           .++...+.#.                      .++...+.+.                      .++...+.#.                      .++...+.#.                      .++...+.+.                      .++...+.+=.                     .++...+.+.                      .++...+.#.           ",
"           .#.. .+.#.                      .#.. .+.#.                      .#.. .+.#.                      .#.. .+.#.                      .#.. .+.#.                      .#.. .+.#.                      .#.. .+.#.                      .#.. .+.#.           ",
"                                                                                                                                                                                                                                                                ",
"                                                                                                                                                                                                                                                                ",
"                                                                                                                                                                                                                                                                ",
"                                                                                                                                                                                                                                                                ",
"                                                                                                                                                                                                                                                                ",
"                                                                                                                                                                                                                                                                ",
"                                                                                                                                                                                                                                                                ",
"                                                                                                                                                                                                                                                                ",
"                                                                                                                                                                                                                                                                ",
"                                                                                                                                                                                                                                                                ",
"                                                                                                                                                                                                                                                                ",
"                                                                                                                                                                                                                                                                ",
"                                                                                                                                                                                                                                                                ",
"                                                                                                                                                                                                                                                                ",
"                                                                                                                                                                                                                                                                ",
"                                                                                                                                                                                                                                                                ",
"                                                                                                                                                                                                                                                                ",
"                                                                                                                                                                                                                                                                ",
"                                                                                  . .                             . .                                                                                             . .                             . .           ",
"                  . .                             . .                            .#.+.                           .#.+.                            . .                             . .                            .#.+.                           .#.+.          ",
"                 .#.+.                           .#.+.                          .#=#...                         .#=#...                          .#.+.                           .#.+.                          .#=#...                         .#=#...         ",
"                .#=#...                         .#=#...                         .######.                        .######.                        .#=#...                         .#=#...                         .######.                        .######.        ",
"                .######.                        .######.                        .#######.                       .#######.                       .######.                        .######.                        .#######.                       .#######.       ",
"                .#######.                       .#######.             .         .#######.                       .#######.                       .#######.                       .#######.                       .#######.                       .#######.       ",
"                .#######.                       .#######.            .=...     .######.#.             .        .######.#.                       .#######.                       .#######.                      .######.#.                      .######.#.       ",
"               .######.#.            .....     .######.#.             .###..  ..#######=.            .=...    ..#######=.             .        .######.#.                      .######.#.                     ..#######=.                     ..#######=.       ",
"         .......#######=.           .=###+......#######=.              ...++..==..####==.             .###....==..####==.            .=.........#######=.             ..........#######=.              .......==..####==.               ......==..####==.       ",
"      ...++++===..####==.            .....+++===..####==.                 .++==+++++++..               ...+++==+++++++..              .###+++===..####==.            .=###+++===..####==.             .###+++==+++++++..              ..##+++==+++++++..        ",
"     .=##..+++=+++++++..                  .+++=+++++++..                  .+++++++++=.                    .+++++++++=.                 ....+++=+++++++..              .....+++=+++++++..             .=....++++++++++.               .=#...++++++++++.          ",
"      ...  .++++++++=.                    .++++++++==.                    .+.++++++=.+.                   .+.++++++=.                     .++.+++++==.                   ..+.++++++++.                .  ..+.+++++++++.               ..  .++++++++++.          ",
"          .+.......+.                    .+........+.                    .+........+..+.                  ..+....++...                    ...+...+.=.                   .+..+.......++.                 .+.++........++.                  .++........+.         ",
"         .+. .+.+. .+.                  .+. .+.   .+.                      .+.   .+.                      .+.   .+. .+.                  .+. .+.+. .+.                  .+. .+.   .+.                      .+.   .+.                      .+.   .+. .+.         ",
"                                                                                                                                                                                                                                                                ",
"                                                                                                                                                                                                                                                                ",
"                                                                                                                                                                                                                                                                ",
"                                                                                                                                                                                                                                                                ",
"                                                                                                                                                                                                                                                                ",
"                                                                                                                                                                                                                                                                ",
"                                                                                                                                                                                                                                                                ",
"                                                                                                                                                                                                                                                                ",
"                                                                                                                                                                                                                                                                ",
"                                                                                                                                                                                                                                                                ",
"                                                                                                                                                                                                                                                                ",
"                                                                                                                                                                                                                                                                ",
"                                                                                                                                                                                                                                                                ",
"                                                                                                                                                                                                                                                                ",
"                                                                                                                                                                                                                                                                ",
"                                                                                                                                                                                                                                                                ",
"                                                                                                                                                                                                                                                                ",
"                                                                                                                                                                                                                                                                ",
"                                                                                                                  . .                                                                                             . .                             . .           ",
"                  . .                             . .                             . .                            .#.+.                            . .                             . .                            .#.+.                           .#.+.          ",
"                 .#.+.                           .#.+.                           .#.+..                         .#=#...                          .#.+.                           .#.+.                          .#=#...                         .#=#...         ",
"                .#=#...                         .#=#...                         .#=#.##.                        .######.                        .#=#...                         .#=#...                         .######.                        .######.        ",
"                .######.                        .######.                        .#######.                       .#######.                       .######.                        .######.                        .#######.                       .#######.       ",
"                .#######.                       .#######.             .         .#######.                       .#######.                       .#######.                       .#######.                       .#######.                       .#######.       ",
"                .#######.            ....       .#######.            .=...     .######.#.             .        .######.#.                       .#######.                       .#######.                      .######.#.                      .######.#.       ",
"      ...      .######.#.           .=###.     .######.#.             .###..  ..#######=.            .=...    ..#######=.             .        .######.#.                      .######.#.             .       ..#######=.                     ..#######=.       ",
"     .=##.......#######=.            ....+......#######=.              ...++..==..####==.             .###....==..####==.            .=.........#######=.             ..........#######=.            .=.......==..####==.             ........==..####==.       ",
"      ...++++===..####==.                .+++===..####==.                 .++==+++++++..               ...+++==+++++++..              .###+++===..####==.            .=###+++===..####==.             .###+++==+++++++..             .=###+++==+++++++..        ",
"         ..+++=+++++++..                  .+++=+++++++..                  .+++++++++=.                    .+++++++++=.                 ....+++=+++++++..              .....+++=+++++++..               ....++++++++++.                .....++++++++++.          ",
"           .++++++++=.                    .++++++++==.                    .+.++++++=.+.                   .+.++++++=.                     .++.+++++==.                   ..+.++++++++.                   ..+.+++++++++.                   .++++++++++.          ",
"          .+.......+.                    .+........+.                    .+........+..+.                  ..+....++...                    ...+...+.=.                   .+..+.......++.                 .+.++........++.                  .++........+.         ",
"         .+. .+.+. .+.                  .+. .+.   .+.                      .+.   .+.                      .+.   .+. .+.                  .+. .+.+. .+.                  .+. .+.   .+.                      .+.   .+.                      .+.   .+. .+.         ",
"                                                                                                                                                                                                                                                                ",
"                                                                                                                                                                                                                                                                ",
"                                                                                                                                                                                                                                                                ",
"                                                                                                                                                                                                                                                                ",
"                                                                                                                                                                                                                                                                ",
"                                                                                                                                                                                                                                                                ",
"                                                                                                                                                                                                                                                                ",
"                                                                                                                                                                                                                                                                ",
"                                                                                                                                                                                                                                                                ",
"                                                                                                                                                                                                                                                                ",
"                                                                                                                                                                                                                                                                ",
"                                                                                                                                                                                                                                                                ",
"                                                                                                                                                                                                                                                                ",
"                                                                                                                                                                                                                                                                ",
"                                                                                                                                                                                                                                                                ",
"                                                                                                                                                                                                                                                                ",
"                                                                                                                                                                                                                                                                ",
"                                                                                                                                                                                                                                                                ",
"                  . .                                                                                             . .                                                                                                                                           ",
"                 .#.+.                            . .                             . .                            .#.+.                                                                                                                                          ",
"                .#=#...                          .#.+.                           .#.+..                         .#=#...                                                                                                                                         ",
"                .######.                        .#=#...                         .#=#.##.                        .######.                                                                                                                                        ",
"                .#######.                       .######.              .         .#######.                       .#######.                                                                                                                                       ",
"                .#######.                       .#######.            .=...      .#######.                       .#######.                                                                                                                                       ",
"                ######.#.            ....       .#######.             .###..   .######.#.             .        .######.#.                                                                                                                                       ",
"      ...      .#######=.           .=###.     .######.#.              ...++....#######=.            .=...    ..#######=.                                                                                                                                       ",
"     .=##.........####==.            ....+......#######=.                 .++===..####==.             .###....==..####==.                                                                                                                                       ",
"      ...++++===++++++..                 .+++===..####==.                 .+++=+++++++..               ...+++==+++++++..                                                                                                                                        ",
"         ..+++=+++++=.                    .+++=+++++++..                  .+++++++++=.                    .+++++++++=.                                                                                                                                          ",
"           .++++...+.                     .++++++++==.                     .+.+++++=.                     .++++++++=.                                                                                                                                           ",
"          .+....   .+.                   .+........+.                      .+......+.                     .++....++.                                                                                                                                            ",
"         .+.                            .+.       .+.                            .+.                       .+.  .+.                                                                                                                                             ",
"                                                                                                                                                                                                                                                                ",
"                                                                                                                                                                                                                                                                ",
"                                                                                                                                                                                                                                                                ",
"                                                                                                                                                                                                                                                                ",
"                                                                                                                                                                                                                                                                ",
"                                                                                                                                                                                                                                                                ",
"                                                                                                                                                                                                                                                                ",
"                                                                                                                                                                                                                                                                ",
"                                                                                                                                                                                                                                                                ",
"                                                                                                                                                                                                                                                                ",
"                                                                                                                                                                                                                                                                ",
"                                                                                                                                                                                                                                                                ",
"                                                                                                                                                                                                                                                                ",
"                                                                                                                                                                                                                                                                ",
"                                                                                                                                                                                                                                                                ",
"                                                                                                                                                                                                                                                                ",
"                                                                                                                                                                                                                                                                ",
"                                                                                                                                                                                                                                                                ",
"                                                                                                                                                                                                                                                                ",
"                                                                                                                                                                                                                                                                ",
"                  . .                            . .                                                                                                                                                                                                            ",
"                 .#.+.                          ...#.                                                                                                                                                                                                           ",
"                .#=#...                         .=#.#...                                                                                                                                                                                                        ",
"                .######.                        .#######.                                                                                                                                                                                                       ",
"                .#######.                       .#######.                                                                                                                                                                                                       ",
"                .#######.                     ..######.#.                                                                                                                                                                                                       ",
"      ..........######.#.                  ...=.#######=.                                                                                                                                                                                                       ",
"     .=###+++==.#######=.             .....++===..####==.                                                                                                                                                                                                       ",
"      .....+++==..####==.            .=##++++++++++++...                                                                                                                                                                                                        ",
"          .++++++++++...              ......+++++++...                                                                                                                                                                                                          ",
"          .+.........+.                     .......                                                                                                                                                                                                             ",
"         .+.         .+.                      .++.                                                                                                                                                                                                              ",
"                                                                                                                                                                                                                                                                ",
"                                                                                                                                                                                                                                                                ",
"                                                                                                                                                                                                                                                                ",
"                                                                                                                                                                                                                                                                ",
"                                                                                                                                                                                                                                                                ",
"                                                                                                                                                                                                                                                                ",
"                                                                                                                                                                                                                                                                ",
"                                                                                                                                                                                                                                                                ",
"                                                                                                                                                                                                                                                                ",
"                                                                                                                                                                                                                                                                ",
"                                                                                                                                                                                                                                                                ",
"                                                                                                                                                                                                                                                                ",
"                                                                                                                                                                                                                                                                ",
"                                                                                                                                                                                                                                                                ",
"                                                                                                                                                                                                                                                                ",
"                                                                                                                                                                                                                                                                ",
"                                                                                                                                                                                                                                                                ",
"                                                                                                                                                                                                                                                                ",
"                                                                                                                                                                                                                                                                ",
"                  . .                             . .                                                                                                                                                                                                           ",
"                 .#.+.                           .#.+.                            . .                                                                                                                                                                           ",
"                .#=#...                         .#=#...                          .#.+.                                                                                                                                                                          ",
"                .######.                        .######.                        .#=#...                                                                                                                                                                         ",
"                .#######.                       .#######.                       .######.                                                                                                                                                                        ",
"                .#######.                       .#######.                       .#######.                                                                                                                                                                       ",
"                ######.#.                       ######.#.                       .#######.                                                                                                                                                                       ",
"      ..........#######=.             ..........#######=.                   ....######.#.                                                                                                                                                                       ",
"     .=###+++==...####==.            .=###+++==...####==.             ......+==.#######=.                                                                                                                                                                       ",
"      .....+++==+++++...              .....+++==+++++...             .=###++++==..####==.                                                                                                                                                                       ",
"           ..+++++++++.                    ..++++++++.                .......++++++++...                                                                                                                                                                        ",
"             .+.......+.                     ......+.                        ......+.                                                                                                                                                                           ",
"            .+.                                    .+.                          .++.                                                                                                                                                                            ",
"                                                                                                                                                                                                                                                                ",
"                                                                                                                                                                                                                                                                ",
"                                                                                                                                                                                                                                                                ",
"                                                                                                                                                                                                                                                                ",
"                                                                                                                                                                                                                                                                ",
"                                                                                                                                                                                                                                                                ",
"                                                                                                                                                                                                                                                                ",
"                                                                                                                                                                                                                                                                ",
"                                                                                                                                                                                                                                                                ",
"                                                                                                                                                                                                                                                                ",
"                                                                                                                                                                                                                                                                ",
"                                                                                                                                                                                                                                                                ",
"                                                                                                                                                                                                                                                                ",
"                                                                                                                                                                                                                                                                ",
"                                                                                                                                                                                                                                                                ",
"                                                                                                                                                                                                                                                                ",
"                                                                                                                                                                                                                                                                ",
"                                                                                                                                                                                                                                                                ",
"                                                                                                                                                                                                                                                                ",
"                    . .                                                                                                                                                                                                                                         ",
"                   .#.+.                            . .                                                             . .                                                                                                                                         ",
"                  .#=#...                          .#.+.                            . .                            .#.+.                                                                                                                                        ",
"                  .######.                        .#=#...                          .#.+.                          .#=#...                                                                                                                                       ",
"                  .#######.                       .######.                        .#=#...                         .######.                                                                                                                                      ",
"                ...#######.                       .#######.                       .######.                        .#######.                                                                                                                                     ",
"              ..+.######.#.                    ....#######.                       .#######.                   .....#######.                                                                                                                                     ",
"            ..==+.#######=.                  ..=+.######.#.                  ......#######.                 ..==+.######.#.                                                                                                                                     ",
"           .+===++.#####==.                 .===+.#######=.                ..===+.######.#.                .+===+.#######=.                                                                                                                                     ",
"          .+++..++++++++..                 .++++++.#####==.               .+++..+.#######=.               .+++..++.#####==.                                                                                                                                     ",
"      ....++++++.++++==.              .....+++..++++++++..            ....++++++.+.#####==.           ....++++++.+++++++..                                                                                                                                      ",
"     .=##+++++++.+++===.             .=#++++++++.+++===.             .=#++++++++.+++++++..           .=#++++++++.+++===.                                                                                                                                        ",
"      .....++++++.+++.+.              .....++++++.+++.+.              .....++++++.+++.+.              .....++++++.+++.+.                                                                                                                                        ",
"                                                                                                                                                                                                                                                                ",
"                                                                                                                                                                                                                                                                ",
"                                                                                                                                                                                                                                                                ",
"                                                                                                                                                                                                                                                                ",
"                                                                                                                                                                                                                                                                ",
"                                                                                                                                                                                                                                                                ",
"                                                                                                                                                                                                                                                                ",
"                                                                                                                                                                                                                                                                ",
"                                                                                                                                                                                                                                                                ",
"                                                                                                                                                                                                                                                                ",
"                                                                                                                                                                                                                                                                ",
"                                                                                                                                                                                                                                                                ",
"                                                                                                                                                                                                                                                                ",
"                                                                                                                                                                                                                                                                ",
"                                                                                                                                                                                                                                                                ",
"                                                                                                                                                                                                                                                                ",
"                                                                                                                                                                                                                                                                ",
"                                                                                                                                                                                                                                                                ",
"                                                                                                                                                                                                                                                                ",
"                                                                                                                                                                                                                                                                ",
"                                                                                                                                                                                                                                                                ",
"                                                                                                                                                                                                                                                                ",
"                     . .                             . .                             . .                             . .                               .                             . .                             . .                             . .        ",
"                    .#.+.                           .#.+.                           .#.+.                           .#.+.                       ..   ..+.                       ..  .#.+.                       ..  .#.+.                       ..  .#.+.       ",
"                .. .#=#...                      .. .#=#...                      .. .#=#...                      .. .#=#...                    ..==. .=#...                    ..==..#=#...                    ..==..#=#...                    ..==..#=#...      ",
"              ..==..######.                   ..==..######.                   ..==..######.                   ..==..######.                  .===++.######.                  .===++.######.                  .===++.######.                  .===++.######.     ",
"            ..===++.#######.                ..===++.#######.                ..===++.#######.            .   ..===++.#######.             .  .===+++.#######.                .===+++.#######.                .===+++.#######.                .===+++.#######.    ",
"           .+===++++#######.               .+===++++#######.          .    .+===++++#######.           .=. .+===++++#######.            .=..++++++++#######.          .    .++++++++#######.               .++++++++#######.               .++++++++#######.    ",
"           .+++..+++#####.#.          .    .+++..+++#####.#.         .=.   .+++..+++#####.#.           .#. .+++..+++#####.#.           .#. .+++..+++#####.#.         .=.   .+++..+++#####.#.               .+++..+++#####+#.               .+++..+++#####+#.    ",
"      .....++++++.++######=.         .=....++++++.++######=.          .#...++++++.++######=.            .#.++++++.++######=.           .#..++++++.++######=.          .#...++++++.++######=.          .....++++++.++######=.          .....++++++.++######=.    ",
"     .=###+++++++.+++####==.          .###+++++++.+++####==.           .##+++++++.+++####==.             .+++++++.+++####==.            .#+++++++.+++####==.           .##+++++++.+++####==.         .=###+++++++.+++####==.         .=###+++++++.+++####==.    ",
"      ......++++++.++++.+..            .....++++++.++++.+..             ....++++++.++++.+..               ..++++++.++++.+..              ...++++++.++++.+..             ....++++++.++++.+..           ......++++++.++++.+..           ......++++++.++++.+..     ",
"                                                                                                                                                                                                                                                                ",
"                                                                                                                                                                                                                                                                ",
"                                                                                                                                                                                                                                                                ",
"                                                                                                                                                                                                                                                                ",
"                                                                                                                                                                                                                                                                ",
"                                                                                                                                                                                                                                                                ",
"                                                                                                                                                                                                                                                                ",
"                                                                                                                                                                                                                                                                ",
"                                                                                                                                                                                                                                                                ",
"                                                                                                                                                                                                                                                                ",
"                                                                                                                                                                                                                                                                ",
"                                                                                                                                                                                                                                                                ",
"                                                                                                                                                                                                                                                                ",
"                                                                                                                                                                                                                                                                ",
"                                                                                                                                                                                                                                                                ",
"                                                                                                                                                                                                                                                                ",
"                                                                                                                                                                                                                                                                ",
"                                                                                                                                                                                                                                                                ",
"                                                                                                                                                                                                                                                                ",
"                                                                                                                                                                                                                                                                ",
"                                                                                                                                                                                                                                                                ",
"                                                                                                                                                                                                                                                                ",
"                     . .                             . .                             . .                             . .                             . .                               .                             . .                             . .        ",
"                    .#.+.                           .#.+.                           .#.+.                       ..  .#.+.                       ..  .#.+.                       ..   ..+.                       ..  .#.+.                           .#.+.       ",
"                   .#=#...                         .#=#...                      .. .#=#...                    ..==..#=#...                    ..==..#=#...                    ..==. .=#...                    ..==..#=#...                      .. .#=#...      ",
"                .. .######.                     .. .######.                   ..==..######.                  .===++.######.                  .===++.######.                  .===++.######.                  .===++.######.                   ..==..######.     ",
"              ..==..#######.                  ..==..#######.                ..===++.#######.                .===+++.#######.                .===+++.#######.                .===+++.#######.                .===+++.#######.                ..===++.#######.    ",
"            ..===+++#######.                ..===+++#######.               .+===++++#######.               .++++++++#######.               .++++++++#######.               .++++++++#######.               .++++++++#######.               .+===++++#######.    ",
"      .    .+===.+++#####+#.          .    .+===.+++#####+#.               .+++..+++#####+#.               .+++..+++#####+#.               .+++..+++#####+#.               .+++..+++#####+#.               .+++..+++#####+#.               .+++..+++#####+#.    ",
"     .=....++++++.++######=.         .=....++++++.++######=.          .....++++++.++######=.          .....++++++.++######=.          .....++++++.++######=.          .....++++++.++######=.          .....++++++.++######=.          .....++++++.++######=.    ",
"      .###+++++++.+++####==.          .###+++++++.+++####==.         .=###+++++++.+++####==.         .=###+++++++.+++####==.         .=###+++++++.+++####==.         .=###+++++++.+++####==.         .=###+++++++.+++####==.         .=###+++++++.+++####==.    ",
"       .....++++++.++++.+..            .....++++++.++++.+..           ......++++++.++++.+..           ......++++++.++++.+..           ......++++++.++++.+..           ......++++++.++++.+..           ......++++++.++++.+..           ......++++++.++++.+..     ",
"                                                                                                                                                                                                                                                                ",
"                                                                                                                                                                                                                                                                ",
"                                                                                                                                                                                                                                                                ",
"                                                                                                                                                                                                                                                                ",
"                                                                                                                                                                                                                                                                ",
"                                                                                                                                                                                                                                                                ",
"                                                                                                                                                                                                                                                                ",
"                                                                                                                                                                                                                                                                ",
"                                                                                                                                                                                                                                                                ",
"                                                                                                                                                                                                                                                                ",
"                                                                                                                                                                                                                                                                ",
"                                                                                                                                                                                                                                                                ",
"                                                                                                                                                                                                                                                                ",
"                                                                                                                                                                                                                                                                ",
"                                                                                                                                                                                                                                                                ",
"                                                                                                                                                                                                                                                                ",
"                                                                                                                                                                                                                                                                ",
"                                                                                                                                                                                                                                                                ",
"                                                                                                                                                                                                                                                                ",
"                                                                                                                                                                                                                                                                ",
"                                                                                                                                                                                                                                                                ",
"                                                                                                                                                                                                                                                                ",
"                                                                                                                                                                                                                                                                ",
"                     . .                                                                                             . .                                                                                                                                        ",
"                ..  .#.#.                           .....                           .....                       ..  .#.#.                                                                                                                                       ",
"              ..==..#=#....                     ....=##....                     ....=##....                   ..==..#=#....                                                                                                                                     ",
"            ..===++.#######.                  ..==+.#######.                  ..==+.#######.                ..===++.#######.                                                                                                                                    ",
"           .+===++++#######.               ...===+++#######.               ...===+++#######.               .+===++++#######.                                                                                                                                    ",
"           .+++..+++#####.#.          ..   .+++..+++#####.#.          ..   .+++..+++#####.#.               .+++..+++#####.#.                                                                                                                                    ",
"      .....++++++.++######=.         .=#...++++++.++######=.         .=#...++++++.++######=.          .....++++++.++######=.                                                                                                                                    ",
"     .=###+++++++.+++####==.          ..##+++++++.+++####==.          ..##+++++++.+++####==.         .=###+++++++.+++####==.                                                                                                                                    ",
"      ......++++++.++++.+..             ....++++++.++++.+..             ....++++++.++++.+..           ......++++++.++++.+..                                                                                                                                     ",
"                                                                                                                                                                                                                                                                ",
"                                                                                                                                                                                                                                                                ",
"                                                                                                                                                                                                                                                                ",
"                                                                                                                                                                                                                                                                ",
"                                                                                                                                                                                                                                                                ",
"                                                                                                                                                                                                                                                                ",
"                                                                                                                                                                                                                                                                ",
"                                                                                                                                                                                                                                                                ",
"                                                                                                                                                                                                                                                                ",
"                                                                                                                                                                                                                                                                ",
"                                                                                                                                                                                                                                                                ",
"                                                                                                                                                                                                                                                                ",
"                                                                                                                                                                                                                                                                ",
"                                                                                                                                                                                                                                                                ",
"                                                                                                                                                                                                                                                                ",
"                                                                                                                                                                                                                                                                ",
"                                                                                                                                                                                                                                                                ",
"                                                                                                                                                                                                                                                                ",
"                                                                                                                                                                                                                                                                ",
"                                                                                                                                                                                                                                                                ",
"                                                                                                                                                                                                                                                                ",
"                                                                                                                                                                                                                                                                ",
"                                                     . .                             . .                              . .                                                                                                                                       ",
"                     . .                            .#.#.                           .#.#.                            .#.#.                                                                                                                                      ",
"                ..  .#.#.                           #=#....                     ..  #=#....                     ..   #=#....                                                                                                                                    ",
"              ..==..#=#....                   ......#######.                  ..==..#######.                  ..==...#######.                                                                                                                                   ",
"            ..===++.#######.               ...====+.#######.                ..===++.#######.                ..===+++.#######.                                                                                                                                   ",
"           .+===++++#######.              .++===+++.#####.#.               .+===+++.#####.#.               .+=.=++++.#####.#.                                                                                                                                   ",
"           .+++..+++#####.#.          .....++++..++.######=.          ......+++..++.######=.           .....+++.++++.######=.                                                                                                                                   ",
"      .....++++++.++######=.         .###++++++++.+++####==.         .=###+++++++.+++####==.          .=##++++++.++++.####==.                                                                                                                                   ",
"     .=###+++++++.+++####==.        .=....+++++++.++++.++..           .....+++++.++++.+++..            ....+++++.+++++++++..                                                                                                                                    ",
"      ......++++++.++++.+..          .    .++++++.++++.+.                  .++++.++++.++.                  .+++.++++.++++.                                                                                                                                      ",
"                                                                                                                                                                                                                                                                ",
"                                                                                                                                                                                                                                                                ",
"                                                                                                                                                                                                                                                                ",
"                                                                                                                                                                                                                                                                ",
"                                                                                                                                                                                                                                                                ",
"                                                                                                                                                                                                                                                                ",
"                                                                                                                                                                                                                                                                ",
"                                                                                                                                                                                                                                                                ",
"                                                                                                                                                                                                                                                                ",
"                                                                                                                                                                                                                                                                ",
"                                                                                                                                                                                                                                                                ",
"                                                                                                                                                                                                                                                                ",
"                                                                                                                                                                                                                                                                ",
"                                                                                                                                                                                                                                                                ",
"                                                                                                                                                                                                                                                                ",
"                                                                                                                                                                                                                                                                ",
"                 . .                                                                                                                                                                                                                                            ",
"                .#.+.                             . .                                                                                                                                                                                                           ",
"               .#=#...                           .#.+.                            . .                                                                                                                                                                           ",
"               .######.                         .#=#...                          .#.+.                            . .                                                                                                                                           ",
"               .#######.                        .######.                        .#=#...                          .#.+.                                                                                                                                          ",
"               .#######.                        .#######.                       .######.                        .#=#...                                                                                                                                         ",
"               .#####.#.                        .#######.                       .#######.                       .######.                                                                                                                                        ",
"               .######=.                        .#####.#.                       .#######.                       .#######.                                                                                                                                       ",
"               .#####==.                        .######=.                      .######.#.                       .#######.                                                                                                                                       ",
"                .+++++.                         .#####==.                      .#######=.                      .######.#.                                                                                                                                       ",
"               .=++++=.                        .=.+++++.                     ..=..####==.              .........#######=.                                                                                                                                       ",
"         ..    .=+++==.                       .==+++==.                    ..===++++++..              .###+++===..####==.                                                                                                                                       ",
"        .$$.  .=++++==.                  ...  .=++++==.                   .+++=++++==.               .=....+++=+++++++..                                                                                                                                        ",
"       .=..$..++.++===.                 .$$$..++.++===.               ....++++++++===.                .    .++++++===.                                                                                                                                          ",
"        .  .+++.++++.+.                .=...+++.++++..               .=###..++...+.#.                      .++...+.#.                                                                                                                                           ",
"            .+++...+.+.                 .   .+++..++..                .... .+.. .+.#.                      .#.. .+.#.                                                                                                                                           ",
"                                                                                                                                                                                                                                                                ",
"                                                                                                                                                                                                                                                                ",
"                                                                                                                                                                                                                                                                ",
"                                                                                                                                                                                                                                                                ",
"                                                                                                                                                                                                                                                                ",
"                                                                                                                                                                                                                                                                ",
"                                                                                                                                                                                                                                                                ",
"                                                                                                                                                                                                                                                                ",
"                                                                                                                                                                                                                                                                ",
"                                                                                                                                                                                                                                                                ",
"                                                                                                                                                                                                                                                                ",
"                                                                                                                                                                                                                                                                ",
"                                                                                                                                                                                                                                                                ",
"                                                                                                                                                                                                                                                                ",
"                                                                                                                                                                                                                                                                ",
"                                                                                                                                                                                                                                                                ",
"                                                                                                                 . .                                                                                                                                            ",
"                                                                                  . .                           .#.+.                                                                                                                                           ",
"                                                  . .                            .#.+.                         .#=#...                                                                                                                                          ",
"                  . .                            .#.+.                          .#=#...                        .######.                                                                                                                                         ",
"                 .#.+.                          .#=#...                         .######.                       .#######.                                                                                                                                        ",
"                .#=#...                         .######.                        .#######.                      .#######.                                                                                                                                        ",
"                .######.                        .#######.                       .#######.                      .#####.#.                                                                                                                                        ",
"                .#######.                       .#######.                       .#####.#.                      .######=.                                                                                                                                        ",
"                .#######.                      .######.#.                       .######=.                      .#####==.                                                                                                                                        ",
"               .######.#.                      .#######=.                       .#####==.                       .+++++.                                                                                                                                         ",
"       .........#######=.                    ..=..####==.                      .=.+++++.                       .=++++=.                                                                                                                                         ",
"      .###+++===..####==.                  ..===++++++..                      .==+++==.                  ..    .=+++==.                                                                                                                                         ",
"     .=....+++=+++++++..                  .+++=++++==.                   ...  .=++++==.                 .$$.  .=++++==.                                                                                                                                         ",
"      .    .++++++===.                ....++++++++===.                  .$$$..++.++===.                .=..$..++.++===.                                                                                                                                         ",
"           .++...+.#.                .=###..++...+.#.                  .=...+++.++++..                  .  .+++.++++.+.                                                                                                                                         ",
"           .#.. .+.#.                 .... .+.. .+.#.                   .   .+++..++..                      .+++...+.+.                                                                                                                                         ",
"                                                                                                                                                                                                                                                                ",
"                                                                                                                                                                                                                                                                ",
"                                                                                                                                                                                                                                                                ",
"                                                                                                                                                                                                                                                                ",
"                                                                                                                                                                                                                                                                ",
"                                                                                                                                                                                                                                                                ",
"                                                                                                                                                                                                                                                                ",
"                                                                                                                                                                                                                                                                ",
"                                                                                                                                                                                                                                                                ",
"                                                                                                                                                                                                                                                                ",
"                                                                                                                                                                                                                                                                ",
"                                                                                                                                                                                                                                                                ",
"                                                                                                                                                                                                                                                                ",
"                                                                                                                                                                                                                                                                ",
"                                                                                                                                                                                                                                                                ",
"                                                                                                                                                                                                                                                                ",
"                                                                                                                                                                                                                                                                ",
"                                                                                                                                                                                                                                                                ",
"                                                                                                                                                                                                                                                                ",
"                  . .                                                                                                                                                                                                                                           ",
"                 .#.+.                                                                                            . .                                                                                                                                           ",
"                .#=#...                                                                                          .#.+.                                                                                                                                          ",
"                .######.                           ....                            ....                         .#=#...                                                                                                                                         ",
"                .#######.                         .#=##.                 ...      .#=##.                        .######.                                                                                                                                        ",
"                .#######.              ...       .######.               .=##..   .######.                       .#######.                                                                                                                                       ",
"      ...      .######.#.             .=##...... .#######.               ...++....#######.            ...       .#######.                                                                                                                                       ",
"     .=##.......#######=.              ...++++==.######.#.                  .++==.#####.#.           .=##.......######.#.                                                                                                                                       ",
"      ...++++===..####==.                 ..++=+.#######=.                   .+=+=######=.            ...++++==.#######=.                                                                                                                                       ",
"         ..+++=+++++++..                    .+++=..####==.                   .++++.####==.               ..+++==..####==.                                                                                                                                       ",
"           .++++++++=.                       ..++++++++..                     ..+.++++...                  .+++++++++...                                                                                                                                        ",
"            .......+.                        .+....+... @                      .+..+..                      .......+.                                                                                                                                           ",
"             .+.+. .+.@                       ..+. .+.                          .+..+.     @                 .+.+. .+.        @                                                                                                                                 ",
"                                                                                                                                                                                                                                                                ",
"                                                                                                                                                                                                                                                                ",
"                                                                                                                                                                                                                                                                ",
"                                                                                                                                                                                                                                                                ",
"                                                                                                                                                                                                                                                                ",
"                                                                                                                                                                                                                                                                ",
"                                                                                                                                                                                                                                                                ",
"                                                                                                                                                                                                                                                                ",
"                                                                                                                                                                                                                                                                ",
"                                                                                                                                                                                                                                                                ",
"                                                                                                                                                                                                                                                                ",
"                                                                                                                                                                                                                                                                ",
"                                                                                                                                                                                                                                                                ",
"                                                                                                                                                                                                                                                                ",
"                                                                                                                                                                                                                                                                ",
"                                                                                                                                                                                                                                                                ",
"                                                                                                                                                                                                                                                                ",
"                                                                                                                                                                                                                                                                ",
"                                                                                                                                                                                                                                                                ",
"                  . .                             . .                                                                                              . .                              . .                             . .                             . .         ",
"                 .#.+.                           .#.+.                             . .                             . .                            .#.+.                            .#.+.                           .#.+.                           .#.+.        ",
"                .#=#...                         .#=#...                           .#.+.                           .#.+.                          .#=#...                          .#=#...                         .#=#...                         .#=#...       ",
"                .######.                        .######.                         .#=#...                         .#=#...                ..       .######.                         .######.                        .######.                        .######.      ",
"                .#######.                       .#######.                        .######.                    . . .######.              .#+. . . ..#######.            ..   . . . ..#######.           ..    . . . .#######.                       .#######.     ",
"                .#######.                       .#######.                    .....#######.             ..   .=.=..#######.            .#..+.+.=.+.#######.           .=#...+.=.=.+.#######.          .=#...++.=.=..#######.                  ......#######.     ",
"               .######.#.                    ...######.#.              ..   .====.#######.            .##. .+===+.#######.            .=..+++===+######O#.            ..++++++===+######O#.           ..+++++====+######O#.                ..====+######.#.     ",
"       .........#######=.               .....===#######=.             .##...++=++######O#.           .=..#.++++++######O#.             .  .++++++#######=.              ...+++++++#######=.             ...+++++++#######=.           .....+++==++#######=.     ",
"      .###+++===..####==.              .##++++=+..####==.            .=..#+++++++#######=.            .  .+++++++#######=.                .++++..++####==.                .+++++++++####==.               .+++++++++####==.          .=#++++++++++++####==.     ",
"     .=....+++=+++++++..              .#...+++++++++++..              .  ..++++....####==.                .++++..++####==.                 .++.  .+++++..                  .+++.+..++++...                 .+++..+.++++...            ....+++++++++++++...      ",
"      .    .+++++++==.               .=.   .+++++++==.                     .++.  .++=....                  .++.  .++==...                  .+.    .++=.                    .++. .  .+=.                    .++.  . .+=.                   .++++...+++=.         ",
"           .++...+.#.                 .    .++...+.#.                      .+.    .#.                      .+.    .#=.                     .+.    .+=.                     .+..    .+.                     .+..    .+.                     .++.   .++.          ",
"           .#.. .+.#.                      .#.. .+.#.                      .#.    .#.                      .#.    .#.                      .#.    .#.                      .#..    .#.                     .#..    .#.                     .#.     .#.          ",
"                                                                                                                                                                                                                                                                ",
"                                                                                                                                                                                                                                                                ",
"                                                                                                                  . .                                                                                                                                           ",
"                                                                                                                ..=....                           . .                                                                                                           ",
"                                                                                                         .      .######.                         .#.+.                                                                                                          ",
"                                                                                                        .=.     .#######.                       .#=#...                                                                                                         ",
"                                                                                                        .+. ....######.#.                       .######.                                                                                                        ",
"                                                                                                         .+.++++#######=.                       .#######.                                                                                                       ",
"                                                                                  . .                    ...++++++===...              ...       .#######.                         . .                                                                           ",
"                                                                                  . .                      .#.. .#.#.                .=##..    .######.#.                         . .                                                                           ",
"                                                                                 .#.+.                      .    . .                  ...#+.....#######=.                        .#.+.                                                                          ",
"                                                                                .#=#...                                                  ..++===..####==.                        .#.+.                                                                          ",
"                                                                                .#=###.                                                    .++=+++++++..                        .#=#...                                                                         ",
"                                                                                .######.                                                  .+++++++===.                          .######.                                                                        ",
"                                                                                .######.                                                 .#.........#.                          .######.                                                                        ",
"                                                                                .#######.                                                 .         .                    .      .######.                                                                        ",
"                                                                                .#######.                                                                               .=.     .#######.                                                                       ",
"                                                                                .#######.                                                                               .=.     .#######.                                                                       ",
"                                                                               .######.#.                                                                               .+.     .#######.                                                                       ",
"                                                  . .                     ......#######=.                                                                               .+.    .######.#.                                                         . .           ",
"                                                 .#.+.                   .+++===..####==.                                                                               .+......#######=.                                                        .#.+.          ",
"                  . .                           .#=#...                 .++++===..####==.                                                                               .++++===.#####==.                                                       .#=#...         ",
"                 .#.+.                          .######.                .+++++=+++++++..                                                                                .++++===.#####==.                                                       .######.        ",
"                .#=#...                         .#######.               .##+++++++===.                                                                                   .+++===+.####==.                                                       .#######.       ",
"                .######.                        .#######.               .#.++++.++.+.                                                                                     .+++=+++++++..                                                        .#######.       ",
"                .#######.                      .######.#.               .#.+++. .+.+.                                                                                      .++++++===.                           .....                         .######.#.       ",
"        ..     .######.#.                  .....#######=.               .=..#.  .#.#.                                                                                      .+++.++.+.                   .       .#=#...               ..........#######=.       ",
"       .##......#######=.                ..++===..####==.               .=..#.  .#.#.                                                                                      .+++.++.+.                  .=.     ..######..            .=###+++===..####==.       ",
"      .=..+++===..####==.               .+++++=+++++++..                 .  .    . .                                                                                       .#.. .#.#.                   .#......#####.#=.             .....+++=+++++++..        ",
"       .  .+++=+++++++..               .#..+++++++===.                                                                                                                      .    . .                     ..+++=+++++++..                   .++++++===.          ",
"           .++++++===.                .=.  .++...+.#.                                                                                                                                                      .++++++===.                     .++...+.#.           ",
"          .+++...+.#.                  .   .#.. .+.#.                                                                                                                                                     .+++...+.##.                     .#.. .+.#.           ",
"                                                                                                                                                                                                                                                                ",
"                                                                                                                                                                                                                                                                ",
"                                                                                                                                                                                                                                                                ",
"                                                                                                                                                                                                                                                                ",
"                                                                                                                                                                                                                                                                ",
"                                                                                  . .                             . .                                                                                                                                           ",
"                                                                                 .#.+.                           .#.+.                                                                                                                                          ",
"                                                                                 .#.+.                          .#=#...                                                                                                                                         ",
"                                                                                .#=#...                         .######.                                                                                                                                        ",
"                                                                                .######.                        .#######.                                                                                                                                       ",
"                                                                                .######.                        .#######.                                                                                                                                       ",
"                                                                                .#######.                       .#####.#.                                                                                                                                       ",
"                                                                                .#######.                      ..######=.                                                                                                                                       ",
"                                                                                .#######.                     .=+.####==.                                                                                                                                       ",
"                                                                                .#####.#.                    .==++++++..                                                                                                                                        ",
"                                                                               ..######=.                   .==+++++=.#.                                                                                                                                        ",
"                                                  . .                          ..######=.                  .+=++++++...                                                                                                                                         ",
"                                                 .#.+.                        .=+.####==.                 .++++++...                                                                                                                                            ",
"                  . .                           .#=#...                      .==++++++..                 .++++++.                                                                                                                                               ",
"                 .#.+.                          .######.                     .==++++++..                .#.+++..                                                                                                                                                ",
"                .#=#...                         .#######.                   .==+++++=.#.               .=. .+.                                                                                                                                                  ",
"                .######.                        .#######.                  .+=++++++..#.                .   .                                                                                                                                                   ",
"                .#######.                       .#####.#.                  .+=++++++. .                                                                                                                                                                         ",
"                .#######.                      ..######=.                 .++++++...                                                                                                                                                                            ",
"                ######.#.                     .=+.####==.                .++++++.                                                                                                                                                                               ",
"               .#######=.                    .==++++++..                 .++++++.                                                                                                                                                                               ",
"             .....####==.                   .==+++++=.#.                .#.+++..                                                                                                                                                                                ",
"           ..===++++++..                   .+=++++++...                .=. .+.                                                                                                                                                                                  ",
"         ..+++=+++===.                    .++++++...                   .=. .+.                                                                                                                                                                                  ",
"       ..+++++++.+.#.                    .++++++.                                                                                                                                                                                                               ",
"      .=#..+++...+.#.                   .#.+++..                                                                                                                                                                                                                ",
"       ..  .+.. .#.#.                  .=. .+.                                                                                                                                                                                                                  ",
"                                                                                                                                                                                                                                                                ",
"                                                                                                                                                                                                                                                                ",
"                                                                                                                                                                                                                                                                ",
"                                                                                                                                                                                                                                                                ",
"                                                                                                                                                                                                                                                                ",
"                                                                                                                                                                                                                                                                ",
"                                                                                                                                                                                                                                                                ",
"                  . .                                                                                                                                                                                                                                           ",
"       .         .#.+.                                                                                                                                                                                                                                          ",
"      .=.       .#=#....                                                                                                                                                                                                                                        ",
"       .+.      .#######.                                                                                                                                                                                                                                       ",
"       .##......######.#.              ..          . .                                                                                                                                                                                                          ",
"        ..+++==.#######=.             .=#..       .#.+.                                                                                                                                                                                                         ",
"          .++++=+++++##.               ..++..    .#=#...               ..          . .                                                                                                                                                                          ",
"           .++++++++=..                  .++=.. .######..             .=#..       .#.+.                                                                                                                                                                         ",
"           .++...+.+.                     .++==..#######.              ..++..    .#=#...                                                                                                                                                                        ",
"            ..   . .                      .++=++.#######.              ..++..    .#=#...                                                                                                                                                                        ",
"                                           .++++.######=.                .++=.. .######..                                                                                                                                                                       ",
"                                            ..+++.####.=.                 .++==..#######.                                                                                                                                                                       ",
"                                              ..++++++=.                  .++=++.#######.                                                                                                                                                                       ",
"                                                ..+++..                    .++++.######=.                         . .                                                                                                                                           ",
"                                                  ...                      .++++.######=.             .          .#.+.                                                                                                                                          ",
"                                                                           .++++.######=.            .=...      .#=#...                                                                                                                                         ",
"                                                                           .++++.######=.             .###....  .######.                                                                                                                                        ",
"                                                                            ..+++.####.=.              ..+++==. .#######.                                                                                                                                       ",
"                                                                              ..++++++=.                 .++++=..#######.                                                                                                                                       ",
"                                                                                ..+++..                   .++++.######.#.                                                                                                                                       ",
"                                                                                ..+++..                    .+++.#######=.                                                                                                                                       ",
"                                                                                  ...                      .#.++.++++##.                                                                                                                                        ",
"                                                                                                            . .+++++=..                                                                                                                                         ",
"                                                                                                               ..+.+.                                                                                                                                           ",
"                                                                                                                .+.#.                                                                                                                                           ",
"                                                                                                                                                                                                                                                                ",
"                                                                                                                                                                                                                                                                ",
"                                                                                                                                                                                                                                                                ",
"                                                                                                                                                                                                                                                                ",
"                                                                                                                                                                                                                                                                ",
"                                                                                                                                                                                                                                                                ",
"                                                                                                                                                                                                                                                                ",
"                                                                                                                                                                                                                                                                ",
"                                                                                                                                                                                                                                                                ",
"                                                                                                                                                                                                                                                                ",
"                                                                                                                                                                                                                                                                ",
"                                                                                                                                                                                                                                                                ",
"                                                                                                                                                                                                                                                                ",
"                                                                                                                                                                                                                                                                ",
"                                                                                                                                                                                                                                                                ",
"                                                                                                                                                                                                                                                                ",
"                 . .                                                                                                                                                                                                                                            ",
"                .#.+.                             . .                                                                                                                                                                                                           ",
"               .#=#...                           .#.+.                                                                                                                                                                                                          ",
"               .######.                         .#=#...                                                                                                                                                                                                         ",
"               .#######.                        .######.                                                                                                                                                                                                        ",
"               .#######.                        .#######.                              ....                                                                                                                                                                     ",
"               .#####.#.                        .#######.                             .##=#.                                                                                                                                                                    ",
"               .######=.                        .#####.#.                            .####.#                           ......                                                                                                                                   ",
"               .#####==.                        .######=.                  .       ..######.                .        ..######.                                                                                                                                  ",
"                .+++++.                         .#####==.                 .=.     .=#######.               .=.      .++#####=#.                                                                                                                                 ",
"               .=++++=.                 ...     .++++=.                   .$.    .==+#######.              .$.    ..=++######.                                                                                                                                  ",
"         ..    .=+++==.                .=$$.   .=+++==.                   .$.   .=++++##.###.              .$. ...==+++#####.+.                                                                                                                                 ",
"        .$$.  .=++++==.                 ...$. .=++++==.                   .$. ..++++++==###.               .$..++++++++#####..                                                                                                                                  ",
"       .=..$..++.++===.                    .$.++.++===.                    .$.++.++++++==#.                .$.++.++++++=#.###.                                                                                                                                  ",
"        .  .+++.++++.+.                    .+++.++++.+.                    .+++.++++.++...                 .+++.+++++++==###.                                                                                                                                   ",
"            .+++...+.+.                     .+++...+.+.                     .+++...+.+.                     .+++...+.+......                                                                                                                                    ",
"                                                                                                                                                                                                                                                                ",
"                                                                                                                                                                                                                                                                ",
"                                                                                                                                                                                                                                                                ",
"                                                                                                                                                                                                                                                                ",
"                                                                                                                                                                                                                                                                ",
"                                                                                                                                                                                                                                                                ",
"                                                                                                                                                                                                                                                                ",
"                                                                                                                                                                                                                                                                ",
"                                                                                                                                                                                                                                                                ",
"                                                                                                                                                                                                                                                                ",
"                                                                                                                                                                                                                                                                ",
"                                                                                                                                                                                                                                                                ",
"                                                                                                                                                                                                                                                                ",
"                                                                                                                                                                                                                                                                ",
"                                                                                                                                                                                                                                                                ",
"                                                                                                                                                                                                                                                                ",
"                                                                                                                                                                                                                                                                ",
"                                                                                                                                                                                                                                                                ",
"                                                                                                                 . .                                                                                                                                            ",
"                                                                                   . .                          .#.+..                                                                                                                                          ",
"                                                                                  .#.+.                        .#=#..#.                                                                                                                                         ",
"                                                       ....                      .#=#...                       .#######.                                                                                                                                        ",
"                                                      .##=#.                     .######.                      .#######.                                                                                                                                        ",
"                                                     .####.#                     .#######.                     .#####.#.                                                                                                                                        ",
"           .          .......              .       ..######.                     .#######.                     .######=.                                                                                                                                        ",
"          .=.        .#######.            .=.     .=#######.                     .#####.#.                     .#####==.                                                                                                                                        ",
"           .$.   ....=######=#.           .$.    .==+#######.           ...      .######=.                      .++++=.                                                                                                                                         ",
"           .$. ..++==+#######.            .$.   .=++++##.###.          .=$$.   ..+#####==.              ...    .=+++==.                                                                                                                                         ",
"           .$..+++++++######.+.           .$. ..++++++==###.            ...$. .==++++==..              .=$$.  .=++++==.                                                                                                                                         ",
"           .$.++.+++++######..             .$.++.++++++==#.                .$.+++++===.                 ...$..++.++===.                                                                                                                                         ",
"           .+++.++++++=#.###.              .+++.++++.++...                 .+++.++++.+.                    .+++.++++.+.                                                                                                                                         ",
"            .+++...+.+==###.                .+++...+.+.                     .+++...+.+.                     .+++...+.+.                                                                                                                                         ",
"                                                                                                                                                                                                                                                                ",
"                                                                                                                                                                                                                                                                ",
"                                                                                                                                                                                                                                                                ",
"                                                                                                                                                                                                                                                                ",
"                                                                                                                                                                                                                                                                ",
"                                                                                                                                                                                                                                                                ",
"                                                                                                                                                                                                                                                                ",
"                                                                                                                                                                                                                                                                ",
"                                                                                                                                                                                                                                                                ",
"                                                                                                                                                                                                                                                                ",
"                                                                                                                                                                                                                                                                ",
"                                                                                                                                                                                                                                                                ",
"                                                                                                                                                                                                                                                                ",
"                                                                                                                                                                                                                                                                ",
"                                                                                                                                                                                                                                                                ",
"                                                                                                                                                                                                                                                                ",
"                                                                                                                                                                                                                                                                ",
"                                                                                                                                                                                                                                                                ",
"                                                                                                                                                                                                                                                                ",
"                  . .                                                                                                                                                                                                                                           ",
"                 .#.+.                            . .                                                                                                                                                                                                           ",
"                .#=#...                          .#.+.                              ...                                                                                                                                                                         ",
"                .######.                        .#=#...                           ..###.                .                                                                                                                                                       ",
"                .#######.                       .######.                         .######.              .=.          .......                                                                                                                                     ",
"                .#######.             .         .#######.             ..        ..#####=#.             .$.       ...#######.                                                                                                                                    ",
"               .######.#.            .=...      .#######.            .=#..    ..=+.#####..             .$+.   ...==+######=#.                                                                                                                                   ",
"       ..  .....#######=.             .###......######.#.             ..##....==++.#####..              .++...++=+++#######.                                                                                                                                    ",
"      .##..++===..####==.              ...+++==.#######=.               ..++++=+++++##.#.                .++++++++++######.+.                                                                                                                                   ",
"     .=..++.++=+++++++..                  .++++=+++++##.                  .++++++++++=##.                 .+++++++++######..                                                                                                                                    ",
"      .  ...++++++===.                     .++++++++=..                    .++++++++++=.                   .++++++++=#.###.                                                                                                                                     ",
"           .++...+.#.                      .++...+.+.                      .++...+.++..                    .++...+++==###.                                                                                                                                      ",
"           .#.. .+.#.                      .#.. .+.#.                      .#.. .+.#.                      .#.. .+.#.....                                                                                                                                       ",
"                                                                                                                                                                                                                                                                ",
"                                                                                                                                                                                                                                                                ",
"                                                                                                                                                                                                                                                                ",
"                                                                                                                                                                                                                                                                ",
"                                                                                                                                                                                                                                                                ",
"                                                                                                                                                                                                                                                                ",
"                                                                                                                                                                                                                                                                ",
"                                                                                                                                                                                                                                                                ",
"                                                                                                                                                                                                                                                                ",
"                                                                                                                                                                                                                                                                ",
"                                                                                                                                                                                                                                                                ",
"                                                                                                                                                                                                                                                                ",
"                                                                                                                                                                                                                                                                ",
"                                                                                                                                                                                                                                                                ",
"                                                                                                                                                                                                                                                                ",
"                                                                                                                                                                                                                                                                ",
"                                                                                                                                                                                                                                                                ",
"                                                                                                                                                                                                                                                                ",
"                                                                                                                  . .                                                                                                                                           ",
"                                                                                  . .                            .#.+.                                                                                                                                          ",
"                                                                                 .#.+.                          .#=#...                                                                                                                                         ",
"         .                                          ...                         .#=#...                         .######.                                                                                                                                        ",
"        .=.                             .         ..###.                        .######.                        .#######.                                                                                                                                       ",
"        .$.                            .=.       .######.                       .#######.                       .#######.                                                                                                                                       ",
"        .$.      ..........            .$.      ..#####=#.            ..        .#######.             .        .######.#.                                                                                                                                       ",
"        .$+.  ...==+#######.           .$+.   ..=+.#####..           .=#..     .######.#.            .=...    ..#######=.                                                                                                                                       ",
"         .++..++=+++######=#.           .++...==++.#####..            ..##......#######=.             .###....==..####==.                                                                                                                                       ",
"          .++=++++++#######.             .++++=+++++##.#.               ..+++===..####==.              ...+++==+++++++..                                                                                                                                        ",
"           .++++++++######.+.             .++++++++++=##.                 .+++=+++++++..                  .++++++++==.                                                                                                                                          ",
"           .++++++++######..               .++++++++++=.                   .++++++===.                     .++++++==.                                                                                                                                           ",
"           .++...+++=#.###.                .++...+.++..                    .++...+.+.                      .++...+.#.                                                                                                                                           ",
"           .#.. .+.#==###.                 .#.. .+.#.                      .#.. .+.#.                      .#.. .+.#.                                                                                                                                           ",
"                                                                                                                                                                                                                                                                ",
"                                                                                                                                                                                                                                                                ",
"                                                                                                                                                                                                                                                                ",
"                                                                                                                                                                                                                                                                ",
"                                                                                                                                                                                                                                                                ",
"                                                                                                                                                                                                                                                                ",
"                                                                                                                                                                                                                                                                ",
"                                                                                                                                                                                                                                                                ",
"                                                                                                                                                                                                                                                                ",
"                                                                                                                                                                                                                                                                ",
"                                                                                                                                                                                                                                                                ",
"                                                                                                                                                                                                                                                                ",
"                                                                                                                                                                                                                                                                ",
"                                                                                                                                                                                                                                                                ",
"                                                                                                                                                                                                                                                                ",
"                                                                                                                                                                                                                                                                ",
"                                                                                                                                                                                                                                                                ",
"                                                                                                                                                                                                                                                                ",
"                                                                                                                .     .                                                                                                                                         ",
"                  . .                            .  .                           .     .                        .#.   .#.                                                                                                                                        ",
"                 .#.+.                          .#..+.                         .#.   .#.                       .=#...#=.                                                                                                                                        ",
"                .#=#...                        .#=#....                        .=#...#=.                       .#######.                                                                                                                                        ",
"                .######.                       .#######.                       .#######.                       .#######.                                                                                                                                        ",
"                .#######.                      .#######.                       .#######.                      .#########.                                                                                                                                       ",
"                .#######.                      .########.                     .#########.                     .##.#=#.##.                                                                                                                                       ",
"               .######.#.                     .#####.#=#.                    ..###.#=#.#.                    ..###=O=###.                                                                                                                                       ",
"       ..  .....#######=.               ..  ...######===.                 ...=.####=O=##.                 ...==.#=====#.                                                                                                                                        ",
"      .##..++===..####==.              .##..+===..##====.               ..++===.##=====.                 .++==++++++++.                                                                                                                                         ",
"     .=..+++++=+++++++..              .=..++++=+++++++..               .=#.+++++++++++.                 .+.+++++++++++.                                                                                                                                         ",
"      .  ...++++++===.                 . ..+++++++===.                  .. .++++++===.                  .#..++++++===.                                                                                                                                          ",
"           .++...+.#.                      .++...+.#.                      .++...+.#.                    ...++...+.#.                                                                                                                                           ",
"           .#.. .+.#.                      .#.. .+.#.                      .#.. .+.#.                     ..#.. .+.#.                                                                                                                                           ",
"                                                                                                                                                                                                                                                                ",
"                                                                                                                                                                                                                                                                ",
"                                                                                                                                                                                                                                                                ",
"                                                                                                                                                                                                                                                                ",
"                                                                                                                                                                                                                                                                ",
"                                                                                                                                                                                                                                                                ",
"                                                                                                                                                                                                                                                                ",
"                                                                                                                                                                                                                                                                ",
"                                                                                                                                                                                                                                                                ",
"                                                                                                                                                                                                                                                                ",
"                                                                                                                                                                                                                                                                ",
"                                                                                                                                                                                                                                                                ",
"                                                                                                                                                                                                                                                                ",
"                                                                                                                                                                                                                                                                ",
"                                                                                                                                                                                                                                                                ",
"                                                                                                                                                                                                                                                                ",
"                                                                                                                                                                                                                                                                ",
"                                                                                                                                                                                                                                                                ",
"                .     .                                                                                                                                                                                                                                         ",
"               .#.   .#.                        .     .                                                         .     .                                                                                                                                         ",
"               .=#...#=.                       .#.   .#.                        .     .                        .#.   .#.                                                                                                                                        ",
"               .#######.                       .=#...#=.                       .#.   .#.                       .=#...#=.                                                                                                                                        ",
"               .#######.                       .#######.                       .=#...#=.                       .#######.                                                                                                                                        ",
"              .#########.                      .#######.                       .#######.                       .#######.                                                                                                                                        ",
"              .##.#=#.##.                     .#########.                     .#########.                     .#########.                                                                                                                                       ",
"             ..###=O=###.                     .##.#=#.##.                     .##.#=#.##.                    ..##.#=#.##.                                                                                                                                       ",
"          ...==.#=====#.                    ...###=O=###.                   ...###=O=###.                 ...=.###=O=###.                                                                                                                                       ",
"         .++==++++++++.                   ..===.#=====#.                  ..===.#=====#.                 .++===.#=====#.                                                                                                                                        ",
"        .+.+++++++++++.                  .++++++++++++.                  .++++++++++++.                 .+.+++++++++++.                                                                                                                                         ",
"        .#..++++++===.                  .#.+++++++===.                  .+.+++++++===.                  .#..++++++===.                                                                                                                                          ",
"         ...++...+.#.                    ...++...+.#.                   .#..++...+.#.                    ...++...+.#.                                                                                                                                           ",
"          ..#.. .+.#.                     ..#.. .+.#.                    ...#.. .+.#.                     ..#.. .+.#.                                                                                                                                           ",
"                                                                                                                                                                                                                                                                ",
"                                                                                                                                                                                                                                                                ",
"                                                                                                                                                                                                                                                                ",
"                                                                                                                                                                                                                                                                ",
"                                                                                                                                                                                                                                                                ",
"                                                                                                                                                                                                                                                                ",
"                                                                                                                                                                                                                                                                ",
"                                                                                                                                                                                                                                                                ",
"                                                                                                                                                                                                                                                                ",
"                                                                                                                                                                                                                                                                ",
"                                                                                                                                                                                                                                                                ",
"                                                                                                                                                                                                                                                                ",
"                                                                                                                                                                                                                                                                ",
"                                                                                                                                                                                                                                                                ",
"                                                                                                                                                                                                                                                                ",
"                                                                                                                                                                                                                                                                ",
"                                                                                                                                                                                                                                                                ",
"                                                                                                                                                                                                                                                                ",
"                .     .                                                                                                                                                                                                                                         ",
"               .#.   .#.                        .     .                          .  .                             . .                                                                                                                                           ",
"               .=#...#=.                       .#.   .#.                        .#..+.                           .#.+.                                                                                                                                          ",
"               .#######.                       .=#...#=.                       .#=#....                         .#=#...                                                                                                                                         ",
"               .#######.                       .#######.                       .#######.                        .######.                                                                                                                                        ",
"              .#########.                      .#######.                       .#######.                        .#######.                                                                                                                                       ",
"              .##.#=#.##.                     .#########.               .      .########.                       .#######.                                                                                                                                       ",
"             ..###=O=###.                .   ..###.#=#.#.              .=.    .#####.#=#.             .        .######.#.                                                                                                                                       ",
"          ...==.#=====#.                .=...=.####=O=##.              .#......######===.            .=..  .....#######=.                                                                                                                                       ",
"         .++==++++++++.                 .#++===.##=====.                .#+++===..##====.             .##..++===..####==.                                                                                                                                       ",
"        .+.+++++++++++.                  ..+++++++++++.                  ..+++=+++++++..               ..+++++=+++++++..                                                                                                                                        ",
"         ...++++++===.                     .++++++===.                     .++++++===.                   ...++++++===.                                                                                                                                          ",
"           .++...+.#.                      .++...+.#.                      .++...+.#.                      .++...+.#.                                                                                                                                           ",
"           .#.. .+.#.                      .#.. .+.#.                      .#.. .+.#.                      .#.. .+.#.                                                                                                                                           ",
"                                                                                                                                                                                                                                                                ",
"                                                                                                                                                                                                                                                                ",
"                                                                                                                                                                                                                                                                ",
"                                                                                                                                                                                                                                                                ",
"                                                                                                                                                                                                                                                                ",
"                                                                                                                                                                                                                                                                ",
"                                                                                                                                                                                                                                                                ",
"                                                                                                                                                                                                                                                                ",
"                                                                                                                                                                                                                                                                ",
"                                                                                                                                                                                                                                                                ",
"                                                                                                                                                                                                                                                                ",
"                                                                                                                                                                                                                                                                ",
"                                                                                                                                                                                                                                                                ",
"                                                                                                                                                                                                                                                                ",
"                                                                                                                                                                                                                                                                ",
"                                                                                                                                                                                                                                                                ",
"                                                                                                                                                                                                                                                                ",
"                                                                                                                                                                                                                                                                ",
"                                                                                                                 .    .                                                                                                                                         ",
"                  . .                              .                             .   .                          .#.  .#.                                                                                                                                        ",
"                 .#.+.                            .#.                           .#. .#.                         .##..##.                                                                                                                                        ",
"                .#=#...                         ..#=#..                         .##.##.                         .######.                                                                                                                                        ",
"                .######.                       .#######.                       .#######.                       .##=#===#.                                                                                                                                       ",
"                .#######.                      .=#######.                      .#==#==##.                      .#++#####.                                                                                                                                       ",
"                .#######.                      .########.                      .#++#####.                      .#=#====#.                                                                                                                                       ",
"               .######.#.                      .=######..                      .#=#===##.                     .####++###.                                                                                                                                       ",
"      ...  .....#######=.                  .....########.                  .....###++###.                  ....#########.                                                                                                                                       ",
"     .=##..++===..####==.               ...++===..#####=.                 .++===.#######.                 .++==..######.                                                                                                                                        ",
"      ...+++++=+++++++..               .=+++++=+++++++..                 .++++=+++++++..                 .+.++=+++++++.                                                                                                                                         ",
"         ...++++++===.                  ....++++++===.                   .+.++++++===.                    .+.+++++===.                                                                                                                                          ",
"           .++...+.#.                      .++...+.#.                    .=.++...+.#.                      .=....+.#.                                                                                                                                           ",
"           .#.. .+.#.                      .#.. .+.#.                     ..#.. .+.#.                      .... .+.#.                                                                                                                                           ",
"                                                                                                                                                                                                                                                                ",
"                                                                                                                                                                                                                                                                ",
"                                                                                                                                                                                                                                                                ",
"                                                                                                                                                                                                                                                                ",
"                                                                                                                                                                                                                                                                ",
"                                                                                                                                                                                                                                                                ",
"                                                                                                                                                                                                                                                                ",
"                                                                                                                                                                                                                                                                ",
"                                                                                                                                                                                                                                                                ",
"                                                                                                                                                                                                                                                                ",
"                                                                                                                                                                                                                                                                ",
"                                                                                                                                                                                                                                                                ",
"                                                                                                                                                                                                                                                                ",
"                                                                                                                                                                                                                                                                ",
"                                                                                                                                                                                                                                                                ",
"                                                                                                                                                                                                                                                                ",
"                                                                                                                                                                                                                                                                ",
"                                                                                                                                                                                                                                                                ",
"                 .    .                                                                                                                                                                                                                                         ",
"                .#.  .#.                         .    .                                                          .    .                                                                                                                                         ",
"                .##..##.                        .#.  .#.                         .    .                         .#.  .#.                                                                                                                                        ",
"                .######.                        .##..##.                        .#.  .#.                        .##..##.                                                                                                                                        ",
"               .##=#===#.                       .######.                        .##..##.                        .######.                                                                                                                                        ",
"               .#++#####.                      .##=#===#.                      .##=#===#.                      .##=#===#.                                                                                                                                       ",
"               .#=#====#.                      .#++#####.                      .#++#####.                      .#++#####.                                                                                                                                       ",
"              .####++###.                     ..#=#====#.                     ..#=#====#.                     ..#=#====#.                                                                                                                                       ",
"           ....#########.                     .#########.                    ..#########.                  ....#########.                                                                                                                                       ",
"          .++==..######.                   ...=..######.                   ..==..######.                  .++==..######.                                                                                                                                        ",
"         .+.++=+++++++.                   .++==+++++++.                  ..+++=+++++++.                  .++++=+++++++.                                                                                                                                         ",
"          .+.+++++===.                   .+.++++++===.                  .+++++++++===.                   .#.++++++===.                                                                                                                                          ",
"          .=.+...+.#.                    .=.++...+.#.                  .=...++...+.#.                    .=.++...+.#.                                                                                                                                           ",
"           .+.. .+.#.                     ..#.. .+.#.                   .  .#.. .+.#.                     ..#.. .+.#.                                                                                                                                           ",
"                                                                                                                                                                                                                                                                ",
"                                                                                                                                                                                                                                                                ",
"                                                                                                                                                                                                                                                                ",
"                                                                                                                                                                                                                                                                ",
"                                                                                                                                                                                                                                                                ",
"                                                                                                                                                                                                                                                                ",
"                                                                                                                                                                                                                                                                ",
"                                                                                                                                                                                                                                                                ",
"                                                                                                                                                                                                                                                                ",
"                                                                                                                                                                                                                                                                ",
"                                                                                                                                                                                                                                                                ",
"                                                                                                                                                                                                                                                                ",
"                                                                                                                                                                                                                                                                ",
"                                                                                                                                                                                                                                                                ",
"                                                                                                                                                                                                                                                                ",
"                                                                                                                                                                                                                                                                ",
"                                                                                                                                                                                                                                                                ",
"                                                                                                                                                                                                                                                                ",
"                 .    .                                                                                                                                                                                                                                         ",
"                .#.  .#.                         .   .                             .                              . .                                                                                                                                           ",
"                .##..##.                        .#. .#.                           .#.                            .#.+.                                                                                                                                          ",
"                .######.                        .##.##.                         ..#=#..                         .#=#...                                                                                                                                         ",
"               .##=#===#.                      .#######.                       .#######.                        .######.                                                                                                                                        ",
"               .#++#####.                      .#==#==##.                      .=#######.                       .#######.                                                                                                                                       ",
"           .   .#=#====#.               .      .#++#####.                      .########.                       .#######.                                                                                                                                       ",
"          .=. .####++###.              .=.     .#=#===##.              .       .=######..             .        .######.#.                                                                                                                                       ",
"          .+...#########.              .#. .....###++###.             .=.  .....########.            .=... .....#######=.                                                                                                                                       ",
"          .++==..######.                .+.++===.#######.              .#..++===..#####=.             .##+.++===..####==.                                                                                                                                       ",
"          .+++=+++++++.                  .++++=+++++++..                .+++++=+++++++..               ...++++=+++++++..                                                                                                                                        ",
"          ..++++++===.                    ..++++++===.                   ...++++++===.                    ..++++++===.                                                                                                                                          ",
"           .++...+.#.                      .++...+.#.                      .++...+.#.                      .++...+.#.                                                                                                                                           ",
"           .#.. .+.#.                      .#.. .+.#.                      .#.. .+.#.                      .#.. .+.#.                                                                                                                                           ",
"                                                                                                                                                                                                                                                                ",
"                                                                                                                                                                                                                                                                ",
"                                                                                                                                                                                                                                                                ",
"                                                                                                                                                                                                                                                                ",
"                                                                                                                                                                                                                                                                ",
"                                                                                                                                                                                                                                                                ",
"                                                                                                                                                                                                                                                                ",
"                                                                                                                                                                                                                                                                ",
"                                                                                                                                                                                                                                                                ",
"                                                                                                                                                                                                                                                                ",
"                                                                                                                                                                                                                                                                ",
"                                                                                                                                                                                                                                                                ",
"                                                                                                                                                                                                                                                                ",
"                                                                                                                                                                                                                                                                ",
"                                                                                                                                                                                                                                                                ",
"                                                                                                                                                                                                                                                                ",
"                                                                                                                                                                                                                                                                ",
"                                                                                                                                                                                                                                                                ",
"                                                                                                                                                                                                                                                                ",
"                                                                                                                                                                                                                                                                ",
"                                                                                                                                                                                                                                                                ",
"                                                                                                                                                                                                                                                                ",
"                                                                                                                      ......                                                                                                                                    ",
"                     ......                          ......                        .........                      ....######.                                                                                                                                   ",
"       ..       .....######.          .         .....######.                    ...++#######.         .        ...+++######=#.                                                                                                                                  ",
"      .=#.   ...=+++######=#.        .=..    ...=+++######=#.         ....   ...=++++######=#.       .=...   ..==++++#######.                                                                                                                                   ",
"       ..#...===++++#######.          .##....===++++#######.         .=##+...===+++++#######.         .###...===+++++######.+.                                                                                                                                  ",
"         .++++=+++++######.+.          ..+++++=+++++######.+.         ....++++=++++++######.+.         ...++++=++++++######..                                                                                                                                   ",
"          .+++++++++######..             ..+++++++++######..              .++++++++++######..             .++++++++++=#.###.                                                                                                                                    ",
"           .++++++=.=#.###.                .++++++=.=#.###.                .++++++=.+=#.###.               .++++++=.+==###.                                                                                                                                     ",
"           .+++..+..==###.                 .+++..+..O=###.                 .+++..+...O=###.                .+++..+........                                                                                                                                      ",
"           .#.. .+.+.....                  .#.. .+.+O....                  .#.. .+.#..O...                 .#.. .+.#.                                                                                                                                           ",
"                                                                                                                                                                                                                                                                ",
"                                                                                                                                                                                                                                                                ",
"                                                                                                                                                                                                                                                                ",
"                                                                                                                                                                                                                                                                ",
"                                                                                                                                                                                                                                                                ",
"                                                                                                                                                                                                                                                                ",
"                                                                                                                                                                                                                                                                ",
"                                                                                                                                                                                                                                                                ",
"                                                                                                                                                                                                                                                                ",
"                                                                                                                                                                                                                                                                ",
"                                                                                                                                                                                                                                                                ",
"                                                                                                                                                                                                                                                                ",
"                                                                                                                                                                                                                                                                ",
"                                                                                                                                                                                                                                                                ",
"                                                                                                                                                                                                                                                                ",
"                                                                                                                                                                                                                                                                ",
"                                                                                                                                                                                                                                                                ",
"                                                                                                                                                                                                                                                                ",
"                                                                                                                                                                                                                                                                ",
"                                                                                                                                                                                                                                                                ",
"                                                                                                                                                                                                                                                                ",
"                                                                                                                                                                                                                                                                ",
"                                                                                                                      ......                                                                                                                                    ",
"                    .......                         .......                           ......                         .######.                                                                                                                                   ",
"                   .#######.                       .#######.                        ..######.                       .######=#.                                                                                                                                  ",
"                  .+######=#.                     .+######=#.                     ..+######=#.                    ..+#######.                                                                                                                                   ",
"       ..       ..++#######.                    ..++#######.                    ..+++#######.                   ..+++######.+.                                                                                                                                  ",
"      .=#.   ...=+++######.+.          .........=+++######.+.                ...=++++######.+.         ...   ...=++++######..                                                                                                                                   ",
"       ..#...===++++######..          .=##+++===++++######..           ......===+++++######..         .=##...===+++++=#.###.                                                                                                                                    ",
"         .++++++++++=#.###.            ...++++++++++=#.###.           .=##+++++++++++=#.###.           ...+++++++++++==###.                                                                                                                                     ",
"          .++.++++++==###.                .++.++++++O=###.             ....++.+++++++O=###.               .++.+++++++.....                                                                                                                                      ",
"           .++..++.+.....                  .++..++.+O....                  .++..++.+.OO...                 .++..++.+.                                                                                                                                           ",
"                                                                                                                                                                                                                                                                ",
"                                                                                                                                                                                                                                                                ",
"                                                                                                                                                                                                                                                                ",
"                                                                                                                                                                                                                                                                ",
"                                                                                                                                                                                                                                                                ",
"                                                                                                                                                                                                                                                                ",
"                                                                                                                                                                                                                                                                ",
"                                                                                                                                                                                                                                                                ",
"                                                                                                                                                                                                                                                                ",
"                                                                                                                                                                                                                                                                ",
"                                                                                                                                                                                                                                                                ",
"                                                                                                                                                                                                                                                                ",
"                                                                                                                                                                                                                                                                ",
"                                                                                                                                                                                                                                                                ",
"                                                                                                                                                                                                                                                                ",
"                                                                                                                                                                                                                                                                ",
"                                                                                                                                                                                                                                                                ",
"                                                                                                                                                                                                                                                                ",
"                . .                                                                                                                                                                                                                                             ",
"               .O.O.                              . .                                                                                                                                                                                                           ",
"              .O%O...                            .#.+.                                                                                                                                                                                                          ",
"              .OOOOOO.                          .#=#...                                                                                                                                                                                                         ",
"              .OOOOOOO.                         .######.                                                                                                                                                                                                        ",
"              .OOOOOOO.                         .#######.                                                                                                                                                                                                       ",
"             .OOOOOO.O.               .         .#######.                                                                                                                                                                                                       ",
"             .OOOOOOO%.              .=.       .######.#.                                                                                                                                                                                                       ",
"              ..OOOO%%.               .#.. .....#######=.                                                                                                                                                                                                       ",
"       .......oooooo..                 .#+.++===..####==.                                                                                                                                                                                                       ",
"      .OOoooo%%ooooo.                   ..++++=+++++++..                                                                                                                                                                                                        ",
"     .%.....oooooo%%.                     ..++++++===.                                                                                                                                                                                                          ",
"      .    .oo...o.O.                      .++...+.#.                                                                                                                                                                                                           ",
"           .O.. .o.O.                      .#.. .+.#.                                                                                                                                                                                                           ",
"                                                                                                                                                                                                                                                                ",
"                                                                                                                                                                                                                                                                ",
"                                                                                                                                                                                                                                                                ",
"                                                                                                                                                                                                                                                                ",
"                                                                                                                                                                                                                                                                ",
"                                                                                                                                                                                                                                                                ",
"                                                                                                                                                                                                                                                                ",
"                                                                                                                                                                                                                                                                ",
"                                                                                                                                                                                                                                                                ",
"                                                                                                                                                                                                                                                                ",
"                                                                                                                                                                                                                                                                ",
"                                                                                                                                                                                                                                                                ",
"                                                                                                                                                                                                                                                                ",
"                                                                                                                                                                                                                                                                ",
"                                                 . .                                                                                                                                                                                                            ",
"                                                .#.+.                                                                                                                                                                                                           ",
"                                               .#=#...                                                                                                                                                                                                          ",
"                                               .######.                             ....                                                                                                                                                                        ",
"                . .                            .######.                            ..##=..                           ..                                                                                                                                         ",
"               .O.O.                           .#######.                          ..####.+.                         .##....                                                            ..                                                                       ",
"              .O%O...                          .#######.                         .#######.                          .##....                                                           .##....                                                                   ",
"              .OOOOOO.                        .######O#.                         ..#######.                        +.######.                                                         +.######.                                                                  ",
"              .OOOOOOO.                    O  .#######=.                         +########.                        +######=#.                                                        +.######.                                                                  ",
"              .OOOOOOO.                        ..####==.                          +######.                        =+#######.                                                         +######=#.                                                                 ",
"         ,,  .OOOOOO.O.                     O   +++++..                           =+###O#.                        =+#######.                                                        =+#######.                                                                  ",
"           ,,,OOOOOOO%.               .         +++++..                            =+===.                         =+######.+.                         ..                            =+######.+.                         ..                              ..      ",
"              ,,,OOO%%.              .=... .....  ==.    O                O   ..     .=.                          .+######..                         .##....                        .+######..                         .##....                         .##....  ",
"       .......ooo,,,,.                .##+.++===O                     . O  ...==O      .                   .....   .=#O###.                .....    +.######.               ....     .=#O###.               ....      +.######.             ....      +.######. ",
"      .OOoooo%%ooooo.,,,,              ...++++=++O    O              .=....++==++O                    O ...++==== =.==###.                .++====   +######=#.            ..+====    .==###.              ..+====     +######=#.          ..+====     +######=#.",
"     .%.....oooooo%%.                     ..++++++=O                  .##+++++++++=                   ..#+++++++++=.==###.            ....++++++++= +#######.         ....++++++++=  .==###.          ....++++++++=   +#######.       ....++++++++=   +#######. ",
"      .    .oo...o.O.                      .++...+.#.                  .....++...+.#.    O           .=#....++++.+.#.....            .=##+..+++++++#=######=+.       .=##++++++++++#. .....          .=##++++++++++#. =######=+.     .=##++++++++++#. =######=+.",
"           .O.. .o.O.                      .#.. .+.#.                      .++. .+.#.         O       ..   .++.+.+.#.         O       .... .++.+.+.#=###O###.         ......++.+.+.#.                 ......++.+.+.#. =###O###.       ......++.+.+.#. =###O###. ",
"                                                                                                                                                                                                                                                                ",
"                                                                                                                                                                                                                                                                ",
"                                                                                                                                                                                                                                                                ",
"                                                                                                                                                                                                                                                                ",
"                                                                                                                                                                                                                                                                ",
"                                                                                                                                                                                                                                                                ",
"                                                                                                                                                                                                                                                                ",
"                                                                                                                                                                                                                                                                ",
"                                                                                                                                                                                                                                                                ",
"                                                                                                                                                                                                                                                                ",
"                                                                                                                                                                                                                                                                ",
"                                                                                                                                                                                                                                                                ",
"                                                                                                                                                                                                                                                                ",
"                                                                                                                                                                                                                                                                ",
"                                                 . .                                                                                                                                                                                                            ",
"                                                .#.+.                                                                                                                                                                                                           ",
"                                               .#=#...                                                                                                                                                                                                          ",
"                                               .######.                                                                                                                                                                                                         ",
"                . .                            .######.                                                                                                                                                                                                         ",
"               .O.O.                           .#######.                         . .                                                                                                                                   ..                                       ",
"              .O%O...                          .#######.                        .#.+.                                                                                                                                 .##....                                   ",
"              .OOOOOO.                        .######O#.                       .#=#...                                                              ....                                                             +.######.                                  ",
"              .OOOOOOO.                .      .#######=.                 O     .######.                                                            ..##=..                                                           +.######.                                  ",
"              .OOOOOOO.               .=.      ..####==.              .        .######.                                                           ..####.+.                                                          +######=#.                                 ",
"         ,,  .OOOOOO.O.                .#.      +++++..              .=.       .#######.                                                         .#######.                                                          =+#######.                                  ",
"           ,,,OOOOOOO%.                 .#.     +++++..               .#.  O   .#######.              .          . .                             ..#######.                           ..                            =+######.+.                         ..      ",
"              ,,,OOO%%.                  .+.....OO==.                O .#. ....######O#.             .=... .... .#.+.                         .. +########.                          .##....                        .+######..                         .##....  ",
"       .......ooo,,,,.                    .++===O OOO                   .+.++=.#######=.              .##+.++=..######.               .    ...==  +######.                 .....    +.######.               ....     .=#O###.               ....      +.######. ",
"      .OOoooo%%ooooo.,,,,                  .++=++OO                 O    .++++=..####==.               ...++++=.######.              .=....++==++ =+###O#.                .++====   +######=#.            ..+====    .==###.              ..+====     +######=#.",
"     .%.....oooooo%%.                      .++++++=OO                     ..+++++++++..                   ..+++.#######.              .##+++++++++==+===.             ....++++++++= +#######.         ....++++++++=  .==###.          ....++++++++=   +#######. ",
"      .    .oo...o.O.                      .++...+.#.                      .++..+++++.. O O                .++.######O#.               .....++...+.#..=.             .=##+..+++++++#=######=+.       .=##++++++++++#. .....          .=##++++++++++#. =######=+.",
"           .O.. .o.O.                      .#.. .+.#.                      .#. ..+==.             O    O   .#. #######=.   O   O  O        .++. .+.#.       O         .... .++.+.+.#=###O###.         ......++.+.+.#.                 ......++.+.+.#. =###O###. ",
"                                                                                                                                                                                                                                                                ",
"                                                                                                                                                                                                                                                                ",
"                                                                                                                                                                                                                                                                ",
"                                                                                                                                                                                                                                                                ",
"                                                                                                                                                                                                                                                                ",
"                                                                                                                                                                                                                                                                ",
"                                                                                                                                                                                                                                                                ",
"                                                                                                                                                                                                                                                                ",
"                                                                                                                                                                                                                                                                ",
"                                                                                                                                                                                                                                                                ",
"                                                                                                                                                                                                                                                                ",
"                                                                                                                                                                                                                                                                ",
"                                                                                                                                                                                                                                                                ",
"                                                                                                                                                                                                                                                                ",
"                                                                                                                                                                                                                                                                ",
"                                                                                                                                                                                                                                                                ",
"                                                                                                                                                                                                                                                                ",
"                                                                                                                                                                                                                                                                ",
"                                                                                                                                                                                                                                                                ",
"                                                                                                                                                                                                                                                                ",
"                                                                                                                                                                                                                                                                ",
"                                                                                                                                                                                                                                                                ",
"                                                                                                                                                                                                                                                                ",
"                                                                                                                                                                                                                                                                ",
"                                                                                                                                                                                                                                                                ",
"                        ..                              ..                              ..                              ..                                                                                                                                      ",
"                       .##....                        O.##....                         .##....                         .##....                                                                                                                                  ",
"            ....      +.######.             ....      +.######.             ....     O+.######.             ....      +.######.                                                                                                                                 ",
"          ..+====     +######=#.          ..+====O    +######=#.          ..+====     +######=#.          ..+====     +######=#.                                                                                                                                ",
"      ....++++++++=   +#######.       ....++++++++=   +#######.       ....++++++++=O  +#######.       ....++++++++= O +#######.                                                                                                                                 ",
"     .=##++++++++++#. =######=+.     .=##++++++++++#. =######=+.     .=##++++++++++#. =######=+.     .=##++++++++++#.O=######=+.                                                                                                                                ",
"      ......++.+.+.OOOO###O###.       ......++.+.+.OOOO###O###.       ......++.+.+.OOOO###O###.       ......++.+.+.OOOO###O###.                                                                                                                                 ",
"                                                                                                               ,,,,,,                                                                                                                                           ",
"                                                                               ,,,,,,                         ,,    ,,                         ,,,,,,                                                          ,,,,,,                                           ",
"                                               ,,,,,,                         ,,    ,,                       ,,    ,,                         ,,    ,,                         ,,,,,,                         ,,    ,,                                          ",
"                                              ,,    ,,                       ,,    ,,                         ,,,,,,                         ,,    ,,                         ,,    ,,                       ,,    ,,                                           ",
"                                             ,,    ,,                         ,,,,,,                                                          ,,,,,,                         ,,    ,,                         ,,,,,,                                            ",
"                                              ,,,,,,                                                         &     &                                                          ,,,,,,                                                                            ",
"                                                                             &     &                        &;&   &;&                        &     &                                                         &     &                                            ",
"                                             &     &                        &;&   &;&                       &=-&&&-=&                       &;&   &;&                        &     &                        &;&   &;&                                           ",
"                                            &;&   &;&                       &=-&&&-=&                       &-------&                       &=-&&&-=&                       &;&   &;&                       &=-&&&-=&                                           ",
"                                            &=-&&&-=&                       &-------&                       &-------&                       &-------&                       &=-&&&-=&                       &-------&                                           ",
"                                            &-------&                       &-------&                      &---------&                      &-------&                       &-------&                       &-------&                                           ",
"                                            &-------&                      &---------&                     &--&-=-&--&                     &---------&                      &-------&                      &---------&                                          ",
"                                           &---------&                     &--&-=-&--&                     &---=*=---&                     &--&-=-&--&                     &---------&                     &--&-=-&--&                                          ",
"                                           &--&-=-&--&                     &---=*=---&                      &-=====-&                      &---=*=---&                     &--&-=-&--&                     &---=*=---&                                          ",
"                                           &---=*=---&                      &-=====-&                        &&&&&&&                        &-=====-&                      &---=*=---&                      &-=====-&                                           ",
"                                            &-=====-&                        &&&&&&&                                                         &&&&&&&                        &-=====-&               ,,       &&&&&&&                                            ",
"                                             &&&&&&&                                                                                                                         &&&&&&&,,                   ,              ,,                                      ",
"                                                                                                                                               ,, ,,                                 , ,,                            ,                                          ",
"                                                                                                          ,,,,,,                        ,,   ,        ,,                  ,    ,                     ,,       ,,  . .                                           ",
"               ,,                                                                                        ,>>,,,,,,,,,,               ,,      ,  , ,,.    ,              ,,    ,,  .,,,   , ,                     .#.+.    ,    ,                                ",
"               ,,                                                                                       ,>>>>>>>>>>>>>,              ,    ,,   , .,,,,,  ,             ,:      , .....,             ,    ,,     .#=#...        ,                    .           ",
"               ,,                                                                                      ,>>>,,>>>,,,>>>>,                    , ,,,#=#,,,    ,              ,,   , .#.+..    ,       ,,   ,    ,  .###,##.    ,                    ...+..         ",
"               ,,                                                                                     ,>>,,,,,,,,,,,,>>,             ,     ,,,  ,#,,,,>,,, ,         ,    :     .#=,..,.   ,       ,            .####,##.                       .#=#.##.        ",
"              ,,,,                                                                                    ,>,,,,,,,,,,,,,,>,            ,,   , ,>>,,,#####,>,, ,         ,   ,  ,,  .#,#,,#.    ,                   .#######.    ,                  .#######.       ",
"              ,,,,                                                                                    ,,,>>,,,,,,,,,,,>,            ,   ,   ,,,,.#,##,,,,, ,          . ,,     ,,,######,  ,,         ,,       .######.,.    ,,                 .#######.       ",
"              ,,,,                                                                                   >>>>>>>>>>>>,,,,,>,            ,   ,,, , ,,#####,,,., ,,       ,.=... ,,  ..#####,#., ,      ,           ..#######,.                      .######.#.       ",
"             ,,,,,,                             ,                                                    ,>>>>,>>>>>>>>,,>>,            :  .,,,...,,##,###,,.,          , .###.,..,,######.,.,        ,   ..  ....==:,####==.                     ..#######=.       ",
"            ,,,,,,,,                          ,,,                        ,,          ,,,             :>>::>>>>,>>>>,,>>,,           : ,#,,+++=,=..###,,,.,  ,       : ...,+++==.####,##=.,  ,,       .=#..+++==+++++++..   ,  ,         ......==..####==.       ",
"          ,,,,,,,,,,,,                        ,,,                         ,,,      ,,,,              :>>>:>>>>>>>>>>>,,,,           :.:.,.,+,,,+++,,++.,,   ,      , .=.,:,++++=+++++,#.            , ..##.++++++++=,.        ,       ..##+++==+++++++..        ",
"       ,,,,,,,,,,,,,,,,,,                     ,,,,,                        ,,,    ,,,,               :>>>,>>>>>>>>>>>,,,              .  , .+,+++,,==.,,    ,      :  ., , ,+,++++,+=..   ,         ,   .. .++++++==.         ,      .=#...++++++++==.          ",
"     ,,,,,,,,,,,,,,,,,,,,,,                ,,,,,,,,,,                      ,,,,,,,,,,                 :,::>:::::::,,>>,              ,:: ,,.,,..,,.#.,::   ,       ,   ,   .,+.,.+,+.    ,,                .++...+,#.    ,:           ..   .++++++==.           ",
"   ,,,,,,,,,,,,,,,,,,,,,,,,,,            ,,,,,,,,,,,,,,,                     ,,,,,,                    ::::::::::::::::,               , :::,.. ,:,#,,:,   ,               .:,.:.+.#.  ,           :       .#.. .+.#.         ,            .+#.+.+.#.           ",
"                                                                                                                                                                                                                                                                ",
"                                                                                                                                                                                                                                                                ",
"                                                                                                                                                                                                                                                                ",
"                                                                                                                                                                                                                                                                ",
"                                                                                                                                                                                                                                                                ",
"                                                                                                                                                                                                                                                                ",
"                                                                                                                                                                                                                                                                ",
"                                                                                                                                                                                                                                                                ",
"                                                                                                                                                                                                                                                                ",
"                                                                                                                                                                                                                                                                ",
"                                                                                                                                                                                                                                                                ",
"                                                                                                                                                                                                                                                                ",
"                                                                                                                                                                                                                                                                ",
"                                                                                                                                                                                                                                                                ",
"                                                                                                                                                                                                                                                                ",
"                                                                                                                                                                                                                                                                ",
"                                                                                                                                                                                                                                                                ",
"                                                                                                                                                                                                                                                                ",
"                                                  . .                             . .                             . .                                                                                                                                           ",
"                  . .                            .#.+.                           .#.+.                           .#.+.                                                                                                                                          ",
"                 .#.+.                          .#=#...                         .#=#...                         .#=#...                                                                                                                                         ",
"                .#=#...                         .######.                        .######.                        .######.                                                                                                                                        ",
"                .######.                        .#######.                       .#######.                       .#######.                                                                                                                                       ",
"                .#######.                       .#######.                       .#######.                       .#######.                                                                                                                                       ",
"                .#######.                      .######.#.                      .######.#.                      .######.#. ,                                                                                                                                     ",
"      .        .######.#.                      .#######=.                      .#######=.             .        .#######=. ,                                                                                                                                     ",
"     .=... .....#######=.                   ......####==.             . ..  ......####==.            .=...  ......####==.,,                                                                                                                                     ",
"      .##+.++===..####==.               ....+===++++++..             .=.#+..+===++++++..              .##+..+===++++++.. ,                                                                                                                                      ",
"       ...++++=+++++++..              ..#+++++=+++===.                .#..++++=+++===.#.               ...++++=+++===.   ,                                                                                                                                      ",
"          ..++++++===.               .=#...+++++.+.#.                  .  .+++++.+.#...                   .+++++.+.#.   ,                                                                                                                                       ",
"           .++...+.#.                 ..   .++...+.#.                      .++.. .+.                       .++.. .+.#. ,,                                                                                                                                       ",
"           .#.. .+.#.                      .#..                            .#..                            .#..     ,,,                                                                                                                                         ",
"                                                                                                                                                                                                                                                                ",
"                                                                                                                                                                                                                                                                ",
"                                                                                                                                                                                                                                                                ",
"                                                                                                                                                                                                                                                                ",
"                                                                                                                                                                                                                                                                ",
"                                                                                                                                                                                                                                                                ",
"                                                                                                                                                                                                                                                                ",
"                                                                                                                                                                                                                                                                ",
"                                                                                                                                                                                                                                                                ",
"                                                                                                                                                                                                                                                                ",
"                                                                                                                                                                                                                                                                ",
"                                                                                                                                                                                                                                                                ",
"                                                                                                                                                                                                                                                                ",
"                                                                                                                                                                                                                                                                ",
"                                                                                                                                                                                                                                                                ",
"                                                                                                                                                                                                                                                                ",
"                                                                                                                                                                                                                                                                ",
"                                                                                                                                                                                                                                                                ",
"                                                  . .                             . .                             . .                                                                                                                                           ",
"                  . .                            .#.+.                           .#.+.                           .#.+.                                                                                                                                          ",
"                 .#.+.                          .#=#...                         .#=#...                         .#=#...                                                                                                                                         ",
"                .#=#...                         .######.                        .######.                        .######.                                                                                                                                        ",
"                .######.                        .#######.                       .#######.                       .#######.                                                                                                                                       ",
"                .#######.                       .#######.                       .#######.                       .#######.                                                                                                                                       ",
"                .#######.                      .######.#.                      .######.#.                      .######.#.                                                                                                                                       ",
"      .        .######.#.                      .#######=.                      .#######=.,            .        .#######=.                                                                                                                                       ",
"     .=... .....#######=.                  .......####==.             . ..   .....####==., ,         .=... .......####==.    ,                                                                                                                                  ",
"      .##+.++===..####==.               ...++===++++++..             .=.#+...===++++++..  , ,         .##+.++===++++++..      ,                                                                                                                                 ",
"       ...++++=+++++++..              ..#+++++=+++===.                .#..++++=+++===.#.  , ,          ...++++=+++===.        ,                                                                                                                                 ",
"          ..++++++===.               .=#....++++.+.#.                  .  ..++++.+.###.  , ,              ..++++.+.#.        ,                                                                                                                                  ",
"           .++...+.#.                 ..   .++...+.#.                      .++..   ...   ,                 .++.. .+.#.                                                                                                                                          ",
"           .#.. .+.#.                      .#.                             .#.          ,                  .#..                                                                                                                                                 ",
"                                                                                                                                                                                                                                                                ",
"                                                                                                                                                                                                                                                                ",
"                                                                                                                                                                                                                                                                ",
"                                                                                                                                                                                                                                                                ",
"                                                                                                                                                                                                                                                                ",
"                                                                                                                                                                                                                                                                ",
"                                                                                                                                                                                                                                                                ",
"                                                                                                                                                                                                                                                                ",
"                                                                                                                                                                                                                                                                ",
"                                                                                                                                                                                                                                                                ",
"                                                                                                                                                                                                                                                                ",
"                                                                                                                                                                                                                                                                ",
"                                                                                                                                                                                                                                                                ",
"                                                                                                                                                                                                                                                                ",
"                                                                                                                                                                                                                                                                ",
"                                                                                                                                                                                                                                                                ",
"                                                                                                                                                                                                                                                                ",
"                                                                                                                                                                                                                                                                ",
"                                                                                                                                                                                                                                                                ",
"                  . .                                                                                                                                                                                                                                           ",
"                 .#.+.                            . .                                                             . .                                                                                                                                           ",
"                .#=#...                          .#.+.                 .          . .                            .#.+.                                                                                                                                          ",
"                .######.                        .#=#...               .=.        .#.+.                          .#=#...                                                                                                                                         ",
"                .#######.                       .######.              .#.       .#=#...                         .######.                                                                                                                                        ",
"                .#######.             .         .#######.             ,.+.      .######.              .         .#######.                                                                                                                                       ",
"      .        .######.#.            .=... .... .#######.            ,  .+..... .#######.            .=... .... .#######.                                                                                                                                       ",
"     .=... .....#######=.             .##+.++==.######.#.            , , .+++==.######.#.             .##+.++==.######.#.                                                                                                                                       ",
"      .##+.++===..####==.              ...++++=.#######=.           , ,   .+++=.#######=.          ,   ...++++=.#######=.                                                                                                                                       ",
"       ...++++=+++++++..                  ..+++=..####==.           , ,   ..+++=..####==.         ,       ..+++=..####==.                                                                                                                                       ",
"          ..++++++===.                     .++.++++++...             , , .++++.++++++...          ,        .++.++++++...                                                                                                                                        ",
"           .++...+.#.                      .#....+.#.                ,    .......+.#.              ,       .#....+.#.                                                                                                                                           ",
"           .#.. .+.#.                           .+.#.                 ,         .+.#.                           .+.#.                                                                                                                                           ",
"                                                                                                                                                                                                                                                                ",
"                                                                                                                                                                                                                                                                ",
"                                                                                                                                                                                                                                                                ",
"                                                                                                                                                                                                                                                                ",
"                                                                                                                                                                                                                                                                ",
"                                                                                                                                                                                                                                                                ",
"                                                                                                                                                                                                                                                                ",
"                                                                                                                                                                                                                                                                ",
"                                                                                                                                                                                                                                                                ",
"                                                                                                                                                                                                                                                                ",
"                                                                                                                                                                                                                                                                ",
"                                                                                                                                                                                                                                                                ",
"                                                                                                                                                                                                                                                                ",
"                                                                                                                                                                                                                                                                ",
"                                                                                                                                                                                                                                                                ",
"                                                                                                                                                                                                                                                                ",
"                                                                                                                                                                                                                                                                ",
"                                                                                                                                                                                                                                                                ",
"                                                                                                                                                                                                                                                                ",
"                  . .                                                                                                                                                                                                                                           ",
"                 .#.+.                            . .                                                             . .                                                                                                                                           ",
"                .#=#...                          .#.+.                 .          . .                            .#.+.                                                                                                                                          ",
"                .######.                        .#=#...               .=.        .#.+.                          .#=#...                                                                                                                                         ",
"                .#######.                       .######.              .#.       .#=#...                         .######.                                                                                                                                        ",
"                .#######.             .         .#######.              .+.      .######.              .         .#######.                                                                                                                                       ",
"      .        .######.#.            .=... .... .#######.               .+..... .#######.            .=... .... .#######.                                                                                                                                       ",
"     .=... .....#######=.             .##+.++==.######.#.                .+++==.######.#.             .##+.++==.######.#.                                                                                                                                       ",
"      .##+.++===..####==.              ...++++=.#######=.                 .+++=.#######=.              ...++++=.#######=.                                                                                                                                       ",
"       ...++++=+++++++..                  ..+++=..####==.              ,  ..+++=..####==.                 ..+++=..####==.                                                                                                                                       ",
"          ..++++++===.                     .++.++++++...               , .++++.++++++...                   .++.++++++...                                                                                                                                        ",
"           .++...+.#.                      .#....+.#.                   , .......+.#.                      .#....+.#.                                                                                                                                           ",
"           .#.. .+.#.                       ,   .+.#.                    ,,,    .+.#.                           .+.#.                                                                                                                                           ",
"                                                                                                                                                                                                                                                                ",
"                                                                                                                                                                                                                                                                ",
"                                                                                                                                                                                                                                                                ",
"                                                                                                                                                                                                                                                                ",
"                                                                                                                                                                                                                                                                ",
"                                                                                                                                                                                                                                                                ",
"                                                                                                                                                                                                                                                                ",
"                                                                                                                                                                                                                                                                ",
"                                                                                                                                                                                                                                                                ",
"                                                                                                                                                                                                                                                                ",
"                                                                                                                                                                                                                                                                ",
"                                                                                                                                                                                                                                                                ",
"                                                                                                                                                                                                                                                                ",
"                                                                                                                                                                                                                                                                ",
"                                                                                                                                                                                                                                                                ",
"                                                                                                                                                                                                                                                                ",
"                                                                                                                                                                                                                                                                ",
"                                                                                                                                                                                                                                                                ",
"                                                  . .                             . .                                                                                                                                                                           ",
"                  . .                            .#.+.                           .#.+.                                                                                                                                                                          ",
"                 .#.+.                          .#=#...                         .#=#...                           . .                                                                                                                                           ",
"                .#=#...                         .######.                        .######.                         .#.+.                                                                                                                                          ",
"                .######.                        .#######.             .         .#######.             .         .#=#...                                                                                                                                         ",
"                .#######.                  .... .#######.            .=... .... .#######.            .=.        .######.                                                                                                                                        ",
"                .#######.                 .++==.######.#.           , .##+.++==.######.#.  ,          .#.       .#######.                                                                                                                                       ",
"      .        .######.#.              ...++++=.#######=.          ,   ...++++=.#######=.   ,          .#. .... .#######.                                                                                                                                       ",
"     .=... .....#######=.             .##+..+++=..####==.          , ,    ..+++=..####==. , ,     ,     .+.++==.######.#.   ,                                                                                                                                   ",
"      .##+.++===..####==.            .=... .++.++++++...          , ,    ...++.++++++...   , ,   ,       .++++=.#######=.    ,                                                                                                                                  ",
"       ...++++=+++++++..              .    .#....+.#.             , ,   .#+++........+++.  , ,   ,        ..+++=..####==.    ,                                                                                                                                  ",
"          ..++++++===.                                             , ,   ....        ...  , ,     ,        .++.++++++...    ,                                                                                                                                   ",
"           .++...+.#.                                              ,                        ,              .#....+.#.                                                                                                                                           ",
"           .#.. .+.#.                                               ,                      ,                    .+.#.                                                                                                                                           ",
"                                                                                                                                                                                                                                                                ",
"                                                                                                                                                                                                                                                                ",
"                                                                                                                                                                                                                                                                ",
"                                                                                                                                                                                                                                                                ",
"                                                                                                                                                                                                                                                                ",
"                                                                                                                                                                                                                                                                ",
"                                                                                                                                                                                                                                                                ",
"                                                                                                                                                                                                                                                                ",
"                                                                                                                                                                                                                                                                ",
"                                                                                                                                                                                                                                                                ",
"                                                                                                                                                                                                                                                                ",
"                                                                                                                                                                                                                                                                ",
"                                                                                                                                                                                                                                                                ",
"                                                                                                                                                                                                                                                                ",
"                                                                                                                                                                                                                                                                ",
"                                                                                                                                                                                                                                                                ",
"                                                                                                                                                                                                                                                                ",
"                                                                                                                                                                                                                                                                ",
"                                                                                                                                                                                                                                                                ",
"                                                  . .                             . .                            . .                                                                                                                                            ",
"                   . .                           .#.+.                           .#.+.                          .#.+.                                                                                                                                           ",
"                  .#.+.                         .#=#...                         .#=#...                        .#=#...                                                                                                                                          ",
"                 .#=#...                        .######.                        .######.                       .######.                                                                                                                                         ",
"                 .######.                       .#######.                       .#######.                      .#######.                                                                                                                                        ",
"      .          .#######.                      .#######.                       .#######.                      .#######.                                                                                                                                        ",
"     .=... ....  .#######.           .    ......######.#.                 ......######.#.            .    .....######.#.                                                                                                                                        ",
"      .##+.++==..######.#.          .=....++====.######=.            .....++====.######=.           .=....++===.######=.                                                                                                                                        ",
"       ...++++==.#######=.           .##++++++=++.####==.           .=##++++++=++.####==.            .##++++++=+.####==.                                                                                                                                        ",
"          ..+++==..####==.            .....+++++++++++..             ......+++++++++++..              .....++++++++++..                                                                                                                                         ",
"           .+..++++++++..                 .+..+++===..                X   .+..+++===..                    .+..+++===.                                                                                                                                           ",
"           .+. ......==+.                 .+. ....++.                   X .+.X....+..                     .+. ......                                                                                                                                            ",
"           .#.       ...+.                 .#.   X.+.                      .#. X +..             X X       .#.                                                                                                                                                  ",
"                                                                                                                                                                                                                                                                ",
"                                                                                                                                                                                                                                                                ",
"                                                                                                                                                                                                                                                                ",
"                                                                                                                                                                                                                                                                ",
"                                                                                                                                                                                                                                                                ",
"                                                                                                                                                                                                                                                                ",
"                                                                                                                                                                                                                                                                ",
"                                                                                                                                                                                                                                                                ",
"                                                                                                                                                                                                                                                                ",
"                                                                                                                                                                                                                                                                ",
"                                                                                                                                                                                                                                                                ",
"                                                                                                                                                                                                                                                                ",
"                                                                                                                                                                                                                                                                ",
"                                                                                                                                                                                                                                                                ",
"                                                                                                                                                                                                                                                                ",
"                                                                                                                                                                                                                                                                ",
"                                                                                                                                                                                                                                                                ",
"                                                                                                                                                                                                                                                                ",
"                  . .                                                                                                                                                                                                                                           ",
"                 .#.+.                            . .                                                             . .                                                                                                                                           ",
"                .#=#...                          .#.+.                             . .                           .#.+.                                                                                                                                          ",
"                .######.                        .#=#...                           .#.+.                         .#=#...                                                                                                                                         ",
"                .#######.                       .######.                         .#=#...                        .######.                                                                                                                                        ",
"                .#######.                       .#######.             .          .######.                       .#######.                                                                                                                                       ",
"               .######.#.             .         .#######.            .=..        .#######.            .         .#######.                                                                                                                                       ",
"               .#######=.            .=.       .######.#.             .##. ...   .#######.           .=... ... .######.#.                                                                                                                                       ",
"      .... ....=..####==.             .#.. .....#######=.              ..+.++=...######.#.            .##+.++=..#######=.                                                                                                                                       ",
"     .=##+.++==+++++++..               .#+.++===..####==.                .++++===.######=.             ...++++==..####==.                                                                                                                                       ",
"      ....++++=++++++.                  ..++++=+++++++..           X X    ..++=+++.####==.                ..++=+++++++..                                                                                                                                        ",
"          ..++++++===.                    ..++++++===.                 X   .+.+++++++++..                  .+.++++===.                                                                                                                                          ",
"           .++...+.#.                      .+....+.#.                 X   .#. ....+==..          X            ...+.#.                                                                                                                                           ",
"            .#. .+.#.                    X.#.   .+.#.                           .+.#.              X            .+.#.                                                                                                                                           ",
"                                                                                                                                                                                                                                                                ",
"                                                                                                                                                                                                                                                                ",
"                                                                                                                                                                                                                                                                ",
"                                                                                                                                                                                                                                                                ",
"                                                                                                                                                                                                                                                                ",
"                                                                                                                                                                                                                                                                ",
"                                                                                                                                                                                                                                                                ",
"                                                                                                                                                                                                                                                                ",
"                                                                                                                                                                                                                                                                ",
"                                                                                                                                                                                                                                                                ",
"                                                                                                                                                                                                                                                                ",
"                                                                                                                                                                                                                                                                ",
"                                                                                                                                                                                                                                                                ",
"                                                                                                                                                                                                                                                                ",
"                                                                                                                                                                                                                                                                ",
"                                                                                                                                                                                                                                                                ",
"                                                                                                                                                                                                                                                                ",
"                                                                                 . .                                                                                                                                                                            ",
"                                                 . .                            .#.+.                            . .                                                                                                                                            ",
"                 . .                            .#.+.                          .#=#...                          .#.+.                                                                                                                                           ",
"                .#.+.                          .#=#...                         .######.                        .#=#...                                                                                                                                          ",
"               .#=#...                         .######.                        .#######.                       .######.                                                                                                                                         ",
"               .######.                        .#######.              .        .#######.                       .#######.                                                                                                                                        ",
"               .#######.             .         .#######.             .=.      .######.#.             .         .#######.                                                                                                                                        ",
"     ..        .#######.            .=.       .######.#.             .#.      .#######=.            .=.       .######.#.                                                                                                                                        ",
"    .=#.      .######.#.             .#.      .#######=.             .#.      =..####==.             .#.      .#######=.                                                                                                                                        ",
"     ..#.......#######=.              .#......=..####==.              .#.  ...+++++++..               .#. ....=..####==.                                                                                                                                        ",
"       .+++++==..####==.               .+++++=+++++++..                .+..++=+++===.                  .+.+++=+++++++..                                                                                                                                         ",
"        .++++++++++++..                 .++++++++===.                   .++++++++.+.                    .++++++++===.                                                                                                                                           ",
"         .+++++++===.                   X.+++++++.+.                     .+++++++.+.                     .+++++++.+.                                                                                                                                            ",
"          .+++..+.+.                    X .+++..+.+.                   XX .+++..+.+.                   XX .+++..+.+.                                                                                                                                            ",
"           .#.. #.#.                       .#.. #.#.                  XXXX .#.. #.#.                  XXXX .#.. #.#.                                                                                                                                            ",
"                                                                                                                                                                                                                                                                ",
"                                                                                                                                                                                                                                                                ",
"                                                                                                                                                                                                                                                                ",
"                                                                                                                                                                                                                                                                ",
"                                                                                                                                                                                                                                                                ",
"                                                                                                                                                                                                                                                                ",
"                                                                                                                                                                                                                                                                ",
"                                                                                                                                                                                                                                                                ",
"                                                                                                                                                                                                                                                                ",
"                                                                                                                                                                                                                                                                ",
"                                                                                                                                                                                                                                                                ",
"                                                                                                                                                                                                                                                                ",
"                                                                                                                                                                                                                                                                ",
"                                                                                                                                                                                                                                                                ",
"                                                                                                                                                                                                                                                . .             ",
"                                                                                                                                                                                                                 . .                           .#.+.            ",
"                                                                                                                                                                                  . .                           .#.+.                         .#=#...           ",
"                                                                                                                                                                                 .#.+.                         .#=#...                        .######.          ",
"                                                                                                                                                                                .#=#...                        .######.                       .#######.         ",
"                  . .                             . .                             . .                                                             . .                           .######.                       .#######.                      .#######.         ",
"                 .#.+.                           .#.+.                           .#.+.                            . .                            .#.+.                          .#######.                      .#######.                     .######.#.         ",
"                .#=#...                         .#=#...                         .#=#...                          .#.+.                          .#=#...                         .#######.                     .######.#.                     .#######=.         ",
"                .######.                        .######.                        .######.                        .#=#...                         .######.                       .######.#.                     .#######=.                     ...####==.         ",
"                .#######.                       .#######.                       .#######.                       .######.                        .#######.                      .#######=.                      ..####==.                     .++++++..          ",
"                .#######.                       .#######.                       .#######.               .       .#######.                       .#######.                       ..####==.                      .++++++.                      .=++++=+#.         ",
"      .        .######.#.                      .######.#.               .      .######.#.              .=.      .#######.                      .######.#.                      .=+++++..                      .=+++==.                        .=+++=..          ",
"     .=... .....#######=.              .... ....#######=.              .=. . ...#######=.               .#.. ...######.#.                ... ...#######=.                  . ..=++===.                     . .=++++=++.                 . .. .=++++.            ",
"      .##+.++===..####==.             .=##+.++==..####==.               .#.+.+==..####==.                .#+.+==.######=.               .##+.+==..####==.                 .+.+=++++..+.                 . .+.++++++...                 .=.#+.+++++.             ",
"       ...++++=+++++++..               ....+++++++++++..                 .#.+++=++++++..                  ..+++++.####==.              .=...++++++++++..                 .#.++++++..+.                 .=.#.++++++.                     .#..+++++.              ",
"          ..++++++===.                     ..+++++===.                    . ..++++===.                      ..++++++++..                .   ..++++===.                  .#. ..+++.  .                   .#. ..+++.                       .  ..++.               ",
"           .++...+.#.                        ....+.#.                        .++.+.#.                        .++++===.                       .++.+.#.                  .=.   .++.                        .   .++.                            .++.               ",
"           .#.. .+.#.                           .+.#.                        .#..+.#.                        .#..+.#.                        .#..+.#.                   .    .#.                             .#.                             .#.                ",
"                                                                                                                                                                                                                                                                ",
"                                                                                                                                                                                                                                                                ",
"                                                                                                                                                                                                                                                                ",
"                                                                                                                                                                                                                                                                ",
"                                                                                                                                                                                                                                                                ",
"                                                                                                                                                                                                                                                                ",
"                                                                                                                                                                                                                                                                ",
"                                                                                                                                                                                                                                                                ",
"                                                                                                                                                                                                                                                                ",
"                                                                                                                                                                                                                                                                ",
"                                                                                                                                                                                                                                                                ",
"                                                                                                                                                                                                                                                                ",
"                                                                                                                                                                                                                                                                ",
"                                                                                                                                                                                                                                                                ",
"                . .                                                                                                                                                                                                                                             ",
"               .#.+.                             . .                                                                                                                                                                                                            ",
"              .#=#...                           .#.+.                             . .                                                                                                                                                                           ",
"              .######.                         .#=#...                           .#.+.                                                                                                                                                                          ",
"              .#######.                        .######.                         .#=#...                                                                                                                                                                         ",
"              .#######.                        .#######.                        .######.                          . .                                                             . .                             . .                             . .           ",
"             .######.#.                        .#######.                        .#######.                        .#.+.                            . .                            .#.+.                           .#.+.                           .#.+.          ",
"             .#######=.                       .######.#.                        .#######.                       .#=#...                          .#.+.                          .#=#...                         .#=#...                         .#=#...         ",
"             ...####==.                       .#######=.                       .######.#.                       .######.                        .#=#...                         .######.                        .######.                        .######.        ",
"             .++++++..                         ..####==.                       .#######=.                       .#######.                       .######.                        .#######.                       .#######.                       .#######.       ",
"             .=++++=+#.                        .++++++.                         ..####==.                       .#######.               .       .#######.                       .#######.                       .#######.                       .#######.       ",
"              .=+++=..                        .=+++==.                         .=+++++..                       .######.#.              .=.      .#######.               .      .######.#.                      .######.#.             .        .######.#.       ",
"        . .. .=++++.                       . .=++++=++.                    . ..=++===.                   ... ...#######=.               .#.. ...######.#.              .=. . ...#######=.              .... ....#######=.            .=... .....#######=.       ",
"       .=.#+.+++++.                     . .+.++++++...                    .+.+=++++..+.                 .##+.+==..####==.                .#+.+==.######=.               .#.+.+==..####==.             .=##+.++==..####==.             .##+.++===..####==.       ",
"        .#..+++++.                     .=.#.++++++.                      .#.++++++..+.                 .=...++++++++++..                  ..+++++.####==.                .#.+++=++++++..               ....+++++++++++..               ...++++=+++++++..        ",
"         .  ..++.                       .#. ..+++.                      .#. ..+++.  .                   .   ..++++===.                      ..++++++++..                  . ..++++===.                     ..+++++===.                    ..++++++===.          ",
"             .++.                        .   .++.                      .=.   .++.                            .++.+.#.                        .++++===.                       .++.+.#.                        ....+.#.                      .++...+.#.           ",
"             .#.                             .#.                        .    .#.                             .#..+.#.                        .#..+.#.                        .#..+.#.                           .+.#.                      .#.. .+.#.           ",
"                                                                                                                                                                                                                                                                ",
"                                                                                                                                                                                                                                                                ",
"                                                                                                                                                                                                                                                                ",
"                                                                                                                                                                                                                                                                ",
"                                                                                                                                                                                                                                                                ",
"                                                                                                                                                                                                                                                                ",
"                                                                                                                                                                                                                                                                ",
"                                                                                                                                                                                                                                                                ",
"                                                                                                                                                                                                                                                                ",
"                                                                                                                                                                                                                                                                ",
"                                                                                                                                                                                                                                                                ",
"                                                                                                                                                                                                                                                                ",
"                                                                                                                                                                                                                                                                ",
"                                                                                                                                                                                                                                                                ",
"                . .                                                                                                                             . .                                                                                                             ",
"               .#.+.                            . .                                                             . .                            .#.+.                            . .                                                             . .             ",
"              .#=#...                          .#.+.                            . .                            .#.+.                          .#=#...                          .#.+.                            . .                            .#.+.            ",
"              .######.                        .#=#...                          .#.+.                          .#=#...                         .######.                        .#=#...                          .#.+.                          .#=#...           ",
"              .#######.                       .######.                        .#=#...                         .######.                        .#######.                       .######.                        .#=#...                         .######.          ",
"              .#######.                       .#######.                       .######.                        .#######.                       .#######.                       .#######.                       .######.                        .#######.         ",
"             .######.#.                      .######.#.                       .#######.                      .######.#.                      .######.#.                      .######.#.                       .#######.                      .######.#.         ",
"             .#######=.                      .#######=.                      .######.#.                      .#######=.                      .#######=.                      .#######=.                      .######.#.                      .#######=.         ",
"             ...####==.                      ...####==.                      .#######=.                      ...####==.                      ...####==.                      ...####==.                      .#######=.                      ...####==.         ",
"             .++++++..                       .++++++..                       ...####==.                      .++++++..                       .++++++..                       .++++++..                       ...####==.                      .++++++..          ",
"              .=+++=+#.                       .=+++=+..                 .     .+++++..                  ..    .=+++=.#.                  .    .=+++=+#.                       .=+++=+#.                      .++++++..                        .=+++=+#.         ",
"              .=+++=..                  .     .=+++=.#.                .=.    .=+++=.#.                .=#.   .=+++=+.                  .#.   .=+++=..                   .    .=+++=...                       .=+++=+#.                       .=+++=..          ",
"        . .. .=++++.                   .=... .=++++. .                  .#.   .=+++=+.                  ..#. .=++++.#.                 .=.#. .=++++.                    .#.. .=++++...                        .=+++=..                    .. .=++++..           ",
"       .=.#+.+++++.                     .##+.+++++.                      .#. .=++++..#.                   .+.+++++. .                   . .+.+++++.                    .=.#+.+++++.                      ... .=++++..#.                 ..#+.+++++..#.          ",
"        .#..+++++.                       ...+++++.                        .+.+++++.  .                     .+++++.                         .+++++.                      . ..+++++.                      .##+.+++++.  .                 .=#..+++++.  .           ",
"         .  ..++.                           ..++.                          .+++++.                          ..++.                           ..++.                           ..++.                      .=...+++++.                      ..  ..++.               ",
"             .++.                            .++.                           ..++.                            .++.                            .++.                            .++.                       .   ..++.                            .++.               ",
"             .#.                             .#.                             .+.                             .#.                             .#.                             .#.                             .+.                             .#.                ",
"                                                                                                                                                                                                                                                                ",
"                                                                                                                                                                                                                                                                ",
"                                                                                                                                                                                                                                                                ",
"                                                                                                                                                                                                                                                                ",
"                                                                                                                                                                                                                                                                ",
"                                                                                                                                                                                                                                                                ",
"                                                                                                                                                                                                                                                                ",
"                                                                                                                                                                                                                                                                ",
"                                                                                                                                                                                                                                                                ",
"                                                                                                                                                                                                                                                                ",
"                                                                                                                                                                                                                                                                ",
"                                                                                                                                                                                                                                                                ",
"                                                                                                                                                                                                                                                                ",
"                                                                                                                                                                                                                                                                ",
"                                                                                                                                                                                                                                                                ",
"                                                                                                                                                                                                                                                                ",
"                                                                                                                                                                                                                                                                ",
"                                                                                                                                                                                                                                                                ",
"                                                                                                                                                                                                                                                                ",
"                                           ....                                                                                                                                                                                                                 ",
"                . .                       .###=,                                                                                                                                                                                                                ",
"               .#.+.                     .###.#,                                                                                                                                                                                                                ",
"              .#=#...                   ..#####,                                                                                                                                                                                                                ",
"              .######.                 .+.#####,                                                                                                                                                                                                                ",
"              .#######.                 .######,                                                                                                                                                                                                                ",
"              .#######.                .#=#####,                                                                                                                                                                                                                ",
"             .######.#.                 .######,                                                                                                                                                                                                                ",
"             .#######=.                  ....##,                                                                                                                                                                                                                ",
"             .######==.                      ..,,,,,,                                                                                                                                                                                                           ",
"              .++++++.                        .++++++.                                                                                                                                                                                                          ",
"               .++++.                          .++++.                                                                                                                                                                                                           ",
"                ....                            ....                                                                                                                                                                                                            ",
"                                                                                                                                                                                                                                                                ",
"                                                                                                                                                                                                                                                                ",
"                                                                                                                                                                                                                                                                ",
"                                                                                                                                                                                                                                                                ",
"                                                                                                                                                                                                                                                                ",
"                                                                                                                                                                                                                                                                ",
"                                                                                                                                                                                                                                                                ",
"                                                                                                                                                                                                                                                                ",
"                                                                                                                                                                                                                                                                ",
"                                                                                                                                                                                                                                                                ",
"                                                                                                                                                                                                                                                                ",
"                                                                                                                                                                                                                                                                ",
"                                                                                                                                                                                                                                                                ",
"                                                                                                                                                                                                                                                                ",
"                                                                                                                                                                                                                                                                ",
"                                                                                                                                                                                                                                                                ",
"                                                                                                                                                                                                                                                                ",
"                                                                                                                                                                                                                                                                ",
"                                                                                                                                                                                                                                                                ",
"                   .                         .                                                                                                                                                                                                                  ",
"             .    .#.                       .#.    .                                                                                                                                                                                                            ",
"            .#....#=.                       .=#....#.                                                                                                                                                                                                           ",
"            .=######.                       .######=.                                                                                                                                                                                                           ",
"            .#######.                       .#######.                                                                                                                                                                                                           ",
"           .#########.                     .#########.                                                                                                                                                                                                          ",
"           .##.#=#.##.                     .##.#=#.##.                                                                                                                                                                                                          ",
"           .###=O=###.                     .###=O=###.                                                                                                                                                                                                          ",
"            .#===.++.                       .++.===#.                                                                                                                                                                                                           ",
"             ..++.++.                       .++.++..                                                                                                                                                                                                            ",
"            .++.+====.                     .====+.++.                                                                                                                                                                                                           ",
"           .====.....                       .....====.                                                                                                                                                                                                          ",
"            ....                                 ....                                                                                                                                                                                                           "
};
