/* XPM */
static char *_b2cc2213b6a4119a2e269635d291ca0TlHv0OenQuqbejcB[] = {
/* columns rows colors chars-per-pixel */
"16 22 104 2 ",
"   c none",
".  c #07070A",
"X  c black",
"o  c #020306",
"O  c #030306",
"+  c #020203",
"@  c #08090B",
"#  c gray23",
"$  c #708297",
"%  c #8295AB",
"&  c #768598",
"*  c #869AB2",
"=  c #000001",
"-  c #293442",
";  c #435164",
":  c #526174",
">  c #556577",
",  c #364B61",
"<  c #1D3B54",
"1  c #070F16",
"2  c #101C28",
"3  c #252C35",
"4  c #091723",
"5  c #B52B01",
"6  c #FED79D",
"7  c #1A0803",
"8  c #B52B00",
"9  c #FED79C",
"0  c #211308",
"q  c #4D5C6E",
"w  c #1D3A51",
"e  c #0B233C",
"r  c #000219",
"t  c #13324A",
"y  c #17344E",
"u  c #4B5A6D",
"i  c #344B60",
"p  c #848484",
"a  c gray37",
"s  c #FC9646",
"d  c #FB9646",
"f  c #838383",
"g  c #848483",
"h  c #B6B6B6",
"j  c #FB9746",
"k  c #020202",
"l  c #4B5A6E",
"z  c #07081D",
"x  c #021535",
"c  c #002247",
"v  c #012247",
"b  c #010117",
"n  c #201308",
"m  c #040922",
"M  c #99ADBE",
"N  c #002248",
"B  c #7A899C",
"V  c #244159",
"C  c #0E2E47",
"Z  c #9DB2C3",
"A  c #2A4358",
"S  c #0E2942",
"D  c #46576A",
"F  c #080C22",
"G  c #DD8A47",
"H  c #060419",
"J  c #02021A",
"K  c #0C1D35",
"L  c #122F47",
"P  c #122E46",
"I  c #132D46",
"U  c #121123",
"Y  c #374B57",
"T  c #01011F",
"R  c #62200E",
"E  c #D97A4C",
"W  c #9B3304",
"Q  c #E9914B",
"!  c #79757A",
"~  c None",
"^  c #00011F",
"/  c #78450E",
"(  c #EDA876",
")  c #EB9148",
"_  c #2D2532",
"`  c #2A2E37",
"'  c #67696A",
"]  c #C5C8C9",
"[  c gray40",
"{  c #01020F",
"}  c #7A3832",
"|  c #7A3833",
" . c #1C2341",
".. c #F3BA85",
"X. c #793833",
"o. c #40435F",
"O. c #374464",
"+. c #1F2637",
"@. c #8D5D27",
"#. c #ECAE6F",
"$. c #0C0E11",
"%. c #525F79",
"&. c #303847",
"*. c #404B5E",
/* pixels */
"              . X o O O o X + @ ",
"            # $ % & & & & & * = ",
"            # - ; : : : > , < X ",
"              1 2 3 3 3 3 3 4 X ",
"                    5 6 7       ",
"  = = = = = = = X   8 9 0       ",
"= q w q q q q q e   8 9 0       ",
"= r t y u u u i r   8 9 0       ",
"p p p a s d f p g   8 9 0       ",
"      h 9 d         8 9 0       ",
"      h 9 j k k k k 8 9 0       ",
"      h 9 l z x c v b l n       ",
"      h m M c c N N c B V h     ",
"      h C Z X X X X X X A h     ",
"      h S u u u D u u u F h     ",
"      h G H J K L P I U Y h     ",
"      = s d T R E W 5 Q ! ~     ",
"      = s d ^ / ( W 5 ) _ ` '   ",
"    [ { } |  ./ ..W X.| o.O.X   ",
"    [ +.O.O.O.@.#.W O.O.O.O.$.  ",
"    [ %.%.%.@ = = = = = = &.*.  ",
"    [ X X X X X X X X X X X X   "
};
