/* XPM */
static char *c9e4437a83bc4b38bdc4aa638d2f0ae0y2cxss620HZy6xZ7[] = {
/* columns rows colors chars-per-pixel */
"432 240 13 1 ",
"  c None",
". c #181425",
"X c #431946",
"o c #68386C",
"O c #A22633",
"+ c #E43B44",
"@ c #B86F50",
"# c #E4A672",
"$ c #B55088",
"% c #8B9BB4",
"& c #EAD4AA",
"* c #C0CBDC",
"= c white",
/* pixels */
"                                                                                                                                                                                                                                                                                                                                                                                                                                                ",
"                                                                                                                                                                                                                                                                                                                                                                                                                                                ",
"                                                                                                                                                                                                                                                                                                                                                                                                                                                ",
"                                                                                                                                                                                                                                                                                                                                                                                                                                                ",
"                                                                                                                                                                                                                                                                                                                                                                                                                                                ",
"                                                                                                                                                                                                                                                                                                                                                                                                                                                ",
"                                                                                                                                                                                                                                                                                                                                                                                                                                                ",
"                                                                                                                                                                                                                                                                                                                                                                                                                                                ",
"                                                                                                                                                                                                                                                                                                                                                                                                                                                ",
"                                                                                                                                                                                                                                                                                                                                                                                                                                                ",
"                                                                                                                                                                                                                                                                                                                                                                                                                                                ",
"                                                                                                                                                                                                                                                                                                                                                                                                                                                ",
"                                                                                                                                                                                                                                                                                                                                                                                                                                                ",
"                                                                                                                                                                                                                                                                                                                                                                                                                                                ",
"                                                                                                                                                                                                                                                                                                                                                                                                                                                ",
"                                                                                                                                                                                                                                                                                                                                                                                                                                                ",
"                                                                                                                                                                                                                                                                                                                 $$$$     ooo                                    $$$$     ooo                                                                   ",
"                 $$$$     ooo                                     $$$     ooo                                                                                                                                    $$$$     ooo                                   $$$$$     oooo                                  $$$..$   oo..o                                   $$..$   oo..                                                                   ",
"                $$$..$   oo..o                                   $$..$   oo..o                                   $$$$     ooo                                    $$$$     oooo                                  $$$..$   oo..o                                  $$$..$   oo..o                                  *$....$$**$...                                  *$....$$**$...                                                                  ",
"                *$....$$**$...                                  *$....$$**$...                                  $....$   o...o                                  $....$   o...o                                  *$....$$**$...                                  *$....$$**$...                                  *$....$$$$$$..                                  *$....$$$$$$..                                                                  ",
"                *$....$$$$$$..                                  *$....$$$$$$..                                  *.....$$$$$...                                  *.....$$$$$...                                  *$....$$$$$$..                                  *$....$$$$$$..                                  $$$..$$$$$$$oo                                  $$$..$$$$$$$oo                                                                  ",
"                $$$..$$$$$$$oo                                  $$$..$$$$$$$oo                                  *$...$$$$$$$..                                  *$...$$$$$$$..                                  $$$..$$$$$$$oo                                  $$$..$$$$$$$oo                                  $$$$$$o$$$$$oXo                                 $$$$$$o$$$$$oX                                                                  ",
"                $$$$$$o$$$$$oXo                                 $$$$$$o$$$$$oX                                  $$$$$$o$$$$$oX                                  $$$$$$ooooooXX                                  $$$$$$o$$$$$oXo                                 $$$$$$o$$$$$oXo                                $$$*$$$$oooooXoo                                $$$*$$$$oooooXoo                                                                 ",
"               $$$*$$$$oooooXoo                                $$$*$$$$oooooXoo                                 $$$$$$$oooooXoo                                 $$$$$$&&&&&&##o                                $$$*$$$$oooooXoo                                $$$*$$$$oooooXoo                               *$$$$$$$&&&&&&##o                               *$$$$$$$&&&&&&##o                                                                 ",
"              *$$$$$$$&&&&&&##o                               *$$$$$$$&&&&&&##o                                $$$*$$&&&&&&&###                                $$$*$&&&&&&&&####                              *$$$$$$&&&&&&&###                               *$$$$$$$&&&&&&##o                              $$$$$$$$&&&&&&&###                              $$$$$$$$&&&&&&&###                                                                 ",
"             $$$$$$$$&&&&&&&###                              $$$$$$$$&&&&&&&###                               *$$$$$&&&&&&&&####                              *$$$$&&&&&&&&&#####                            $$$$$$$&&&&&&&&####                             $$$$$$$$&&&&&&&###                             $$$$$$$$$&&&&&&&###                              $$$$$$$$&&&&&&&###                                                                 ",
"            $$$$$$$$$&&&&&&&###                             $$$$$$$$$&&&&&&&###                              $$$$$$$&&&&&&&&####                             $$$$$$&&&&&&&&&#####                           $$$$$$$$&&&&&&&&####                            $$$$$$$$$&&&&&&&###                             $**o$o$$$&&&&&&&##                              $**o$o$$$&&&&&&&###                                                                 ",
"            $**o$o$$$&&&&&&&##                              $**o$o$$$&&&&&&&###                             $$$$$$$$&&&&&&&&####                            $$$$$$$&&&&&&&&&#####                           $**o$o$$$&&&&&&&###                            $$**o$o$$$&&&&&&&##                             $$**$oo$$$#######@o                              $**$oo$$$#######@o                                                                  ",
"           $$**$oo$$$#######@o                              $**$oo$$$#######@o                              $**o$o$$&&&&&&&&###                            $$**o$o$$&&&&&&&&####                           $$**$oo$$$#######@o                             $$**$oo$$$#######@o                             $$$$$$o$**#######oo                             $$$$$$o$**#######oo                                                                  ",
"           $$$$$$o$**#######oo                             $$$$$$o$**#######oo                             $$**$oo$$$#######@o                             $$**$oo$$$#######@o                             $$$$$$o$**#######oo                             $$$$$$o$**#######oo                             *$$$$$o$**#######%%                             *$$$$$o$**#######%%                                                                  ",
"           *$$$$$o$**#######%%                             *$$$$$o$**#######%%                             *$$$$$o$**#######%%                             *$$$$$o$**#######%%o                            *$$$$$o$**#######%%                             *$$$$$o$**#######%%o                            $$$$$oo$$$$######%%                             $$$$$oo$$$#######%%                                                                  ",
"           $$$oooo$$$$######%%o                            $$$oooo$$$$######%%o                            $$$$ooo$$$$######%%o                            $$$$ooo$$$$######%%o                            $$$oooo$$$$######%%o                             $$oooo$$$$######%%o                            $$$oooo$$$$######ooo                            $$$oooo$$$$######ooo                                                                 ",
"            $&$&o%o$&$&####oo#o#                           $$&$&o%o$&$&####oo#o#                            $&$&o%o$&$&####oo#o#                            $&$&o%o$&$&####oo#o#                            $&$&o%o$&$&####oo#o#                            $&$&o%o$&$&####oo#o#                            $&$&o%o$&$&####oo#o#                           $$&$&o%o$&$&####oo#o#                                                                ",
"                                                                                                                                                                                                                                                                                                                                                                                                                                                ",
"                                                                                                                                                                                                                                                                                                                                                                                                                                                ",
"                                                                                                                                                                                                                                                                                                                                                                                                                                                ",
"                                                                                                                                                                                                                                                                                                                                                                                                                                                ",
"                                                                                                                                                                                                                                                                                                                                                                                                                                                ",
"                                                                                                                                                                                                                                                                                                                                                                                                                                                ",
"                                                                                                                                                                                                                                                                                                                                                                                                                                                ",
"                                                                                                                                                                                                                                                                                                                                                                                                                                                ",
"                                                                                                                                                                                                                                                                                                                                                                                                                                                ",
"                                                                                                                                                                                                                                                                                                                                                                                                                                                ",
"                                                                                                                                                                                                                                                                                                                                                                                                                                                ",
"                                                                                                                                                                                                                                                                                                                                                                                                                                                ",
"                                                                                                                                                                                                                                                                                                                                                                                                                                                ",
"                                                                                                                                                                                                                                                                                                                                                                                                                                                ",
"                                                                                                                                                                                                                                                                                                                                                                                                                                                ",
"                                                                                                                                                                                                                                                                                                                                                                                                                                                ",
"                                                                                                                                                                                                                                                                                                                                                                                                                                                ",
"                                                                                                                                                                                                                                                                                                                                                                                                                                                ",
"                                                                                                                                                                                                                                                                                                                                                                                                                                                ",
"                                                                                                                                                                                                                                                                                                                                                                                                                                                ",
"                                                                                                                                                                                                                                                                                                                                                                                                                                                ",
"                                                                                                                                                                                                                                                                                                                                                                                                                                                ",
"                                                                                                                                                                                                                                                                                                                                                                                                                                                ",
"                                                                                                                                                                                                                                                                                                                                                                                                                                                ",
"                                                                                                                                                                                                                                                                                                                                                                                                                                                ",
"                                                                                                                                                                                                                                                                                                                                                                                                                                                ",
"                                                                                                                                                                 $$$$     ooo                                                                                                                                                                                                                                                                   ",
"                                                                                                                                                                $$...$   o...o                                                                                                                                                                                                                                                                  ",
"                                                                                                                                                                *$....$$**$...                                   $$$$     ooo                                                                                                                                                                                                                   ",
"                                                                                                                                                                *$....$$$$$$..                                  $$$..$   oo..o                                   $$$$     ooo                                                                                                                                                                   ",
"                                                                                                                                                                $$$..$o$$$$$oX                                  *$....$$**$...                                  $$$$$$   ooooo                                                                                                                                                                  ",
"                                                                                                                                                                $$$$$$$oooooXoo                                 *$....$$$$$$..                                  *$....$$**$...                                   $$$$     ooo                                                                                                                   ",
"                 $$$$     ooo                                                                                                                                   $$*$$$&&&&&&##o                                 $$$..$$$$$$$oo                                  *$....$$$$$$..                                  $$$..$   oo..o                                                                                                                  ",
"                $$$..$   oo..o                                    $$$$     ooo                                                                                  $$$$$&&&&&&&###                                 $$$$$$o$$$$$oXo                                 $$$...$$$$$$..                                  *$....$$**$...                                                                                                                  ",
"                *$....$$**$...                                   $$$..$   oo..o                                                                                 $$$$$&&&&&&&###                                $$$*$$$$oooooXoo                              $$$$$$$$$$$$$$$ooo                                 *$....$$$$$$..                                                                                                                  ",
"                *$....$$$$$$..                                   *$....$$**$...                                   $$$$     ooo                                  $$$$$&&&&&&&###                               *$$$$$$$&&&&&&##o                             $$$$$$*$$$o$$$$$oXo                                 $$$..$$$$$$$oo                                                                                                                  ",
"                $$$..$$$$$$$oo                                   *$....$$$$$$..                                  $$$..$   oo..o                                $$$$$$&&&&&&&##                               $$$$$$$$&&&&&&&###                            $**o$$$$$$$$oooooXoo                                 $$$$$$o$$$$$oXo                                                                                                                 ",
"                $$$$$$o$$$$$oXo                                  $$$..$$$$$$$oo                                  *$....$$**$...                               *$$$$$$#######@                               $$$$$$$$$&&&&&&&###                           $$**$o$$$$$$&&&&&&##o                                $$$*$$$$oooooXoo                                                                                                                 ",
"               $$$*$$$$oooooXoo                                  $$$$$$o$$$$$oXo                                 *$....$$$$$$..                               $$o$$$**######oo                             $**o$o$$$$&&&&&&&##                            $$$$$$o$$$$&&&&&&&###                               *$$$$$$$&&&&&&##o                                                                                                                 ",
"              *$$$$$$$&&&&&&##o                                 $$$*$$$$oooooXoo                                 $$$..$$$$$$$oo                              $$$$o$$**######o%%                           $$**$oo$$$$#######@o                            *$$$$$o$$$$&&&&&&&##                               $$$$$$$$&&&&&&&###                                                                                                                 ",
"             $$$$$$$$&&&&&&&###                               *$$$$$$$$&&&&&&##o                               $$$$$$$$o$$$$$oXo                             $**ooo$$$$#####o%%o                          $$$$$$$o$**#######oo                           $$$o$$ooo$$$#######@o                              $$$$$$$$$&&&&&&&###                                                                                                                 ",
"            $$$$$$$$$&&&&&&&###                              $$$$$$$$$&&&&&&&###                           $$$*$$$$*$$$$oooooXoo                            $$**$ooo$&$&####oo#o#                         *$$$$$$o$**#######%%                           $&$&ooo##$$$#######oo                              $**o$o$$$&&&&&&&##                                                                                                                  ",
"            $**o$o$$$&&&&&&&##                              $$$$$$$$$$&&&&&&&###                          $$$$$$$$$$$$$&&&&&&##o                            $$$$$oo########                               $$$$oooo$$$$######%%o                                 ##$**#######oo                             $$**$oo$$$#######@o                                                                                                                  ",
"           $$**$oo$$$#######@o                              $**o$o$$$$&&&&&&&##                           $$**o$o$$$$$&&&&&&&###                            $$$$oo######                                   $&$&oo##$&$&####oo#o#                                  $**#######%%                             $$$$$$o$$$#######oo                                                                                                                  ",
"           $$$$$$o$**#######oo                             $$**$oo$$$#######@o                            $$**$oo$$$$$&&&&&&&###                             *$$oo                                                                                                $$$$#####o%%o                            *$$$$$o$**#######oo                                                                                                                  ",
"           *$$$$$o$**#######%%                             $$$$$$o$**#######oo                            $$$$$$o$$$$$&&&&&&&##                             $$$oooo                                                                                                $&$&     o#o#                           $$$oooo$**#######%%                                                                                                                  ",
"           $$$oooo$$$$######%%o                            *$$oooo$$$$######%%o                           *$$$ooo$$$$$#######%o                             $&$&o#o#                                                                                                                                        $&$&o%$$$$######%%o                                                                                                                 ",
"            $&$&o%o$&$&####oo#o#                           $$&$&o%o$&$&####oo#o#                           $$&$&%o$$&$&####oo#o#                                                                                                                                                                                  o$&$&####oo#o#                                                                                                                ",
"                                                                                                                                                                                                                                                                                                                                                                                                                                                ",
"                                                                                                                                                                                                                                                                                                                                                                                                                                                ",
"                                                                                                                                                                                                                                                                                                                                                                                                                                                ",
"                                                                                                                                                                                                                                                                                                                                                                                                                                                ",
"                                                                                                                                                                                                                                                                                                                                                                                                                                                ",
"                                                                                                                                                                                                                                                                                                                                                                                                                                                ",
"                                                                                                                                                                                                                                                                                                                                                                                                                                                ",
"                                                                                                                                                                                                                                                                                                                                                                                                                                                ",
"                                                                                                                                                                                                                                                                                                                                                                                                                                                ",
"                                                                                                                                                                                                                                                                                                                                                                                                                                                ",
"                                                                                                                                                                                                                                                                                                                                                                                                                                                ",
"                                                                                                                                                                                                                                                                                                                                                                                                                                                ",
"                                                                                                                                                                                                                                                                                                                                                                                                                                                ",
"                                                                                                                                                                                                                                                                                                                                                                                                                                                ",
"                                                                                                                                                                                                                                                                                                                                                                                                                                                ",
"                                                                                                                                                                                                                                                                                                                                                                                                                                                ",
"                                                                                                                                                                                                                                                                                                                                                                                                                                                ",
"                                                                                                                                                                                                                                                                                                                                                                                                                                                ",
"                                                                                                                                                                                                                                                                                                                                                                                                                                                ",
"                                                                                                                                                                                                                                                                                                                                                                                                                                                ",
"                                                                                                                                                                                                                                                                                                                                                                                                                                                ",
"                                                                                                                                                                                                                                                                                                                                                                                                                                                ",
"                                                                                                                                                                                                                                                                                                                                                                                                                                                ",
"                                                                                                                                                                                                                                                                                                                                                                                                                                                ",
"                                                                                                                                                                                                                                                                                                                                                                                                                                                ",
"                                                                                                                                                                                                                                                                                                                                                                                                                                                ",
"                                                                                                                                                                                                                                                                                                                                                                                                                                                ",
"                                                                                                                                                                                                                                                                                                                                                                                                                                                ",
"                                                                                                                                                                                                                                                                                                                                                                                                                                                ",
"                                                                                                                                                                                                                                                                                                                                                                                                                                                ",
"                                                                                                                                                                                                                  $$$$     ooo                                                                                                                                                                                                                  ",
"                                                                                                                                                                  $$$$     ooo                                   $$$..$   oo..o                                   $$$$     ooo                                                                                                                                                                  ",
"                 $$$$     ooo                                                                                                                                    $$$..$   oo..o                                  *$....$$**$...                                  $$$..$   oo..o                                                                                                                                                                 ",
"                $$$..$   oo..o                                    $$$$     ooo                                                                                   *$....$$**$...                                  *$....$$$$$$..                                  *$....$$**$...                                                                                                                                                                 ",
"                *$....$$**$...                                   $$$..$   oo..o                                                                                  *$....$$$$$$..                                  $$$..$$$$$$$oo                                  *$....$$$$$$..                                                                                                                                                                 ",
"                *$....$$$$$$..                                   *$....$$**$...                                   $$$$     ooo                                   $$$..$$$$$$$oo                                  $$$$$$$$$$$$ooo                                 $$$..$$$$$$$oo                                                                                                                                                                 ",
"                $$$..$$$$$$$oo                                   *$....$$$$$$..                                  $$$$$$   ooooo                                  $$$$$$$$$$$$ooo                                 $$*$$$$$$OOOOoo          ++==                   $$$$$$$$$$$$ooo              =                                                                                                                                                 ",
"                $$$$$$o$$$$$oXo                                  $$$..$$$$$$$oo                                  *$$$$$$$**$ooo                                  $$*$$$$$$OOOOoo  ========                       $$$$$$$OOO+++++++++++++++++  =                  $$*$$$$$$OOOOoo++             =                                                                                                                                                ",
"               $$$*$$$$oooooXoo                                  $$$$$$o$$$$$oXo                                 *$$..$$$**$$.o                                  $$$$$$$OOO++================                  *$$$$$$$&&&&&&##o          =====                  $$$$$$$OOO+++++++            ==                                                                                                                                                ",
"              *$$$$$$$&&&&&&##o                                 $$$*$$$$oooooXoo                                 $$....$$$$$$..                                *$$$$$$$&&&&&&##o                              $$$$$$$$&&&&&&&###                               *$$$$$$$&&&&&&##o                                                                                                                                                                ",
"             $$$$$$$$&&&&&&&###                               *$$$$$$$$&&&&&&##o                               $$$$....$$$$$$..o                              $$$$$$$$&&&&&&&###                             $$$$$$$$$&&&&&&&###                              $$$$$$$$&&&&&&&###                                                                                                                                                                ",
"            $$$$$$$$$&&&&&&&###                              $$$$$$$$$&&&&&&&###                           $$$*$$$$*..$$$$$$$ooo                             $$$$$$$$$&&&&&&&###                            $**o$o$$$$&&&&&&&##                              $$$$$$$$$&&&&&&&###                                                                                                                                                                ",
"            $**o$o$$$&&&&&&&##                              $$$$$$$$$$&&&&&&&###                          $$$$$$$$$$$$$o$$$$$oXo                            $**o$o$$$$&&&&&&&##                            $$**$oo$$$#######@o                              $**o$o$$$$&&&&&&&##                                                                                                                                                                 ",
"           $$**$oo$$$#######@o                              $**o$o$$$$&&&&&&&##                           $$**o$o$$$$$$$oooooXoo                           $$**$oo$$$#######@o                             $$$$$$o$**#######oo                             $$**$oo$$$#######@o                                                                                                                                                                  ",
"           $$$$$$o$**#######oo                             $$**$oo$$$#######@o                            $$**$oo$$$$$$&&&&&&##o                           $$$$$$o$**#######oo                             *$$$$$o$**#######oo                             $$$$$$o$**#######oo                                                                                                                                                                  ",
"           *$$$$$o$**#######%%                             $$$$$$o$**#######oo                            $$$$$$o$$$$$&&&&&&&##                            *$$$$$o$**#######%%                             *$$$$$o$$$#######%%                             *$$$$$o$**#######%%                                                                                                                                                                  ",
"           $$$oooo$$$$######%%o                            *$$oooo$$$$######%%o                           *$$$ooo$$$$$#######%o                            $$$oooo$$$$######%%o                            $$$oooo$$$$######%%o                            $$$oooo$$$$######%%o                                                                                                                                                                 ",
"            $&$&o%o$&$&####oo#o#                           $$&$&o%o$&$&####oo#o#                           $$&$&%o$$&$&####oo#o#                            $&$&o%o$&$&####oo#o#                            $&$&o%o$&$&####oo#o#                            $&$&o%o$&$&####oo#o#                                                                                                                                                                ",
"                                                                                                                                                                                                                                                                                                                                                                                                                                                ",
"                                                                                                                                                                                                                                                                                                                                                                                                                                                ",
"                                                                                                                                                                                                                                                                                                                                                                                                                                                ",
"                                                                                                                                                                                                                                                                                                                                                                                                                                                ",
"                                                                                                                                                                                                                                                                                                                                                                                                                                                ",
"                                                                                                                                                                                                                                                                                                                                                                                                                                                ",
"                                                                                                                                                                                                                                                                                                                                                                                                                                                ",
"                                                                                                                                                                                                                                                                                                                                                                                                                                                ",
"                                                                                                                                                                                                                                                                                                                                                                                                                                                ",
"                                                                                                                                                                                                                                                                                                                                                                                                                                                ",
"                                                                                                                                                                                                                                                                                                                                                                                                                                                ",
"                                                                                                                                                                                                                                                                                                                                                                                                                                                ",
"                                                                                                                                                                                                                                                                                                                                                                                                                                                ",
"                                                                                                                                                                                                                                                                                                                                                                                                                                                ",
"                                                                                                                                                                                                                                                                                                                                                                                                                                                ",
"                                                                                                                                                                                                                                                                                                                                                                                                                                                ",
"                                                                                                                                                                                                                                                                                                                                                                                                                                                ",
"                                                                                                                                                                                                                                                                                                                                                                                                                                                ",
"                                                                                                                                                                                                                                                                                                                                                                                                                                                ",
"                                                                                                                                                                                                                                                                                                                                                                                                                                                ",
"                                                                                                                                                                                                                                                                                                                                                                                                                                                ",
"                                                                                                                                                                                                                                                                                                                                                                                                                                                ",
"                                                                                                                                                                                                                                                                                                                                                                                                                                                ",
"                                                                                                                                                                                                                                                                                                                                                                                                                                                ",
"                                                                                                                                                                                                                                                                                                                                                                                                                                                ",
"                                                                                                                                                                                                                                                                                                                                                                                                                                                ",
"                                                                                                                                                                                                                                                                                                                                                                                                                                                ",
"                                                                                                                                                                                                                                                                                                                                                                                                                                                ",
"                                                                                                                                                                                                                                                                                                                                                                                                                                                ",
"                                                                                                                                                                                                                                                                                                                                                                                                                                                ",
"                                                                                                                                                                                                                                                                                                                                                                                                                                                ",
"                                                                                                                                                                                                                                                                                                                                                                                                                                                ",
"                 $$$$     ooo                                    ====     ===                                                                                                                                                                                                                                                                                                                                                                   ",
"                $$$..$   oo..o                                  ======   =====                                  $$$$       ooo                                                                                                                                                                                                                                                                                                                  ",
"                *$....$$**$...                                  ==============                                 $....$     o...o                                  $$$$     ooo                                                                                                                                                                                                                                                                   ",
"                *$....$$$$$$..                                  ==============                                 *.....$$$$$$$...                                 $$$..$   oo..o                                                                                                                                                                                                                                                                  ",
"                $$$..$$$$$$$oo                                  ==============                                 *$...$$$$$$$$$..                                 *$....$$**$...                                                                                                                                                                                                                                                                  ",
"                $$$$$$o$$$$$oXo                                 ===============                                $$$$$$o$$$$$$$oX                                 *$....$$$$$$..                                                                                                                                                                                                                                                                  ",
"               $$$*$$$$oooooXoo                                ================                                $$$$$$$oooooooXoo                                $$$..$$$$$$$oo                                                                                                                                                                                                                                                                  ",
"              *$$$$$$$&&&&&&##o                               =================                               $$$*$$$&&&&&&&&##o                                $$$$$$o$$$$$oXo                                                                                                                                                                                                                                                                 ",
"             $$$$$$$$&&&&&&&###                              ==================                              *$$$$$$&&&&&&&&&###                               $$$*$$$$oooooXoo                                                                                                                                                                                                                                                                 ",
"            $$$$$$$$$&&&&&&&###                             ===================                             $$$$$$$$&&&&&&&&&###                              *$$$$$$$&&&&&&##o                                                                                                                                                                                                                                                                 ",
"            $**o$o$$$&&&&&&&##                              ==================                             $$$$$$$$$&&&&&&&&&###                             $$$$$$$$&&&&&&&###                                                                                                                                                                                                                                                                 ",
"           $$**$oo$$$#######@o                             ===================                             $**o$o$$$&&&&&&&&&##                             $$$$$$$$$&&&&&&&###                                                                                                                                                                                                                                                                 ",
"           $$$$$$o$**#######oo                             ===================                            $$**$oo$$$#########@o                             $**o$o$$$&&&&&&&##                                                                                                                                                                                                                                                                  ",
"           *$$$$$o$**#######%%                             ===================                            *$$$$$o$**#########%%                            $$**$oo$$$#######@o                                                                                                                                                                                                                                                                  ",
"           $$$oooo$$$$######%%o                            ====================                           $$$$ooo$$$$########%%o                           *$$$$$o$**#######%%o                                                                                                                                                                                                                                                                 ",
"            $&$&o%o$&$&####oo#o#                            ====================                           $&$&o%o$&$&######oo#o#                          $$&$&o%o$&$&####oo#o#                                                                                                                                                                                                                                                                ",
"                                                                                                                                                                                                                                                                                                                                                                                                                                                ",
"                                                                                                                                                                                                                                                                                                                                                                                                                                                ",
"                                                                                                                                                                                                                                                                                                                                                                                                                                                ",
"                                                                                                                                                                                                                                                                                                                                                                                                                                                ",
"                                                                                                                                                                                                                                                                                                                                                                                                                                                ",
"                                                                                                                                                                                                                                                                                                                                                                                                                                                ",
"                                                                                                                                                                                                                                                                                                                                                                                                                                                ",
"                                                                                                                                                                                                                                                                                                                                                                                                                                                ",
"                                                                                                                                                                                                                                                                                                                                                                                                                                                ",
"                                                                                                                                                                                                                                                                                                                                                                                                                                                ",
"                                                                                                                                                                                                                                                                                                                                                                                                                                                ",
"                                                                                                                                                                                                                                                                                                                                                                                                                                                ",
"                                                                                                                                                                                                                                                                                                                                                                                                                                                ",
"                                                                                                                                                                                                                                                                                                                                                                                                                                                ",
"                                                                                                                                                                                                                                                                                                                                                                                                                                                ",
"                                                                                                                                                                                                                                                                                                                                                                                                                                                ",
"                                                                                                                                                                                                                                                                                                                                                                                                                                                ",
"                                                                                                                                                                                                                                                                                                                                                                                                                                                ",
"                                                                                                                                                                                                                                                                                                                                                                                                                                                ",
"                                                                                                                                                                                                                                                                                                                                                                                                                                                ",
"                                                                                                                                                                                                                                                                                                                                                                                                                                                ",
"                                                                                                                                                                                                                                                                                                                                                                                                                                                ",
"                                                                                                                                                                                                                                                                                                                                                                                                                                                ",
"                                                                                                                                                                                                                                                                                                                                                                                                                                                ",
"                                                                                                                                                                                                                                                                                                                                                                                                                                                ",
"                                                                                                                                                                                                                                                                                                                                                                                                                                                ",
"                                                                                                                                                                                                                                                                                                                                                                                                                                                ",
"                                                                                                                                                                                                                                                                                                                                                                                                                                                ",
"                                                                                                                                                                                                                                                                                                                                                                                                                                                ",
"                                                                                                                                                                                                                                                                                                                                                                      *                                                                         ",
"                                                                                                                $$$$       oooo                                              **                                                **                                                *                                  **                                                                                                                          ",
"                                                                $$$$       ooo                                 $....$     o...o                                             *  *                                               **                                                                                  *  *                                                        *                                                                ",
"                 $$$$     ooo                                   $$..$     oo..                                 *.....$$$$$$$...                                        ***  *  *                                                                          **        **                                   *         *  *      **                                                                                                                 ",
"                $$$..$   oo..o                                 *$....$$****$...                                *$...$$$$$$$$$..                                       *****  **                             ***                                          *  *      ****                                             **      *  *                                                                                                                ",
"                *$....$$**$...                                 *$....$$$$$$$$..                                $$$$$$ooooooooXX                              ***   ********                                *****                                         *  *      ****   **                                                *  *                                                                                                                ",
"                *$....$$$$$$..                                 $$$..$$$$$$$$$oo                                $$$$$$&&&&&&&&##o                            *****************   *                          *****   ****   ***                             **        **   ****                                                **                                                                                  *                              ",
"                $$$..$$$$$$$oo                                 $$$$$$o$$$$$$$oX                                $$*$&&&&&&&&&&####                          *******************                             *****  ****** *****                                           ****                               **                                                    **                                                                            ",
"                $$$$$$o$$$$$oXo                               $$$*$$$$oooooooXoo                               $$$&&&&&&&&&&&#####                         *******************                         *    ***   ************                                **          **                                **                                                   *  *                                                                           ",
"               $$$*$$$$oooooXoo                              *$$$$$$$&&&&&&&&##o                              $$$$&&&&&&&&&&&#####                       * *******************                                  *************                                ****                                                  ***  **                                       *  *                                                                           ",
"              *$$$$$$$&&&&&&##o                             $$$$$$$$&&&&&&&&&###                             *$$$$&&&&&&&&&&&#####                      * * *******************                                ************** ***                            ****        **                                       ***** **                                        **                                                                            ",
"             $$$$$$$$&&&&&&&###                             $$$$$$$$&&&&&&&&&###                            $$$o$$$&&&&&&&&&&####                        *   *******************                               *******************                            **     *******    **                                *****                                                                                                                         ",
"            $$$$$$$$$&&&&&&&###                            $**o$o$$$&&&&&&&&&###                           $$$$$o$$$#########@o                               *******************                              *******************                       **         ********   ****                    **         *****           **                                                                                                            ",
"            $**o$o$$$&&&&&&&##                             $**$oo$$$#########@o                            $**o$o$$$#########oo                              ********************                          **   ******************                      *  *        *******    ****                    **          ***            **                                                                                                            ",
"           $$**$oo$$$#######@o                            $$$$$$o$**#########oo                           $$**$oo$$$#########oo                             *********************                         ****    **********  ***                       *  *        *****       **                                                                                                                                                              ",
"           $$$$$$o$**#######oo                            *$$$$$o$**#########%%                           $$$$$$o$**#########oo                             ********************                          ****     ********                              **          ***                                                                                                                                                                        ",
"           *$$$$$o$**#######%%                            $$$$$oo$$$#########%%                           *$$$$$o$**#########%%                             ***************  **                            **        ***                                                                                                                                                                                                                        ",
"           $$$oooo$$$$######%%o                           $$$oooo$$$$########ooo                          $$$oooo$$$$########%%o                             ***   ******                                                                                                                                                                                                                                                                       ",
"            $&$&o%o$&$&####oo#o#                          $$&$&o%o$&$&######oo#o#                          $&$&o%o$&$&######oo#o#                                                                                                                                                                                                                                                                                                               ",
"                                                                                                                                                                                                                                                                                                                                                                                                                                                ",
"                                                                                                                                                                                                                                                                                                                                                                                                                                                ",
"                                                                                                                                                                                                                                                                                                                                                                                                                                                ",
"                                                                                                                                                                                                                                                                                                                                                                                                                                                ",
"                                                                                                                                                                                                                                                                                                                                                                                                                                                ",
"                                                                                                                                                                                                                                                                                                                                                                                                                                                ",
"                                                                                                                                                                                                                                                                                                                                                                                                                                                ",
"                                                                                                                                                                                                                                                                                                                                                                                                                                                ",
"                                                                                                                                                                                                                                                                                                                                                                                                                                                ",
"                                                                                                                                                                                                                                                                                                                                                                                                                                                ",
"                                                                                                                                                                                                                                                                                                                                                                                                                                                ",
"                                                                                                                                                                                                                                                                                                                                                                                                                                                ",
"                                                                                                                                                                                                                                                                                                                                                                                                                                                ",
"                                                                                                                                                                                                                                                                                                                                                                                                                                                ",
"                                                                                                                                                                                                                                                                                                                                                                                                                                                "
};
