/* XPM */
static char *_1c386fd610c4213a61060ac54b10324ZPvIC51ZTaEgPvUF[] = {
/* columns rows colors chars-per-pixel */
"432 240 10 1 ",
"  c None",
". c #181425",
"X c #A22633",
"o c #E43B44",
"O c #E4A672",
"+ c #124E89",
"@ c #0099DB",
"# c #2CE8F5",
"$ c #EAD4AA",
"% c white",
/* pixels */
"                                                                                                                                                                                                                                                                                                                                                                                                                                                ",
"                                                                                                                                                                                                                                                                                                                                                                                                                                                ",
"                                                                                                                                                                                                                                                                                                                                                                                                                                                ",
"                                                                                                                                                                                                                                                                                                                                                                                                                                                ",
"                                                                                                                                                                                                                                                                                                                                                                                                                                                ",
"                                                                                                                                                                                                                                                                                                                                                                                                                                                ",
"                                                                                                                                                                                                                                                                                                                                                                                                                                                ",
"                                                                                                                                                                                                                                                                                                                                                                                                                                                ",
"                                                                                                                                                                                                                                                                                                                                                                                                                                                ",
"                                                                                                                                                                                                                                                                                                                                                                                                                                                ",
"                                                                                                                                                                                                                                                                                                                                                                                                                                                ",
"                                                                                                                                                                                                                                                                                                                                                                                                                                                ",
"                                                                                                                                                                                                                                                                                                                                                                                                                                                ",
"                                                                                                                                                                                                                                                                                                                                                                                                                                                ",
"                                                                                                                                                                                                                                                                                                                                                                                                                                                ",
"                                                                                                                                                                                                                                                                                                                                                                                                                                                ",
"                                                                                                                                                                                                                                                                                                                 ####     @@@                                    ####     @@@                                                                   ",
"                 ####     @@@                                     ###     @@@                                                                                                                                    ####     @@@                                   #####     @@@@                                  ###..#   @@..@                                   ##..#   @@..                                                                   ",
"                ###..#   @@..@                                   ##..#   @@..@                                   ####     @@@                                    ####     @@@@                                  ###..#   @@..@                                  ###..#   @@..@                                  @#....##@@#...                                  @#....##@@#...                                                                  ",
"                @#....##@@#...                                  @#....##@@#...                                  #....#   @...@                                  #....#   @...@                                  @#....##@@#...                                  @#....##@@#...                                  @#....######..                                  @#....######..                                                                  ",
"                @#....######..                                  @#....######..                                  @.....#####...                                  @.....#####...                                  @#....######..                                  @#....######..                                  ###..#######@@                                  ###..#######@@                                                                  ",
"                ###..#######@@                                  ###..#######@@                                  @#...#######..                                  @#...#######..                                  ###..#######@@                                  ###..#######@@                                  ######@#####@+@                                 ######@#####@+                                                                  ",
"                ######@#####@+@                                 ######@#####@+                                  ######@#####@+                                  ######@@@@@@++                                  ######@#####@+@                                 ######@#####@+@                                ###@####@@@@@+@@                                ###@####@@@@@+@@                                                                 ",
"               ###@####@@@@@+@@                                ###@####@@@@@+@@                                 #######@@@@@+@@                                 ######$$$$$$OO@                                ###@####@@@@@+@@                                ###@####@@@@@+@@                               @#######$$$$$$OO@                               @#######$$$$$$OO@                                                                 ",
"              @#######$$$$$$OO@                               @#######$$$$$$OO@                                ###@##$$$$$$$OOO                                ###@#$$$$$$$$OOOO                              @######$$$$$$$OOO                               @#######$$$$$$OO@                              ########$$$$$$$OOO                              ########$$$$$$$OOO                                                                 ",
"             ########$$$$$$$OOO                              ########$$$$$$$OOO                               @#####$$$$$$$$OOOO                              @####$$$$$$$$$OOOOO                            #######$$$$$$$$OOOO                             ########$$$$$$$OOO                             #########$$$$$$$OOO                              ########$$$$$$$OOO                                                                 ",
"            #########$$$$$$$OOO                             #########$$$$$$$OOO                              #######$$$$$$$$OOOO                             ######$$$$$$$$$OOOOO                           ########$$$$$$$$OOOO                            #########$$$$$$$OOO                             #@@@#@###$$$$$$$OO                              #@@@#@###$$$$$$$OOO                                                                 ",
"            #@@@#@###$$$$$$$OO                              #@@@#@###$$$$$$$OOO                             ########$$$$$$$$OOOO                            #######$$$$$$$$$OOOOO                           #@@@#@###$$$$$$$OOO                            ##@@@#@###$$$$$$$OO                             ##@@#@@###OOOOOOO@@                              #@@#@@###OOOOOOO@@                                                                  ",
"           ##@@#@@###OOOOOOO@@                              #@@#@@###OOOOOOO@@                              #@@@#@##$$$$$$$$OOO                            ##@@@#@##$$$$$$$$OOOO                           ##@@#@@###OOOOOOO@@                             ##@@#@@###OOOOOOO@@                             ######@#@@OOOOOOO@@                             ######@#@@OOOOOOO@@                                                                  ",
"           ######@#@@OOOOOOO@@                             ######@#@@OOOOOOO@@                             ##@@#@@###OOOOOOO@@                             ##@@#@@###OOOOOOO@@                             ######@#@@OOOOOOO@@                             ######@#@@OOOOOOO@@                             @#####@#@@OOOOOOO++                             @#####@#@@OOOOOOO++                                                                  ",
"           @#####@#@@OOOOOOO++                             @#####@#@@OOOOOOO++                             @#####@#@@OOOOOOO++                             @#####@#@@OOOOOOO++@                            @#####@#@@OOOOOOO++                             @#####@#@@OOOOOOO++@                            #####@@####OOOOOO++                             #####@@###OOOOOOO++                                                                  ",
"           ###@@@@####OOOOOO++@                            ###@@@@####OOOOOO++@                            ####@@@####OOOOOO++@                            ####@@@####OOOOOO++@                            ###@@@@####OOOOOO++@                             ##@@@@####OOOOOO++@                            ###@@@@####OOOOOO@@@                            ###@@@@####OOOOOO@@@                                                                 ",
"            #$#$@+@#$#$OOOO@@O@O                           ##$#$@+@#$#$OOOO@@O@O                            #$#$@+@#$#$OOOO@@O@O                            #$#$@+@#$#$OOOO@@O@O                            #$#$@+@#$#$OOOO@@O@O                            #$#$@+@#$#$OOOO@@O@O                            #$#$@+@#$#$OOOO@@O@O                           ##$#$@+@#$#$OOOO@@O@O                                                                ",
"                                                                                                                                                                                                                                                                                                                                                                                                                                                ",
"                                                                                                                                                                                                                                                                                                                                                                                                                                                ",
"                                                                                                                                                                                                                                                                                                                                                                                                                                                ",
"                                                                                                                                                                                                                                                                                                                                                                                                                                                ",
"                                                                                                                                                                                                                                                                                                                                                                                                                                                ",
"                                                                                                                                                                                                                                                                                                                                                                                                                                                ",
"                                                                                                                                                                                                                                                                                                                                                                                                                                                ",
"                                                                                                                                                                                                                                                                                                                                                                                                                                                ",
"                                                                                                                                                                                                                                                                                                                                                                                                                                                ",
"                                                                                                                                                                                                                                                                                                                                                                                                                                                ",
"                                                                                                                                                                                                                                                                                                                                                                                                                                                ",
"                                                                                                                                                                                                                                                                                                                                                                                                                                                ",
"                                                                                                                                                                                                                                                                                                                                                                                                                                                ",
"                                                                                                                                                                                                                                                                                                                                                                                                                                                ",
"                                                                                                                                                                                                                                                                                                                                                                                                                                                ",
"                                                                                                                                                                                                                                                                                                                                                                                                                                                ",
"                                                                                                                                                                                                                                                                                                                                                                                                                                                ",
"                                                                                                                                                                                                                                                                                                                                                                                                                                                ",
"                                                                                                                                                                                                                                                                                                                                                                                                                                                ",
"                                                                                                                                                                                                                                                                                                                                                                                                                                                ",
"                                                                                                                                                                                                                                                                                                                                                                                                                                                ",
"                                                                                                                                                                                                                                                                                                                                                                                                                                                ",
"                                                                                                                                                                                                                                                                                                                                                                                                                                                ",
"                                                                                                                                                                                                                                                                                                                                                                                                                                                ",
"                                                                                                                                                                                                                                                                                                                                                                                                                                                ",
"                                                                                                                                                                                                                                                                                                                                                                                                                                                ",
"                                                                                                                                                                 ####     @@@                                                                                                                                                                                                                                                                   ",
"                                                                                                                                                                ##...#   @...@                                                                                                                                                                                                                                                                  ",
"                                                                                                                                                                @#....##@@#...                                   ####     @@@                                                                                                                                                                                                                   ",
"                                                                                                                                                                @#....######..                                  ###..#   @@..@                                   ####     @@@                                                                                                                                                                   ",
"                                                                                                                                                                ###..#@#####@+                                  @#....##@@#...                                  ######   @@@@@                                                                                                                                                                  ",
"                                                                                                                                                                #######@@@@@+@@                                 @#....######..                                  @#....##@@#...                                   ####     @@@                                                                                                                   ",
"                 ####     @@@                                                                                                                                   ##@###$$$$$$OO@                                 ###..#######@@                                  @#....######..                                  ###..#   @@..@                                                                                                                  ",
"                ###..#   @@..@                                    ####     @@@                                                                                  #####$$$$$$$OOO                                 ######@#####@+@                                 ###...######..                                  @#....##@@#...                                                                                                                  ",
"                @#....##@@#...                                   ###..#   @@..@                                                                                 #####$$$$$$$OOO                                ###@####@@@@@+@@                              ###############@@@                                 @#....######..                                                                                                                  ",
"                @#....######..                                   @#....##@@#...                                   ####     @@@                                  #####$$$$$$$OOO                               @#######$$$$$$OO@                             ######@###@#####@+@                                 ###..#######@@                                                                                                                  ",
"                ###..#######@@                                   @#....######..                                  ###..#   @@..@                                ######$$$$$$$OO                               ########$$$$$$$OOO                            #@@@########@@@@@+@@                                 ######@#####@+@                                                                                                                 ",
"                ######@#####@+@                                  ###..#######@@                                  @#....##@@#...                               @######OOOOOOO@                               #########$$$$$$$OOO                           ##@@#@######$$$$$$OO@                                ###@####@@@@@+@@                                                                                                                 ",
"               ###@####@@@@@+@@                                  ######@#####@+@                                 @#....######..                               ##@###@@OOOOOO@@                             #@@@#@####$$$$$$$OO                            ######@####$$$$$$$OOO                               @#######$$$$$$OO@                                                                                                                 ",
"              @#######$$$$$$OO@                                 ###@####@@@@@+@@                                 ###..#######@@                              ####@##@@OOOOOO@++                           ##@@#@@####OOOOOOO@@                            @#####@####$$$$$$$OO                               ########$$$$$$$OOO                                                                                                                 ",
"             ########$$$$$$$OOO                               @########$$$$$$OO@                               ########@#####@+@                             #@@@@@####OOOOO@++@                          #######@#@@OOOOOOO@@                           ###@##@@@###OOOOOOO@@                              #########$$$$$$$OOO                                                                                                                 ",
"            #########$$$$$$$OOO                              #########$$$$$$$OOO                           ###@####@####@@@@@+@@                            ##@@#@@@#$#$OOOO@@O@O                         @######@#@@OOOOOOO++                           #$#$@@@OO###OOOOOOO@@                              #@@@#@###$$$$$$$OO                                                                                                                  ",
"            #@@@#@###$$$$$$$OO                              ##########$$$$$$$OOO                          #############$$$$$$OO@                            #####@@OOOOOOOO                               ####@@@@####OOOOOO++@                                 OO#@@OOOOOOO@@                             ##@@#@@###OOOOOOO@@                                                                                                                  ",
"           ##@@#@@###OOOOOOO@@                              #@@@#@####$$$$$$$OO                           ##@@@#@#####$$$$$$$OOO                            ####@@OOOOOO                                   #$#$@@OO#$#$OOOO@@O@O                                  #@@OOOOOOO++                             ######@###OOOOOOO@@                                                                                                                  ",
"           ######@#@@OOOOOOO@@                             ##@@#@@###OOOOOOO@@                            ##@@#@@#####$$$$$$$OOO                             @##@@                                                                                                ####OOOOO@++@                            @#####@#@@OOOOOOO@@                                                                                                                  ",
"           @#####@#@@OOOOOOO++                             ######@#@@OOOOOOO@@                            ######@#####$$$$$$$OO                             ###@@@@                                                                                                #$#$     @O@O                           ###@@@@#@@OOOOOOO++                                                                                                                  ",
"           ###@@@@####OOOOOO++@                            @##@@@@####OOOOOO++@                           @###@@@#####OOOOOOO+@                             #$#$@O@O                                                                                                                                        #$#$@+####OOOOOO++@                                                                                                                 ",
"            #$#$@+@#$#$OOOO@@O@O                           ##$#$@+@#$#$OOOO@@O@O                           ##$#$+@##$#$OOOO@@O@O                                                                                                                                                                                  @#$#$OOOO@@O@O                                                                                                                ",
"                                                                                                                                                                                                                                                                                                                                                                                                                                                ",
"                                                                                                                                                                                                                                                                                                                                                                                                                                                ",
"                                                                                                                                                                                                                                                                                                                                                                                                                                                ",
"                                                                                                                                                                                                                                                                                                                                                                                                                                                ",
"                                                                                                                                                                                                                                                                                                                                                                                                                                                ",
"                                                                                                                                                                                                                                                                                                                                                                                                                                                ",
"                                                                                                                                                                                                                                                                                                                                                                                                                                                ",
"                                                                                                                                                                                                                                                                                                                                                                                                                                                ",
"                                                                                                                                                                                                                                                                                                                                                                                                                                                ",
"                                                                                                                                                                                                                                                                                                                                                                                                                                                ",
"                                                                                                                                                                                                                                                                                                                                                                                                                                                ",
"                                                                                                                                                                                                                                                                                                                                                                                                                                                ",
"                                                                                                                                                                                                                                                                                                                                                                                                                                                ",
"                                                                                                                                                                                                                                                                                                                                                                                                                                                ",
"                                                                                                                                                                                                                                                                                                                                                                                                                                                ",
"                                                                                                                                                                                                                                                                                                                                                                                                                                                ",
"                                                                                                                                                                                                                                                                                                                                                                                                                                                ",
"                                                                                                                                                                                                                                                                                                                                                                                                                                                ",
"                                                                                                                                                                                                                                                                                                                                                                                                                                                ",
"                                                                                                                                                                                                                                                                                                                                                                                                                                                ",
"                                                                                                                                                                                                                                                                                                                                                                                                                                                ",
"                                                                                                                                                                                                                                                                                                                                                                                                                                                ",
"                                                                                                                                                                                                                                                                                                                                                                                                                                                ",
"                                                                                                                                                                                                                                                                                                                                                                                                                                                ",
"                                                                                                                                                                                                                                                                                                                                                                                                                                                ",
"                                                                                                                                                                                                                                                                                                                                                                                                                                                ",
"                                                                                                                                                                                                                                                                                                                                                                                                                                                ",
"                                                                                                                                                                                                                                                                                                                                                                                                                                                ",
"                                                                                                                                                                                                                                                                                                                                                                                                                                                ",
"                                                                                                                                                                                                                                                                                                                                                                                                                                                ",
"                                                                                                                                                                                                                  ####     @@@                                                                                                                                                                                                                  ",
"                                                                                                                                                                  ####     @@@                                   ###..#   @@..@                                   ####     @@@                                                                                                                                                                  ",
"                 ####     @@@                                                                                                                                    ###..#   @@..@                                  @#....##@@#...                                  ###..#   @@..@                                                                                                                                                                 ",
"                ###..#   @@..@                                    ####     @@@                                                                                   @#....##@@#...                                  @#....######..                                  @#....##@@#...                                                                                                                                                                 ",
"                @#....##@@#...                                   ###..#   @@..@                                                                                  @#....######..                                  ###..#######@@                                  @#....######..                                                                                                                                                                 ",
"                @#....######..                                   @#....##@@#...                                   ####     @@@                                   ###..#######@@                                  ############@@@                                 ###..#######@@                                                                                                                                                                 ",
"                ###..#######@@                                   @#....######..                                  ######   @@@@@                                  ############@@@                                 ##@######XXXX@@          oo%%                   ############@@@              %                                                                                                                                                 ",
"                ######@#####@+@                                  ###..#######@@                                  @#######@@#@@@                                  ##@######XXXX@@  %%%%%%%%                       #######XXXooooooooooooooooo  %                  ##@######XXXX@@oo             %                                                                                                                                                ",
"               ###@####@@@@@+@@                                  ######@#####@+@                                 @##..###@@##.@                                  #######XXXoo%%%%%%%%%%%%%%%%                  @#######$$$$$$OO@          %%%%%                  #######XXXooooooo            %%                                                                                                                                                ",
"              @#######$$$$$$OO@                                 ###@####@@@@@+@@                                 ##....######..                                @#######$$$$$$OO@                              ########$$$$$$$OOO                               @#######$$$$$$OO@                                                                                                                                                                ",
"             ########$$$$$$$OOO                               @########$$$$$$OO@                               ####....######..@                              ########$$$$$$$OOO                             #########$$$$$$$OOO                              ########$$$$$$$OOO                                                                                                                                                                ",
"            #########$$$$$$$OOO                              #########$$$$$$$OOO                           ###@####@..#######@@@                             #########$$$$$$$OOO                            #@@@#@####$$$$$$$OO                              #########$$$$$$$OOO                                                                                                                                                                ",
"            #@@@#@###$$$$$$$OO                              ##########$$$$$$$OOO                          #############@#####@+@                            #@@@#@####$$$$$$$OO                            ##@@#@@###OOOOOOO@@                              #@@@#@####$$$$$$$OO                                                                                                                                                                 ",
"           ##@@#@@###OOOOOOO@@                              #@@@#@####$$$$$$$OO                           ##@@@#@#######@@@@@+@@                           ##@@#@@###OOOOOOO@@                             ######@#@@OOOOOOO@@                             ##@@#@@###OOOOOOO@@                                                                                                                                                                  ",
"           ######@#@@OOOOOOO@@                             ##@@#@@###OOOOOOO@@                            ##@@#@@######$$$$$$OO@                           ######@#@@OOOOOOO@@                             @#####@#@@OOOOOOO@@                             ######@#@@OOOOOOO@@                                                                                                                                                                  ",
"           @#####@#@@OOOOOOO++                             ######@#@@OOOOOOO@@                            ######@#####$$$$$$$OO                            @#####@#@@OOOOOOO++                             @#####@###OOOOOOO++                             @#####@#@@OOOOOOO++                                                                                                                                                                  ",
"           ###@@@@####OOOOOO++@                            @##@@@@####OOOOOO++@                           @###@@@#####OOOOOOO+@                            ###@@@@####OOOOOO++@                            ###@@@@####OOOOOO++@                            ###@@@@####OOOOOO++@                                                                                                                                                                 ",
"            #$#$@+@#$#$OOOO@@O@O                           ##$#$@+@#$#$OOOO@@O@O                           ##$#$+@##$#$OOOO@@O@O                            #$#$@+@#$#$OOOO@@O@O                            #$#$@+@#$#$OOOO@@O@O                            #$#$@+@#$#$OOOO@@O@O                                                                                                                                                                ",
"                                                                                                                                                                                                                                                                                                                                                                                                                                                ",
"                                                                                                                                                                                                                                                                                                                                                                                                                                                ",
"                                                                                                                                                                                                                                                                                                                                                                                                                                                ",
"                                                                                                                                                                                                                                                                                                                                                                                                                                                ",
"                                                                                                                                                                                                                                                                                                                                                                                                                                                ",
"                                                                                                                                                                                                                                                                                                                                                                                                                                                ",
"                                                                                                                                                                                                                                                                                                                                                                                                                                                ",
"                                                                                                                                                                                                                                                                                                                                                                                                                                                ",
"                                                                                                                                                                                                                                                                                                                                                                                                                                                ",
"                                                                                                                                                                                                                                                                                                                                                                                                                                                ",
"                                                                                                                                                                                                                                                                                                                                                                                                                                                ",
"                                                                                                                                                                                                                                                                                                                                                                                                                                                ",
"                                                                                                                                                                                                                                                                                                                                                                                                                                                ",
"                                                                                                                                                                                                                                                                                                                                                                                                                                                ",
"                                                                                                                                                                                                                                                                                                                                                                                                                                                ",
"                                                                                                                                                                                                                                                                                                                                                                                                                                                ",
"                                                                                                                                                                                                                                                                                                                                                                                                                                                ",
"                                                                                                                                                                                                                                                                                                                                                                                                                                                ",
"                                                                                                                                                                                                                                                                                                                                                                                                                                                ",
"                                                                                                                                                                                                                                                                                                                                                                                                                                                ",
"                                                                                                                                                                                                                                                                                                                                                                                                                                                ",
"                                                                                                                                                                                                                                                                                                                                                                                                                                                ",
"                                                                                                                                                                                                                                                                                                                                                                                                                                                ",
"                                                                                                                                                                                                                                                                                                                                                                                                                                                ",
"                                                                                                                                                                                                                                                                                                                                                                                                                                                ",
"                                                                                                                                                                                                                                                                                                                                                                                                                                                ",
"                                                                                                                                                                                                                                                                                                                                                                                                                                                ",
"                                                                                                                                                                                                                                                                                                                                                                                                                                                ",
"                                                                                                                                                                                                                                                                                                                                                                                                                                                ",
"                                                                                                                                                                                                                                                                                                                                                                                                                                                ",
"                                                                                                                                                                                                                                                                                                                                                                                                                                                ",
"                                                                                                                                                                                                                                                                                                                                                                                                                                                ",
"                 ####     @@@                                    %%%%     %%%                                                                                                                                                                                                                                                                                                                                                                   ",
"                ###..#   @@..@                                  %%%%%%   %%%%%                                  ####       @@@                                                                                                                                                                                                                                                                                                                  ",
"                @#....##@@#...                                  %%%%%%%%%%%%%%                                 #....#     @...@                                  ####     @@@                                                                                                                                                                                                                                                                   ",
"                @#....######..                                  %%%%%%%%%%%%%%                                 @.....#######...                                 ###..#   @@..@                                                                                                                                                                                                                                                                  ",
"                ###..#######@@                                  %%%%%%%%%%%%%%                                 @#...#########..                                 @#....##@@#...                                                                                                                                                                                                                                                                  ",
"                ######@#####@+@                                 %%%%%%%%%%%%%%%                                ######@#######@+                                 @#....######..                                                                                                                                                                                                                                                                  ",
"               ###@####@@@@@+@@                                %%%%%%%%%%%%%%%%                                #######@@@@@@@+@@                                ###..#######@@                                                                                                                                                                                                                                                                  ",
"              @#######$$$$$$OO@                               %%%%%%%%%%%%%%%%%                               ###@###$$$$$$$$OO@                                ######@#####@+@                                                                                                                                                                                                                                                                 ",
"             ########$$$$$$$OOO                              %%%%%%%%%%%%%%%%%%                              @######$$$$$$$$$OOO                               ###@####@@@@@+@@                                                                                                                                                                                                                                                                 ",
"            #########$$$$$$$OOO                             %%%%%%%%%%%%%%%%%%%                             ########$$$$$$$$$OOO                              @#######$$$$$$OO@                                                                                                                                                                                                                                                                 ",
"            #@@@#@###$$$$$$$OO                              %%%%%%%%%%%%%%%%%%                             #########$$$$$$$$$OOO                             ########$$$$$$$OOO                                                                                                                                                                                                                                                                 ",
"           ##@@#@@###OOOOOOO@@                             %%%%%%%%%%%%%%%%%%%                             #@@@#@###$$$$$$$$$OO                             #########$$$$$$$OOO                                                                                                                                                                                                                                                                 ",
"           ######@#@@OOOOOOO@@                             %%%%%%%%%%%%%%%%%%%                            ##@@#@@###OOOOOOOOO@@                             #@@@#@###$$$$$$$OO                                                                                                                                                                                                                                                                  ",
"           @#####@#@@OOOOOOO++                             %%%%%%%%%%%%%%%%%%%                            @#####@#@@OOOOOOOOO++                            ##@@#@@###OOOOOOO@@                                                                                                                                                                                                                                                                  ",
"           ###@@@@####OOOOOO++@                            %%%%%%%%%%%%%%%%%%%%                           ####@@@####OOOOOOOO++@                           @#####@#@@OOOOOOO++@                                                                                                                                                                                                                                                                 ",
"            #$#$@+@#$#$OOOO@@O@O                            %%%%%%%%%%%%%%%%%%%%                           #$#$@+@#$#$OOOOOO@@O@O                          ##$#$@+@#$#$OOOO@@O@O                                                                                                                                                                                                                                                                ",
"                                                                                                                                                                                                                                                                                                                                                                                                                                                ",
"                                                                                                                                                                                                                                                                                                                                                                                                                                                ",
"                                                                                                                                                                                                                                                                                                                                                                                                                                                ",
"                                                                                                                                                                                                                                                                                                                                                                                                                                                ",
"                                                                                                                                                                                                                                                                                                                                                                                                                                                ",
"                                                                                                                                                                                                                                                                                                                                                                                                                                                ",
"                                                                                                                                                                                                                                                                                                                                                                                                                                                ",
"                                                                                                                                                                                                                                                                                                                                                                                                                                                ",
"                                                                                                                                                                                                                                                                                                                                                                                                                                                ",
"                                                                                                                                                                                                                                                                                                                                                                                                                                                ",
"                                                                                                                                                                                                                                                                                                                                                                                                                                                ",
"                                                                                                                                                                                                                                                                                                                                                                                                                                                ",
"                                                                                                                                                                                                                                                                                                                                                                                                                                                ",
"                                                                                                                                                                                                                                                                                                                                                                                                                                                ",
"                                                                                                                                                                                                                                                                                                                                                                                                                                                ",
"                                                                                                                                                                                                                                                                                                                                                                                                                                                ",
"                                                                                                                                                                                                                                                                                                                                                                                                                                                ",
"                                                                                                                                                                                                                                                                                                                                                                                                                                                ",
"                                                                                                                                                                                                                                                                                                                                                                                                                                                ",
"                                                                                                                                                                                                                                                                                                                                                                                                                                                ",
"                                                                                                                                                                                                                                                                                                                                                                                                                                                ",
"                                                                                                                                                                                                                                                                                                                                                                                                                                                ",
"                                                                                                                                                                                                                                                                                                                                                                                                                                                ",
"                                                                                                                                                                                                                                                                                                                                                                                                                                                ",
"                                                                                                                                                                                                                                                                                                                                                                                                                                                ",
"                                                                                                                                                                                                                                                                                                                                                                                                                                                ",
"                                                                                                                                                                                                                                                                                                                                                                                                                                                ",
"                                                                                                                                                                                                                                                                                                                                                                                                                                                ",
"                                                                                                                                                                                                                                                                                                                                                                                                                                                ",
"                                                                                                                                                                                                                                                                                                                                                                      @                                                                         ",
"                                                                                                                ####       @@@@                                              @@                                                @@                                                @                                  @@                                                                                                                          ",
"                                                                ####       @@@                                 #....#     @...@                                             @  @                                               @@                                                                                  @  @                                                        @                                                                ",
"                 ####     @@@                                   ##..#     @@..                                 @.....#######...                                        @@@  @  @                                                                          @@        @@                                   @         @  @      @@                                                                                                                 ",
"                ###..#   @@..@                                 @#....##@@@@#...                                @#...#########..                                       @@@@@  @@                             @@@                                          @  @      @@@@                                             @@      @  @                                                                                                                ",
"                @#....##@@#...                                 @#....########..                                ######@@@@@@@@++                              @@@   @@@@@@@@                                @@@@@                                         @  @      @@@@   @@                                                @  @                                                                                                                ",
"                @#....######..                                 ###..#########@@                                ######$$$$$$$$OO@                            @@@@@@@@@@@@@@@@@   @                          @@@@@   @@@@   @@@                             @@        @@   @@@@                                                @@                                                                                  @                              ",
"                ###..#######@@                                 ######@#######@+                                ##@#$$$$$$$$$$OOOO                          @@@@@@@@@@@@@@@@@@@                             @@@@@  @@@@@@ @@@@@                                           @@@@                               @@                                                    @@                                                                            ",
"                ######@#####@+@                               ###@####@@@@@@@+@@                               ###$$$$$$$$$$$OOOOO                         @@@@@@@@@@@@@@@@@@@                         @    @@@   @@@@@@@@@@@@                                @@          @@                                @@                                                   @  @                                                                           ",
"               ###@####@@@@@+@@                              @#######$$$$$$$$OO@                              ####$$$$$$$$$$$OOOOO                       @ @@@@@@@@@@@@@@@@@@@                                  @@@@@@@@@@@@@                                @@@@                                                  @@@  @@                                       @  @                                                                           ",
"              @#######$$$$$$OO@                             ########$$$$$$$$$OOO                             @####$$$$$$$$$$$OOOOO                      @ @ @@@@@@@@@@@@@@@@@@@                                @@@@@@@@@@@@@@ @@@                            @@@@        @@                                       @@@@@ @@                                        @@                                                                            ",
"             ########$$$$$$$OOO                             ########$$$$$$$$$OOO                            ###@###$$$$$$$$$$OOOO                        @   @@@@@@@@@@@@@@@@@@@                               @@@@@@@@@@@@@@@@@@@                            @@     @@@@@@@    @@                                @@@@@                                                                                                                         ",
"            #########$$$$$$$OOO                            #@@@#@###$$$$$$$$$OOO                           #####@###OOOOOOOOO@@                               @@@@@@@@@@@@@@@@@@@                              @@@@@@@@@@@@@@@@@@@                       @@         @@@@@@@@   @@@@                    @@         @@@@@           @@                                                                                                            ",
"            #@@@#@###$$$$$$$OO                             #@@#@@###OOOOOOOOO@@                            #@@@#@###OOOOOOOOO@@                              @@@@@@@@@@@@@@@@@@@@                          @@   @@@@@@@@@@@@@@@@@@                      @  @        @@@@@@@    @@@@                    @@          @@@            @@                                                                                                            ",
"           ##@@#@@###OOOOOOO@@                            ######@#@@OOOOOOOOO@@                           ##@@#@@###OOOOOOOOO@@                             @@@@@@@@@@@@@@@@@@@@@                         @@@@    @@@@@@@@@@  @@@                       @  @        @@@@@       @@                                                                                                                                                              ",
"           ######@#@@OOOOOOO@@                            @#####@#@@OOOOOOOOO++                           ######@#@@OOOOOOOOO@@                             @@@@@@@@@@@@@@@@@@@@                          @@@@     @@@@@@@@                              @@          @@@                                                                                                                                                                        ",
"           @#####@#@@OOOOOOO++                            #####@@###OOOOOOOOO++                           @#####@#@@OOOOOOOOO++                             @@@@@@@@@@@@@@@  @@                            @@        @@@                                                                                                                                                                                                                        ",
"           ###@@@@####OOOOOO++@                           ###@@@@####OOOOOOOO@@@                          ###@@@@####OOOOOOOO++@                             @@@   @@@@@@                                                                                                                                                                                                                                                                       ",
"            #$#$@+@#$#$OOOO@@O@O                          ##$#$@+@#$#$OOOOOO@@O@O                          #$#$@+@#$#$OOOOOO@@O@O                                                                                                                                                                                                                                                                                                               ",
"                                                                                                                                                                                                                                                                                                                                                                                                                                                ",
"                                                                                                                                                                                                                                                                                                                                                                                                                                                ",
"                                                                                                                                                                                                                                                                                                                                                                                                                                                ",
"                                                                                                                                                                                                                                                                                                                                                                                                                                                ",
"                                                                                                                                                                                                                                                                                                                                                                                                                                                ",
"                                                                                                                                                                                                                                                                                                                                                                                                                                                ",
"                                                                                                                                                                                                                                                                                                                                                                                                                                                ",
"                                                                                                                                                                                                                                                                                                                                                                                                                                                ",
"                                                                                                                                                                                                                                                                                                                                                                                                                                                ",
"                                                                                                                                                                                                                                                                                                                                                                                                                                                ",
"                                                                                                                                                                                                                                                                                                                                                                                                                                                ",
"                                                                                                                                                                                                                                                                                                                                                                                                                                                ",
"                                                                                                                                                                                                                                                                                                                                                                                                                                                ",
"                                                                                                                                                                                                                                                                                                                                                                                                                                                ",
"                                                                                                                                                                                                                                                                                                                                                                                                                                                "
};
