/* XPM */
static char *bababcb67f594bdf812479d4e9aefbc2lXg4iAiQXdWE16pv[] = {
/* columns rows colors chars-per-pixel */
"432 240 13 1 ",
"  c None",
". c #181425",
"X c #265C42",
"o c #A22633",
"O c #E43B44",
"+ c #B86F50",
"@ c #3E8948",
"# c #63C74D",
"$ c #E4A672",
"% c #124E89",
"& c #0099DB",
"* c #EAD4AA",
"= c white",
/* pixels */
"                                                                                                                                                                                                                                                                                                                                                                                                                                                ",
"                                                                                                                                                                                                                                                                                                                                                                                                                                                ",
"                                                                                                                                                                                                                                                                                                                                                                                                                                                ",
"                                                                                                                                                                                                                                                                                                                                                                                                                                                ",
"                                                                                                                                                                                                                                                                                                                                                                                                                                                ",
"                                                                                                                                                                                                                                                                                                                                                                                                                                                ",
"                                                                                                                                                                                                                                                                                                                                                                                                                                                ",
"                                                                                                                                                                                                                                                                                                                                                                                                                                                ",
"                                                                                                                                                                                                                                                                                                                                                                                                                                                ",
"                                                                                                                                                                                                                                                                                                                                                                                                                                                ",
"                                                                                                                                                                                                                                                                                                                                                                                                                                                ",
"                                                                                                                                                                                                                                                                                                                                                                                                                                                ",
"                                                                                                                                                                                                                                                                                                                                                                                                                                                ",
"                                                                                                                                                                                                                                                                                                                                                                                                                                                ",
"                                                                                                                                                                                                                                                                                                                                                                                                                                                ",
"                                                                                                                                                                                                                                                                                                                                                                                                                                                ",
"                                                                                                                                                                                                                                                                                                                 ####     @@@                                    ####     @@@                                                                   ",
"                 ####     @@@                                     ###     @@@                                                                                                                                    ####     @@@                                   #####     @@@@                                  ###..#   @@..@                                   ##..#   @@..                                                                   ",
"                ###..#   @@..@                                   ##..#   @@..@                                   ####     @@@                                    ####     @@@@                                  ###..#   @@..@                                  ###..#   @@..@                                  &#....##&&#...                                  &#....##&&#...                                                                  ",
"                &#....##&&#...                                  &#....##&&#...                                  #....#   @...@                                  #....#   @...@                                  &#....##&&#...                                  &#....##&&#...                                  &#....######..                                  &#....######..                                                                  ",
"                &#....######..                                  &#....######..                                  &.....#####...                                  &.....#####...                                  &#....######..                                  &#....######..                                  ###..#######@@                                  ###..#######@@                                                                  ",
"                ###..#######@@                                  ###..#######@@                                  &#...#######..                                  &#...#######..                                  ###..#######@@                                  ###..#######@@                                  ######@#####@X@                                 ######@#####@X                                                                  ",
"                ######@#####@X@                                 ######@#####@X                                  ######@#####@X                                  ######@@@@@@XX                                  ######@#####@X@                                 ######@#####@X@                                ###&####@@@@@X@@                                ###&####@@@@@X@@                                                                 ",
"               ###&####@@@@@X@@                                ###&####@@@@@X@@                                 #######@@@@@X@@                                 ######******$$@                                ###&####@@@@@X@@                                ###&####@@@@@X@@                               &#######******$$@                               &#######******$$@                                                                 ",
"              &#######******$$@                               &#######******$$@                                ###&##*******$$$                                ###&#********$$$$                              &######*******$$$                               &#######******$$@                              ########*******$$$                              ########*******$$$                                                                 ",
"             ########*******$$$                              ########*******$$$                               &#####********$$$$                              &####*********$$$$$                            #######********$$$$                             ########*******$$$                             #########*******$$$                              ########*******$$$                                                                 ",
"            #########*******$$$                             #########*******$$$                              #######********$$$$                             ######*********$$$$$                           ########********$$$$                            #########*******$$$                             #&&@#@###*******$$                              #&&@#@###*******$$$                                                                 ",
"            #&&@#@###*******$$                              #&&@#@###*******$$$                             ########********$$$$                            #######*********$$$$$                           #&&@#@###*******$$$                            ##&&@#@###*******$$                             ##&&#@@###$$$$$$$+@                              #&&#@@###$$$$$$$+@                                                                  ",
"           ##&&#@@###$$$$$$$+@                              #&&#@@###$$$$$$$+@                              #&&@#@##********$$$                            ##&&@#@##********$$$$                           ##&&#@@###$$$$$$$+@                             ##&&#@@###$$$$$$$+@                             ######@#&&$$$$$$$@@                             ######@#&&$$$$$$$@@                                                                  ",
"           ######@#&&$$$$$$$@@                             ######@#&&$$$$$$$@@                             ##&&#@@###$$$$$$$+@                             ##&&#@@###$$$$$$$+@                             ######@#&&$$$$$$$@@                             ######@#&&$$$$$$$@@                             &#####@#&&$$$$$$$%%                             &#####@#&&$$$$$$$%%                                                                  ",
"           &#####@#&&$$$$$$$%%                             &#####@#&&$$$$$$$%%                             &#####@#&&$$$$$$$%%                             &#####@#&&$$$$$$$%%@                            &#####@#&&$$$$$$$%%                             &#####@#&&$$$$$$$%%@                            #####@@####$$$$$$%%                             #####@@###$$$$$$$%%                                                                  ",
"           ###@@@@####$$$$$$%%@                            ###@@@@####$$$$$$%%@                            ####@@@####$$$$$$%%@                            ####@@@####$$$$$$%%@                            ###@@@@####$$$$$$%%@                             ##@@@@####$$$$$$%%@                            ###@@@@####$$$$$$@@@                            ###@@@@####$$$$$$@@@                                                                 ",
"            #*#*@%@#*#*$$$$@@$@$                           ##*#*@%@#*#*$$$$@@$@$                            #*#*@%@#*#*$$$$@@$@$                            #*#*@%@#*#*$$$$@@$@$                            #*#*@%@#*#*$$$$@@$@$                            #*#*@%@#*#*$$$$@@$@$                            #*#*@%@#*#*$$$$@@$@$                           ##*#*@%@#*#*$$$$@@$@$                                                                ",
"                                                                                                                                                                                                                                                                                                                                                                                                                                                ",
"                                                                                                                                                                                                                                                                                                                                                                                                                                                ",
"                                                                                                                                                                                                                                                                                                                                                                                                                                                ",
"                                                                                                                                                                                                                                                                                                                                                                                                                                                ",
"                                                                                                                                                                                                                                                                                                                                                                                                                                                ",
"                                                                                                                                                                                                                                                                                                                                                                                                                                                ",
"                                                                                                                                                                                                                                                                                                                                                                                                                                                ",
"                                                                                                                                                                                                                                                                                                                                                                                                                                                ",
"                                                                                                                                                                                                                                                                                                                                                                                                                                                ",
"                                                                                                                                                                                                                                                                                                                                                                                                                                                ",
"                                                                                                                                                                                                                                                                                                                                                                                                                                                ",
"                                                                                                                                                                                                                                                                                                                                                                                                                                                ",
"                                                                                                                                                                                                                                                                                                                                                                                                                                                ",
"                                                                                                                                                                                                                                                                                                                                                                                                                                                ",
"                                                                                                                                                                                                                                                                                                                                                                                                                                                ",
"                                                                                                                                                                                                                                                                                                                                                                                                                                                ",
"                                                                                                                                                                                                                                                                                                                                                                                                                                                ",
"                                                                                                                                                                                                                                                                                                                                                                                                                                                ",
"                                                                                                                                                                                                                                                                                                                                                                                                                                                ",
"                                                                                                                                                                                                                                                                                                                                                                                                                                                ",
"                                                                                                                                                                                                                                                                                                                                                                                                                                                ",
"                                                                                                                                                                                                                                                                                                                                                                                                                                                ",
"                                                                                                                                                                                                                                                                                                                                                                                                                                                ",
"                                                                                                                                                                                                                                                                                                                                                                                                                                                ",
"                                                                                                                                                                                                                                                                                                                                                                                                                                                ",
"                                                                                                                                                                                                                                                                                                                                                                                                                                                ",
"                                                                                                                                                                 ####     @@@                                                                                                                                                                                                                                                                   ",
"                                                                                                                                                                ##...#   @...@                                                                                                                                                                                                                                                                  ",
"                                                                                                                                                                &#....##&&#...                                   ####     @@@                                                                                                                                                                                                                   ",
"                                                                                                                                                                &#....######..                                  ###..#   @@..@                                   ####     @@@                                                                                                                                                                   ",
"                                                                                                                                                                ###..#@#####@X                                  &#....##&&#...                                  ######   @@@@@                                                                                                                                                                  ",
"                                                                                                                                                                #######@@@@@X@@                                 &#....######..                                  &#....##&&#...                                   ####     @@@                                                                                                                   ",
"                 ####     @@@                                                                                                                                   ##&###******$$@                                 ###..#######@@                                  &#....######..                                  ###..#   @@..@                                                                                                                  ",
"                ###..#   @@..@                                    ####     @@@                                                                                  #####*******$$$                                 ######@#####@X@                                 ###...######..                                  &#....##&&#...                                                                                                                  ",
"                &#....##&&#...                                   ###..#   @@..@                                                                                 #####*******$$$                                ###&####@@@@@X@@                              ###############@@@                                 &#....######..                                                                                                                  ",
"                &#....######..                                   &#....##&&#...                                   ####     @@@                                  #####*******$$$                               &#######******$$@                             ######&###@#####@X@                                 ###..#######@@                                                                                                                  ",
"                ###..#######@@                                   &#....######..                                  ###..#   @@..@                                ######*******$$                               ########*******$$$                            #&&@########@@@@@X@@                                 ######@#####@X@                                                                                                                 ",
"                ######@#####@X@                                  ###..#######@@                                  &#....##&&#...                               &######$$$$$$$+                               #########*******$$$                           ##&&#@######******$$@                                ###&####@@@@@X@@                                                                                                                 ",
"               ###&####@@@@@X@@                                  ######@#####@X@                                 &#....######..                               ##@###&&$$$$$$@@                             #&&@#@####*******$$                            ######@####*******$$$                               &#######******$$@                                                                                                                 ",
"              &#######******$$@                                 ###&####@@@@@X@@                                 ###..#######@@                              ####@##&&$$$$$$@%%                           ##&&#@@####$$$$$$$+@                            &#####@####*******$$                               ########*******$$$                                                                                                                 ",
"             ########*******$$$                               &########******$$@                               ########@#####@X@                             #&&@@@####$$$$$@%%@                          #######@#&&$$$$$$$@@                           ###@##@@@###$$$$$$$+@                              #########*******$$$                                                                                                                 ",
"            #########*******$$$                              #########*******$$$                           ###&####&####@@@@@X@@                            ##&&#@@@#*#*$$$$@@$@$                         &######@#&&$$$$$$$%%                           #*#*@@@$$###$$$$$$$@@                              #&&@#@###*******$$                                                                                                                  ",
"            #&&@#@###*******$$                              ##########*******$$$                          #############******$$@                            #####@@$$$$$$$$                               ####@@@@####$$$$$$%%@                                 $$#&&$$$$$$$@@                             ##&&#@@###$$$$$$$+@                                                                                                                  ",
"           ##&&#@@###$$$$$$$+@                              #&&@#@####*******$$                           ##&&@#@#####*******$$$                            ####@@$$$$$$                                   #*#*@@$$#*#*$$$$@@$@$                                  #&&$$$$$$$%%                             ######@###$$$$$$$@@                                                                                                                  ",
"           ######@#&&$$$$$$$@@                             ##&&#@@###$$$$$$$+@                            ##&&#@@#####*******$$$                             &##@@                                                                                                ####$$$$$@%%@                            &#####@#&&$$$$$$$@@                                                                                                                  ",
"           &#####@#&&$$$$$$$%%                             ######@#&&$$$$$$$@@                            ######@#####*******$$                             ###@@@@                                                                                                #*#*     @$@$                           ###@@@@#&&$$$$$$$%%                                                                                                                  ",
"           ###@@@@####$$$$$$%%@                            &##@@@@####$$$$$$%%@                           &###@@@#####$$$$$$$%@                             #*#*@$@$                                                                                                                                        #*#*@%####$$$$$$%%@                                                                                                                 ",
"            #*#*@%@#*#*$$$$@@$@$                           ##*#*@%@#*#*$$$$@@$@$                           ##*#*%@##*#*$$$$@@$@$                                                                                                                                                                                  @#*#*$$$$@@$@$                                                                                                                ",
"                                                                                                                                                                                                                                                                                                                                                                                                                                                ",
"                                                                                                                                                                                                                                                                                                                                                                                                                                                ",
"                                                                                                                                                                                                                                                                                                                                                                                                                                                ",
"                                                                                                                                                                                                                                                                                                                                                                                                                                                ",
"                                                                                                                                                                                                                                                                                                                                                                                                                                                ",
"                                                                                                                                                                                                                                                                                                                                                                                                                                                ",
"                                                                                                                                                                                                                                                                                                                                                                                                                                                ",
"                                                                                                                                                                                                                                                                                                                                                                                                                                                ",
"                                                                                                                                                                                                                                                                                                                                                                                                                                                ",
"                                                                                                                                                                                                                                                                                                                                                                                                                                                ",
"                                                                                                                                                                                                                                                                                                                                                                                                                                                ",
"                                                                                                                                                                                                                                                                                                                                                                                                                                                ",
"                                                                                                                                                                                                                                                                                                                                                                                                                                                ",
"                                                                                                                                                                                                                                                                                                                                                                                                                                                ",
"                                                                                                                                                                                                                                                                                                                                                                                                                                                ",
"                                                                                                                                                                                                                                                                                                                                                                                                                                                ",
"                                                                                                                                                                                                                                                                                                                                                                                                                                                ",
"                                                                                                                                                                                                                                                                                                                                                                                                                                                ",
"                                                                                                                                                                                                                                                                                                                                                                                                                                                ",
"                                                                                                                                                                                                                                                                                                                                                                                                                                                ",
"                                                                                                                                                                                                                                                                                                                                                                                                                                                ",
"                                                                                                                                                                                                                                                                                                                                                                                                                                                ",
"                                                                                                                                                                                                                                                                                                                                                                                                                                                ",
"                                                                                                                                                                                                                                                                                                                                                                                                                                                ",
"                                                                                                                                                                                                                                                                                                                                                                                                                                                ",
"                                                                                                                                                                                                                                                                                                                                                                                                                                                ",
"                                                                                                                                                                                                                                                                                                                                                                                                                                                ",
"                                                                                                                                                                                                                                                                                                                                                                                                                                                ",
"                                                                                                                                                                                                                                                                                                                                                                                                                                                ",
"                                                                                                                                                                                                                                                                                                                                                                                                                                                ",
"                                                                                                                                                                                                                  ####     @@@                                                                                                                                                                                                                  ",
"                                                                                                                                                                  ####     @@@                                   ###..#   @@..@                                   ####     @@@                                                                                                                                                                  ",
"                 ####     @@@                                                                                                                                    ###..#   @@..@                                  &#....##&&#...                                  ###..#   @@..@                                                                                                                                                                 ",
"                ###..#   @@..@                                    ####     @@@                                                                                   &#....##&&#...                                  &#....######..                                  &#....##&&#...                                                                                                                                                                 ",
"                &#....##&&#...                                   ###..#   @@..@                                                                                  &#....######..                                  ###..#######@@                                  &#....######..                                                                                                                                                                 ",
"                &#....######..                                   &#....##&&#...                                   ####     @@@                                   ###..#######@@                                  ############@@@                                 ###..#######@@                                                                                                                                                                 ",
"                ###..#######@@                                   &#....######..                                  ######   @@@@@                                  ############@@@                                 ##&######oooo@@          OO==                   ############@@@              =                                                                                                                                                 ",
"                ######@#####@X@                                  ###..#######@@                                  &#######&&#@@@                                  ##&######oooo@@  ========                       #######oooOOOOOOOOOOOOOOOOO  =                  ##&######oooo@@OO             =                                                                                                                                                ",
"               ###&####@@@@@X@@                                  ######@#####@X@                                 &##..###&&##.@                                  #######oooOO================                  &#######******$$@          =====                  #######oooOOOOOOO            ==                                                                                                                                                ",
"              &#######******$$@                                 ###&####@@@@@X@@                                 ##....######..                                &#######******$$@                              ########*******$$$                               &#######******$$@                                                                                                                                                                ",
"             ########*******$$$                               &########******$$@                               ####....######..@                              ########*******$$$                             #########*******$$$                              ########*******$$$                                                                                                                                                                ",
"            #########*******$$$                              #########*******$$$                           ###&####&..#######@@@                             #########*******$$$                            #&&@#@####*******$$                              #########*******$$$                                                                                                                                                                ",
"            #&&@#@###*******$$                              ##########*******$$$                          #############@#####@X@                            #&&@#@####*******$$                            ##&&#@@###$$$$$$$+@                              #&&@#@####*******$$                                                                                                                                                                 ",
"           ##&&#@@###$$$$$$$+@                              #&&@#@####*******$$                           ##&&@#@#######@@@@@X@@                           ##&&#@@###$$$$$$$+@                             ######@#&&$$$$$$$@@                             ##&&#@@###$$$$$$$+@                                                                                                                                                                  ",
"           ######@#&&$$$$$$$@@                             ##&&#@@###$$$$$$$+@                            ##&&#@@######******$$@                           ######@#&&$$$$$$$@@                             &#####@#&&$$$$$$$@@                             ######@#&&$$$$$$$@@                                                                                                                                                                  ",
"           &#####@#&&$$$$$$$%%                             ######@#&&$$$$$$$@@                            ######@#####*******$$                            &#####@#&&$$$$$$$%%                             &#####@###$$$$$$$%%                             &#####@#&&$$$$$$$%%                                                                                                                                                                  ",
"           ###@@@@####$$$$$$%%@                            &##@@@@####$$$$$$%%@                           &###@@@#####$$$$$$$%@                            ###@@@@####$$$$$$%%@                            ###@@@@####$$$$$$%%@                            ###@@@@####$$$$$$%%@                                                                                                                                                                 ",
"            #*#*@%@#*#*$$$$@@$@$                           ##*#*@%@#*#*$$$$@@$@$                           ##*#*%@##*#*$$$$@@$@$                            #*#*@%@#*#*$$$$@@$@$                            #*#*@%@#*#*$$$$@@$@$                            #*#*@%@#*#*$$$$@@$@$                                                                                                                                                                ",
"                                                                                                                                                                                                                                                                                                                                                                                                                                                ",
"                                                                                                                                                                                                                                                                                                                                                                                                                                                ",
"                                                                                                                                                                                                                                                                                                                                                                                                                                                ",
"                                                                                                                                                                                                                                                                                                                                                                                                                                                ",
"                                                                                                                                                                                                                                                                                                                                                                                                                                                ",
"                                                                                                                                                                                                                                                                                                                                                                                                                                                ",
"                                                                                                                                                                                                                                                                                                                                                                                                                                                ",
"                                                                                                                                                                                                                                                                                                                                                                                                                                                ",
"                                                                                                                                                                                                                                                                                                                                                                                                                                                ",
"                                                                                                                                                                                                                                                                                                                                                                                                                                                ",
"                                                                                                                                                                                                                                                                                                                                                                                                                                                ",
"                                                                                                                                                                                                                                                                                                                                                                                                                                                ",
"                                                                                                                                                                                                                                                                                                                                                                                                                                                ",
"                                                                                                                                                                                                                                                                                                                                                                                                                                                ",
"                                                                                                                                                                                                                                                                                                                                                                                                                                                ",
"                                                                                                                                                                                                                                                                                                                                                                                                                                                ",
"                                                                                                                                                                                                                                                                                                                                                                                                                                                ",
"                                                                                                                                                                                                                                                                                                                                                                                                                                                ",
"                                                                                                                                                                                                                                                                                                                                                                                                                                                ",
"                                                                                                                                                                                                                                                                                                                                                                                                                                                ",
"                                                                                                                                                                                                                                                                                                                                                                                                                                                ",
"                                                                                                                                                                                                                                                                                                                                                                                                                                                ",
"                                                                                                                                                                                                                                                                                                                                                                                                                                                ",
"                                                                                                                                                                                                                                                                                                                                                                                                                                                ",
"                                                                                                                                                                                                                                                                                                                                                                                                                                                ",
"                                                                                                                                                                                                                                                                                                                                                                                                                                                ",
"                                                                                                                                                                                                                                                                                                                                                                                                                                                ",
"                                                                                                                                                                                                                                                                                                                                                                                                                                                ",
"                                                                                                                                                                                                                                                                                                                                                                                                                                                ",
"                                                                                                                                                                                                                                                                                                                                                                                                                                                ",
"                                                                                                                                                                                                                                                                                                                                                                                                                                                ",
"                                                                                                                                                                                                                                                                                                                                                                                                                                                ",
"                 ####     @@@                                    ====     ===                                                                                                                                                                                                                                                                                                                                                                   ",
"                ###..#   @@..@                                  ======   =====                                  ####       @@@                                                                                                                                                                                                                                                                                                                  ",
"                &#....##&&#...                                  ==============                                 #....#     @...@                                  ####     @@@                                                                                                                                                                                                                                                                   ",
"                &#....######..                                  ==============                                 &.....#######...                                 ###..#   @@..@                                                                                                                                                                                                                                                                  ",
"                ###..#######@@                                  ==============                                 &#...#########..                                 &#....##&&#...                                                                                                                                                                                                                                                                  ",
"                ######@#####@X@                                 ===============                                ######@#######@X                                 &#....######..                                                                                                                                                                                                                                                                  ",
"               ###&####@@@@@X@@                                ================                                #######@@@@@@@X@@                                ###..#######@@                                                                                                                                                                                                                                                                  ",
"              &#######******$$@                               =================                               ###&###********$$@                                ######@#####@X@                                                                                                                                                                                                                                                                 ",
"             ########*******$$$                              ==================                              &######*********$$$                               ###&####@@@@@X@@                                                                                                                                                                                                                                                                 ",
"            #########*******$$$                             ===================                             ########*********$$$                              &#######******$$@                                                                                                                                                                                                                                                                 ",
"            #&&@#@###*******$$                              ==================                             #########*********$$$                             ########*******$$$                                                                                                                                                                                                                                                                 ",
"           ##&&#@@###$$$$$$$+@                             ===================                             #&&@#@###*********$$                             #########*******$$$                                                                                                                                                                                                                                                                 ",
"           ######@#&&$$$$$$$@@                             ===================                            ##&&#@@###$$$$$$$$$+@                             #&&@#@###*******$$                                                                                                                                                                                                                                                                  ",
"           &#####@#&&$$$$$$$%%                             ===================                            &#####@#&&$$$$$$$$$%%                            ##&&#@@###$$$$$$$+@                                                                                                                                                                                                                                                                  ",
"           ###@@@@####$$$$$$%%@                            ====================                           ####@@@####$$$$$$$$%%@                           &#####@#&&$$$$$$$%%@                                                                                                                                                                                                                                                                 ",
"            #*#*@%@#*#*$$$$@@$@$                            ====================                           #*#*@%@#*#*$$$$$$@@$@$                          ##*#*@%@#*#*$$$$@@$@$                                                                                                                                                                                                                                                                ",
"                                                                                                                                                                                                                                                                                                                                                                                                                                                ",
"                                                                                                                                                                                                                                                                                                                                                                                                                                                ",
"                                                                                                                                                                                                                                                                                                                                                                                                                                                ",
"                                                                                                                                                                                                                                                                                                                                                                                                                                                ",
"                                                                                                                                                                                                                                                                                                                                                                                                                                                ",
"                                                                                                                                                                                                                                                                                                                                                                                                                                                ",
"                                                                                                                                                                                                                                                                                                                                                                                                                                                ",
"                                                                                                                                                                                                                                                                                                                                                                                                                                                ",
"                                                                                                                                                                                                                                                                                                                                                                                                                                                ",
"                                                                                                                                                                                                                                                                                                                                                                                                                                                ",
"                                                                                                                                                                                                                                                                                                                                                                                                                                                ",
"                                                                                                                                                                                                                                                                                                                                                                                                                                                ",
"                                                                                                                                                                                                                                                                                                                                                                                                                                                ",
"                                                                                                                                                                                                                                                                                                                                                                                                                                                ",
"                                                                                                                                                                                                                                                                                                                                                                                                                                                ",
"                                                                                                                                                                                                                                                                                                                                                                                                                                                ",
"                                                                                                                                                                                                                                                                                                                                                                                                                                                ",
"                                                                                                                                                                                                                                                                                                                                                                                                                                                ",
"                                                                                                                                                                                                                                                                                                                                                                                                                                                ",
"                                                                                                                                                                                                                                                                                                                                                                                                                                                ",
"                                                                                                                                                                                                                                                                                                                                                                                                                                                ",
"                                                                                                                                                                                                                                                                                                                                                                                                                                                ",
"                                                                                                                                                                                                                                                                                                                                                                                                                                                ",
"                                                                                                                                                                                                                                                                                                                                                                                                                                                ",
"                                                                                                                                                                                                                                                                                                                                                                                                                                                ",
"                                                                                                                                                                                                                                                                                                                                                                                                                                                ",
"                                                                                                                                                                                                                                                                                                                                                                                                                                                ",
"                                                                                                                                                                                                                                                                                                                                                                                                                                                ",
"                                                                                                                                                                                                                                                                                                                                                                                                                                                ",
"                                                                                                                                                                                                                                                                                                                                                                      &                                                                         ",
"                                                                                                                ####       @@@@                                              &&                                                &&                                                &                                  &&                                                                                                                          ",
"                                                                ####       @@@                                 #....#     @...@                                             &  &                                               &&                                                                                  &  &                                                        &                                                                ",
"                 ####     @@@                                   ##..#     @@..                                 &.....#######...                                        &&&  &  &                                                                          &&        &&                                   &         &  &      &&                                                                                                                 ",
"                ###..#   @@..@                                 &#....##&&&&#...                                &#...#########..                                       &&&&&  &&                             &&&                                          &  &      &&&&                                             &&      &  &                                                                                                                ",
"                &#....##&&#...                                 &#....########..                                ######@@@@@@@@XX                              &&&   &&&&&&&&                                &&&&&                                         &  &      &&&&   &&                                                &  &                                                                                                                ",
"                &#....######..                                 ###..#########@@                                ######********$$@                            &&&&&&&&&&&&&&&&&   &                          &&&&&   &&&&   &&&                             &&        &&   &&&&                                                &&                                                                                  &                              ",
"                ###..#######@@                                 ######@#######@X                                ##&#**********$$$$                          &&&&&&&&&&&&&&&&&&&                             &&&&&  &&&&&& &&&&&                                           &&&&                               &&                                                    &&                                                                            ",
"                ######@#####@X@                               ###&####@@@@@@@X@@                               ###***********$$$$$                         &&&&&&&&&&&&&&&&&&&                         &    &&&   &&&&&&&&&&&&                                &&          &&                                &&                                                   &  &                                                                           ",
"               ###&####@@@@@X@@                              &#######********$$@                              ####***********$$$$$                       & &&&&&&&&&&&&&&&&&&&                                  &&&&&&&&&&&&&                                &&&&                                                  &&&  &&                                       &  &                                                                           ",
"              &#######******$$@                             ########*********$$$                             &####***********$$$$$                      & & &&&&&&&&&&&&&&&&&&&                                &&&&&&&&&&&&&& &&&                            &&&&        &&                                       &&&&& &&                                        &&                                                                            ",
"             ########*******$$$                             ########*********$$$                            ###@###**********$$$$                        &   &&&&&&&&&&&&&&&&&&&                               &&&&&&&&&&&&&&&&&&&                            &&     &&&&&&&    &&                                &&&&&                                                                                                                         ",
"            #########*******$$$                            #&&@#@###*********$$$                           #####@###$$$$$$$$$+@                               &&&&&&&&&&&&&&&&&&&                              &&&&&&&&&&&&&&&&&&&                       &&         &&&&&&&&   &&&&                    &&         &&&&&           &&                                                                                                            ",
"            #&&@#@###*******$$                             #&&#@@###$$$$$$$$$+@                            #&&@#@###$$$$$$$$$@@                              &&&&&&&&&&&&&&&&&&&&                          &&   &&&&&&&&&&&&&&&&&&                      &  &        &&&&&&&    &&&&                    &&          &&&            &&                                                                                                            ",
"           ##&&#@@###$$$$$$$+@                            ######@#&&$$$$$$$$$@@                           ##&&#@@###$$$$$$$$$@@                             &&&&&&&&&&&&&&&&&&&&&                         &&&&    &&&&&&&&&&  &&&                       &  &        &&&&&       &&                                                                                                                                                              ",
"           ######@#&&$$$$$$$@@                            &#####@#&&$$$$$$$$$%%                           ######@#&&$$$$$$$$$@@                             &&&&&&&&&&&&&&&&&&&&                          &&&&     &&&&&&&&                              &&          &&&                                                                                                                                                                        ",
"           &#####@#&&$$$$$$$%%                            #####@@###$$$$$$$$$%%                           &#####@#&&$$$$$$$$$%%                             &&&&&&&&&&&&&&&  &&                            &&        &&&                                                                                                                                                                                                                        ",
"           ###@@@@####$$$$$$%%@                           ###@@@@####$$$$$$$$@@@                          ###@@@@####$$$$$$$$%%@                             &&&   &&&&&&                                                                                                                                                                                                                                                                       ",
"            #*#*@%@#*#*$$$$@@$@$                          ##*#*@%@#*#*$$$$$$@@$@$                          #*#*@%@#*#*$$$$$$@@$@$                                                                                                                                                                                                                                                                                                               ",
"                                                                                                                                                                                                                                                                                                                                                                                                                                                ",
"                                                                                                                                                                                                                                                                                                                                                                                                                                                ",
"                                                                                                                                                                                                                                                                                                                                                                                                                                                ",
"                                                                                                                                                                                                                                                                                                                                                                                                                                                ",
"                                                                                                                                                                                                                                                                                                                                                                                                                                                ",
"                                                                                                                                                                                                                                                                                                                                                                                                                                                ",
"                                                                                                                                                                                                                                                                                                                                                                                                                                                ",
"                                                                                                                                                                                                                                                                                                                                                                                                                                                ",
"                                                                                                                                                                                                                                                                                                                                                                                                                                                ",
"                                                                                                                                                                                                                                                                                                                                                                                                                                                ",
"                                                                                                                                                                                                                                                                                                                                                                                                                                                ",
"                                                                                                                                                                                                                                                                                                                                                                                                                                                ",
"                                                                                                                                                                                                                                                                                                                                                                                                                                                ",
"                                                                                                                                                                                                                                                                                                                                                                                                                                                ",
"                                                                                                                                                                                                                                                                                                                                                                                                                                                "
};
