/* XPM */
static char *_dfae820ede24f2382a03826a97c96cdjvffiancHXhjRu4N[] = {
/* columns rows colors chars-per-pixel */
"432 240 12 1 ",
"  c None",
". c #181425",
"X c #733E39",
"o c #A22633",
"O c #E43B44",
"+ c #B86F50",
"@ c #E4A672",
"# c #124E89",
"$ c #0099DB",
"% c #2CE8F5",
"& c #EAD4AA",
"* c white",
/* pixels */
"                                                                                                                                                                                                                                                                                                                                                                                                                                                ",
"                                                                                                                                                                                                                                                                                                                                                                                                                                                ",
"                                                                                                                                                                                                                                                                                                                                                                                                                                                ",
"                                                                                                                                                                                                                                                                                                                                                                                                                                                ",
"                                                                                                                                                                                                                                                                                                                                                                                                                                                ",
"                                                                                                                                                                                                                                                                                                                                                                                                                                                ",
"                                                                                                                                                                                                                                                                                                                                                                                                                                                ",
"                                                                                                                                                                                                                                                                                                                                                                                                                                                ",
"                                                                                                                                                                                                                                                                                                                                                                                                                                                ",
"                                                                                                                                                                                                                                                                                                                                                                                                                                                ",
"                                                                                                                                                                                                                                                                                                                                                                                                                                                ",
"                                                                                                                                                                                                                                                                                                                                                                                                                                                ",
"                                                                                                                                                                                                                                                                                                                                                                                                                                                ",
"                                                                                                                                                                                                                                                                                                                                                                                                                                                ",
"                                                                                                                                                                                                                                                                                                                                                                                                                                                ",
"                                                                                                                                                                                                                                                                                                                                                                                                                                                ",
"                                                                                                                                                                                                                                                                                                                 %%%%     $$$                                    %%%%     $$$                                                                   ",
"                 %%%%     $$$                                     %%%     $$$                                                                                                                                    %%%%     $$$                                   %%%%%     $$$$                                  %%%..%   $$..$                                   %%..%   $$..                                                                   ",
"                %%%..%   $$..$                                   %%..%   $$..$                                   %%%%     $$$                                    %%%%     $$$$                                  %%%..%   $$..$                                  %%%..%   $$..$                                  +%....%%++%...                                  +%....%%++%...                                                                  ",
"                +%....%%++%...                                  +%....%%++%...                                  %....%   $...$                                  %....%   $...$                                  +%....%%++%...                                  +%....%%++%...                                  +%....%%%%%%..                                  +%....%%%%%%..                                                                  ",
"                +%....%%%%%%..                                  +%....%%%%%%..                                  +.....%%%%%...                                  +.....%%%%%...                                  +%....%%%%%%..                                  +%....%%%%%%..                                  %%%..%%%%%%%$$                                  %%%..%%%%%%%$$                                                                  ",
"                %%%..%%%%%%%$$                                  %%%..%%%%%%%$$                                  +%...%%%%%%%..                                  +%...%%%%%%%..                                  %%%..%%%%%%%$$                                  %%%..%%%%%%%$$                                  %%%%%%$%%%%%$#$                                 %%%%%%$%%%%%$#                                                                  ",
"                %%%%%%$%%%%%$#$                                 %%%%%%$%%%%%$#                                  %%%%%%$%%%%%$#                                  %%%%%%$$$$$$##                                  %%%%%%$%%%%%$#$                                 %%%%%%$%%%%%$#$                                %%%+%%%%$$$$$#$$                                %%%+%%%%$$$$$#$$                                                                 ",
"               %%%+%%%%$$$$$#$$                                %%%+%%%%$$$$$#$$                                 %%%%%%%$$$$$#$$                                 %%%%%%&&&&&&@@$                                %%%+%%%%$$$$$#$$                                %%%+%%%%$$$$$#$$                               +%%%%%%%&&&&&&@@$                               +%%%%%%%&&&&&&@@$                                                                 ",
"              +%%%%%%%&&&&&&@@$                               +%%%%%%%&&&&&&@@$                                %%%+%%&&&&&&&@@@                                %%%+%&&&&&&&&@@@@                              +%%%%%%&&&&&&&@@@                               +%%%%%%%&&&&&&@@$                              %%%%%%%%&&&&&&&@@@                              %%%%%%%%&&&&&&&@@@                                                                 ",
"             %%%%%%%%&&&&&&&@@@                              %%%%%%%%&&&&&&&@@@                               +%%%%%&&&&&&&&@@@@                              +%%%%&&&&&&&&&@@@@@                            %%%%%%%&&&&&&&&@@@@                             %%%%%%%%&&&&&&&@@@                             %%%%%%%%%&&&&&&&@@@                              %%%%%%%%&&&&&&&@@@                                                                 ",
"            %%%%%%%%%&&&&&&&@@@                             %%%%%%%%%&&&&&&&@@@                              %%%%%%%&&&&&&&&@@@@                             %%%%%%&&&&&&&&&@@@@@                           %%%%%%%%&&&&&&&&@@@@                            %%%%%%%%%&&&&&&&@@@                             %++$%$%%%&&&&&&&@@                              %++$%$%%%&&&&&&&@@@                                                                 ",
"            %++$%$%%%&&&&&&&@@                              %++$%$%%%&&&&&&&@@@                             %%%%%%%%&&&&&&&&@@@@                            %%%%%%%&&&&&&&&&@@@@@                           %++$%$%%%&&&&&&&@@@                            %%++$%$%%%&&&&&&&@@                             %%++%$$%%%@@@@@@@+$                              %++%$$%%%@@@@@@@+$                                                                  ",
"           %%++%$$%%%@@@@@@@+$                              %++%$$%%%@@@@@@@+$                              %++$%$%%&&&&&&&&@@@                            %%++$%$%%&&&&&&&&@@@@                           %%++%$$%%%@@@@@@@+$                             %%++%$$%%%@@@@@@@+$                             %%%%%%$%++@@@@@@@$$                             %%%%%%$%++@@@@@@@$$                                                                  ",
"           %%%%%%$%++@@@@@@@$$                             %%%%%%$%++@@@@@@@$$                             %%++%$$%%%@@@@@@@+$                             %%++%$$%%%@@@@@@@+$                             %%%%%%$%++@@@@@@@$$                             %%%%%%$%++@@@@@@@$$                             +%%%%%$%++@@@@@@@XX                             +%%%%%$%++@@@@@@@XX                                                                  ",
"           +%%%%%$%++@@@@@@@XX                             +%%%%%$%++@@@@@@@XX                             +%%%%%$%++@@@@@@@XX                             +%%%%%$%++@@@@@@@XX$                            +%%%%%$%++@@@@@@@XX                             +%%%%%$%++@@@@@@@XX$                            %%%%%$$%%%%@@@@@@XX                             %%%%%$$%%%@@@@@@@XX                                                                  ",
"           %%%$$$$%%%%@@@@@@XX$                            %%%$$$$%%%%@@@@@@XX$                            %%%%$$$%%%%@@@@@@XX$                            %%%%$$$%%%%@@@@@@XX$                            %%%$$$$%%%%@@@@@@XX$                             %%$$$$%%%%@@@@@@XX$                            %%%$$$$%%%%@@@@@@$$$                            %%%$$$$%%%%@@@@@@$$$                                                                 ",
"            %&%&$X$%&%&@@@@$$@$@                           %%&%&$X$%&%&@@@@$$@$@                            %&%&$X$%&%&@@@@$$@$@                            %&%&$X$%&%&@@@@$$@$@                            %&%&$X$%&%&@@@@$$@$@                            %&%&$X$%&%&@@@@$$@$@                            %&%&$X$%&%&@@@@$$@$@                           %%&%&$X$%&%&@@@@$$@$@                                                                ",
"                                                                                                                                                                                                                                                                                                                                                                                                                                                ",
"                                                                                                                                                                                                                                                                                                                                                                                                                                                ",
"                                                                                                                                                                                                                                                                                                                                                                                                                                                ",
"                                                                                                                                                                                                                                                                                                                                                                                                                                                ",
"                                                                                                                                                                                                                                                                                                                                                                                                                                                ",
"                                                                                                                                                                                                                                                                                                                                                                                                                                                ",
"                                                                                                                                                                                                                                                                                                                                                                                                                                                ",
"                                                                                                                                                                                                                                                                                                                                                                                                                                                ",
"                                                                                                                                                                                                                                                                                                                                                                                                                                                ",
"                                                                                                                                                                                                                                                                                                                                                                                                                                                ",
"                                                                                                                                                                                                                                                                                                                                                                                                                                                ",
"                                                                                                                                                                                                                                                                                                                                                                                                                                                ",
"                                                                                                                                                                                                                                                                                                                                                                                                                                                ",
"                                                                                                                                                                                                                                                                                                                                                                                                                                                ",
"                                                                                                                                                                                                                                                                                                                                                                                                                                                ",
"                                                                                                                                                                                                                                                                                                                                                                                                                                                ",
"                                                                                                                                                                                                                                                                                                                                                                                                                                                ",
"                                                                                                                                                                                                                                                                                                                                                                                                                                                ",
"                                                                                                                                                                                                                                                                                                                                                                                                                                                ",
"                                                                                                                                                                                                                                                                                                                                                                                                                                                ",
"                                                                                                                                                                                                                                                                                                                                                                                                                                                ",
"                                                                                                                                                                                                                                                                                                                                                                                                                                                ",
"                                                                                                                                                                                                                                                                                                                                                                                                                                                ",
"                                                                                                                                                                                                                                                                                                                                                                                                                                                ",
"                                                                                                                                                                                                                                                                                                                                                                                                                                                ",
"                                                                                                                                                                                                                                                                                                                                                                                                                                                ",
"                                                                                                                                                                 %%%%     $$$                                                                                                                                                                                                                                                                   ",
"                                                                                                                                                                %%...%   $...$                                                                                                                                                                                                                                                                  ",
"                                                                                                                                                                +%....%%++%...                                   %%%%     $$$                                                                                                                                                                                                                   ",
"                                                                                                                                                                +%....%%%%%%..                                  %%%..%   $$..$                                   %%%%     $$$                                                                                                                                                                   ",
"                                                                                                                                                                %%%..%$%%%%%$#                                  +%....%%++%...                                  %%%%%%   $$$$$                                                                                                                                                                  ",
"                                                                                                                                                                %%%%%%%$$$$$#$$                                 +%....%%%%%%..                                  +%....%%++%...                                   %%%%     $$$                                                                                                                   ",
"                 %%%%     $$$                                                                                                                                   %%+%%%&&&&&&@@$                                 %%%..%%%%%%%$$                                  +%....%%%%%%..                                  %%%..%   $$..$                                                                                                                  ",
"                %%%..%   $$..$                                    %%%%     $$$                                                                                  %%%%%&&&&&&&@@@                                 %%%%%%$%%%%%$#$                                 %%%...%%%%%%..                                  +%....%%++%...                                                                                                                  ",
"                +%....%%++%...                                   %%%..%   $$..$                                                                                 %%%%%&&&&&&&@@@                                %%%+%%%%$$$$$#$$                              %%%%%%%%%%%%%%%$$$                                 +%....%%%%%%..                                                                                                                  ",
"                +%....%%%%%%..                                   +%....%%++%...                                   %%%%     $$$                                  %%%%%&&&&&&&@@@                               +%%%%%%%&&&&&&@@$                             %%%%%%+%%%$%%%%%$#$                                 %%%..%%%%%%%$$                                                                                                                  ",
"                %%%..%%%%%%%$$                                   +%....%%%%%%..                                  %%%..%   $$..$                                %%%%%%&&&&&&&@@                               %%%%%%%%&&&&&&&@@@                            %++$%%%%%%%%$$$$$#$$                                 %%%%%%$%%%%%$#$                                                                                                                 ",
"                %%%%%%$%%%%%$#$                                  %%%..%%%%%%%$$                                  +%....%%++%...                               +%%%%%%@@@@@@@+                               %%%%%%%%%&&&&&&&@@@                           %%++%$%%%%%%&&&&&&@@$                                %%%+%%%%$$$$$#$$                                                                                                                 ",
"               %%%+%%%%$$$$$#$$                                  %%%%%%$%%%%%$#$                                 +%....%%%%%%..                               %%$%%%++@@@@@@$$                             %++$%$%%%%&&&&&&&@@                            %%%%%%$%%%%&&&&&&&@@@                               +%%%%%%%&&&&&&@@$                                                                                                                 ",
"              +%%%%%%%&&&&&&@@$                                 %%%+%%%%$$$$$#$$                                 %%%..%%%%%%%$$                              %%%%$%%++@@@@@@$XX                           %%++%$$%%%%@@@@@@@+$                            +%%%%%$%%%%&&&&&&&@@                               %%%%%%%%&&&&&&&@@@                                                                                                                 ",
"             %%%%%%%%&&&&&&&@@@                               +%%%%%%%%&&&&&&@@$                               %%%%%%%%$%%%%%$#$                             %++$$$%%%%@@@@@$XX$                          %%%%%%%$%++@@@@@@@$$                           %%%$%%$$$%%%@@@@@@@+$                              %%%%%%%%%&&&&&&&@@@                                                                                                                 ",
"            %%%%%%%%%&&&&&&&@@@                              %%%%%%%%%&&&&&&&@@@                           %%%+%%%%+%%%%$$$$$#$$                            %%++%$$$%&%&@@@@$$@$@                         +%%%%%%$%++@@@@@@@XX                           %&%&$$$@@%%%@@@@@@@$$                              %++$%$%%%&&&&&&&@@                                                                                                                  ",
"            %++$%$%%%&&&&&&&@@                              %%%%%%%%%%&&&&&&&@@@                          %%%%%%%%%%%%%&&&&&&@@$                            %%%%%$$@@@@@@@@                               %%%%$$$$%%%%@@@@@@XX$                                 @@%++@@@@@@@$$                             %%++%$$%%%@@@@@@@+$                                                                                                                  ",
"           %%++%$$%%%@@@@@@@+$                              %++$%$%%%%&&&&&&&@@                           %%++$%$%%%%%&&&&&&&@@@                            %%%%$$@@@@@@                                   %&%&$$@@%&%&@@@@$$@$@                                  %++@@@@@@@XX                             %%%%%%$%%%@@@@@@@$$                                                                                                                  ",
"           %%%%%%$%++@@@@@@@$$                             %%++%$$%%%@@@@@@@+$                            %%++%$$%%%%%&&&&&&&@@@                             +%%$$                                                                                                %%%%@@@@@$XX$                            +%%%%%$%++@@@@@@@$$                                                                                                                  ",
"           +%%%%%$%++@@@@@@@XX                             %%%%%%$%++@@@@@@@$$                            %%%%%%$%%%%%&&&&&&&@@                             %%%$$$$                                                                                                %&%&     $@$@                           %%%$$$$%++@@@@@@@XX                                                                                                                  ",
"           %%%$$$$%%%%@@@@@@XX$                            +%%$$$$%%%%@@@@@@XX$                           +%%%$$$%%%%%@@@@@@@X$                             %&%&$@$@                                                                                                                                        %&%&$X%%%%@@@@@@XX$                                                                                                                 ",
"            %&%&$X$%&%&@@@@$$@$@                           %%&%&$X$%&%&@@@@$$@$@                           %%&%&X$%%&%&@@@@$$@$@                                                                                                                                                                                  $%&%&@@@@$$@$@                                                                                                                ",
"                                                                                                                                                                                                                                                                                                                                                                                                                                                ",
"                                                                                                                                                                                                                                                                                                                                                                                                                                                ",
"                                                                                                                                                                                                                                                                                                                                                                                                                                                ",
"                                                                                                                                                                                                                                                                                                                                                                                                                                                ",
"                                                                                                                                                                                                                                                                                                                                                                                                                                                ",
"                                                                                                                                                                                                                                                                                                                                                                                                                                                ",
"                                                                                                                                                                                                                                                                                                                                                                                                                                                ",
"                                                                                                                                                                                                                                                                                                                                                                                                                                                ",
"                                                                                                                                                                                                                                                                                                                                                                                                                                                ",
"                                                                                                                                                                                                                                                                                                                                                                                                                                                ",
"                                                                                                                                                                                                                                                                                                                                                                                                                                                ",
"                                                                                                                                                                                                                                                                                                                                                                                                                                                ",
"                                                                                                                                                                                                                                                                                                                                                                                                                                                ",
"                                                                                                                                                                                                                                                                                                                                                                                                                                                ",
"                                                                                                                                                                                                                                                                                                                                                                                                                                                ",
"                                                                                                                                                                                                                                                                                                                                                                                                                                                ",
"                                                                                                                                                                                                                                                                                                                                                                                                                                                ",
"                                                                                                                                                                                                                                                                                                                                                                                                                                                ",
"                                                                                                                                                                                                                                                                                                                                                                                                                                                ",
"                                                                                                                                                                                                                                                                                                                                                                                                                                                ",
"                                                                                                                                                                                                                                                                                                                                                                                                                                                ",
"                                                                                                                                                                                                                                                                                                                                                                                                                                                ",
"                                                                                                                                                                                                                                                                                                                                                                                                                                                ",
"                                                                                                                                                                                                                                                                                                                                                                                                                                                ",
"                                                                                                                                                                                                                                                                                                                                                                                                                                                ",
"                                                                                                                                                                                                                                                                                                                                                                                                                                                ",
"                                                                                                                                                                                                                                                                                                                                                                                                                                                ",
"                                                                                                                                                                                                                                                                                                                                                                                                                                                ",
"                                                                                                                                                                                                                                                                                                                                                                                                                                                ",
"                                                                                                                                                                                                                                                                                                                                                                                                                                                ",
"                                                                                                                                                                                                                  %%%%     $$$                                                                                                                                                                                                                  ",
"                                                                                                                                                                  %%%%     $$$                                   %%%..%   $$..$                                   %%%%     $$$                                                                                                                                                                  ",
"                 %%%%     $$$                                                                                                                                    %%%..%   $$..$                                  +%....%%++%...                                  %%%..%   $$..$                                                                                                                                                                 ",
"                %%%..%   $$..$                                    %%%%     $$$                                                                                   +%....%%++%...                                  +%....%%%%%%..                                  +%....%%++%...                                                                                                                                                                 ",
"                +%....%%++%...                                   %%%..%   $$..$                                                                                  +%....%%%%%%..                                  %%%..%%%%%%%$$                                  +%....%%%%%%..                                                                                                                                                                 ",
"                +%....%%%%%%..                                   +%....%%++%...                                   %%%%     $$$                                   %%%..%%%%%%%$$                                  %%%%%%%%%%%%$$$                                 %%%..%%%%%%%$$                                                                                                                                                                 ",
"                %%%..%%%%%%%$$                                   +%....%%%%%%..                                  %%%%%%   $$$$$                                  %%%%%%%%%%%%$$$                                 %%+%%%%%%oooo$$          OO**                   %%%%%%%%%%%%$$$              *                                                                                                                                                 ",
"                %%%%%%$%%%%%$#$                                  %%%..%%%%%%%$$                                  +%%%%%%%++%$$$                                  %%+%%%%%%oooo$$  ********                       %%%%%%%oooOOOOOOOOOOOOOOOOO  *                  %%+%%%%%%oooo$$OO             *                                                                                                                                                ",
"               %%%+%%%%$$$$$#$$                                  %%%%%%$%%%%%$#$                                 +%%..%%%++%%.$                                  %%%%%%%oooOO****************                  +%%%%%%%&&&&&&@@$          *****                  %%%%%%%oooOOOOOOO            **                                                                                                                                                ",
"              +%%%%%%%&&&&&&@@$                                 %%%+%%%%$$$$$#$$                                 %%....%%%%%%..                                +%%%%%%%&&&&&&@@$                              %%%%%%%%&&&&&&&@@@                               +%%%%%%%&&&&&&@@$                                                                                                                                                                ",
"             %%%%%%%%&&&&&&&@@@                               +%%%%%%%%&&&&&&@@$                               %%%%....%%%%%%..$                              %%%%%%%%&&&&&&&@@@                             %%%%%%%%%&&&&&&&@@@                              %%%%%%%%&&&&&&&@@@                                                                                                                                                                ",
"            %%%%%%%%%&&&&&&&@@@                              %%%%%%%%%&&&&&&&@@@                           %%%+%%%%+..%%%%%%%$$$                             %%%%%%%%%&&&&&&&@@@                            %++$%$%%%%&&&&&&&@@                              %%%%%%%%%&&&&&&&@@@                                                                                                                                                                ",
"            %++$%$%%%&&&&&&&@@                              %%%%%%%%%%&&&&&&&@@@                          %%%%%%%%%%%%%$%%%%%$#$                            %++$%$%%%%&&&&&&&@@                            %%++%$$%%%@@@@@@@+$                              %++$%$%%%%&&&&&&&@@                                                                                                                                                                 ",
"           %%++%$$%%%@@@@@@@+$                              %++$%$%%%%&&&&&&&@@                           %%++$%$%%%%%%%$$$$$#$$                           %%++%$$%%%@@@@@@@+$                             %%%%%%$%++@@@@@@@$$                             %%++%$$%%%@@@@@@@+$                                                                                                                                                                  ",
"           %%%%%%$%++@@@@@@@$$                             %%++%$$%%%@@@@@@@+$                            %%++%$$%%%%%%&&&&&&@@$                           %%%%%%$%++@@@@@@@$$                             +%%%%%$%++@@@@@@@$$                             %%%%%%$%++@@@@@@@$$                                                                                                                                                                  ",
"           +%%%%%$%++@@@@@@@XX                             %%%%%%$%++@@@@@@@$$                            %%%%%%$%%%%%&&&&&&&@@                            +%%%%%$%++@@@@@@@XX                             +%%%%%$%%%@@@@@@@XX                             +%%%%%$%++@@@@@@@XX                                                                                                                                                                  ",
"           %%%$$$$%%%%@@@@@@XX$                            +%%$$$$%%%%@@@@@@XX$                           +%%%$$$%%%%%@@@@@@@X$                            %%%$$$$%%%%@@@@@@XX$                            %%%$$$$%%%%@@@@@@XX$                            %%%$$$$%%%%@@@@@@XX$                                                                                                                                                                 ",
"            %&%&$X$%&%&@@@@$$@$@                           %%&%&$X$%&%&@@@@$$@$@                           %%&%&X$%%&%&@@@@$$@$@                            %&%&$X$%&%&@@@@$$@$@                            %&%&$X$%&%&@@@@$$@$@                            %&%&$X$%&%&@@@@$$@$@                                                                                                                                                                ",
"                                                                                                                                                                                                                                                                                                                                                                                                                                                ",
"                                                                                                                                                                                                                                                                                                                                                                                                                                                ",
"                                                                                                                                                                                                                                                                                                                                                                                                                                                ",
"                                                                                                                                                                                                                                                                                                                                                                                                                                                ",
"                                                                                                                                                                                                                                                                                                                                                                                                                                                ",
"                                                                                                                                                                                                                                                                                                                                                                                                                                                ",
"                                                                                                                                                                                                                                                                                                                                                                                                                                                ",
"                                                                                                                                                                                                                                                                                                                                                                                                                                                ",
"                                                                                                                                                                                                                                                                                                                                                                                                                                                ",
"                                                                                                                                                                                                                                                                                                                                                                                                                                                ",
"                                                                                                                                                                                                                                                                                                                                                                                                                                                ",
"                                                                                                                                                                                                                                                                                                                                                                                                                                                ",
"                                                                                                                                                                                                                                                                                                                                                                                                                                                ",
"                                                                                                                                                                                                                                                                                                                                                                                                                                                ",
"                                                                                                                                                                                                                                                                                                                                                                                                                                                ",
"                                                                                                                                                                                                                                                                                                                                                                                                                                                ",
"                                                                                                                                                                                                                                                                                                                                                                                                                                                ",
"                                                                                                                                                                                                                                                                                                                                                                                                                                                ",
"                                                                                                                                                                                                                                                                                                                                                                                                                                                ",
"                                                                                                                                                                                                                                                                                                                                                                                                                                                ",
"                                                                                                                                                                                                                                                                                                                                                                                                                                                ",
"                                                                                                                                                                                                                                                                                                                                                                                                                                                ",
"                                                                                                                                                                                                                                                                                                                                                                                                                                                ",
"                                                                                                                                                                                                                                                                                                                                                                                                                                                ",
"                                                                                                                                                                                                                                                                                                                                                                                                                                                ",
"                                                                                                                                                                                                                                                                                                                                                                                                                                                ",
"                                                                                                                                                                                                                                                                                                                                                                                                                                                ",
"                                                                                                                                                                                                                                                                                                                                                                                                                                                ",
"                                                                                                                                                                                                                                                                                                                                                                                                                                                ",
"                                                                                                                                                                                                                                                                                                                                                                                                                                                ",
"                                                                                                                                                                                                                                                                                                                                                                                                                                                ",
"                                                                                                                                                                                                                                                                                                                                                                                                                                                ",
"                 %%%%     $$$                                    ****     ***                                                                                                                                                                                                                                                                                                                                                                   ",
"                %%%..%   $$..$                                  ******   *****                                  %%%%       $$$                                                                                                                                                                                                                                                                                                                  ",
"                +%....%%++%...                                  **************                                 %....%     $...$                                  %%%%     $$$                                                                                                                                                                                                                                                                   ",
"                +%....%%%%%%..                                  **************                                 +.....%%%%%%%...                                 %%%..%   $$..$                                                                                                                                                                                                                                                                  ",
"                %%%..%%%%%%%$$                                  **************                                 +%...%%%%%%%%%..                                 +%....%%++%...                                                                                                                                                                                                                                                                  ",
"                %%%%%%$%%%%%$#$                                 ***************                                %%%%%%$%%%%%%%$#                                 +%....%%%%%%..                                                                                                                                                                                                                                                                  ",
"               %%%+%%%%$$$$$#$$                                ****************                                %%%%%%%$$$$$$$#$$                                %%%..%%%%%%%$$                                                                                                                                                                                                                                                                  ",
"              +%%%%%%%&&&&&&@@$                               *****************                               %%%+%%%&&&&&&&&@@$                                %%%%%%$%%%%%$#$                                                                                                                                                                                                                                                                 ",
"             %%%%%%%%&&&&&&&@@@                              ******************                              +%%%%%%&&&&&&&&&@@@                               %%%+%%%%$$$$$#$$                                                                                                                                                                                                                                                                 ",
"            %%%%%%%%%&&&&&&&@@@                             *******************                             %%%%%%%%&&&&&&&&&@@@                              +%%%%%%%&&&&&&@@$                                                                                                                                                                                                                                                                 ",
"            %++$%$%%%&&&&&&&@@                              ******************                             %%%%%%%%%&&&&&&&&&@@@                             %%%%%%%%&&&&&&&@@@                                                                                                                                                                                                                                                                 ",
"           %%++%$$%%%@@@@@@@+$                             *******************                             %++$%$%%%&&&&&&&&&@@                             %%%%%%%%%&&&&&&&@@@                                                                                                                                                                                                                                                                 ",
"           %%%%%%$%++@@@@@@@$$                             *******************                            %%++%$$%%%@@@@@@@@@+$                             %++$%$%%%&&&&&&&@@                                                                                                                                                                                                                                                                  ",
"           +%%%%%$%++@@@@@@@XX                             *******************                            +%%%%%$%++@@@@@@@@@XX                            %%++%$$%%%@@@@@@@+$                                                                                                                                                                                                                                                                  ",
"           %%%$$$$%%%%@@@@@@XX$                            ********************                           %%%%$$$%%%%@@@@@@@@XX$                           +%%%%%$%++@@@@@@@XX$                                                                                                                                                                                                                                                                 ",
"            %&%&$X$%&%&@@@@$$@$@                            ********************                           %&%&$X$%&%&@@@@@@$$@$@                          %%&%&$X$%&%&@@@@$$@$@                                                                                                                                                                                                                                                                ",
"                                                                                                                                                                                                                                                                                                                                                                                                                                                ",
"                                                                                                                                                                                                                                                                                                                                                                                                                                                ",
"                                                                                                                                                                                                                                                                                                                                                                                                                                                ",
"                                                                                                                                                                                                                                                                                                                                                                                                                                                ",
"                                                                                                                                                                                                                                                                                                                                                                                                                                                ",
"                                                                                                                                                                                                                                                                                                                                                                                                                                                ",
"                                                                                                                                                                                                                                                                                                                                                                                                                                                ",
"                                                                                                                                                                                                                                                                                                                                                                                                                                                ",
"                                                                                                                                                                                                                                                                                                                                                                                                                                                ",
"                                                                                                                                                                                                                                                                                                                                                                                                                                                ",
"                                                                                                                                                                                                                                                                                                                                                                                                                                                ",
"                                                                                                                                                                                                                                                                                                                                                                                                                                                ",
"                                                                                                                                                                                                                                                                                                                                                                                                                                                ",
"                                                                                                                                                                                                                                                                                                                                                                                                                                                ",
"                                                                                                                                                                                                                                                                                                                                                                                                                                                ",
"                                                                                                                                                                                                                                                                                                                                                                                                                                                ",
"                                                                                                                                                                                                                                                                                                                                                                                                                                                ",
"                                                                                                                                                                                                                                                                                                                                                                                                                                                ",
"                                                                                                                                                                                                                                                                                                                                                                                                                                                ",
"                                                                                                                                                                                                                                                                                                                                                                                                                                                ",
"                                                                                                                                                                                                                                                                                                                                                                                                                                                ",
"                                                                                                                                                                                                                                                                                                                                                                                                                                                ",
"                                                                                                                                                                                                                                                                                                                                                                                                                                                ",
"                                                                                                                                                                                                                                                                                                                                                                                                                                                ",
"                                                                                                                                                                                                                                                                                                                                                                                                                                                ",
"                                                                                                                                                                                                                                                                                                                                                                                                                                                ",
"                                                                                                                                                                                                                                                                                                                                                                                                                                                ",
"                                                                                                                                                                                                                                                                                                                                                                                                                                                ",
"                                                                                                                                                                                                                                                                                                                                                                                                                                                ",
"                                                                                                                                                                                                                                                                                                                                                                      +                                                                         ",
"                                                                                                                %%%%       $$$$                                              ++                                                ++                                                +                                  ++                                                                                                                          ",
"                                                                %%%%       $$$                                 %....%     $...$                                             +  +                                               ++                                                                                  +  +                                                        +                                                                ",
"                 %%%%     $$$                                   %%..%     $$..                                 +.....%%%%%%%...                                        +++  +  +                                                                          ++        ++                                   +         +  +      ++                                                                                                                 ",
"                %%%..%   $$..$                                 +%....%%++++%...                                +%...%%%%%%%%%..                                       +++++  ++                             +++                                          +  +      ++++                                             ++      +  +                                                                                                                ",
"                +%....%%++%...                                 +%....%%%%%%%%..                                %%%%%%$$$$$$$$##                              +++   ++++++++                                +++++                                         +  +      ++++   ++                                                +  +                                                                                                                ",
"                +%....%%%%%%..                                 %%%..%%%%%%%%%$$                                %%%%%%&&&&&&&&@@$                            +++++++++++++++++   +                          +++++   ++++   +++                             ++        ++   ++++                                                ++                                                                                  +                              ",
"                %%%..%%%%%%%$$                                 %%%%%%$%%%%%%%$#                                %%+%&&&&&&&&&&@@@@                          +++++++++++++++++++                             +++++  ++++++ +++++                                           ++++                               ++                                                    ++                                                                            ",
"                %%%%%%$%%%%%$#$                               %%%+%%%%$$$$$$$#$$                               %%%&&&&&&&&&&&@@@@@                         +++++++++++++++++++                         +    +++   ++++++++++++                                ++          ++                                ++                                                   +  +                                                                           ",
"               %%%+%%%%$$$$$#$$                              +%%%%%%%&&&&&&&&@@$                              %%%%&&&&&&&&&&&@@@@@                       + +++++++++++++++++++                                  +++++++++++++                                ++++                                                  +++  ++                                       +  +                                                                           ",
"              +%%%%%%%&&&&&&@@$                             %%%%%%%%&&&&&&&&&@@@                             +%%%%&&&&&&&&&&&@@@@@                      + + +++++++++++++++++++                                ++++++++++++++ +++                            ++++        ++                                       +++++ ++                                        ++                                                                            ",
"             %%%%%%%%&&&&&&&@@@                             %%%%%%%%&&&&&&&&&@@@                            %%%$%%%&&&&&&&&&&@@@@                        +   +++++++++++++++++++                               +++++++++++++++++++                            ++     +++++++    ++                                +++++                                                                                                                         ",
"            %%%%%%%%%&&&&&&&@@@                            %++$%$%%%&&&&&&&&&@@@                           %%%%%$%%%@@@@@@@@@+$                               +++++++++++++++++++                              +++++++++++++++++++                       ++         ++++++++   ++++                    ++         +++++           ++                                                                                                            ",
"            %++$%$%%%&&&&&&&@@                             %++%$$%%%@@@@@@@@@+$                            %++$%$%%%@@@@@@@@@$$                              ++++++++++++++++++++                          ++   ++++++++++++++++++                      +  +        +++++++    ++++                    ++          +++            ++                                                                                                            ",
"           %%++%$$%%%@@@@@@@+$                            %%%%%%$%++@@@@@@@@@$$                           %%++%$$%%%@@@@@@@@@$$                             +++++++++++++++++++++                         ++++    ++++++++++  +++                       +  +        +++++       ++                                                                                                                                                              ",
"           %%%%%%$%++@@@@@@@$$                            +%%%%%$%++@@@@@@@@@XX                           %%%%%%$%++@@@@@@@@@$$                             ++++++++++++++++++++                          ++++     ++++++++                              ++          +++                                                                                                                                                                        ",
"           +%%%%%$%++@@@@@@@XX                            %%%%%$$%%%@@@@@@@@@XX                           +%%%%%$%++@@@@@@@@@XX                             +++++++++++++++  ++                            ++        +++                                                                                                                                                                                                                        ",
"           %%%$$$$%%%%@@@@@@XX$                           %%%$$$$%%%%@@@@@@@@$$$                          %%%$$$$%%%%@@@@@@@@XX$                             +++   ++++++                                                                                                                                                                                                                                                                       ",
"            %&%&$X$%&%&@@@@$$@$@                          %%&%&$X$%&%&@@@@@@$$@$@                          %&%&$X$%&%&@@@@@@$$@$@                                                                                                                                                                                                                                                                                                               ",
"                                                                                                                                                                                                                                                                                                                                                                                                                                                ",
"                                                                                                                                                                                                                                                                                                                                                                                                                                                ",
"                                                                                                                                                                                                                                                                                                                                                                                                                                                ",
"                                                                                                                                                                                                                                                                                                                                                                                                                                                ",
"                                                                                                                                                                                                                                                                                                                                                                                                                                                ",
"                                                                                                                                                                                                                                                                                                                                                                                                                                                ",
"                                                                                                                                                                                                                                                                                                                                                                                                                                                ",
"                                                                                                                                                                                                                                                                                                                                                                                                                                                ",
"                                                                                                                                                                                                                                                                                                                                                                                                                                                ",
"                                                                                                                                                                                                                                                                                                                                                                                                                                                ",
"                                                                                                                                                                                                                                                                                                                                                                                                                                                ",
"                                                                                                                                                                                                                                                                                                                                                                                                                                                ",
"                                                                                                                                                                                                                                                                                                                                                                                                                                                ",
"                                                                                                                                                                                                                                                                                                                                                                                                                                                ",
"                                                                                                                                                                                                                                                                                                                                                                                                                                                "
};
