/* XPM */
static char *_bd959607e114892e1d58bedb9ff1b784dFTIH3pT0NiPQTR[] = {
/* columns rows colors chars-per-pixel */
"432 240 12 1 ",
"  c None",
". c #181425",
"X c #733E39",
"o c #265C42",
"O c #A22633",
"+ c #E43B44",
"@ c #B86F50",
"# c #3E8948",
"$ c #63C74D",
"% c #E4A672",
"& c #EAD4AA",
"* c white",
/* pixels */
"                                                                                                                                                                                                                                                                                                                                                                                                                                                ",
"                                                                                                                                                                                                                                                                                                                                                                                                                                                ",
"                                                                                                                                                                                                                                                                                                                                                                                                                                                ",
"                                                                                                                                                                                                                                                                                                                                                                                                                                                ",
"                                                                                                                                                                                                                                                                                                                                                                                                                                                ",
"                                                                                                                                                                                                                                                                                                                                                                                                                                                ",
"                                                                                                                                                                                                                                                                                                                                                                                                                                                ",
"                                                                                                                                                                                                                                                                                                                                                                                                                                                ",
"                                                                                                                                                                                                                                                                                                                                                                                                                                                ",
"                                                                                                                                                                                                                                                                                                                                                                                                                                                ",
"                                                                                                                                                                                                                                                                                                                                                                                                                                                ",
"                                                                                                                                                                                                                                                                                                                                                                                                                                                ",
"                                                                                                                                                                                                                                                                                                                                                                                                                                                ",
"                                                                                                                                                                                                                                                                                                                                                                                                                                                ",
"                                                                                                                                                                                                                                                                                                                                                                                                                                                ",
"                                                                                                                                                                                                                                                                                                                                                                                                                                                ",
"                                                                                                                                                                                                                                                                                                                 $$$$     ###                                    $$$$     ###                                                                   ",
"                 $$$$     ###                                     $$$     ###                                                                                                                                    $$$$     ###                                   $$$$$     ####                                  $$$..$   ##..#                                   $$..$   ##..                                                                   ",
"                $$$..$   ##..#                                   $$..$   ##..#                                   $$$$     ###                                    $$$$     ####                                  $$$..$   ##..#                                  $$$..$   ##..#                                  @$....$$@@$...                                  @$....$$@@$...                                                                  ",
"                @$....$$@@$...                                  @$....$$@@$...                                  $....$   #...#                                  $....$   #...#                                  @$....$$@@$...                                  @$....$$@@$...                                  @$....$$$$$$..                                  @$....$$$$$$..                                                                  ",
"                @$....$$$$$$..                                  @$....$$$$$$..                                  @.....$$$$$...                                  @.....$$$$$...                                  @$....$$$$$$..                                  @$....$$$$$$..                                  $$$..$$$$$$$##                                  $$$..$$$$$$$##                                                                  ",
"                $$$..$$$$$$$##                                  $$$..$$$$$$$##                                  @$...$$$$$$$..                                  @$...$$$$$$$..                                  $$$..$$$$$$$##                                  $$$..$$$$$$$##                                  $$$$$$#$$$$$#o#                                 $$$$$$#$$$$$#o                                                                  ",
"                $$$$$$#$$$$$#o#                                 $$$$$$#$$$$$#o                                  $$$$$$#$$$$$#o                                  $$$$$$######oo                                  $$$$$$#$$$$$#o#                                 $$$$$$#$$$$$#o#                                $$$@$$$$#####o##                                $$$@$$$$#####o##                                                                 ",
"               $$$@$$$$#####o##                                $$$@$$$$#####o##                                 $$$$$$$#####o##                                 $$$$$$&&&&&&%%#                                $$$@$$$$#####o##                                $$$@$$$$#####o##                               @$$$$$$$&&&&&&%%#                               @$$$$$$$&&&&&&%%#                                                                 ",
"              @$$$$$$$&&&&&&%%#                               @$$$$$$$&&&&&&%%#                                $$$@$$&&&&&&&%%%                                $$$@$&&&&&&&&%%%%                              @$$$$$$&&&&&&&%%%                               @$$$$$$$&&&&&&%%#                              $$$$$$$$&&&&&&&%%%                              $$$$$$$$&&&&&&&%%%                                                                 ",
"             $$$$$$$$&&&&&&&%%%                              $$$$$$$$&&&&&&&%%%                               @$$$$$&&&&&&&&%%%%                              @$$$$&&&&&&&&&%%%%%                            $$$$$$$&&&&&&&&%%%%                             $$$$$$$$&&&&&&&%%%                             $$$$$$$$$&&&&&&&%%%                              $$$$$$$$&&&&&&&%%%                                                                 ",
"            $$$$$$$$$&&&&&&&%%%                             $$$$$$$$$&&&&&&&%%%                              $$$$$$$&&&&&&&&%%%%                             $$$$$$&&&&&&&&&%%%%%                           $$$$$$$$&&&&&&&&%%%%                            $$$$$$$$$&&&&&&&%%%                             $@@#$#$$$&&&&&&&%%                              $@@#$#$$$&&&&&&&%%%                                                                 ",
"            $@@#$#$$$&&&&&&&%%                              $@@#$#$$$&&&&&&&%%%                             $$$$$$$$&&&&&&&&%%%%                            $$$$$$$&&&&&&&&&%%%%%                           $@@#$#$$$&&&&&&&%%%                            $$@@#$#$$$&&&&&&&%%                             $$@@$##$$$%%%%%%%@#                              $@@$##$$$%%%%%%%@#                                                                  ",
"           $$@@$##$$$%%%%%%%@#                              $@@$##$$$%%%%%%%@#                              $@@#$#$$&&&&&&&&%%%                            $$@@#$#$$&&&&&&&&%%%%                           $$@@$##$$$%%%%%%%@#                             $$@@$##$$$%%%%%%%@#                             $$$$$$#$@@%%%%%%%##                             $$$$$$#$@@%%%%%%%##                                                                  ",
"           $$$$$$#$@@%%%%%%%##                             $$$$$$#$@@%%%%%%%##                             $$@@$##$$$%%%%%%%@#                             $$@@$##$$$%%%%%%%@#                             $$$$$$#$@@%%%%%%%##                             $$$$$$#$@@%%%%%%%##                             @$$$$$#$@@%%%%%%%XX                             @$$$$$#$@@%%%%%%%XX                                                                  ",
"           @$$$$$#$@@%%%%%%%XX                             @$$$$$#$@@%%%%%%%XX                             @$$$$$#$@@%%%%%%%XX                             @$$$$$#$@@%%%%%%%XX#                            @$$$$$#$@@%%%%%%%XX                             @$$$$$#$@@%%%%%%%XX#                            $$$$$##$$$$%%%%%%XX                             $$$$$##$$$%%%%%%%XX                                                                  ",
"           $$$####$$$$%%%%%%XX#                            $$$####$$$$%%%%%%XX#                            $$$$###$$$$%%%%%%XX#                            $$$$###$$$$%%%%%%XX#                            $$$####$$$$%%%%%%XX#                             $$####$$$$%%%%%%XX#                            $$$####$$$$%%%%%%###                            $$$####$$$$%%%%%%###                                                                 ",
"            $&$&#X#$&$&%%%%##%#%                           $$&$&#X#$&$&%%%%##%#%                            $&$&#X#$&$&%%%%##%#%                            $&$&#X#$&$&%%%%##%#%                            $&$&#X#$&$&%%%%##%#%                            $&$&#X#$&$&%%%%##%#%                            $&$&#X#$&$&%%%%##%#%                           $$&$&#X#$&$&%%%%##%#%                                                                ",
"                                                                                                                                                                                                                                                                                                                                                                                                                                                ",
"                                                                                                                                                                                                                                                                                                                                                                                                                                                ",
"                                                                                                                                                                                                                                                                                                                                                                                                                                                ",
"                                                                                                                                                                                                                                                                                                                                                                                                                                                ",
"                                                                                                                                                                                                                                                                                                                                                                                                                                                ",
"                                                                                                                                                                                                                                                                                                                                                                                                                                                ",
"                                                                                                                                                                                                                                                                                                                                                                                                                                                ",
"                                                                                                                                                                                                                                                                                                                                                                                                                                                ",
"                                                                                                                                                                                                                                                                                                                                                                                                                                                ",
"                                                                                                                                                                                                                                                                                                                                                                                                                                                ",
"                                                                                                                                                                                                                                                                                                                                                                                                                                                ",
"                                                                                                                                                                                                                                                                                                                                                                                                                                                ",
"                                                                                                                                                                                                                                                                                                                                                                                                                                                ",
"                                                                                                                                                                                                                                                                                                                                                                                                                                                ",
"                                                                                                                                                                                                                                                                                                                                                                                                                                                ",
"                                                                                                                                                                                                                                                                                                                                                                                                                                                ",
"                                                                                                                                                                                                                                                                                                                                                                                                                                                ",
"                                                                                                                                                                                                                                                                                                                                                                                                                                                ",
"                                                                                                                                                                                                                                                                                                                                                                                                                                                ",
"                                                                                                                                                                                                                                                                                                                                                                                                                                                ",
"                                                                                                                                                                                                                                                                                                                                                                                                                                                ",
"                                                                                                                                                                                                                                                                                                                                                                                                                                                ",
"                                                                                                                                                                                                                                                                                                                                                                                                                                                ",
"                                                                                                                                                                                                                                                                                                                                                                                                                                                ",
"                                                                                                                                                                                                                                                                                                                                                                                                                                                ",
"                                                                                                                                                                                                                                                                                                                                                                                                                                                ",
"                                                                                                                                                                 $$$$     ###                                                                                                                                                                                                                                                                   ",
"                                                                                                                                                                $$...$   #...#                                                                                                                                                                                                                                                                  ",
"                                                                                                                                                                @$....$$@@$...                                   $$$$     ###                                                                                                                                                                                                                   ",
"                                                                                                                                                                @$....$$$$$$..                                  $$$..$   ##..#                                   $$$$     ###                                                                                                                                                                   ",
"                                                                                                                                                                $$$..$#$$$$$#o                                  @$....$$@@$...                                  $$$$$$   #####                                                                                                                                                                  ",
"                                                                                                                                                                $$$$$$$#####o##                                 @$....$$$$$$..                                  @$....$$@@$...                                   $$$$     ###                                                                                                                   ",
"                 $$$$     ###                                                                                                                                   $$@$$$&&&&&&%%#                                 $$$..$$$$$$$##                                  @$....$$$$$$..                                  $$$..$   ##..#                                                                                                                  ",
"                $$$..$   ##..#                                    $$$$     ###                                                                                  $$$$$&&&&&&&%%%                                 $$$$$$#$$$$$#o#                                 $$$...$$$$$$..                                  @$....$$@@$...                                                                                                                  ",
"                @$....$$@@$...                                   $$$..$   ##..#                                                                                 $$$$$&&&&&&&%%%                                $$$@$$$$#####o##                              $$$$$$$$$$$$$$$###                                 @$....$$$$$$..                                                                                                                  ",
"                @$....$$$$$$..                                   @$....$$@@$...                                   $$$$     ###                                  $$$$$&&&&&&&%%%                               @$$$$$$$&&&&&&%%#                             $$$$$$@$$$#$$$$$#o#                                 $$$..$$$$$$$##                                                                                                                  ",
"                $$$..$$$$$$$##                                   @$....$$$$$$..                                  $$$..$   ##..#                                $$$$$$&&&&&&&%%                               $$$$$$$$&&&&&&&%%%                            $@@#$$$$$$$$#####o##                                 $$$$$$#$$$$$#o#                                                                                                                 ",
"                $$$$$$#$$$$$#o#                                  $$$..$$$$$$$##                                  @$....$$@@$...                               @$$$$$$%%%%%%%@                               $$$$$$$$$&&&&&&&%%%                           $$@@$#$$$$$$&&&&&&%%#                                $$$@$$$$#####o##                                                                                                                 ",
"               $$$@$$$$#####o##                                  $$$$$$#$$$$$#o#                                 @$....$$$$$$..                               $$#$$$@@%%%%%%##                             $@@#$#$$$$&&&&&&&%%                            $$$$$$#$$$$&&&&&&&%%%                               @$$$$$$$&&&&&&%%#                                                                                                                 ",
"              @$$$$$$$&&&&&&%%#                                 $$$@$$$$#####o##                                 $$$..$$$$$$$##                              $$$$#$$@@%%%%%%#XX                           $$@@$##$$$$%%%%%%%@#                            @$$$$$#$$$$&&&&&&&%%                               $$$$$$$$&&&&&&&%%%                                                                                                                 ",
"             $$$$$$$$&&&&&&&%%%                               @$$$$$$$$&&&&&&%%#                               $$$$$$$$#$$$$$#o#                             $@@###$$$$%%%%%#XX#                          $$$$$$$#$@@%%%%%%%##                           $$$#$$###$$$%%%%%%%@#                              $$$$$$$$$&&&&&&&%%%                                                                                                                 ",
"            $$$$$$$$$&&&&&&&%%%                              $$$$$$$$$&&&&&&&%%%                           $$$@$$$$@$$$$#####o##                            $$@@$###$&$&%%%%##%#%                         @$$$$$$#$@@%%%%%%%XX                           $&$&###%%$$$%%%%%%%##                              $@@#$#$$$&&&&&&&%%                                                                                                                  ",
"            $@@#$#$$$&&&&&&&%%                              $$$$$$$$$$&&&&&&&%%%                          $$$$$$$$$$$$$&&&&&&%%#                            $$$$$##%%%%%%%%                               $$$$####$$$$%%%%%%XX#                                 %%$@@%%%%%%%##                             $$@@$##$$$%%%%%%%@#                                                                                                                  ",
"           $$@@$##$$$%%%%%%%@#                              $@@#$#$$$$&&&&&&&%%                           $$@@#$#$$$$$&&&&&&&%%%                            $$$$##%%%%%%                                   $&$&##%%$&$&%%%%##%#%                                  $@@%%%%%%%XX                             $$$$$$#$$$%%%%%%%##                                                                                                                  ",
"           $$$$$$#$@@%%%%%%%##                             $$@@$##$$$%%%%%%%@#                            $$@@$##$$$$$&&&&&&&%%%                             @$$##                                                                                                $$$$%%%%%#XX#                            @$$$$$#$@@%%%%%%%##                                                                                                                  ",
"           @$$$$$#$@@%%%%%%%XX                             $$$$$$#$@@%%%%%%%##                            $$$$$$#$$$$$&&&&&&&%%                             $$$####                                                                                                $&$&     #%#%                           $$$####$@@%%%%%%%XX                                                                                                                  ",
"           $$$####$$$$%%%%%%XX#                            @$$####$$$$%%%%%%XX#                           @$$$###$$$$$%%%%%%%X#                             $&$&#%#%                                                                                                                                        $&$&#X$$$$%%%%%%XX#                                                                                                                 ",
"            $&$&#X#$&$&%%%%##%#%                           $$&$&#X#$&$&%%%%##%#%                           $$&$&X#$$&$&%%%%##%#%                                                                                                                                                                                  #$&$&%%%%##%#%                                                                                                                ",
"                                                                                                                                                                                                                                                                                                                                                                                                                                                ",
"                                                                                                                                                                                                                                                                                                                                                                                                                                                ",
"                                                                                                                                                                                                                                                                                                                                                                                                                                                ",
"                                                                                                                                                                                                                                                                                                                                                                                                                                                ",
"                                                                                                                                                                                                                                                                                                                                                                                                                                                ",
"                                                                                                                                                                                                                                                                                                                                                                                                                                                ",
"                                                                                                                                                                                                                                                                                                                                                                                                                                                ",
"                                                                                                                                                                                                                                                                                                                                                                                                                                                ",
"                                                                                                                                                                                                                                                                                                                                                                                                                                                ",
"                                                                                                                                                                                                                                                                                                                                                                                                                                                ",
"                                                                                                                                                                                                                                                                                                                                                                                                                                                ",
"                                                                                                                                                                                                                                                                                                                                                                                                                                                ",
"                                                                                                                                                                                                                                                                                                                                                                                                                                                ",
"                                                                                                                                                                                                                                                                                                                                                                                                                                                ",
"                                                                                                                                                                                                                                                                                                                                                                                                                                                ",
"                                                                                                                                                                                                                                                                                                                                                                                                                                                ",
"                                                                                                                                                                                                                                                                                                                                                                                                                                                ",
"                                                                                                                                                                                                                                                                                                                                                                                                                                                ",
"                                                                                                                                                                                                                                                                                                                                                                                                                                                ",
"                                                                                                                                                                                                                                                                                                                                                                                                                                                ",
"                                                                                                                                                                                                                                                                                                                                                                                                                                                ",
"                                                                                                                                                                                                                                                                                                                                                                                                                                                ",
"                                                                                                                                                                                                                                                                                                                                                                                                                                                ",
"                                                                                                                                                                                                                                                                                                                                                                                                                                                ",
"                                                                                                                                                                                                                                                                                                                                                                                                                                                ",
"                                                                                                                                                                                                                                                                                                                                                                                                                                                ",
"                                                                                                                                                                                                                                                                                                                                                                                                                                                ",
"                                                                                                                                                                                                                                                                                                                                                                                                                                                ",
"                                                                                                                                                                                                                                                                                                                                                                                                                                                ",
"                                                                                                                                                                                                                                                                                                                                                                                                                                                ",
"                                                                                                                                                                                                                  $$$$     ###                                                                                                                                                                                                                  ",
"                                                                                                                                                                  $$$$     ###                                   $$$..$   ##..#                                   $$$$     ###                                                                                                                                                                  ",
"                 $$$$     ###                                                                                                                                    $$$..$   ##..#                                  @$....$$@@$...                                  $$$..$   ##..#                                                                                                                                                                 ",
"                $$$..$   ##..#                                    $$$$     ###                                                                                   @$....$$@@$...                                  @$....$$$$$$..                                  @$....$$@@$...                                                                                                                                                                 ",
"                @$....$$@@$...                                   $$$..$   ##..#                                                                                  @$....$$$$$$..                                  $$$..$$$$$$$##                                  @$....$$$$$$..                                                                                                                                                                 ",
"                @$....$$$$$$..                                   @$....$$@@$...                                   $$$$     ###                                   $$$..$$$$$$$##                                  $$$$$$$$$$$$###                                 $$$..$$$$$$$##                                                                                                                                                                 ",
"                $$$..$$$$$$$##                                   @$....$$$$$$..                                  $$$$$$   #####                                  $$$$$$$$$$$$###                                 $$@$$$$$$OOOO##          ++**                   $$$$$$$$$$$$###              *                                                                                                                                                 ",
"                $$$$$$#$$$$$#o#                                  $$$..$$$$$$$##                                  @$$$$$$$@@$###                                  $$@$$$$$$OOOO##  ********                       $$$$$$$OOO+++++++++++++++++  *                  $$@$$$$$$OOOO##++             *                                                                                                                                                ",
"               $$$@$$$$#####o##                                  $$$$$$#$$$$$#o#                                 @$$..$$$@@$$.#                                  $$$$$$$OOO++****************                  @$$$$$$$&&&&&&%%#          *****                  $$$$$$$OOO+++++++            **                                                                                                                                                ",
"              @$$$$$$$&&&&&&%%#                                 $$$@$$$$#####o##                                 $$....$$$$$$..                                @$$$$$$$&&&&&&%%#                              $$$$$$$$&&&&&&&%%%                               @$$$$$$$&&&&&&%%#                                                                                                                                                                ",
"             $$$$$$$$&&&&&&&%%%                               @$$$$$$$$&&&&&&%%#                               $$$$....$$$$$$..#                              $$$$$$$$&&&&&&&%%%                             $$$$$$$$$&&&&&&&%%%                              $$$$$$$$&&&&&&&%%%                                                                                                                                                                ",
"            $$$$$$$$$&&&&&&&%%%                              $$$$$$$$$&&&&&&&%%%                           $$$@$$$$@..$$$$$$$###                             $$$$$$$$$&&&&&&&%%%                            $@@#$#$$$$&&&&&&&%%                              $$$$$$$$$&&&&&&&%%%                                                                                                                                                                ",
"            $@@#$#$$$&&&&&&&%%                              $$$$$$$$$$&&&&&&&%%%                          $$$$$$$$$$$$$#$$$$$#o#                            $@@#$#$$$$&&&&&&&%%                            $$@@$##$$$%%%%%%%@#                              $@@#$#$$$$&&&&&&&%%                                                                                                                                                                 ",
"           $$@@$##$$$%%%%%%%@#                              $@@#$#$$$$&&&&&&&%%                           $$@@#$#$$$$$$$#####o##                           $$@@$##$$$%%%%%%%@#                             $$$$$$#$@@%%%%%%%##                             $$@@$##$$$%%%%%%%@#                                                                                                                                                                  ",
"           $$$$$$#$@@%%%%%%%##                             $$@@$##$$$%%%%%%%@#                            $$@@$##$$$$$$&&&&&&%%#                           $$$$$$#$@@%%%%%%%##                             @$$$$$#$@@%%%%%%%##                             $$$$$$#$@@%%%%%%%##                                                                                                                                                                  ",
"           @$$$$$#$@@%%%%%%%XX                             $$$$$$#$@@%%%%%%%##                            $$$$$$#$$$$$&&&&&&&%%                            @$$$$$#$@@%%%%%%%XX                             @$$$$$#$$$%%%%%%%XX                             @$$$$$#$@@%%%%%%%XX                                                                                                                                                                  ",
"           $$$####$$$$%%%%%%XX#                            @$$####$$$$%%%%%%XX#                           @$$$###$$$$$%%%%%%%X#                            $$$####$$$$%%%%%%XX#                            $$$####$$$$%%%%%%XX#                            $$$####$$$$%%%%%%XX#                                                                                                                                                                 ",
"            $&$&#X#$&$&%%%%##%#%                           $$&$&#X#$&$&%%%%##%#%                           $$&$&X#$$&$&%%%%##%#%                            $&$&#X#$&$&%%%%##%#%                            $&$&#X#$&$&%%%%##%#%                            $&$&#X#$&$&%%%%##%#%                                                                                                                                                                ",
"                                                                                                                                                                                                                                                                                                                                                                                                                                                ",
"                                                                                                                                                                                                                                                                                                                                                                                                                                                ",
"                                                                                                                                                                                                                                                                                                                                                                                                                                                ",
"                                                                                                                                                                                                                                                                                                                                                                                                                                                ",
"                                                                                                                                                                                                                                                                                                                                                                                                                                                ",
"                                                                                                                                                                                                                                                                                                                                                                                                                                                ",
"                                                                                                                                                                                                                                                                                                                                                                                                                                                ",
"                                                                                                                                                                                                                                                                                                                                                                                                                                                ",
"                                                                                                                                                                                                                                                                                                                                                                                                                                                ",
"                                                                                                                                                                                                                                                                                                                                                                                                                                                ",
"                                                                                                                                                                                                                                                                                                                                                                                                                                                ",
"                                                                                                                                                                                                                                                                                                                                                                                                                                                ",
"                                                                                                                                                                                                                                                                                                                                                                                                                                                ",
"                                                                                                                                                                                                                                                                                                                                                                                                                                                ",
"                                                                                                                                                                                                                                                                                                                                                                                                                                                ",
"                                                                                                                                                                                                                                                                                                                                                                                                                                                ",
"                                                                                                                                                                                                                                                                                                                                                                                                                                                ",
"                                                                                                                                                                                                                                                                                                                                                                                                                                                ",
"                                                                                                                                                                                                                                                                                                                                                                                                                                                ",
"                                                                                                                                                                                                                                                                                                                                                                                                                                                ",
"                                                                                                                                                                                                                                                                                                                                                                                                                                                ",
"                                                                                                                                                                                                                                                                                                                                                                                                                                                ",
"                                                                                                                                                                                                                                                                                                                                                                                                                                                ",
"                                                                                                                                                                                                                                                                                                                                                                                                                                                ",
"                                                                                                                                                                                                                                                                                                                                                                                                                                                ",
"                                                                                                                                                                                                                                                                                                                                                                                                                                                ",
"                                                                                                                                                                                                                                                                                                                                                                                                                                                ",
"                                                                                                                                                                                                                                                                                                                                                                                                                                                ",
"                                                                                                                                                                                                                                                                                                                                                                                                                                                ",
"                                                                                                                                                                                                                                                                                                                                                                                                                                                ",
"                                                                                                                                                                                                                                                                                                                                                                                                                                                ",
"                                                                                                                                                                                                                                                                                                                                                                                                                                                ",
"                 $$$$     ###                                    ****     ***                                                                                                                                                                                                                                                                                                                                                                   ",
"                $$$..$   ##..#                                  ******   *****                                  $$$$       ###                                                                                                                                                                                                                                                                                                                  ",
"                @$....$$@@$...                                  **************                                 $....$     #...#                                  $$$$     ###                                                                                                                                                                                                                                                                   ",
"                @$....$$$$$$..                                  **************                                 @.....$$$$$$$...                                 $$$..$   ##..#                                                                                                                                                                                                                                                                  ",
"                $$$..$$$$$$$##                                  **************                                 @$...$$$$$$$$$..                                 @$....$$@@$...                                                                                                                                                                                                                                                                  ",
"                $$$$$$#$$$$$#o#                                 ***************                                $$$$$$#$$$$$$$#o                                 @$....$$$$$$..                                                                                                                                                                                                                                                                  ",
"               $$$@$$$$#####o##                                ****************                                $$$$$$$#######o##                                $$$..$$$$$$$##                                                                                                                                                                                                                                                                  ",
"              @$$$$$$$&&&&&&%%#                               *****************                               $$$@$$$&&&&&&&&%%#                                $$$$$$#$$$$$#o#                                                                                                                                                                                                                                                                 ",
"             $$$$$$$$&&&&&&&%%%                              ******************                              @$$$$$$&&&&&&&&&%%%                               $$$@$$$$#####o##                                                                                                                                                                                                                                                                 ",
"            $$$$$$$$$&&&&&&&%%%                             *******************                             $$$$$$$$&&&&&&&&&%%%                              @$$$$$$$&&&&&&%%#                                                                                                                                                                                                                                                                 ",
"            $@@#$#$$$&&&&&&&%%                              ******************                             $$$$$$$$$&&&&&&&&&%%%                             $$$$$$$$&&&&&&&%%%                                                                                                                                                                                                                                                                 ",
"           $$@@$##$$$%%%%%%%@#                             *******************                             $@@#$#$$$&&&&&&&&&%%                             $$$$$$$$$&&&&&&&%%%                                                                                                                                                                                                                                                                 ",
"           $$$$$$#$@@%%%%%%%##                             *******************                            $$@@$##$$$%%%%%%%%%@#                             $@@#$#$$$&&&&&&&%%                                                                                                                                                                                                                                                                  ",
"           @$$$$$#$@@%%%%%%%XX                             *******************                            @$$$$$#$@@%%%%%%%%%XX                            $$@@$##$$$%%%%%%%@#                                                                                                                                                                                                                                                                  ",
"           $$$####$$$$%%%%%%XX#                            ********************                           $$$$###$$$$%%%%%%%%XX#                           @$$$$$#$@@%%%%%%%XX#                                                                                                                                                                                                                                                                 ",
"            $&$&#X#$&$&%%%%##%#%                            ********************                           $&$&#X#$&$&%%%%%%##%#%                          $$&$&#X#$&$&%%%%##%#%                                                                                                                                                                                                                                                                ",
"                                                                                                                                                                                                                                                                                                                                                                                                                                                ",
"                                                                                                                                                                                                                                                                                                                                                                                                                                                ",
"                                                                                                                                                                                                                                                                                                                                                                                                                                                ",
"                                                                                                                                                                                                                                                                                                                                                                                                                                                ",
"                                                                                                                                                                                                                                                                                                                                                                                                                                                ",
"                                                                                                                                                                                                                                                                                                                                                                                                                                                ",
"                                                                                                                                                                                                                                                                                                                                                                                                                                                ",
"                                                                                                                                                                                                                                                                                                                                                                                                                                                ",
"                                                                                                                                                                                                                                                                                                                                                                                                                                                ",
"                                                                                                                                                                                                                                                                                                                                                                                                                                                ",
"                                                                                                                                                                                                                                                                                                                                                                                                                                                ",
"                                                                                                                                                                                                                                                                                                                                                                                                                                                ",
"                                                                                                                                                                                                                                                                                                                                                                                                                                                ",
"                                                                                                                                                                                                                                                                                                                                                                                                                                                ",
"                                                                                                                                                                                                                                                                                                                                                                                                                                                ",
"                                                                                                                                                                                                                                                                                                                                                                                                                                                ",
"                                                                                                                                                                                                                                                                                                                                                                                                                                                ",
"                                                                                                                                                                                                                                                                                                                                                                                                                                                ",
"                                                                                                                                                                                                                                                                                                                                                                                                                                                ",
"                                                                                                                                                                                                                                                                                                                                                                                                                                                ",
"                                                                                                                                                                                                                                                                                                                                                                                                                                                ",
"                                                                                                                                                                                                                                                                                                                                                                                                                                                ",
"                                                                                                                                                                                                                                                                                                                                                                                                                                                ",
"                                                                                                                                                                                                                                                                                                                                                                                                                                                ",
"                                                                                                                                                                                                                                                                                                                                                                                                                                                ",
"                                                                                                                                                                                                                                                                                                                                                                                                                                                ",
"                                                                                                                                                                                                                                                                                                                                                                                                                                                ",
"                                                                                                                                                                                                                                                                                                                                                                                                                                                ",
"                                                                                                                                                                                                                                                                                                                                                                                                                                                ",
"                                                                                                                                                                                                                                                                                                                                                                      @                                                                         ",
"                                                                                                                $$$$       ####                                              @@                                                @@                                                @                                  @@                                                                                                                          ",
"                                                                $$$$       ###                                 $....$     #...#                                             @  @                                               @@                                                                                  @  @                                                        @                                                                ",
"                 $$$$     ###                                   $$..$     ##..                                 @.....$$$$$$$...                                        @@@  @  @                                                                          @@        @@                                   @         @  @      @@                                                                                                                 ",
"                $$$..$   ##..#                                 @$....$$@@@@$...                                @$...$$$$$$$$$..                                       @@@@@  @@                             @@@                                          @  @      @@@@                                             @@      @  @                                                                                                                ",
"                @$....$$@@$...                                 @$....$$$$$$$$..                                $$$$$$########oo                              @@@   @@@@@@@@                                @@@@@                                         @  @      @@@@   @@                                                @  @                                                                                                                ",
"                @$....$$$$$$..                                 $$$..$$$$$$$$$##                                $$$$$$&&&&&&&&%%#                            @@@@@@@@@@@@@@@@@   @                          @@@@@   @@@@   @@@                             @@        @@   @@@@                                                @@                                                                                  @                              ",
"                $$$..$$$$$$$##                                 $$$$$$#$$$$$$$#o                                $$@$&&&&&&&&&&%%%%                          @@@@@@@@@@@@@@@@@@@                             @@@@@  @@@@@@ @@@@@                                           @@@@                               @@                                                    @@                                                                            ",
"                $$$$$$#$$$$$#o#                               $$$@$$$$#######o##                               $$$&&&&&&&&&&&%%%%%                         @@@@@@@@@@@@@@@@@@@                         @    @@@   @@@@@@@@@@@@                                @@          @@                                @@                                                   @  @                                                                           ",
"               $$$@$$$$#####o##                              @$$$$$$$&&&&&&&&%%#                              $$$$&&&&&&&&&&&%%%%%                       @ @@@@@@@@@@@@@@@@@@@                                  @@@@@@@@@@@@@                                @@@@                                                  @@@  @@                                       @  @                                                                           ",
"              @$$$$$$$&&&&&&%%#                             $$$$$$$$&&&&&&&&&%%%                             @$$$$&&&&&&&&&&&%%%%%                      @ @ @@@@@@@@@@@@@@@@@@@                                @@@@@@@@@@@@@@ @@@                            @@@@        @@                                       @@@@@ @@                                        @@                                                                            ",
"             $$$$$$$$&&&&&&&%%%                             $$$$$$$$&&&&&&&&&%%%                            $$$#$$$&&&&&&&&&&%%%%                        @   @@@@@@@@@@@@@@@@@@@                               @@@@@@@@@@@@@@@@@@@                            @@     @@@@@@@    @@                                @@@@@                                                                                                                         ",
"            $$$$$$$$$&&&&&&&%%%                            $@@#$#$$$&&&&&&&&&%%%                           $$$$$#$$$%%%%%%%%%@#                               @@@@@@@@@@@@@@@@@@@                              @@@@@@@@@@@@@@@@@@@                       @@         @@@@@@@@   @@@@                    @@         @@@@@           @@                                                                                                            ",
"            $@@#$#$$$&&&&&&&%%                             $@@$##$$$%%%%%%%%%@#                            $@@#$#$$$%%%%%%%%%##                              @@@@@@@@@@@@@@@@@@@@                          @@   @@@@@@@@@@@@@@@@@@                      @  @        @@@@@@@    @@@@                    @@          @@@            @@                                                                                                            ",
"           $$@@$##$$$%%%%%%%@#                            $$$$$$#$@@%%%%%%%%%##                           $$@@$##$$$%%%%%%%%%##                             @@@@@@@@@@@@@@@@@@@@@                         @@@@    @@@@@@@@@@  @@@                       @  @        @@@@@       @@                                                                                                                                                              ",
"           $$$$$$#$@@%%%%%%%##                            @$$$$$#$@@%%%%%%%%%XX                           $$$$$$#$@@%%%%%%%%%##                             @@@@@@@@@@@@@@@@@@@@                          @@@@     @@@@@@@@                              @@          @@@                                                                                                                                                                        ",
"           @$$$$$#$@@%%%%%%%XX                            $$$$$##$$$%%%%%%%%%XX                           @$$$$$#$@@%%%%%%%%%XX                             @@@@@@@@@@@@@@@  @@                            @@        @@@                                                                                                                                                                                                                        ",
"           $$$####$$$$%%%%%%XX#                           $$$####$$$$%%%%%%%%###                          $$$####$$$$%%%%%%%%XX#                             @@@   @@@@@@                                                                                                                                                                                                                                                                       ",
"            $&$&#X#$&$&%%%%##%#%                          $$&$&#X#$&$&%%%%%%##%#%                          $&$&#X#$&$&%%%%%%##%#%                                                                                                                                                                                                                                                                                                               ",
"                                                                                                                                                                                                                                                                                                                                                                                                                                                ",
"                                                                                                                                                                                                                                                                                                                                                                                                                                                ",
"                                                                                                                                                                                                                                                                                                                                                                                                                                                ",
"                                                                                                                                                                                                                                                                                                                                                                                                                                                ",
"                                                                                                                                                                                                                                                                                                                                                                                                                                                ",
"                                                                                                                                                                                                                                                                                                                                                                                                                                                ",
"                                                                                                                                                                                                                                                                                                                                                                                                                                                ",
"                                                                                                                                                                                                                                                                                                                                                                                                                                                ",
"                                                                                                                                                                                                                                                                                                                                                                                                                                                ",
"                                                                                                                                                                                                                                                                                                                                                                                                                                                ",
"                                                                                                                                                                                                                                                                                                                                                                                                                                                ",
"                                                                                                                                                                                                                                                                                                                                                                                                                                                ",
"                                                                                                                                                                                                                                                                                                                                                                                                                                                ",
"                                                                                                                                                                                                                                                                                                                                                                                                                                                ",
"                                                                                                                                                                                                                                                                                                                                                                                                                                                "
};
